; G-Code generated by Simplify3D(R) Version 4.1.2
; Nov 29, 2020 at 2:00:17 PM
; Settings Summary
;   processName,Process1
;   applyToModels,tuning-fork
;   profileName,HBot (modified)
;   profileVersion,2019-10-26 23:38:43
;   baseProfile,Default
;   printMaterial,PETG - SUNLU
;   printQuality,Medium
;   printExtruders,
;   extruderName,Extruder 1
;   extruderToolheadNumber,0
;   extruderDiameter,0.4
;   extruderAutoWidth,1
;   extruderWidth,0.48
;   extrusionMultiplier,1
;   extruderUseRetract,1
;   extruderRetractionDistance,4
;   extruderExtraRestartDistance,0
;   extruderRetractionZLift,0.2
;   extruderRetractionSpeed,3600
;   extruderUseCoasting,1
;   extruderCoastingDistance,0.2
;   extruderUseWipe,1
;   extruderWipeDistance,5
;   primaryExtruder,0
;   layerHeight,0.2
;   topSolidLayers,4
;   bottomSolidLayers,4
;   perimeterOutlines,3
;   printPerimetersInsideOut,1
;   startPointOption,3
;   startPointOriginX,200
;   startPointOriginY,100
;   sequentialIslands,0
;   spiralVaseMode,0
;   firstLayerHeightPercentage,100
;   firstLayerWidthPercentage,100
;   firstLayerUnderspeed,0.5
;   useRaft,0
;   raftExtruder,0
;   raftTopLayers,3
;   raftBaseLayers,2
;   raftOffset,3
;   raftSeparationDistance,0.18
;   raftTopInfill,100
;   aboveRaftSpeedMultiplier,0.3
;   useSkirt,1
;   skirtExtruder,0
;   skirtLayers,1
;   skirtOutlines,5
;   skirtOffset,0
;   usePrimePillar,0
;   primePillarExtruder,999
;   primePillarWidth,12
;   primePillarLocation,7
;   primePillarSpeedMultiplier,1
;   useOozeShield,1
;   oozeShieldExtruder,999
;   oozeShieldOffset,0.9
;   oozeShieldOutlines,2
;   oozeShieldSidewallShape,0
;   oozeShieldSidewallAngle,30
;   oozeShieldSpeedMultiplier,1.5
;   infillExtruder,0
;   internalInfillPattern,Fast Honeycomb
;   externalInfillPattern,Rectilinear
;   infillPercentage,20
;   outlineOverlapPercentage,25
;   infillExtrusionWidthPercentage,100
;   minInfillLength,5
;   infillLayerInterval,1
;   internalInfillAngles,0
;   overlapInternalInfillAngles,0
;   externalInfillAngles,45,-45
;   generateSupport,1
;   supportExtruder,0
;   supportInfillPercentage,25
;   supportExtraInflation,0
;   supportBaseLayers,0
;   denseSupportExtruder,0
;   denseSupportLayers,0
;   denseSupportInfillPercentage,70
;   supportLayerInterval,1
;   supportHorizontalPartOffset,0.3
;   supportUpperSeparationLayers,1
;   supportLowerSeparationLayers,1
;   supportType,0
;   supportGridSpacing,4
;   maxOverhangAngle,25
;   supportAngles,0
;   temperatureName,Extruder 1,Heated Bed
;   temperatureNumber,0,1
;   temperatureSetpointCount,2,1
;   temperatureSetpointLayers,1,2,1
;   temperatureSetpointTemperatures,235,225,85
;   temperatureStabilizeAtStartup,1,1
;   temperatureHeatedBed,0,1
;   fanLayers,1,5,10
;   fanSpeeds,0,5,20
;   blipFanToFullPower,1
;   adjustSpeedForCooling,1
;   minSpeedLayerTime,15
;   minCoolingSpeedSlowdown,20
;   increaseFanForCooling,0
;   minFanLayerTime,45
;   maxCoolingFanSpeed,35
;   increaseFanForBridging,1
;   bridgingFanSpeed,85
;   use5D,1
;   relativeEdistances,0
;   allowEaxisZeroing,1
;   independentExtruderAxes,0
;   includeM10123,0
;   stickySupport,1
;   applyToolheadOffsets,0
;   gcodeXoffset,0
;   gcodeYoffset,0
;   gcodeZoffset,0
;   overrideMachineDefinition,1
;   machineTypeOverride,0
;   strokeXoverride,210
;   strokeYoverride,210
;   strokeZoverride,150
;   originOffsetXoverride,0
;   originOffsetYoverride,0
;   originOffsetZoverride,0
;   homeXdirOverride,-1
;   homeYdirOverride,-1
;   homeZdirOverride,-1
;   flipXoverride,1
;   flipYoverride,-1
;   flipZoverride,1
;   toolheadOffsets,0,0|0,0|0,0|0,0|0,0|0,0
;   overrideFirmwareConfiguration,1
;   firmwareTypeOverride,RepRap (Marlin/Repetier/Sprinter)
;   GPXconfigOverride,r2
;   baudRateOverride,115200
;   overridePrinterModels,0
;   printerModelsOverride
;   startingGcode,G28 ; home all axes,G32 ; run bed.g -- probe bed and enable compensation
;   layerChangeGcode,
;   retractionGcode,
;   toolChangeGcode,
;   endingGcode,M0 ; call stop.g
;   exportFileFormat,gcode
;   celebration,0
;   celebrationSong,Random Song
;   postProcessing,
;   defaultSpeed,3600
;   outlineUnderspeed,0.5
;   solidInfillUnderspeed,0.8
;   supportUnderspeed,0.8
;   rapidXYspeed,18000
;   rapidZspeed,1200
;   minBridgingArea,50
;   bridgingExtraInflation,0
;   bridgingExtrusionMultiplier,0.96
;   bridgingSpeedMultiplier,1
;   useFixedBridgingAngle,0
;   fixedBridgingAngle,0
;   applyBridgingToPerimeters,0
;   filamentDiameters,1.75|1.75|1.75|1.75|1.75|1.75
;   filamentPricesPerKg,46|46|46|46|46|46
;   filamentDensities,1.25|1.25|1.25|1.25|1.25|1.25
;   useMinPrintHeight,0
;   minPrintHeight,20
;   useMaxPrintHeight,0
;   maxPrintHeight,15
;   useDiaphragm,0
;   diaphragmLayerInterval,20
;   robustSlicing,1
;   mergeAllIntoSolid,0
;   onlyRetractWhenCrossingOutline,1
;   retractBetweenLayers,0
;   useRetractionMinTravel,1
;   retractionMinTravel,3
;   retractWhileWiping,1
;   onlyWipeOutlines,1
;   avoidCrossingOutline,1
;   maxMovementDetourFactor,5
;   toolChangeRetractionDistance,12
;   toolChangeExtraRestartDistance,-0.5
;   toolChangeRetractionSpeed,600
;   externalThinWallType,0
;   internalThinWallType,2
;   thinWallAllowedOverlapPercentage,10
;   singleExtrusionMinLength,1
;   singleExtrusionMinPrintingWidthPercentage,50
;   singleExtrusionMaxPrintingWidthPercentage,150
;   singleExtrusionEndpointExtension,0.2
;   horizontalSizeCompensation,-0.1
G90
M82
M106 S0
M140 S85
M190 S85
M104 S235 T0
M109 S235 T0
G28 ; home all axes
G32 ; run bed.g -- probe bed and enable compensation
; process Process1
; layer 1, Z = 0.200
T0
G92 E0.0000
G1 E-4.0000 F3600
; feature skirt
; tool H0.200 W0.480
G1 Z0.200 F1200
G1 X75.990 Y70.027 F18000
G1 E0.0000 F3600
G92 E0.0000
G1 X75.990 Y177.222 E4.2784 F1800
G1 X75.661 Y178.016 E4.3127
G1 X73.964 Y179.713 E4.4085
G1 X73.170 Y180.042 E4.4428
G1 X65.970 Y180.042 E4.7302
G1 X65.176 Y179.713 E4.7645
G1 X63.479 Y178.016 E4.8602
G1 X63.150 Y177.222 E4.8945
G1 X63.150 Y84.122 E8.6104
G1 X61.918 Y84.047 E8.6596
G1 X60.070 Y84.010 E8.7334
G1 X58.222 Y84.047 E8.8072
G1 X56.990 Y84.122 E8.8564
G1 X56.990 Y177.222 E12.5723
G1 X56.661 Y178.016 E12.6066
G1 X54.964 Y179.713 E12.7024
G1 X54.170 Y180.042 E12.7367
G1 X46.970 Y180.042 E13.0241
G1 X46.176 Y179.713 E13.0583
G1 X44.479 Y178.016 E13.1541
G1 X44.150 Y177.222 E13.1884
G1 X44.150 Y70.027 E17.4668
G1 X44.237 Y69.599 E17.4842
G1 X44.705 Y68.500 E17.5319
G1 X44.953 Y68.141 E17.5494
G1 X46.127 Y67.012 E17.6143
G1 X47.272 Y65.701 E17.6838
G1 X48.067 Y64.619 E17.7374
G1 X48.579 Y63.796 E17.7761
G1 X49.053 Y62.914 E17.8161
G1 X49.472 Y62.004 E17.8561
G1 X49.822 Y61.099 E17.8948
G1 X50.573 Y58.602 E17.9989
G1 X50.973 Y58.031 E18.0267
G1 X52.153 Y57.154 E18.0854
G1 X52.153 Y14.482 E19.7885
G1 X52.482 Y13.688 E19.8228
G1 X54.179 Y11.991 E19.9186
G1 X54.973 Y11.662 E19.9529
G1 X65.166 Y11.662 E20.3597
G1 X65.960 Y11.991 E20.3940
G1 X67.657 Y13.688 E20.4898
G1 X67.986 Y14.482 E20.5241
G1 X67.986 Y57.155 E22.2273
G1 X69.164 Y58.030 E22.2858
G1 X69.564 Y58.600 E22.3136
G1 X70.317 Y61.098 E22.4177
G1 X70.667 Y62.004 E22.4565
G1 X71.086 Y62.914 E22.4965
G1 X71.561 Y63.795 E22.5365
G1 X72.072 Y64.619 E22.5752
G1 X72.980 Y65.854 E22.6363
G1 X73.999 Y66.999 E22.6975
G1 X75.187 Y68.141 E22.7633
G1 X75.434 Y68.500 E22.7807
G1 X75.903 Y69.599 E22.8284
G1 X75.990 Y70.027 E22.8458
G1 X75.510 Y70.075 F18000
G92 E0.0000
G1 X75.510 Y177.127 E4.2726 F1800
G1 X75.254 Y177.744 E4.2993
G1 X73.692 Y179.306 E4.3875
G1 X73.074 Y179.562 E4.4142
G1 X66.065 Y179.562 E4.6939
G1 X65.448 Y179.306 E4.7206
G1 X63.886 Y177.744 E4.8088
G1 X63.630 Y177.127 E4.8354
G1 X63.630 Y83.670 E8.5655
G1 X61.937 Y83.568 E8.6332
G1 X60.070 Y83.530 E8.7077
G1 X58.202 Y83.568 E8.7823
G1 X56.510 Y83.670 E8.8500
G1 X56.510 Y177.127 E12.5800
G1 X56.254 Y177.744 E12.6067
G1 X54.692 Y179.306 E12.6949
G1 X54.074 Y179.562 E12.7216
G1 X47.065 Y179.562 E13.0013
G1 X46.448 Y179.306 E13.0280
G1 X44.886 Y177.744 E13.1162
G1 X44.630 Y177.127 E13.1428
G1 X44.630 Y70.075 E17.4155
G1 X44.698 Y69.743 E17.4290
G1 X45.128 Y68.733 E17.4729
G1 X45.320 Y68.453 E17.4864
G1 X46.474 Y67.344 E17.5503
G1 X47.647 Y66.002 E17.6214
G1 X48.465 Y64.888 E17.6766
G1 X48.995 Y64.036 E17.7166
G1 X49.483 Y63.128 E17.7577
G1 X49.914 Y62.191 E17.7989
G1 X50.277 Y61.255 E17.8390
G1 X51.010 Y58.814 E17.9407
G1 X51.322 Y58.370 E17.9623
G1 X52.633 Y57.395 E18.0276
G1 X52.633 Y14.577 E19.7365
G1 X52.889 Y13.960 E19.7632
G1 X54.451 Y12.398 E19.8514
G1 X55.069 Y12.142 E19.8781
G1 X65.071 Y12.142 E20.2773
G1 X65.688 Y12.398 E20.3039
G1 X67.250 Y13.960 E20.3921
G1 X67.506 Y14.577 E20.4188
G1 X67.506 Y57.396 E22.1278
G1 X68.816 Y58.369 E22.1929
G1 X69.127 Y58.812 E22.2145
G1 X69.862 Y61.254 E22.3163
G1 X70.225 Y62.191 E22.3564
G1 X70.656 Y63.128 E22.3976
G1 X71.145 Y64.036 E22.4387
G1 X71.674 Y64.888 E22.4787
G1 X72.606 Y66.156 E22.5415
G1 X73.653 Y67.332 E22.6044
G1 X74.819 Y68.453 E22.6689
G1 X75.012 Y68.732 E22.6825
G1 X75.442 Y69.743 E22.7263
G1 X75.510 Y70.075 E22.7399
G1 X75.030 Y70.124 F18000
G92 E0.0000
G1 X75.030 Y177.031 E4.2669 F1800
G1 X74.847 Y177.472 E4.2860
G1 X73.420 Y178.899 E4.3665
G1 X72.979 Y179.082 E4.3856
G1 X66.161 Y179.082 E4.6577
G1 X65.720 Y178.899 E4.6767
G1 X64.293 Y177.472 E4.7573
G1 X64.110 Y177.031 E4.7764
G1 X64.110 Y83.229 E8.5202
G1 X63.841 Y83.202 E8.5310
G1 X61.957 Y83.088 E8.6063
G1 X60.070 Y83.050 E8.6817
G1 X58.183 Y83.088 E8.7570
G1 X56.299 Y83.202 E8.8323
G1 X56.030 Y83.229 E8.8431
G1 X56.030 Y177.031 E12.5870
G1 X55.847 Y177.472 E12.6060
G1 X54.420 Y178.899 E12.6866
G1 X53.979 Y179.082 E12.7056
G1 X47.161 Y179.082 E12.9778
G1 X46.720 Y178.899 E12.9968
G1 X45.292 Y177.472 E13.0774
G1 X45.110 Y177.031 E13.0964
G1 X45.110 Y70.124 E17.3633
G1 X45.158 Y69.886 E17.3730
G1 X45.551 Y68.965 E17.4130
G1 X45.688 Y68.766 E17.4226
G1 X46.822 Y67.675 E17.4854
G1 X48.022 Y66.302 E17.5582
G1 X48.863 Y65.157 E17.6149
G1 X49.410 Y64.277 E17.6563
G1 X49.913 Y63.343 E17.6986
G1 X50.357 Y62.379 E17.7410
G1 X50.731 Y61.411 E17.7824
G1 X51.448 Y59.026 E17.8818
G1 X51.670 Y58.709 E17.8972
G1 X52.969 Y57.744 E17.9618
G1 X53.113 Y57.696 E17.9679
G1 X53.113 Y14.673 E19.6850
G1 X53.296 Y14.232 E19.7041
G1 X54.723 Y12.805 E19.7846
G1 X55.164 Y12.622 E19.8037
G1 X64.975 Y12.622 E20.1953
G1 X65.416 Y12.805 E20.2143
G1 X66.843 Y14.232 E20.2949
G1 X67.026 Y14.673 E20.3139
G1 X67.026 Y57.696 E22.0311
G1 X67.169 Y57.743 E22.0371
G1 X68.467 Y58.708 E22.1016
G1 X68.690 Y59.025 E22.1171
G1 X69.408 Y61.410 E22.2165
G1 X69.783 Y62.378 E22.2579
G1 X70.227 Y63.343 E22.3003
G1 X70.729 Y64.277 E22.3427
G1 X71.276 Y65.157 E22.3840
G1 X72.233 Y66.459 E22.4485
G1 X73.307 Y67.665 E22.5130
G1 X74.451 Y68.766 E22.5763
G1 X74.589 Y68.965 E22.5860
G1 X74.981 Y69.886 E22.6260
G1 X75.030 Y70.124 E22.6356
G1 X74.550 Y70.172 F18000
G92 E0.0000
G1 X74.550 Y176.936 E4.2612 F1800
G1 X74.440 Y177.200 E4.2726
G1 X73.148 Y178.492 E4.3455
G1 X72.883 Y178.602 E4.3570
G1 X66.256 Y178.602 E4.6215
G1 X65.991 Y178.492 E4.6329
G1 X64.699 Y177.200 E4.7058
G1 X64.590 Y176.936 E4.7173
G1 X64.590 Y82.795 E8.4746
G1 X63.880 Y82.723 E8.5031
G1 X61.976 Y82.608 E8.5792
G1 X60.070 Y82.570 E8.6553
G1 X58.164 Y82.608 E8.7314
G1 X56.260 Y82.723 E8.8075
G1 X55.550 Y82.795 E8.8360
G1 X55.550 Y176.936 E12.5934
G1 X55.440 Y177.200 E12.6048
G1 X54.148 Y178.492 E12.6778
G1 X53.883 Y178.602 E12.6892
G1 X47.256 Y178.602 E12.9537
G1 X46.992 Y178.492 E12.9651
G1 X45.699 Y177.200 E13.0381
G1 X45.590 Y176.936 E13.0495
G1 X45.590 Y70.172 E17.3107
G1 X45.619 Y70.030 E17.3165
G1 X45.973 Y69.198 E17.3526
G1 X46.056 Y69.078 E17.3584
G1 X47.170 Y68.007 E17.4201
G1 X48.396 Y66.603 E17.4945
G1 X49.261 Y65.426 E17.5527
G1 X49.826 Y64.517 E17.5954
G1 X50.343 Y63.557 E17.6390
G1 X50.799 Y62.566 E17.6825
G1 X51.185 Y61.567 E17.7253
G1 X51.885 Y59.238 E17.8223
G1 X52.019 Y59.048 E17.8316
G1 X53.193 Y58.175 E17.8900
G1 X53.414 Y58.102 E17.8993
G1 X53.593 Y58.102 E17.9064
G1 X53.593 Y14.768 E19.6360
G1 X53.703 Y14.504 E19.6474
G1 X54.995 Y13.212 E19.7203
G1 X55.260 Y13.102 E19.7318
G1 X64.880 Y13.102 E20.1157
G1 X65.144 Y13.212 E20.1272
G1 X66.437 Y14.504 E20.2001
G1 X66.546 Y14.768 E20.2115
G1 X66.546 Y58.102 E21.9411
G1 X66.724 Y58.102 E21.9482
G1 X66.945 Y58.175 E21.9574
G1 X68.119 Y59.047 E22.0158
G1 X68.252 Y59.237 E22.0251
G1 X68.954 Y61.566 E22.1221
G1 X69.341 Y62.566 E22.1649
G1 X69.797 Y63.557 E22.2085
G1 X70.314 Y64.517 E22.2520
G1 X70.879 Y65.426 E22.2947
G1 X71.859 Y66.761 E22.3608
G1 X72.961 Y67.999 E22.4270
G1 X74.084 Y69.078 E22.4891
G1 X74.166 Y69.198 E22.4949
G1 X74.521 Y70.030 E22.5310
G1 X74.550 Y70.172 E22.5368
G1 X74.070 Y70.221 F18000
G92 E0.0000
G1 X74.070 Y176.840 E4.2554 F1800
G1 X74.033 Y176.928 E4.2592
G1 X72.876 Y178.085 E4.3245
G1 X72.788 Y178.122 E4.3283
G1 X66.352 Y178.122 E4.5852
G1 X66.263 Y178.085 E4.5890
G1 X65.106 Y176.928 E4.6544
G1 X65.070 Y176.840 E4.6582
G1 X65.070 Y82.360 E8.4291
G1 X63.918 Y82.245 E8.4752
G1 X61.995 Y82.129 E8.5521
G1 X60.070 Y82.090 E8.6290
G1 X58.144 Y82.129 E8.7059
G1 X56.221 Y82.245 E8.7828
G1 X55.070 Y82.360 E8.8289
G1 X55.070 Y176.840 E12.5998
G1 X55.033 Y176.928 E12.6036
G1 X53.876 Y178.085 E12.6690
G1 X53.788 Y178.122 E12.6728
G1 X47.352 Y178.122 E12.9297
G1 X47.263 Y178.085 E12.9335
G1 X46.106 Y176.928 E12.9988
G1 X46.070 Y176.840 E13.0026
G1 X46.070 Y70.221 E17.2580
G1 X46.079 Y70.173 E17.2599
G1 X46.396 Y69.430 E17.2922
G1 X46.423 Y69.390 E17.2941
G1 X47.518 Y68.338 E17.3547
G1 X48.771 Y66.903 E17.4307
G1 X49.659 Y65.696 E17.4906
G1 X50.241 Y64.758 E17.5346
G1 X50.772 Y63.771 E17.5793
G1 X51.241 Y62.753 E17.6241
G1 X51.640 Y61.723 E17.6682
G1 X52.323 Y59.451 E17.7629
G1 X52.367 Y59.387 E17.7659
G1 X53.417 Y58.606 E17.8182
G1 X53.491 Y58.582 E17.8213
G1 X54.073 Y58.582 E17.8445
G1 X54.073 Y14.864 E19.5894
G1 X54.110 Y14.776 E19.5932
G1 X55.267 Y13.619 E19.6585
G1 X55.355 Y13.582 E19.6623
G1 X64.784 Y13.582 E20.0387
G1 X64.873 Y13.619 E20.0425
G1 X66.030 Y14.776 E20.1078
G1 X66.066 Y14.864 E20.1116
G1 X66.066 Y58.582 E21.8565
G1 X66.647 Y58.582 E21.8797
G1 X66.720 Y58.606 E21.8828
G1 X67.771 Y59.387 E21.9350
G1 X67.815 Y59.450 E21.9381
G1 X68.499 Y61.722 E22.0328
G1 X68.898 Y62.753 E22.0769
G1 X69.367 Y63.771 E22.1216
G1 X69.898 Y64.758 E22.1664
G1 X70.481 Y65.696 E22.2104
G1 X71.486 Y67.063 E22.2782
G1 X72.615 Y68.332 E22.3459
G1 X73.716 Y69.390 E22.4069
G1 X73.744 Y69.430 E22.4088
G1 X74.060 Y70.173 E22.4411
G1 X74.070 Y70.221 E22.4430
; feature ooze shield
G1 X73.590 Y70.294 F18000
G92 E0.0000
G1 X73.590 Y176.693 E4.2466 F2700
G1 X72.641 Y177.642 E4.3002
G1 X66.499 Y177.642 E4.5453
G1 X65.550 Y176.693 E4.5989
G1 X65.550 Y81.926 E8.3812
G1 X63.957 Y81.766 E8.4451
G1 X62.015 Y81.649 E8.5228
G1 X60.070 Y81.610 E8.6004
G1 X58.125 Y81.649 E8.6781
G1 X56.183 Y81.766 E8.7557
G1 X54.590 Y81.926 E8.8196
G1 X54.590 Y176.693 E12.6020
G1 X53.641 Y177.642 E12.6555
G1 X47.499 Y177.642 E12.9007
G1 X46.550 Y176.693 E12.9542
G1 X46.550 Y70.294 E17.2008
G1 X46.809 Y69.686 E17.2272
G1 X47.866 Y68.670 E17.2857
G1 X49.146 Y67.204 E17.3634
G1 X50.057 Y65.965 E17.4248
G1 X50.657 Y64.999 E17.4702
G1 X51.202 Y63.985 E17.5161
G1 X51.683 Y62.940 E17.5621
G1 X52.094 Y61.879 E17.6075
G1 X52.748 Y59.702 E17.6982
G1 X53.609 Y59.062 E17.7410
G1 X54.553 Y59.062 E17.7787
G1 X54.553 Y15.011 E19.5369
G1 X55.502 Y14.062 E19.5904
G1 X64.637 Y14.062 E19.9550
G1 X65.586 Y15.011 E20.0086
G1 X65.586 Y59.062 E21.7667
G1 X66.529 Y59.062 E21.8044
G1 X67.389 Y59.701 E21.8472
G1 X68.045 Y61.878 E21.9379
G1 X68.456 Y62.940 E21.9833
G1 X68.937 Y63.985 E22.0293
G1 X69.483 Y64.999 E22.0752
G1 X70.083 Y65.965 E22.1206
G1 X71.112 Y67.365 E22.1900
G1 X72.269 Y68.665 E22.2594
G1 X73.331 Y69.686 E22.3182
G1 X73.590 Y70.294 E22.3446
G1 X73.110 Y70.392 F18000
G92 E0.0000
G1 X73.110 Y176.494 E4.2348 F2700
G1 X72.442 Y177.162 E4.2725
G1 X66.698 Y177.162 E4.5017
G1 X66.030 Y176.494 E4.5394
G1 X66.030 Y81.494 E8.3311
G1 X65.956 Y81.485 E8.3340
G1 X63.995 Y81.287 E8.4127
G1 X62.034 Y81.169 E8.4911
G1 X60.070 Y81.130 E8.5695
G1 X58.106 Y81.169 E8.6479
G1 X56.144 Y81.287 E8.7264
G1 X54.184 Y81.485 E8.8050
