; G-Code generated by Simplify3D(R) Version 4.1.2
; Oct 4, 2020 at 1:58:57 AM
; Settings Summary
;   processName,Process1
;   applyToModels,enclosure-bottom-slim
;   profileName,HBot (modified)
;   profileVersion,2019-10-26 23:38:43
;   baseProfile,Default
;   printMaterial,PETG - SUNLU
;   printQuality,Medium
;   printExtruders,
;   extruderName,Extruder 1
;   extruderToolheadNumber,0
;   extruderDiameter,0.4
;   extruderAutoWidth,1
;   extruderWidth,0.48
;   extrusionMultiplier,1
;   extruderUseRetract,1
;   extruderRetractionDistance,4
;   extruderExtraRestartDistance,0
;   extruderRetractionZLift,0.2
;   extruderRetractionSpeed,3600
;   extruderUseCoasting,1
;   extruderCoastingDistance,0.2
;   extruderUseWipe,1
;   extruderWipeDistance,5
;   primaryExtruder,0
;   layerHeight,0.2
;   topSolidLayers,4
;   bottomSolidLayers,4
;   perimeterOutlines,3
;   printPerimetersInsideOut,1
;   startPointOption,3
;   startPointOriginX,200
;   startPointOriginY,100
;   sequentialIslands,0
;   spiralVaseMode,0
;   firstLayerHeightPercentage,100
;   firstLayerWidthPercentage,100
;   firstLayerUnderspeed,0.5
;   useRaft,0
;   raftExtruder,0
;   raftTopLayers,3
;   raftBaseLayers,2
;   raftOffset,3
;   raftSeparationDistance,0.18
;   raftTopInfill,100
;   aboveRaftSpeedMultiplier,0.3
;   useSkirt,1
;   skirtExtruder,0
;   skirtLayers,1
;   skirtOutlines,15
;   skirtOffset,0
;   usePrimePillar,0
;   primePillarExtruder,999
;   primePillarWidth,12
;   primePillarLocation,7
;   primePillarSpeedMultiplier,1
;   useOozeShield,0
;   oozeShieldExtruder,999
;   oozeShieldOffset,0.9
;   oozeShieldOutlines,2
;   oozeShieldSidewallShape,0
;   oozeShieldSidewallAngle,30
;   oozeShieldSpeedMultiplier,1.5
;   infillExtruder,0
;   internalInfillPattern,Fast Honeycomb
;   externalInfillPattern,Rectilinear
;   infillPercentage,20
;   outlineOverlapPercentage,25
;   infillExtrusionWidthPercentage,100
;   minInfillLength,5
;   infillLayerInterval,1
;   internalInfillAngles,0
;   overlapInternalInfillAngles,0
;   externalInfillAngles,45,-45
;   generateSupport,1
;   supportExtruder,0
;   supportInfillPercentage,25
;   supportExtraInflation,0
;   supportBaseLayers,0
;   denseSupportExtruder,0
;   denseSupportLayers,0
;   denseSupportInfillPercentage,70
;   supportLayerInterval,1
;   supportHorizontalPartOffset,0.3
;   supportUpperSeparationLayers,1
;   supportLowerSeparationLayers,1
;   supportType,0
;   supportGridSpacing,4
;   maxOverhangAngle,25
;   supportAngles,0
;   temperatureName,Extruder 1,Heated Bed
;   temperatureNumber,0,1
;   temperatureSetpointCount,2,1
;   temperatureSetpointLayers,1,2,1
;   temperatureSetpointTemperatures,235,225,85
;   temperatureStabilizeAtStartup,1,1
;   temperatureHeatedBed,0,1
;   fanLayers,1,5,10
;   fanSpeeds,0,5,20
;   blipFanToFullPower,1
;   adjustSpeedForCooling,1
;   minSpeedLayerTime,15
;   minCoolingSpeedSlowdown,20
;   increaseFanForCooling,0
;   minFanLayerTime,45
;   maxCoolingFanSpeed,35
;   increaseFanForBridging,1
;   bridgingFanSpeed,85
;   use5D,1
;   relativeEdistances,0
;   allowEaxisZeroing,1
;   independentExtruderAxes,0
;   includeM10123,0
;   stickySupport,1
;   applyToolheadOffsets,0
;   gcodeXoffset,0
;   gcodeYoffset,0
;   gcodeZoffset,0
;   overrideMachineDefinition,1
;   machineTypeOverride,0
;   strokeXoverride,210
;   strokeYoverride,210
;   strokeZoverride,150
;   originOffsetXoverride,0
;   originOffsetYoverride,0
;   originOffsetZoverride,0
;   homeXdirOverride,-1
;   homeYdirOverride,-1
;   homeZdirOverride,-1
;   flipXoverride,1
;   flipYoverride,-1
;   flipZoverride,1
;   toolheadOffsets,0,0|0,0|0,0|0,0|0,0|0,0
;   overrideFirmwareConfiguration,1
;   firmwareTypeOverride,RepRap (Marlin/Repetier/Sprinter)
;   GPXconfigOverride,r2
;   baudRateOverride,115200
;   overridePrinterModels,0
;   printerModelsOverride
;   startingGcode,G28 ; home all axes,G32 ; run bed.g -- probe bed and enable compensation
;   layerChangeGcode,
;   retractionGcode,
;   toolChangeGcode,
;   endingGcode,M0 ; call stop.g
;   exportFileFormat,gcode
;   celebration,0
;   celebrationSong,Random Song
;   postProcessing,
;   defaultSpeed,3600
;   outlineUnderspeed,0.5
;   solidInfillUnderspeed,0.8
;   supportUnderspeed,0.8
;   rapidXYspeed,18000
;   rapidZspeed,1200
;   minBridgingArea,50
;   bridgingExtraInflation,0
;   bridgingExtrusionMultiplier,0.96
;   bridgingSpeedMultiplier,1
;   useFixedBridgingAngle,0
;   fixedBridgingAngle,0
;   applyBridgingToPerimeters,0
;   filamentDiameters,1.75|1.75|1.75|1.75|1.75|1.75
;   filamentPricesPerKg,46|46|46|46|46|46
;   filamentDensities,1.25|1.25|1.25|1.25|1.25|1.25
;   useMinPrintHeight,0
;   minPrintHeight,20
;   useMaxPrintHeight,0
;   maxPrintHeight,15
;   useDiaphragm,0
;   diaphragmLayerInterval,20
;   robustSlicing,1
;   mergeAllIntoSolid,0
;   onlyRetractWhenCrossingOutline,1
;   retractBetweenLayers,0
;   useRetractionMinTravel,1
;   retractionMinTravel,3
;   retractWhileWiping,1
;   onlyWipeOutlines,1
;   avoidCrossingOutline,1
;   maxMovementDetourFactor,5
;   toolChangeRetractionDistance,12
;   toolChangeExtraRestartDistance,-0.5
;   toolChangeRetractionSpeed,600
;   externalThinWallType,0
;   internalThinWallType,2
;   thinWallAllowedOverlapPercentage,10
;   singleExtrusionMinLength,1
;   singleExtrusionMinPrintingWidthPercentage,50
;   singleExtrusionMaxPrintingWidthPercentage,150
;   singleExtrusionEndpointExtension,0.2
;   horizontalSizeCompensation,-0.1
G90
M82
M106 S0
M140 S85
M190 S85
M104 S235 T0
M109 S235 T0
G28 ; home all axes
G32 ; run bed.g -- probe bed and enable compensation
; process Process1
; layer 1, Z = 0.200
T0
G92 E0.0000
G1 E-4.0000 F3600
; feature skirt
; tool H0.200 W0.480
G1 Z0.200 F1200
G1 X153.460 Y33.385 F18000
G1 E0.0000 F3600
G92 E0.0000
G1 X153.449 Y169.383 E5.4280 F1800
G1 X153.419 Y169.837 E5.4461
G1 X153.277 Y170.922 E5.4898
G1 X153.188 Y171.369 E5.5080
G1 X152.918 Y172.376 E5.5496
G1 X152.813 Y172.701 E5.5633
G1 X152.581 Y173.319 E5.5896
G1 X152.445 Y173.632 E5.6032
G1 X152.009 Y174.516 E5.6426
G1 X151.843 Y174.815 E5.6562
G1 X151.494 Y175.376 E5.6826
G1 X151.299 Y175.657 E5.6962
G1 X150.702 Y176.435 E5.7353
G1 X150.481 Y176.695 E5.7490
G1 X150.028 Y177.180 E5.7755
G1 X149.782 Y177.417 E5.7891
G1 X149.045 Y178.064 E5.8282
G1 X148.778 Y178.276 E5.8419
G1 X148.239 Y178.662 E5.8683
G1 X147.952 Y178.848 E5.8820
G1 X147.099 Y179.340 E5.9213
G1 X146.796 Y179.496 E5.9349
G1 X146.192 Y179.770 E5.9613
G1 X145.874 Y179.895 E5.9750
G1 X144.942 Y180.211 E6.0143
G1 X144.614 Y180.305 E6.0279
G1 X143.970 Y180.455 E6.0543
G1 X143.633 Y180.517 E6.0679
G1 X142.659 Y180.645 E6.1072
G1 X142.318 Y180.673 E6.1208
G1 X141.765 Y180.691 E6.1429
G1 X141.651 Y180.692 E6.1474
G1 X67.850 Y180.682 E9.0930
G1 X67.396 Y180.652 E9.1112
G1 X66.366 Y180.517 E9.1526
G1 X66.030 Y180.455 E9.1663
G1 X65.386 Y180.305 E9.1926
G1 X65.057 Y180.211 E9.2063
G1 X64.126 Y179.895 E9.2455
G1 X63.808 Y179.770 E9.2592
G1 X63.205 Y179.497 E9.2856
G1 X62.901 Y179.341 E9.2992
G1 X62.050 Y178.849 E9.3385
G1 X61.763 Y178.664 E9.3521
G1 X61.269 Y178.310 E9.3763
G1 X61.089 Y178.171 E9.3854
G1 X60.622 Y177.788 E9.4095
G1 X60.369 Y177.559 E9.4232
G1 X59.633 Y176.823 E9.4647
G1 X59.333 Y176.481 E9.4829
G1 X58.701 Y175.657 E9.5243
G1 X58.506 Y175.376 E9.5379
G1 X58.156 Y174.813 E9.5644
G1 X57.990 Y174.514 E9.5781
G1 X57.554 Y173.630 E9.6174
G1 X57.419 Y173.317 E9.6310
G1 X57.205 Y172.751 E9.6552
G1 X57.132 Y172.535 E9.6643
G1 X56.957 Y171.959 E9.6883
G1 X56.874 Y171.627 E9.7019
G1 X56.671 Y170.606 E9.7435
G1 X56.612 Y170.154 E9.7617
G1 X56.548 Y169.173 E9.8009
G1 X56.540 Y168.946 E9.8100
G1 X56.540 Y105.574 E12.3393
G1 X57.600 Y103.016 E12.4498
G1 X57.820 Y102.796 E12.4622
G1 X57.820 Y98.539 E12.6321
G1 X57.600 Y98.318 E12.6446
G1 X56.540 Y95.760 E12.7551
G1 X56.547 Y33.384 E15.2447
G1 X60.624 Y29.307 E15.4748
G1 X149.383 Y29.307 E19.0174
G1 X153.460 Y33.385 E19.2475
G1 X152.980 Y33.584 F18000
G92 E0.0000
G1 X152.969 Y169.367 E5.4194 F1800
G1 X152.941 Y169.790 E5.4363
G1 X152.803 Y170.844 E5.4788
G1 X152.720 Y171.260 E5.4957
G1 X152.457 Y172.240 E5.5362
G1 X152.360 Y172.543 E5.5489
G1 X152.136 Y173.139 E5.5743
G1 X152.009 Y173.430 E5.5870
G1 X151.584 Y174.293 E5.6254
G1 X151.429 Y174.571 E5.6381
G1 X151.092 Y175.113 E5.6635
G1 X150.911 Y175.374 E5.6762
G1 X150.329 Y176.133 E5.7144
G1 X150.123 Y176.376 E5.7271
G1 X149.686 Y176.843 E5.7526
G1 X149.457 Y177.064 E5.7653
G1 X148.737 Y177.695 E5.8035
G1 X148.488 Y177.893 E5.8162
G1 X147.969 Y178.266 E5.8417
G1 X147.701 Y178.438 E5.8545
G1 X146.869 Y178.918 E5.8928
G1 X146.587 Y179.064 E5.9055
G1 X146.005 Y179.327 E5.9310
G1 X145.709 Y179.444 E5.9437
G1 X144.799 Y179.753 E5.9820
G1 X144.493 Y179.840 E5.9947
G1 X143.872 Y179.985 E6.0202
G1 X143.559 Y180.042 E6.0329
G1 X142.608 Y180.167 E6.0712
G1 X142.291 Y180.193 E6.0839
G1 X141.754 Y180.211 E6.1053
G1 X141.647 Y180.212 E6.1096
G1 X67.866 Y180.202 E9.0543
G1 X67.443 Y180.174 E9.0712
G1 X66.441 Y180.042 E9.1116
G1 X66.128 Y179.985 E9.1243
G1 X65.506 Y179.840 E9.1498
G1 X65.201 Y179.753 E9.1625
G1 X64.291 Y179.444 E9.2008
G1 X63.995 Y179.327 E9.2135
G1 X63.414 Y179.064 E9.2389
G1 X63.131 Y178.919 E9.2516
G1 X62.300 Y178.439 E9.2899
G1 X62.033 Y178.267 E9.3026
G1 X61.555 Y177.925 E9.3261
G1 X61.387 Y177.795 E9.3345
G1 X60.936 Y177.425 E9.3579
G1 X60.700 Y177.211 E9.3706
G1 X59.984 Y176.495 E9.4110
G1 X59.704 Y176.176 E9.4279
G1 X59.089 Y175.374 E9.4682
G1 X58.908 Y175.113 E9.4809
G1 X58.570 Y174.570 E9.5065
G1 X58.415 Y174.291 E9.5192
G1 X57.990 Y173.429 E9.5576
G1 X57.864 Y173.137 E9.5702
G1 X57.657 Y172.589 E9.5936
G1 X57.589 Y172.388 E9.6021
G1 X57.420 Y171.831 E9.6253
G1 X57.343 Y171.522 E9.6380
G1 X57.145 Y170.528 E9.6785
G1 X57.090 Y170.107 E9.6954
G1 X57.027 Y169.150 E9.7337
G1 X57.020 Y168.938 E9.7422
G1 X57.020 Y105.670 E12.2673
G1 X58.007 Y103.288 E12.3702
G1 X58.300 Y102.995 E12.3868
G1 X58.300 Y98.340 E12.5726
G1 X58.006 Y98.047 E12.5891
G1 X57.020 Y95.665 E12.6920
G1 X57.027 Y33.583 E15.1699
G1 X60.823 Y29.787 E15.3841
G1 X149.184 Y29.787 E18.9108
G1 X152.980 Y33.584 E19.1251
G1 X152.500 Y33.782 F18000
G92 E0.0000
G1 X152.489 Y169.351 E5.4108 F1800
G1 X152.464 Y169.743 E5.4265
G1 X152.329 Y170.766 E5.4677
G1 X152.252 Y171.151 E5.4834
G1 X151.997 Y172.104 E5.5228
G1 X151.907 Y172.385 E5.5345
G1 X151.691 Y172.958 E5.5590
G1 X151.574 Y173.229 E5.5707
G1 X151.159 Y174.070 E5.6082
G1 X151.015 Y174.327 E5.6199
G1 X150.691 Y174.849 E5.6444
G1 X150.523 Y175.091 E5.6562
G1 X149.955 Y175.832 E5.6935
G1 X149.765 Y176.056 E5.7052
G1 X149.343 Y176.506 E5.7298
G1 X149.132 Y176.711 E5.7416
G1 X148.430 Y177.327 E5.7788
G1 X148.199 Y177.510 E5.7906
G1 X147.699 Y177.869 E5.8152
G1 X147.451 Y178.028 E5.8269
G1 X146.640 Y178.497 E5.8643
G1 X146.378 Y178.631 E5.8761
G1 X145.817 Y178.885 E5.9006
G1 X145.543 Y178.994 E5.9124
G1 X144.656 Y179.295 E5.9498
G1 X144.373 Y179.376 E5.9615
G1 X143.775 Y179.515 E5.9860
G1 X143.485 Y179.568 E5.9978
G1 X142.557 Y179.690 E6.0352
G1 X142.263 Y179.714 E6.0469
G1 X141.742 Y179.731 E6.0677
G1 X141.644 Y179.732 E6.0717
G1 X67.882 Y179.722 E9.0157
G1 X67.490 Y179.696 E9.0313
G1 X66.515 Y179.568 E9.0706
G1 X66.225 Y179.515 E9.0823
G1 X65.627 Y179.375 E9.1069
G1 X65.344 Y179.295 E9.1186
G1 X64.457 Y178.994 E9.1560
G1 X64.183 Y178.885 E9.1678
G1 X63.623 Y178.632 E9.1923
G1 X63.361 Y178.497 E9.2040
G1 X62.550 Y178.029 E9.2414
G1 X62.303 Y177.870 E9.2532
G1 X61.841 Y177.539 E9.2758
G1 X61.686 Y177.419 E9.2837
G1 X61.249 Y177.061 E9.3062
G1 X61.031 Y176.863 E9.3179
G1 X60.334 Y176.167 E9.3573
G1 X60.075 Y175.872 E9.3729
G1 X59.477 Y175.091 E9.4122
G1 X59.309 Y174.849 E9.4239
G1 X58.984 Y174.326 E9.4485
G1 X58.841 Y174.069 E9.4603
G1 X58.426 Y173.227 E9.4977
G1 X58.309 Y172.957 E9.5095
G1 X58.109 Y172.428 E9.5321
G1 X58.046 Y172.242 E9.5399
G1 X57.883 Y171.703 E9.5624
G1 X57.811 Y171.417 E9.5741
G1 X57.619 Y170.450 E9.6135
G1 X57.568 Y170.060 E9.6292
G1 X57.507 Y169.126 E9.6665
G1 X57.500 Y168.930 E9.6744
G1 X57.500 Y105.765 E12.1954
G1 X58.413 Y103.560 E12.2907
G1 X58.780 Y103.194 E12.3114
G1 X58.780 Y98.141 E12.5130
G1 X58.413 Y97.775 E12.5337
G1 X57.500 Y95.569 E12.6290
G1 X57.507 Y33.782 E15.0951
G1 X61.022 Y30.267 E15.2934
G1 X148.985 Y30.267 E18.8042
G1 X152.500 Y33.782 E19.0026
G1 X152.020 Y33.981 F18000
G92 E0.0000
G1 X152.009 Y169.335 E5.4023 F1800
G1 X151.986 Y169.696 E5.4167
G1 X151.855 Y170.688 E5.4566
G1 X151.785 Y171.042 E5.4710
G1 X151.536 Y171.969 E5.5093
G1 X151.453 Y172.227 E5.5201
G1 X151.246 Y172.778 E5.5437
G1 X151.138 Y173.027 E5.5545
G1 X150.734 Y173.847 E5.5910
G1 X150.602 Y174.084 E5.6018
G1 X150.290 Y174.586 E5.6254
G1 X150.135 Y174.808 E5.6362
G1 X149.581 Y175.530 E5.6725
G1 X149.406 Y175.737 E5.6833
G1 X149.001 Y176.170 E5.7070
G1 X148.806 Y176.358 E5.7178
G1 X148.122 Y176.958 E5.7541
G1 X147.910 Y177.127 E5.7649
G1 X147.429 Y177.472 E5.7886
G1 X147.201 Y177.619 E5.7994
G1 X146.410 Y178.075 E5.8358
G1 X146.169 Y178.199 E5.8467
G1 X145.630 Y178.443 E5.8703
G1 X145.378 Y178.543 E5.8811
G1 X144.513 Y178.836 E5.9175
G1 X144.253 Y178.911 E5.9284
G1 X143.677 Y179.045 E5.9519
G1 X143.411 Y179.093 E5.9628
G1 X142.506 Y179.212 E5.9992
G1 X142.236 Y179.235 E6.0100
G1 X141.731 Y179.251 E6.0302
G1 X141.640 Y179.252 E6.0338
G1 X67.898 Y179.242 E8.9770
G1 X67.538 Y179.218 E8.9914
G1 X66.589 Y179.093 E9.0296
G1 X66.323 Y179.045 E9.0404
G1 X65.747 Y178.911 E9.0640
G1 X65.487 Y178.836 E9.0748
G1 X64.622 Y178.543 E9.1112
G1 X64.370 Y178.443 E9.1220
G1 X63.832 Y178.199 E9.1456
G1 X63.591 Y178.076 E9.1564
G1 X62.800 Y177.619 E9.1929
G1 X62.573 Y177.473 E9.2037
G1 X62.127 Y177.154 E9.2255
G1 X61.984 Y177.043 E9.2328
G1 X61.563 Y176.698 E9.2545
G1 X61.362 Y176.516 E9.2653
G1 X60.685 Y175.839 E9.3035
G1 X60.447 Y175.567 E9.3180
G1 X59.865 Y174.808 E9.3561
G1 X59.710 Y174.585 E9.3669
G1 X59.398 Y174.083 E9.3906
G1 X59.266 Y173.846 E9.4014
G1 X58.861 Y173.026 E9.4379
G1 X58.754 Y172.777 E9.4487
G1 X58.562 Y172.266 E9.4705
G1 X58.504 Y172.095 E9.4777
G1 X58.346 Y171.574 E9.4994
G1 X58.280 Y171.311 E9.5102
G1 X58.093 Y170.371 E9.5485
G1 X58.046 Y170.013 E9.5629
G1 X57.986 Y169.103 E9.5993
G1 X57.980 Y168.922 E9.6065
G1 X57.980 Y105.861 E12.1235
G1 X58.820 Y103.832 E12.2111
G1 X59.260 Y103.392 E12.2359
G1 X59.260 Y97.942 E12.4534
G1 X58.820 Y97.503 E12.4783
G1 X57.980 Y95.474 E12.5659
G1 X57.987 Y33.980 E15.0202
G1 X61.220 Y30.747 E15.2027
G1 X148.787 Y30.747 E18.6977
G1 X152.020 Y33.981 E18.8802
G1 X151.540 Y34.180 F18000
G92 E0.0000
G1 X151.529 Y169.319 E5.3937 F1800
G1 X151.508 Y169.648 E5.4069
G1 X151.381 Y170.609 E5.4456
G1 X151.317 Y170.933 E5.4587
G1 X151.076 Y171.833 E5.4959
G1 X151.000 Y172.068 E5.5058
G1 X150.800 Y172.598 E5.5284
G1 X150.702 Y172.825 E5.5382
G1 X150.308 Y173.624 E5.5738
G1 X150.188 Y173.840 E5.5837
G1 X149.888 Y174.322 E5.6063
G1 X149.747 Y174.526 E5.6162
G1 X149.208 Y175.229 E5.6516
G1 X149.048 Y175.418 E5.6614
G1 X148.659 Y175.833 E5.6842
G1 X148.481 Y176.005 E5.6940
G1 X147.814 Y176.590 E5.7294
G1 X147.620 Y176.744 E5.7393
G1 X147.158 Y177.075 E5.7620
G1 X146.950 Y177.209 E5.7719
G1 X146.180 Y177.654 E5.8074
G1 X145.960 Y177.767 E5.8172
G1 X145.443 Y178.001 E5.8399
G1 X145.212 Y178.092 E5.8498
G1 X144.370 Y178.378 E5.8853
G1 X144.132 Y178.446 E5.8952
G1 X143.580 Y178.575 E5.9178
G1 X143.336 Y178.619 E5.9277
G1 X142.455 Y178.735 E5.9632
G1 X142.209 Y178.755 E5.9730
G1 X141.719 Y178.771 E5.9926
G1 X141.636 Y178.772 E5.9959
G1 X67.914 Y178.762 E8.9383
G1 X67.585 Y178.740 E8.9515
G1 X66.664 Y178.619 E8.9886
G1 X66.420 Y178.575 E8.9984
G1 X65.868 Y178.446 E9.0211
G1 X65.630 Y178.378 E9.0310
G1 X64.788 Y178.092 E9.0664
G1 X64.557 Y178.001 E9.0763
G1 X64.041 Y177.767 E9.0990
G1 X63.820 Y177.654 E9.1089
G1 X63.051 Y177.210 E9.1443
G1 X62.843 Y177.076 E9.1542
G1 X62.414 Y176.768 E9.1753
G1 X62.283 Y176.667 E9.1819
G1 X61.876 Y176.334 E9.2028
G1 X61.693 Y176.168 E9.2127
G1 X61.035 Y175.510 E9.2498
G1 X60.818 Y175.262 E9.2630
G1 X60.253 Y174.525 E9.3001
G1 X60.112 Y174.322 E9.3099
G1 X59.811 Y173.839 E9.3326
G1 X59.691 Y173.623 E9.3425
G1 X59.297 Y172.824 E9.3781
G1 X59.199 Y172.597 E9.3879
G1 X59.014 Y172.104 E9.4089
