; G-Code generated by Simplify3D(R) Version 4.1.2
; Oct 3, 2020 at 7:41:17 PM
; Settings Summary
;   processName,Process1
;   applyToModels,enclosure-top
;   profileName,HBot (modified)
;   profileVersion,2019-10-26 23:38:43
;   baseProfile,Default
;   printMaterial,PETG - SUNLU
;   printQuality,Medium
;   printExtruders,
;   extruderName,Extruder 1
;   extruderToolheadNumber,0
;   extruderDiameter,0.4
;   extruderAutoWidth,1
;   extruderWidth,0.48
;   extrusionMultiplier,1
;   extruderUseRetract,1
;   extruderRetractionDistance,4
;   extruderExtraRestartDistance,0
;   extruderRetractionZLift,0.2
;   extruderRetractionSpeed,3600
;   extruderUseCoasting,1
;   extruderCoastingDistance,0.2
;   extruderUseWipe,1
;   extruderWipeDistance,5
;   primaryExtruder,0
;   layerHeight,0.24
;   topSolidLayers,3
;   bottomSolidLayers,3
;   perimeterOutlines,3
;   printPerimetersInsideOut,1
;   startPointOption,3
;   startPointOriginX,200
;   startPointOriginY,100
;   sequentialIslands,0
;   spiralVaseMode,0
;   firstLayerHeightPercentage,100
;   firstLayerWidthPercentage,100
;   firstLayerUnderspeed,0.5
;   useRaft,0
;   raftExtruder,0
;   raftTopLayers,3
;   raftBaseLayers,2
;   raftOffset,3
;   raftSeparationDistance,0.18
;   raftTopInfill,100
;   aboveRaftSpeedMultiplier,0.3
;   useSkirt,1
;   skirtExtruder,0
;   skirtLayers,1
;   skirtOutlines,15
;   skirtOffset,0
;   usePrimePillar,0
;   primePillarExtruder,999
;   primePillarWidth,12
;   primePillarLocation,7
;   primePillarSpeedMultiplier,1
;   useOozeShield,0
;   oozeShieldExtruder,999
;   oozeShieldOffset,0.9
;   oozeShieldOutlines,2
;   oozeShieldSidewallShape,0
;   oozeShieldSidewallAngle,30
;   oozeShieldSpeedMultiplier,1.5
;   infillExtruder,0
;   internalInfillPattern,Fast Honeycomb
;   externalInfillPattern,Rectilinear
;   infillPercentage,20
;   outlineOverlapPercentage,25
;   infillExtrusionWidthPercentage,100
;   minInfillLength,5
;   infillLayerInterval,1
;   internalInfillAngles,0
;   overlapInternalInfillAngles,0
;   externalInfillAngles,45,-45
;   generateSupport,1
;   supportExtruder,0
;   supportInfillPercentage,25
;   supportExtraInflation,0
;   supportBaseLayers,0
;   denseSupportExtruder,0
;   denseSupportLayers,0
;   denseSupportInfillPercentage,70
;   supportLayerInterval,1
;   supportHorizontalPartOffset,0.3
;   supportUpperSeparationLayers,1
;   supportLowerSeparationLayers,1
;   supportType,0
;   supportGridSpacing,4
;   maxOverhangAngle,25
;   supportAngles,0
;   temperatureName,Extruder 1,Heated Bed
;   temperatureNumber,0,1
;   temperatureSetpointCount,2,1
;   temperatureSetpointLayers,1,2,1
;   temperatureSetpointTemperatures,235,225,85
;   temperatureStabilizeAtStartup,1,1
;   temperatureHeatedBed,0,1
;   fanLayers,1,5,10
;   fanSpeeds,0,5,20
;   blipFanToFullPower,1
;   adjustSpeedForCooling,1
;   minSpeedLayerTime,15
;   minCoolingSpeedSlowdown,20
;   increaseFanForCooling,0
;   minFanLayerTime,45
;   maxCoolingFanSpeed,35
;   increaseFanForBridging,1
;   bridgingFanSpeed,85
;   use5D,1
;   relativeEdistances,0
;   allowEaxisZeroing,1
;   independentExtruderAxes,0
;   includeM10123,0
;   stickySupport,1
;   applyToolheadOffsets,0
;   gcodeXoffset,0
;   gcodeYoffset,0
;   gcodeZoffset,0
;   overrideMachineDefinition,1
;   machineTypeOverride,0
;   strokeXoverride,210
;   strokeYoverride,210
;   strokeZoverride,150
;   originOffsetXoverride,0
;   originOffsetYoverride,0
;   originOffsetZoverride,0
;   homeXdirOverride,-1
;   homeYdirOverride,-1
;   homeZdirOverride,-1
;   flipXoverride,1
;   flipYoverride,-1
;   flipZoverride,1
;   toolheadOffsets,0,0|0,0|0,0|0,0|0,0|0,0
;   overrideFirmwareConfiguration,1
;   firmwareTypeOverride,RepRap (Marlin/Repetier/Sprinter)
;   GPXconfigOverride,r2
;   baudRateOverride,115200
;   overridePrinterModels,0
;   printerModelsOverride
;   startingGcode,G28 ; home all axes,G32 ; run bed.g -- probe bed and enable compensation
;   layerChangeGcode,
;   retractionGcode,
;   toolChangeGcode,
;   endingGcode,M0 ; call stop.g
;   exportFileFormat,gcode
;   celebration,0
;   celebrationSong,Random Song
;   postProcessing,
;   defaultSpeed,3600
;   outlineUnderspeed,0.5
;   solidInfillUnderspeed,0.8
;   supportUnderspeed,0.8
;   rapidXYspeed,18000
;   rapidZspeed,1200
;   minBridgingArea,50
;   bridgingExtraInflation,0
;   bridgingExtrusionMultiplier,0.96
;   bridgingSpeedMultiplier,1
;   useFixedBridgingAngle,0
;   fixedBridgingAngle,0
;   applyBridgingToPerimeters,0
;   filamentDiameters,1.75|1.75|1.75|1.75|1.75|1.75
;   filamentPricesPerKg,46|46|46|46|46|46
;   filamentDensities,1.25|1.25|1.25|1.25|1.25|1.25
;   useMinPrintHeight,0
;   minPrintHeight,20
;   useMaxPrintHeight,0
;   maxPrintHeight,15
;   useDiaphragm,0
;   diaphragmLayerInterval,20
;   robustSlicing,1
;   mergeAllIntoSolid,0
;   onlyRetractWhenCrossingOutline,1
;   retractBetweenLayers,0
;   useRetractionMinTravel,1
;   retractionMinTravel,3
;   retractWhileWiping,1
;   onlyWipeOutlines,1
;   avoidCrossingOutline,1
;   maxMovementDetourFactor,5
;   toolChangeRetractionDistance,12
;   toolChangeExtraRestartDistance,-0.5
;   toolChangeRetractionSpeed,600
;   externalThinWallType,0
;   internalThinWallType,2
;   thinWallAllowedOverlapPercentage,10
;   singleExtrusionMinLength,1
;   singleExtrusionMinPrintingWidthPercentage,50
;   singleExtrusionMaxPrintingWidthPercentage,150
;   singleExtrusionEndpointExtension,0.2
;   horizontalSizeCompensation,-0.1
G90
M82
M106 S0
M140 S85
M190 S85
M104 S235 T0
M109 S235 T0
G28 ; home all axes
G32 ; run bed.g -- probe bed and enable compensation
; process Process1
; layer 1, Z = 0.240
T0
G92 E0.0000
G1 E-4.0000 F3600
; feature skirt
; tool H0.240 W0.480
G1 Z0.240 F1200
G1 X153.449 Y40.617 F18000
G1 E0.0000 F3600
G92 E0.0000
G1 X153.460 Y176.615 E6.5136 F1800
G1 X149.383 Y180.692 E6.7897
G1 X60.618 Y180.692 E11.0411
G1 X56.541 Y176.616 E11.3173
G1 X56.540 Y114.739 E14.2808
G1 X57.600 Y112.181 E14.4134
G1 X57.820 Y111.961 E14.4283
G1 X57.820 Y106.704 E14.6801
G1 X57.600 Y106.484 E14.6950
G1 X56.540 Y103.926 E14.8276
G1 X56.540 Y41.116 E17.8359
G1 X56.542 Y41.002 E17.8413
G1 X56.560 Y40.449 E17.8678
G1 X56.588 Y40.109 E17.8842
G1 X56.716 Y39.133 E17.9313
G1 X56.777 Y38.797 E17.9477
G1 X56.927 Y38.154 E17.9793
G1 X57.021 Y37.826 E17.9957
G1 X57.356 Y36.839 E18.0456
G1 X57.530 Y36.418 E18.0674
G1 X57.990 Y35.485 E18.1172
G1 X58.157 Y35.186 E18.1336
G1 X58.507 Y34.623 E18.1653
G1 X58.701 Y34.342 E18.1817
G1 X59.333 Y33.519 E18.2314
G1 X59.633 Y33.176 E18.2532
G1 X60.368 Y32.442 E18.3030
G1 X60.621 Y32.212 E18.3194
G1 X61.139 Y31.787 E18.3514
G1 X61.414 Y31.584 E18.3678
G1 X62.273 Y31.010 E18.4173
G1 X62.667 Y30.783 E18.4391
G1 X63.599 Y30.323 E18.4889
G1 X63.913 Y30.187 E18.5053
G1 X64.531 Y29.954 E18.5369
G1 X64.856 Y29.850 E18.5532
G1 X65.805 Y29.595 E18.6003
G1 X66.140 Y29.523 E18.6167
G1 X66.797 Y29.414 E18.6486
G1 X67.136 Y29.375 E18.6649
G1 X68.064 Y29.315 E18.7095
G1 X68.292 Y29.307 E18.7204
G1 X142.150 Y29.318 E22.2578
G1 X142.604 Y29.348 E22.2796
G1 X143.632 Y29.483 E22.3292
G1 X143.969 Y29.544 E22.3456
G1 X144.615 Y29.695 E22.3774
G1 X144.943 Y29.789 E22.3938
G1 X145.928 Y30.123 E22.4436
G1 X146.349 Y30.297 E22.4654
G1 X147.283 Y30.758 E22.5153
G1 X147.581 Y30.924 E22.5316
G1 X148.090 Y31.241 E22.5604
G1 X148.280 Y31.367 E22.5713
G1 X148.774 Y31.721 E22.6004
G1 X149.042 Y31.933 E22.6168
G1 X149.784 Y32.584 E22.6640
G1 X150.029 Y32.822 E22.6804
G1 X150.481 Y33.304 E22.7120
G1 X150.702 Y33.564 E22.7284
G1 X151.299 Y34.342 E22.7753
G1 X151.494 Y34.623 E22.7917
G1 X151.843 Y35.185 E22.8234
G1 X152.009 Y35.484 E22.8398
G1 X152.446 Y36.370 E22.8871
G1 X152.582 Y36.683 E22.9034
G1 X152.813 Y37.299 E22.9350
G1 X152.918 Y37.625 E22.9513
G1 X153.188 Y38.631 E23.0012
G1 X153.277 Y39.077 E23.0230
G1 X153.419 Y40.163 E23.0755
G1 X153.449 Y40.617 E23.0973
G1 X152.969 Y40.633 F18000
G92 E0.0000
G1 X152.980 Y176.416 E6.5033 F1800
G1 X149.184 Y180.212 E6.7604
G1 X60.817 Y180.212 E10.9927
G1 X57.021 Y176.417 E11.2498
G1 X57.020 Y114.835 E14.1993
G1 X58.007 Y112.453 E14.3227
G1 X58.300 Y112.160 E14.3426
G1 X58.300 Y106.505 E14.6134
G1 X58.007 Y106.212 E14.6333
G1 X57.020 Y103.830 E14.7568
G1 X57.020 Y41.120 E17.7603
G1 X57.022 Y41.014 E17.7654
G1 X57.039 Y40.477 E17.7911
G1 X57.065 Y40.160 E17.8063
G1 X57.190 Y39.208 E17.8523
G1 X57.247 Y38.895 E17.8675
G1 X57.392 Y38.275 E17.8980
G1 X57.479 Y37.969 E17.9133
G1 X57.805 Y37.008 E17.9618
G1 X57.967 Y36.617 E17.9821
G1 X58.416 Y35.708 E18.0307
G1 X58.570 Y35.430 E18.0459
G1 X58.908 Y34.887 E18.0765
G1 X59.089 Y34.625 E18.0918
G1 X59.704 Y33.824 E18.1402
G1 X59.984 Y33.505 E18.1605
G1 X60.699 Y32.789 E18.2089
G1 X60.935 Y32.576 E18.2242
G1 X61.434 Y32.166 E18.2551
G1 X61.690 Y31.977 E18.2704
G1 X62.526 Y31.418 E18.3185
G1 X62.893 Y31.206 E18.3388
G1 X63.801 Y30.759 E18.3873
G1 X64.093 Y30.632 E18.4025
G1 X64.689 Y30.408 E18.4330
G1 X64.992 Y30.310 E18.4483
G1 X65.918 Y30.062 E18.4942
G1 X66.230 Y29.994 E18.5095
G1 X66.863 Y29.890 E18.5402
G1 X67.179 Y29.854 E18.5555
G1 X68.087 Y29.794 E18.5990
G1 X68.299 Y29.787 E18.6092
G1 X142.134 Y29.798 E22.1455
G1 X142.557 Y29.826 E22.1658
G1 X143.558 Y29.958 E22.2141
G1 X143.871 Y30.014 E22.2294
G1 X144.494 Y30.160 E22.2600
G1 X144.800 Y30.247 E22.2752
G1 X145.759 Y30.572 E22.3237
G1 X146.151 Y30.735 E22.3441
G1 X147.060 Y31.183 E22.3926
G1 X147.338 Y31.338 E22.4079
G1 X147.831 Y31.644 E22.4356
G1 X148.007 Y31.762 E22.4458
G1 X148.485 Y32.104 E22.4740
G1 X148.735 Y32.302 E22.4892
G1 X149.459 Y32.937 E22.5354
G1 X149.687 Y33.159 E22.5506
G1 X150.122 Y33.623 E22.5811
G1 X150.328 Y33.866 E22.5963
G1 X150.911 Y34.625 E22.6422
G1 X151.092 Y34.887 E22.6574
G1 X151.429 Y35.429 E22.6880
G1 X151.584 Y35.707 E22.7032
G1 X152.010 Y36.571 E22.7494
G1 X152.136 Y36.863 E22.7646
G1 X152.360 Y37.457 E22.7950
G1 X152.458 Y37.760 E22.8103
G1 X152.720 Y38.740 E22.8588
G1 X152.803 Y39.156 E22.8791
G1 X152.941 Y40.210 E22.9301
G1 X152.969 Y40.633 E22.9504
G1 X152.489 Y40.649 F18000
G92 E0.0000
G1 X152.500 Y176.217 E6.4930 F1800
G1 X148.985 Y179.732 E6.7311
G1 X61.016 Y179.732 E10.9444
G1 X57.501 Y176.218 E11.1824
G1 X57.500 Y114.930 E14.1178
G1 X58.413 Y112.725 E14.2321
G1 X58.780 Y112.359 E14.2569
G1 X58.780 Y106.306 E14.5468
G1 X58.413 Y105.940 E14.5716
G1 X57.500 Y103.735 E14.6859
G1 X57.500 Y41.123 E17.6847
G1 X57.502 Y41.025 E17.6894
G1 X57.519 Y40.504 E17.7143
G1 X57.543 Y40.211 E17.7284
G1 X57.665 Y39.282 E17.7733
G1 X57.718 Y38.992 E17.7874
G1 X57.857 Y38.395 E17.8168
G1 X57.938 Y38.112 E17.8309
G1 X58.255 Y37.178 E17.8781
G1 X58.405 Y36.815 E17.8969
G1 X58.841 Y35.930 E17.9442
G1 X58.984 Y35.673 E17.9583
G1 X59.309 Y35.150 E17.9877
G1 X59.477 Y34.908 E18.0019
G1 X60.076 Y34.128 E18.0489
G1 X60.334 Y33.833 E18.0678
G1 X61.030 Y33.137 E18.1149
G1 X61.248 Y32.939 E18.1290
G1 X61.729 Y32.545 E18.1588
G1 X61.966 Y32.370 E18.1729
G1 X62.780 Y31.826 E18.2198
G1 X63.120 Y31.630 E18.2386
G1 X64.003 Y31.194 E18.2857
G1 X64.273 Y31.077 E18.2998
G1 X64.847 Y30.861 E18.3292
G1 X65.128 Y30.771 E18.3433
G1 X66.031 Y30.529 E18.3881
G1 X66.320 Y30.466 E18.4023
G1 X66.930 Y30.365 E18.4319
G1 X67.222 Y30.332 E18.4460
G1 X68.111 Y30.274 E18.4886
G1 X68.307 Y30.267 E18.4980
G1 X142.118 Y30.278 E22.0332
G1 X142.510 Y30.304 E22.0520
G1 X143.483 Y30.432 E22.0990
G1 X143.774 Y30.485 E22.1131
G1 X144.374 Y30.625 E22.1427
G1 X144.657 Y30.705 E22.1567
G1 X145.589 Y31.022 E22.2039
G1 X145.953 Y31.172 E22.2227
G1 X146.837 Y31.608 E22.2700
G1 X147.094 Y31.752 E22.2841
G1 X147.571 Y32.048 E22.3109
G1 X147.734 Y32.157 E22.3203
G1 X148.196 Y32.488 E22.3476
G1 X148.427 Y32.671 E22.3617
G1 X149.133 Y33.290 E22.4067
G1 X149.345 Y33.495 E22.4208
G1 X149.764 Y33.943 E22.4501
G1 X149.954 Y34.167 E22.4643
G1 X150.523 Y34.908 E22.5090
G1 X150.691 Y35.151 E22.5231
G1 X151.016 Y35.673 E22.5525
G1 X151.159 Y35.930 E22.5667
G1 X151.574 Y36.773 E22.6117
G1 X151.691 Y37.043 E22.6258
G1 X151.907 Y37.615 E22.6550
G1 X151.997 Y37.896 E22.6692
G1 X152.252 Y38.849 E22.7164
G1 X152.329 Y39.234 E22.7352
G1 X152.464 Y40.257 E22.7846
G1 X152.489 Y40.649 E22.8034
G1 X152.009 Y40.665 F18000
G92 E0.0000
G1 X152.020 Y176.019 E6.4827 F1800
G1 X148.787 Y179.252 E6.7018
G1 X61.214 Y179.252 E10.8960
G1 X57.981 Y176.019 E11.1150
G1 X57.980 Y115.026 E14.0362
G1 X58.820 Y112.997 E14.1414
G1 X59.260 Y112.557 E14.1712
G1 X59.260 Y106.108 E14.4801
G1 X58.820 Y105.668 E14.5099
G1 X57.980 Y103.639 E14.6151
G1 X57.980 Y41.127 E17.6091
G1 X57.981 Y41.037 E17.6134
G1 X57.998 Y40.532 E17.6376
G1 X58.020 Y40.261 E17.6506
G1 X58.139 Y39.356 E17.6943
G1 X58.188 Y39.090 E17.7073
G1 X58.322 Y38.515 E17.7355
G1 X58.396 Y38.255 E17.7485
G1 X58.704 Y37.347 E17.7944
G1 X58.842 Y37.013 E17.8117
G1 X59.266 Y36.153 E17.8576
G1 X59.398 Y35.917 E17.8706
G1 X59.711 Y35.414 E17.8989
G1 X59.865 Y35.191 E17.9119
G1 X60.447 Y34.433 E17.9577
G1 X60.685 Y34.161 E17.9750
G1 X61.361 Y33.485 E18.0208
G1 X61.562 Y33.303 E18.0338
G1 X62.024 Y32.924 E18.0624
G1 X62.242 Y32.763 E18.0754
G1 X63.033 Y32.234 E18.1210
G1 X63.346 Y32.053 E18.1383
G1 X64.205 Y31.630 E18.1841
G1 X64.453 Y31.522 E18.1971
G1 X65.006 Y31.314 E18.2254
G1 X65.263 Y31.231 E18.2384
G1 X66.144 Y30.995 E18.2820
G1 X66.410 Y30.938 E18.2950
G1 X66.996 Y30.841 E18.3235
G1 X67.265 Y30.810 E18.3365
G1 X68.134 Y30.753 E18.3782
G1 X68.315 Y30.747 E18.3868
G1 X142.103 Y30.758 E21.9209
G1 X142.463 Y30.782 E21.9382
G1 X143.409 Y30.906 E21.9839
G1 X143.676 Y30.955 E21.9969
G1 X144.253 Y31.089 E22.0253
G1 X144.514 Y31.164 E22.0382
G1 X145.420 Y31.471 E22.0841
G1 X145.754 Y31.610 E22.1014
G1 X146.614 Y32.034 E22.1473
G1 X146.851 Y32.165 E22.1603
G1 X147.311 Y32.451 E22.1862
G1 X147.461 Y32.552 E22.1949
G1 X147.907 Y32.871 E22.2212
G1 X148.119 Y33.040 E22.2341
G1 X148.808 Y33.643 E22.2780
G1 X149.002 Y33.832 E22.2910
G1 X149.406 Y34.262 E22.3192
G1 X149.581 Y34.469 E22.3322
G1 X150.135 Y35.191 E22.3758
G1 X150.290 Y35.414 E22.3888
G1 X150.602 Y35.916 E22.4171
G1 X150.734 Y36.153 E22.4301
G1 X151.139 Y36.975 E22.4740
G1 X151.246 Y37.223 E22.4869
G1 X151.453 Y37.774 E22.5151
G1 X151.536 Y38.032 E22.5281
G1 X151.785 Y38.958 E22.5740
G1 X151.855 Y39.312 E22.5913
G1 X151.986 Y40.304 E22.6392
G1 X152.009 Y40.665 E22.6565
G1 X151.529 Y40.681 F18000
G92 E0.0000
G1 X151.540 Y175.820 E6.4724 F1800
G1 X148.588 Y178.772 E6.6724
G1 X61.413 Y178.772 E10.8476
G1 X58.461 Y175.820 E11.0476
G1 X58.460 Y115.121 E13.9547
G1 X59.227 Y113.269 E14.0508
G1 X59.740 Y112.756 E14.0855
G1 X59.740 Y105.909 E14.4134
G1 X59.227 Y105.396 E14.4482
G1 X58.460 Y103.544 E14.5442
G1 X58.460 Y41.131 E17.5335
G1 X58.461 Y41.048 E17.5374
G1 X58.477 Y40.559 E17.5608
G1 X58.497 Y40.312 E17.5727
G1 X58.614 Y39.431 E17.6153
G1 X58.658 Y39.187 E17.6271
G1 X58.786 Y38.636 E17.6543
G1 X58.854 Y38.398 E17.6661
G1 X59.154 Y37.516 E17.7107
G1 X59.280 Y37.211 E17.7265
G1 X59.691 Y36.376 E17.7711
G1 X59.812 Y36.160 E17.7829
G1 X60.112 Y35.678 E17.8102
G1 X60.253 Y35.474 E17.8220
G1 X60.818 Y34.738 E17.8665
G1 X61.035 Y34.490 E17.8823
G1 X61.692 Y33.833 E17.9268
G1 X61.876 Y33.667 E17.9386
G1 X62.319 Y33.303 E17.9661
G1 X62.518 Y33.155 E17.9780
G1 X63.287 Y32.642 E18.0222
G1 X63.573 Y32.477 E18.0380
G1 X64.406 Y32.066 E18.0826
G1 X64.634 Y31.967 E18.0944
G1 X65.164 Y31.768 E18.1215
G1 X65.399 Y31.692 E18.1334
G1 X66.257 Y31.462 E18.1759
G1 X66.500 Y31.409 E18.1878
G1 X67.063 Y31.316 E18.2151
G1 X67.308 Y31.288 E18.2270
G1 X68.157 Y31.233 E18.2677
G1 X68.322 Y31.227 E18.2756
G1 X142.087 Y31.238 E21.8086
G1 X142.415 Y31.260 E21.8243
G1 X143.335 Y31.381 E21.8688
G1 X143.579 Y31.425 E21.8806
G1 X144.133 Y31.554 E21.9079
G1 X144.371 Y31.622 E21.9197
G1 X145.251 Y31.921 E21.9643
G1 X145.556 Y32.047 E21.9801
G1 X146.391 Y32.459 E22.0246
G1 X146.607 Y32.579 E22.0365
G1 X147.051 Y32.855 E22.0615
G1 X147.188 Y32.947 E22.0694
G1 X147.618 Y33.255 E22.0947
G1 X147.812 Y33.408 E22.1066
G1 X148.482 Y33.996 E22.1493
G1 X148.660 Y34.168 E22.1612
G1 X149.047 Y34.582 E22.1883
G1 X149.207 Y34.770 E22.2001
G1 X149.747 Y35.474 E22.2426
G1 X149.888 Y35.678 E22.2545
G1 X150.188 Y36.160 E22.2817
G1 X150.308 Y36.376 E22.2935
G1 X150.703 Y37.176 E22.3362
