; G-Code generated by Simplify3D(R) Version 4.1.2
; Apr 26, 2020 at 7:05:54 PM
; Settings Summary
;   processName,First-Layer
;   applyToModels,griff-v3
;   profileName,HBot - First Layer
;   profileVersion,2020-04-26 00:29:03
;   baseProfile,Default
;   printMaterial,PETG - ERYONE
;   printQuality,Medium
;   printExtruders,
;   extruderName,Extruder 1
;   extruderToolheadNumber,0
;   extruderDiameter,0.4
;   extruderAutoWidth,1
;   extruderWidth,0.48
;   extrusionMultiplier,0.98
;   extruderUseRetract,1
;   extruderRetractionDistance,3
;   extruderExtraRestartDistance,0
;   extruderRetractionZLift,0
;   extruderRetractionSpeed,3600
;   extruderUseCoasting,0
;   extruderCoastingDistance,0.2
;   extruderUseWipe,0
;   extruderWipeDistance,5
;   primaryExtruder,0
;   layerHeight,0.2
;   topSolidLayers,3
;   bottomSolidLayers,3
;   perimeterOutlines,3
;   printPerimetersInsideOut,1
;   startPointOption,3
;   startPointOriginX,200
;   startPointOriginY,100
;   sequentialIslands,0
;   spiralVaseMode,0
;   firstLayerHeightPercentage,100
;   firstLayerWidthPercentage,150
;   firstLayerUnderspeed,1
;   useRaft,0
;   raftExtruder,0
;   raftTopLayers,3
;   raftBaseLayers,2
;   raftOffset,3
;   raftSeparationDistance,0.18
;   raftTopInfill,100
;   aboveRaftSpeedMultiplier,0.3
;   useSkirt,1
;   skirtExtruder,0
;   skirtLayers,1
;   skirtOutlines,8
;   skirtOffset,0
;   usePrimePillar,0
;   primePillarExtruder,999
;   primePillarWidth,12
;   primePillarLocation,7
;   primePillarSpeedMultiplier,1
;   useOozeShield,0
;   oozeShieldExtruder,999
;   oozeShieldOffset,2
;   oozeShieldOutlines,1
;   oozeShieldSidewallShape,1
;   oozeShieldSidewallAngle,30
;   oozeShieldSpeedMultiplier,1
;   infillExtruder,0
;   internalInfillPattern,Rectilinear
;   externalInfillPattern,Rectilinear
;   infillPercentage,20
;   outlineOverlapPercentage,25
;   infillExtrusionWidthPercentage,150
;   minInfillLength,5
;   infillLayerInterval,1
;   internalInfillAngles,45,-45
;   overlapInternalInfillAngles,0
;   externalInfillAngles,45,-45
;   generateSupport,1
;   supportExtruder,0
;   supportInfillPercentage,30
;   supportExtraInflation,0
;   supportBaseLayers,1
;   denseSupportExtruder,0
;   denseSupportLayers,0
;   denseSupportInfillPercentage,70
;   supportLayerInterval,1
;   supportHorizontalPartOffset,0.3
;   supportUpperSeparationLayers,1
;   supportLowerSeparationLayers,1
;   supportType,0
;   supportGridSpacing,4
;   maxOverhangAngle,25
;   supportAngles,0
;   temperatureName,Extruder 1,Heated Bed
;   temperatureNumber,0,1
;   temperatureSetpointCount,1,1
;   temperatureSetpointLayers,1,1
;   temperatureSetpointTemperatures,235,75
;   temperatureStabilizeAtStartup,1,1
;   temperatureHeatedBed,0,1
;   fanLayers,1
;   fanSpeeds,0
;   blipFanToFullPower,1
;   adjustSpeedForCooling,1
;   minSpeedLayerTime,15
;   minCoolingSpeedSlowdown,20
;   increaseFanForCooling,0
;   minFanLayerTime,45
;   maxCoolingFanSpeed,35
;   increaseFanForBridging,0
;   bridgingFanSpeed,80
;   use5D,1
;   relativeEdistances,0
;   allowEaxisZeroing,1
;   independentExtruderAxes,0
;   includeM10123,0
;   stickySupport,1
;   applyToolheadOffsets,0
;   gcodeXoffset,0
;   gcodeYoffset,0
;   gcodeZoffset,0
;   overrideMachineDefinition,1
;   machineTypeOverride,0
;   strokeXoverride,200
;   strokeYoverride,200
;   strokeZoverride,150
;   originOffsetXoverride,0
;   originOffsetYoverride,0
;   originOffsetZoverride,0
;   homeXdirOverride,-1
;   homeYdirOverride,-1
;   homeZdirOverride,-1
;   flipXoverride,1
;   flipYoverride,-1
;   flipZoverride,1
;   toolheadOffsets,0,0|0,0|0,0|0,0|0,0|0,0
;   overrideFirmwareConfiguration,1
;   firmwareTypeOverride,RepRap (Marlin/Repetier/Sprinter)
;   GPXconfigOverride,r2
;   baudRateOverride,115200
;   overridePrinterModels,0
;   printerModelsOverride
;   startingGcode,G28 ; home all axes,G32 ; run bed.g -- probe bed and enable compensation
;   layerChangeGcode,
;   retractionGcode,
;   toolChangeGcode,
;   endingGcode,M0 ; call stop.g
;   exportFileFormat,gcode
;   celebration,0
;   celebrationSong,Random Song
;   postProcessing,
;   defaultSpeed,1800
;   outlineUnderspeed,0.5
;   solidInfillUnderspeed,0.8
;   supportUnderspeed,0.8
;   rapidXYspeed,18000
;   rapidZspeed,1200
;   minBridgingArea,50
;   bridgingExtraInflation,0
;   bridgingExtrusionMultiplier,0.96
;   bridgingSpeedMultiplier,1
;   useFixedBridgingAngle,0
;   fixedBridgingAngle,0
;   applyBridgingToPerimeters,0
;   filamentDiameters,1.75|1.75|1.75|1.75|1.75|1.75
;   filamentPricesPerKg,46|46|46|46|46|46
;   filamentDensities,1.25|1.25|1.25|1.25|1.25|1.25
;   useMinPrintHeight,0
;   minPrintHeight,0
;   useMaxPrintHeight,1
;   maxPrintHeight,0.2
;   useDiaphragm,0
;   diaphragmLayerInterval,20
;   robustSlicing,1
;   mergeAllIntoSolid,0
;   onlyRetractWhenCrossingOutline,1
;   retractBetweenLayers,0
;   useRetractionMinTravel,1
;   retractionMinTravel,3
;   retractWhileWiping,1
;   onlyWipeOutlines,1
;   avoidCrossingOutline,1
;   maxMovementDetourFactor,5
;   toolChangeRetractionDistance,12
;   toolChangeExtraRestartDistance,-0.5
;   toolChangeRetractionSpeed,600
;   externalThinWallType,0
;   internalThinWallType,2
;   thinWallAllowedOverlapPercentage,10
;   singleExtrusionMinLength,1
;   singleExtrusionMinPrintingWidthPercentage,50
;   singleExtrusionMaxPrintingWidthPercentage,200
;   singleExtrusionEndpointExtension,0.2
;   horizontalSizeCompensation,-0.1
G90
M82
M106 S0
M140 S75
M190 S75
M104 S235 T0
M109 S235 T0
G28 ; home all axes
G32 ; run bed.g -- probe bed and enable compensation
; process First-Layer
; layer 1, Z = 0.200
T0
G92 E0.0000
G1 E-3.0000 F3600
; feature skirt
; tool H0.200 W0.720
G1 Z0.200 F1200
G1 X144.800 Y167.137 F18000
G1 E0.0000 F3600
G92 E0.0000
G1 X141.637 Y170.300 E0.2625 F1800
G1 X80.452 Y170.300 E3.8523
G1 X80.363 Y170.298 E3.8574
G1 X78.934 Y170.252 E3.9413
G1 X78.758 Y170.240 E3.9517
G1 X77.284 Y170.095 E4.0386
G1 X77.109 Y170.072 E4.0489
G1 X75.651 Y169.831 E4.1356
G1 X75.478 Y169.797 E4.1460
G1 X74.059 Y169.466 E4.2315
G1 X73.931 Y169.433 E4.2392
G1 X73.181 Y169.219 E4.2850
G1 X73.055 Y169.179 E4.2928
G1 X71.671 Y168.710 E4.3785
G1 X71.505 Y168.647 E4.3889
G1 X70.138 Y168.081 E4.4757
G1 X69.977 Y168.008 E4.4861
G1 X68.671 Y167.364 E4.5715
G1 X68.553 Y167.302 E4.5793
G1 X67.871 Y166.923 E4.6251
G1 X67.756 Y166.856 E4.6329
G1 X66.519 Y166.086 E4.7184
G1 X66.372 Y165.988 E4.7288
G1 X65.168 Y165.125 E4.8157
G1 X65.028 Y165.018 E4.8261
G1 X63.900 Y164.092 E4.9116
G1 X63.800 Y164.006 E4.9194
G1 X63.221 Y163.481 E4.9652
G1 X63.125 Y163.389 E4.9730
G1 X62.111 Y162.376 E5.0571
G1 X62.020 Y162.280 E5.0649
G1 X61.492 Y161.698 E5.1110
G1 X61.406 Y161.598 E5.1188
G1 X60.480 Y160.470 E5.2044
G1 X60.373 Y160.329 E5.2147
G1 X59.513 Y159.130 E5.3013
G1 X59.415 Y158.983 E5.3117
G1 X58.647 Y157.747 E5.3971
G1 X58.579 Y157.633 E5.4048
G1 X58.197 Y156.944 E5.4511
G1 X58.135 Y156.827 E5.4588
G1 X57.491 Y155.521 E5.5442
G1 X57.418 Y155.360 E5.5546
G1 X56.861 Y154.015 E5.6400
G1 X56.813 Y153.891 E5.6478
G1 X56.549 Y153.153 E5.6938
G1 X56.508 Y153.027 E5.7016
G1 X56.085 Y151.633 E5.7871
G1 X56.039 Y151.463 E5.7974
G1 X55.708 Y150.042 E5.8830
G1 X55.681 Y149.913 E5.8908
G1 X55.545 Y149.165 E5.9353
G1 X55.531 Y149.078 E5.9405
G1 X55.419 Y148.324 E5.9852
G1 X55.403 Y148.192 E5.9930
G1 X55.260 Y146.743 E6.0785
G1 X55.248 Y146.566 E6.0889
G1 X55.202 Y145.133 E6.1730
G1 X55.200 Y145.044 E6.1782
G1 X55.211 Y54.281 E11.5034
G1 X55.214 Y54.149 E11.5111
G1 X55.252 Y53.368 E11.5570
G1 X55.262 Y53.235 E11.5648
G1 X55.405 Y51.785 E11.6503
G1 X55.428 Y51.609 E11.6607
G1 X55.669 Y50.151 E11.7474
G1 X55.703 Y49.977 E11.7578
G1 X56.039 Y48.538 E11.8445
G1 X56.085 Y48.367 E11.8549
G1 X56.514 Y46.951 E11.9417
G1 X56.571 Y46.784 E11.9521
G1 X57.084 Y45.422 E12.0375
G1 X57.133 Y45.299 E12.0452
G1 X57.445 Y44.579 E12.0913
G1 X57.501 Y44.459 E12.0990
G1 X58.146 Y43.151 E12.1846
G1 X58.229 Y42.995 E12.1950
G1 X58.969 Y41.715 E12.2817
G1 X59.062 Y41.565 E12.2921
G1 X59.871 Y40.354 E12.3775
G1 X59.947 Y40.245 E12.3853
G1 X60.414 Y39.616 E12.4313
G1 X60.496 Y39.512 E12.4390
G1 X61.421 Y38.384 E12.5246
G1 X61.537 Y38.251 E12.5350
G1 X62.547 Y37.174 E12.6216
G1 X62.672 Y37.049 E12.6320
G1 X63.751 Y36.038 E12.7188
G1 X63.884 Y35.921 E12.7291
G1 X65.011 Y34.996 E12.8147
G1 X65.115 Y34.915 E12.8224
G1 X65.731 Y34.458 E12.8674
G1 X65.803 Y34.407 E12.8726
G1 X66.423 Y33.977 E12.9168
G1 X66.534 Y33.905 E12.9246
G1 X67.754 Y33.146 E13.0089
G1 X67.869 Y33.078 E13.0167
G1 X68.553 Y32.698 E13.0627
G1 X68.670 Y32.636 E13.0704
G1 X69.980 Y31.991 E13.1561
G1 X70.141 Y31.918 E13.1665
G1 X71.506 Y31.352 E13.2532
G1 X71.671 Y31.290 E13.2635
G1 X73.071 Y30.815 E13.3502
G1 X73.240 Y30.764 E13.3606
G1 X74.646 Y30.387 E13.4460
G1 X74.775 Y30.356 E13.4538
G1 X75.543 Y30.190 E13.4999
G1 X75.673 Y30.165 E13.5077
G1 X77.087 Y29.932 E13.5918
G1 X77.218 Y29.913 E13.5995
G1 X77.996 Y29.824 E13.6454
G1 X78.128 Y29.812 E13.6532
G1 X79.562 Y29.718 E13.7376
G1 X79.695 Y29.712 E13.7453
G1 X80.437 Y29.700 E13.7889
G1 X80.482 Y29.700 E13.7915
G1 X141.637 Y29.700 E17.3795
G1 X144.800 Y32.863 E17.6420
G1 X144.800 Y167.137 E25.5199
G1 X144.080 Y166.838 F18000
G92 E0.0000
G1 X141.338 Y169.580 E0.2275 F1800
G1 X80.458 Y169.580 E3.7994
G1 X80.382 Y169.579 E3.8039
G1 X78.969 Y169.532 E3.8868
G1 X78.816 Y169.522 E3.8958
G1 X77.367 Y169.380 E3.9812
G1 X77.215 Y169.360 E3.9902
G1 X75.780 Y169.123 E4.0755
G1 X75.630 Y169.093 E4.0845
G1 X74.231 Y168.767 E4.1688
G1 X74.120 Y168.738 E4.1755
G1 X73.387 Y168.528 E4.2203
G1 X73.277 Y168.494 E4.2270
G1 X71.914 Y168.032 E4.3115
G1 X71.770 Y167.978 E4.3205
G1 X70.424 Y167.420 E4.4059
G1 X70.285 Y167.357 E4.4149
G1 X68.997 Y166.722 E4.4992
G1 X68.895 Y166.668 E4.5059
G1 X68.228 Y166.298 E4.5507
G1 X68.129 Y166.239 E4.5574
G1 X66.909 Y165.481 E4.6417
G1 X66.782 Y165.396 E4.6507
G1 X65.597 Y164.547 E4.7362
G1 X65.475 Y164.454 E4.7452
G1 X64.364 Y163.541 E4.8296
G1 X64.277 Y163.466 E4.8363
G1 X63.711 Y162.953 E4.8811
G1 X63.628 Y162.874 E4.8879
G1 X62.627 Y161.873 E4.9709
G1 X62.547 Y161.790 E4.9777
G1 X62.032 Y161.221 E5.0227
G1 X61.957 Y161.134 E5.0295
G1 X61.044 Y160.022 E5.1138
G1 X60.951 Y159.901 E5.1228
G1 X60.105 Y158.720 E5.2080
G1 X60.020 Y158.593 E5.2170
G1 X59.262 Y157.374 E5.3012
G1 X59.204 Y157.275 E5.3080
G1 X58.830 Y156.603 E5.3531
G1 X58.777 Y156.501 E5.3598
G1 X58.142 Y155.213 E5.4440
G1 X58.079 Y155.074 E5.4530
G1 X57.530 Y153.748 E5.5373
G1 X57.488 Y153.640 E5.5440
G1 X57.230 Y152.919 E5.5890
G1 X57.194 Y152.810 E5.5957
G1 X56.777 Y151.436 E5.6800
G1 X56.738 Y151.288 E5.6889
G1 X56.411 Y149.888 E5.7733
G1 X56.388 Y149.775 E5.7800
G1 X56.255 Y149.042 E5.8237
G1 X56.242 Y148.967 E5.8282
G1 X56.132 Y148.227 E5.8721
G1 X56.118 Y148.113 E5.8788
G1 X55.978 Y146.684 E5.9631
G1 X55.968 Y146.531 E5.9721
G1 X55.921 Y145.115 E6.0552
G1 X55.920 Y145.038 E6.0597
G1 X55.931 Y54.290 E11.3840
G1 X55.934 Y54.176 E11.3907
G1 X55.971 Y53.412 E11.4356
G1 X55.980 Y53.297 E11.4423
G1 X56.120 Y51.867 E11.5266
G1 X56.140 Y51.715 E11.5356
G1 X56.377 Y50.280 E11.6210
G1 X56.407 Y50.130 E11.6300
G1 X56.738 Y48.712 E11.7153
G1 X56.777 Y48.564 E11.7243
G1 X57.200 Y47.172 E11.8097
G1 X57.249 Y47.027 E11.8187
G1 X57.755 Y45.684 E11.9029
G1 X57.798 Y45.577 E11.9096
G1 X58.103 Y44.874 E11.9546
G1 X58.151 Y44.769 E11.9614
G1 X58.786 Y43.480 E12.0457
G1 X58.859 Y43.345 E12.0547
G1 X59.586 Y42.085 E12.1400
G1 X59.667 Y41.955 E12.1490
G1 X60.465 Y40.761 E12.2333
G1 X60.531 Y40.667 E12.2400
G1 X60.987 Y40.052 E12.2850
G1 X61.058 Y39.961 E12.2917
G1 X61.970 Y38.850 E12.3760
G1 X62.071 Y38.735 E12.3850
G1 X63.064 Y37.674 E12.4703
G1 X63.173 Y37.566 E12.4793
G1 X64.235 Y36.571 E12.5647
G1 X64.350 Y36.470 E12.5737
G1 X65.461 Y35.558 E12.6580
G1 X65.551 Y35.488 E12.6647
G1 X66.155 Y35.040 E12.7088
G1 X66.217 Y34.996 E12.7133
G1 X66.826 Y34.574 E12.7567
G1 X66.922 Y34.511 E12.7635
G1 X68.127 Y33.762 E12.8467
G1 X68.226 Y33.703 E12.8535
G1 X68.895 Y33.332 E12.8984
G1 X68.997 Y33.278 E12.9051
G1 X70.287 Y32.642 E12.9895
G1 X70.427 Y32.579 E12.9985
G1 X71.771 Y32.022 E13.0838
G1 X71.914 Y31.968 E13.0928
G1 X73.291 Y31.501 E13.1782
G1 X73.438 Y31.456 E13.1871
G1 X74.824 Y31.085 E13.2714
G1 X74.936 Y31.058 E13.2781
G1 X75.686 Y30.896 E13.3232
G1 X75.799 Y30.874 E13.3299
G1 X77.196 Y30.644 E13.4129
G1 X77.310 Y30.628 E13.4197
G1 X78.070 Y30.540 E13.4646
G1 X78.184 Y30.530 E13.4713
G1 X79.600 Y30.437 E13.5546
G1 X79.715 Y30.432 E13.5613
G1 X80.446 Y30.420 E13.6042
G1 X80.484 Y30.420 E13.6064
G1 X141.338 Y30.420 E17.1768
G1 X144.080 Y33.161 E17.4043
G1 X144.080 Y166.838 E25.2472
G1 X143.360 Y166.540 F18000
G92 E0.0000
G1 X141.040 Y168.860 E0.1925 F1800
G1 X80.465 Y168.860 E3.7465
G1 X80.400 Y168.859 E3.7503
G1 X79.005 Y168.813 E3.8322
G1 X78.875 Y168.805 E3.8398
G1 X77.449 Y168.664 E3.9239
G1 X77.321 Y168.647 E3.9315
G1 X75.909 Y168.414 E4.0155
G1 X75.782 Y168.389 E4.0231
G1 X74.403 Y168.068 E4.1061
G1 X74.309 Y168.043 E4.1118
G1 X73.592 Y167.838 E4.1555
G1 X73.499 Y167.810 E4.1612
G1 X72.156 Y167.354 E4.2445
G1 X72.035 Y167.308 E4.2521
G1 X70.711 Y166.760 E4.3361
G1 X70.593 Y166.706 E4.3437
G1 X69.324 Y166.080 E4.4268
G1 X69.237 Y166.035 E4.4325
G1 X68.585 Y165.672 E4.4763
G1 X68.501 Y165.623 E4.4820
G1 X67.299 Y164.876 E4.5650
G1 X67.191 Y164.804 E4.5727
G1 X66.026 Y163.968 E4.6568
G1 X65.923 Y163.890 E4.6644
G1 X64.828 Y162.991 E4.7475
G1 X64.754 Y162.927 E4.7532
G1 X64.201 Y162.426 E4.7970
G1 X64.131 Y162.359 E4.8027
G1 X63.142 Y161.370 E4.8848
G1 X63.075 Y161.300 E4.8905
G1 X62.571 Y160.744 E4.9345
G1 X62.508 Y160.670 E4.9402
G1 X61.609 Y159.575 E5.0233
G1 X61.530 Y159.472 E5.0309
G1 X60.697 Y158.310 E5.1148
G1 X60.626 Y158.203 E5.1224
G1 X59.878 Y157.001 E5.2054
G1 X59.829 Y156.917 E5.2111
G1 X59.464 Y156.261 E5.2551
G1 X59.419 Y156.175 E5.2608
G1 X58.793 Y154.906 E5.3439
G1 X58.740 Y154.788 E5.3515
G1 X58.198 Y153.480 E5.4345
G1 X58.163 Y153.390 E5.4402
G1 X57.911 Y152.685 E5.4841
G1 X57.881 Y152.592 E5.4898
G1 X57.470 Y151.238 E5.5729
G1 X57.436 Y151.113 E5.5805
G1 X57.115 Y149.733 E5.6636
G1 X57.095 Y149.638 E5.6693
G1 X56.964 Y148.919 E5.7121
G1 X56.953 Y148.855 E5.7159
G1 X56.846 Y148.130 E5.7589
G1 X56.834 Y148.034 E5.7646
G1 X56.695 Y146.625 E5.8477
G1 X56.687 Y146.496 E5.8553
G1 X56.641 Y145.097 E5.9374
G1 X56.640 Y145.032 E5.9412
G1 X56.651 Y54.299 E11.2646
G1 X56.653 Y54.202 E11.2703
G1 X56.690 Y53.456 E11.3141
G1 X56.697 Y53.359 E11.3198
G1 X56.836 Y51.949 E11.4029
G1 X56.853 Y51.821 E11.4105
G1 X57.086 Y50.409 E11.4945
G1 X57.111 Y50.282 E11.5021
G1 X57.436 Y48.887 E11.5861
G1 X57.470 Y48.762 E11.5937
G1 X57.885 Y47.392 E11.6777
G1 X57.927 Y47.269 E11.6853
G1 X58.425 Y45.945 E11.7683
G1 X58.462 Y45.855 E11.7740
G1 X58.760 Y45.168 E11.8180
G1 X58.800 Y45.080 E11.8237
G1 X59.427 Y43.809 E11.9068
G1 X59.488 Y43.695 E11.9144
G1 X60.204 Y42.455 E11.9984
G1 X60.272 Y42.345 E12.0060
G1 X61.059 Y41.168 E12.0890
G1 X61.115 Y41.089 E12.0947
G1 X61.560 Y40.488 E12.1386
G1 X61.620 Y40.411 E12.1443
G1 X62.519 Y39.316 E12.2274
G1 X62.604 Y39.219 E12.2350
G1 X63.582 Y38.175 E12.3189
G1 X63.673 Y38.083 E12.3266
G1 X64.719 Y37.104 E12.4106
G1 X64.816 Y37.019 E12.4182
G1 X65.911 Y36.120 E12.5013
G1 X65.987 Y36.061 E12.5070
G1 X66.578 Y35.622 E12.5501
G1 X66.631 Y35.585 E12.5539
G1 X67.229 Y35.171 E12.5966
G1 X67.310 Y35.118 E12.6023
G1 X68.500 Y34.378 E12.6845
G1 X68.584 Y34.328 E12.6902
G1 X69.237 Y33.965 E12.7341
G1 X69.323 Y33.920 E12.7398
G1 X70.595 Y33.293 E12.8230
G1 X70.713 Y33.240 E12.8306
G1 X72.035 Y32.692 E12.9145
G1 X72.156 Y32.646 E12.9221
G1 X73.512 Y32.186 E13.0061
G1 X73.636 Y32.149 E13.0137
G1 X75.002 Y31.782 E13.0967
G1 X75.097 Y31.760 E13.1024
G1 X75.830 Y31.601 E13.1464
G1 X75.925 Y31.583 E13.1521
G1 X77.305 Y31.355 E13.2341
G1 X77.401 Y31.342 E13.2398
G1 X78.144 Y31.256 E13.2837
G1 X78.240 Y31.248 E13.2894
G1 X79.639 Y31.156 E13.3716
G1 X79.736 Y31.152 E13.3773
G1 X80.454 Y31.140 E13.4195
G1 X80.487 Y31.140 E13.4214
G1 X141.040 Y31.140 E16.9741
G1 X143.360 Y33.460 E17.1666
G1 X143.360 Y166.540 E24.9745
G1 X142.640 Y166.242 F18000
G92 E0.0000
G1 X140.742 Y168.140 E0.1575 F1800
