; G-Code generated by Simplify3D(R) Version 4.1.2
; May 7, 2021 at 6:19:16 PM
; Settings Summary
;   processName,V6
;   applyToModels,ell-gear-fine-profile
;   profileName,HBot (modified)
;   profileVersion,2021-04-01 14:49:35
;   baseProfile,Default
;   printMaterial,PLA - ERYONE
;   printQuality,Medium
;   printExtruders,
;   extruderName,Extruder 1,Extruder 2 - support
;   extruderToolheadNumber,0,1
;   extruderDiameter,0.4,0.4
;   extruderAutoWidth,1,1
;   extruderWidth,0.48,0.48
;   extrusionMultiplier,1,1
;   extruderUseRetract,1,1
;   extruderRetractionDistance,3,1
;   extruderExtraRestartDistance,0,0
;   extruderRetractionZLift,0,0
;   extruderRetractionSpeed,5400,1800
;   extruderUseCoasting,1,1
;   extruderCoastingDistance,0.2,0.2
;   extruderUseWipe,1,0
;   extruderWipeDistance,0.4,0.4
;   primaryExtruder,0
;   layerHeight,0.2
;   topSolidLayers,4
;   bottomSolidLayers,4
;   perimeterOutlines,3
;   printPerimetersInsideOut,1
;   startPointOption,3
;   startPointOriginX,0
;   startPointOriginY,110
;   sequentialIslands,0
;   spiralVaseMode,0
;   firstLayerHeightPercentage,100
;   firstLayerWidthPercentage,100
;   firstLayerUnderspeed,0.5
;   useRaft,0
;   raftExtruder,0
;   raftTopLayers,3
;   raftBaseLayers,2
;   raftOffset,3
;   raftSeparationDistance,0.18
;   raftTopInfill,100
;   aboveRaftSpeedMultiplier,0.3
;   useSkirt,1
;   skirtExtruder,0
;   skirtLayers,1
;   skirtOutlines,5
;   skirtOffset,10
;   usePrimePillar,0
;   primePillarExtruder,999
;   primePillarWidth,12
;   primePillarLocation,7
;   primePillarSpeedMultiplier,1
;   useOozeShield,0
;   oozeShieldExtruder,999
;   oozeShieldOffset,1.4
;   oozeShieldOutlines,2
;   oozeShieldSidewallShape,0
;   oozeShieldSidewallAngle,30
;   oozeShieldSpeedMultiplier,1.5
;   infillExtruder,0
;   internalInfillPattern,Rectilinear
;   externalInfillPattern,Rectilinear
;   infillPercentage,15
;   outlineOverlapPercentage,25
;   infillExtrusionWidthPercentage,100
;   minInfillLength,5
;   infillLayerInterval,1
;   internalInfillAngles,45,-45
;   overlapInternalInfillAngles,0
;   externalInfillAngles,45,-45
;   generateSupport,0
;   supportExtruder,0
;   supportInfillPercentage,25
;   supportExtraInflation,0
;   supportBaseLayers,0
;   denseSupportExtruder,1
;   denseSupportLayers,10
;   denseSupportInfillPercentage,100
;   supportLayerInterval,1
;   supportHorizontalPartOffset,0
;   supportUpperSeparationLayers,0
;   supportLowerSeparationLayers,0
;   supportType,0
;   supportGridSpacing,2.5
;   maxOverhangAngle,45
;   supportAngles,0
;   temperatureName,Extruder 1,Heated Bed,Extruder 2 - support
;   temperatureNumber,0,1,1
;   temperatureSetpointCount,2,1,1
;   temperatureSetpointLayers,1,2,1,1
;   temperatureSetpointTemperatures,215,215,65,0
;   temperatureStabilizeAtStartup,1,1,1
;   temperatureHeatedBed,0,1,0
;   fanLayers,1,3,10
;   fanSpeeds,0,65,100
;   blipFanToFullPower,1
;   adjustSpeedForCooling,1
;   minSpeedLayerTime,15
;   minCoolingSpeedSlowdown,20
;   increaseFanForCooling,1
;   minFanLayerTime,15
;   maxCoolingFanSpeed,100
;   increaseFanForBridging,1
;   bridgingFanSpeed,100
;   use5D,1
;   relativeEdistances,0
;   allowEaxisZeroing,1
;   independentExtruderAxes,0
;   includeM10123,0
;   stickySupport,1
;   applyToolheadOffsets,0
;   gcodeXoffset,0
;   gcodeYoffset,0
;   gcodeZoffset,0
;   overrideMachineDefinition,1
;   machineTypeOverride,0
;   strokeXoverride,210
;   strokeYoverride,210
;   strokeZoverride,150
;   originOffsetXoverride,0
;   originOffsetYoverride,0
;   originOffsetZoverride,0
;   homeXdirOverride,1
;   homeYdirOverride,-1
;   homeZdirOverride,-1
;   flipXoverride,1
;   flipYoverride,-1
;   flipZoverride,1
;   toolheadOffsets,0,0|0,0|0,0|0,0|0,0|0,0
;   overrideFirmwareConfiguration,0
;   firmwareTypeOverride,RepRap (Marlin/Repetier/Sprinter)
;   GPXconfigOverride,r2
;   baudRateOverride,115200
;   overridePrinterModels,0
;   printerModelsOverride
;   startingGcode,;G28 is now included in bed.g G28 ; home all axes,G32 ; run bed.g -- probe bed and enable compensation
;   layerChangeGcode,
;   retractionGcode,
;   toolChangeGcode,
;   endingGcode,M0 ; call stop.g
;   exportFileFormat,gcode
;   celebration,0
;   celebrationSong,Random Song
;   postProcessing,
;   defaultSpeed,3600
;   outlineUnderspeed,0.5
;   solidInfillUnderspeed,0.8
;   supportUnderspeed,0.8
;   rapidXYspeed,21000
;   rapidZspeed,1200
;   minBridgingArea,50
;   bridgingExtraInflation,0
;   bridgingExtrusionMultiplier,0.96
;   bridgingSpeedMultiplier,1
;   useFixedBridgingAngle,0
;   fixedBridgingAngle,0
;   applyBridgingToPerimeters,0
;   filamentDiameters,1.75|1.75|1.75|1.75|1.75|1.75
;   filamentPricesPerKg,46|46|46|46|46|46
;   filamentDensities,1.25|1.25|1.25|1.25|1.25|1.25
;   useMinPrintHeight,0
;   minPrintHeight,0
;   useMaxPrintHeight,0
;   maxPrintHeight,12.79
;   useDiaphragm,0
;   diaphragmLayerInterval,20
;   robustSlicing,1
;   mergeAllIntoSolid,0
;   onlyRetractWhenCrossingOutline,1
;   retractBetweenLayers,0
;   useRetractionMinTravel,1
;   retractionMinTravel,3
;   retractWhileWiping,1
;   onlyWipeOutlines,1
;   avoidCrossingOutline,1
;   maxMovementDetourFactor,50
;   toolChangeRetractionDistance,7.5
;   toolChangeExtraRestartDistance,0
;   toolChangeRetractionSpeed,600
;   externalThinWallType,0
;   internalThinWallType,2
;   thinWallAllowedOverlapPercentage,10
;   singleExtrusionMinLength,1
;   singleExtrusionMinPrintingWidthPercentage,50
;   singleExtrusionMaxPrintingWidthPercentage,150
;   singleExtrusionEndpointExtension,0.2
;   horizontalSizeCompensation,0
G90
M82
M106 S0
M140 S65
M190 S65
G10 P0 S215 R{215-50}
G10 P1 S0 R{0-50}
M116 P0
;G28 is now included in bed.g G28 ; home all axes
G32 ; run bed.g -- probe bed and enable compensation
; process V6
; layer 1, Z = 0.200
T0
G92 E0.0000
G1 E-3.0000 F5400
; feature skirt
; tool H0.200 W0.480
G1 Z0.200 F1200
G1 X61.713 Y105.206 F21000
G1 E0.0000 F5400
G92 E0.0000
G1 X61.754 Y103.972 E0.0493 F1800
G1 X61.967 Y102.407 E0.1123
G1 X62.289 Y101.118 E0.1653
G1 X62.810 Y99.705 E0.2255
G1 X63.395 Y98.528 E0.2779
G1 X63.975 Y97.622 E0.3208
G1 X64.257 Y96.151 E0.3806
G1 X64.654 Y94.865 E0.4343
G1 X65.249 Y93.496 E0.4939
G1 X65.875 Y92.389 E0.5447
G1 X66.890 Y90.964 E0.6145
G1 X68.008 Y89.773 E0.6797
G1 X69.393 Y88.645 E0.7510
G1 X70.524 Y87.915 E0.8047
G1 X71.029 Y87.664 E0.8272
G1 X71.164 Y87.463 E0.8369
G1 X72.057 Y86.409 E0.8920
G1 X73.177 Y85.357 E0.9534
G1 X74.228 Y84.565 E1.0059
G1 X75.829 Y83.610 E1.0803
G1 X77.496 Y82.925 E1.1522
G1 X78.864 Y82.588 E1.2085
G1 X79.296 Y82.232 E1.2308
G1 X80.368 Y81.524 E1.2821
G1 X81.953 Y80.703 E1.3533
G1 X83.535 Y80.143 E1.4203
G1 X85.334 Y79.774 E1.4936
G1 X86.491 Y79.672 E1.5399
G1 X86.670 Y79.562 E1.5483
G1 X87.827 Y79.011 E1.5995
G1 X89.506 Y78.419 E1.6705
G1 X91.147 Y78.084 E1.7374
G1 X92.976 Y77.967 E1.8105
G1 X93.927 Y78.014 E1.8485
G1 X95.012 Y77.619 E1.8946
G1 X96.844 Y77.175 E1.9698
G1 X98.580 Y77.011 E2.0394
G1 X100.445 Y77.101 E2.1139
G1 X101.308 Y77.243 E2.1489
G1 X102.374 Y76.975 E2.1927
G1 X104.034 Y76.749 E2.2596
G1 X105.359 Y76.714 E2.3125
G1 X106.795 Y76.833 E2.3700
G1 X108.027 Y77.064 E2.4200
G1 X108.633 Y77.243 E2.4452
G1 X108.705 Y77.226 E2.4482
G1 X109.975 Y77.065 E2.4993
G1 X111.754 Y77.027 E2.5703
G1 X113.416 Y77.221 E2.6371
G1 X115.188 Y77.681 E2.7102
G1 X116.055 Y78.014 E2.7472
G1 X116.429 Y77.977 E2.7623
G1 X117.955 Y78.000 E2.8232
G1 X119.250 Y78.158 E2.8752
G1 X120.995 Y78.565 E2.9467
G1 X122.559 Y79.165 E3.0136
G1 X123.484 Y79.676 E3.0558
G1 X124.668 Y79.762 E3.1032
G1 X126.720 Y80.217 E3.1870
G1 X128.356 Y80.836 E3.2569
G1 X129.995 Y81.744 E3.3316
G1 X131.126 Y82.550 E3.3871
G1 X131.163 Y82.584 E3.3891
G1 X131.917 Y82.758 E3.4200
G1 X133.297 Y83.231 E3.4782
G1 X134.517 Y83.807 E3.5320
G1 X135.955 Y84.692 E3.5994
G1 X137.017 Y85.521 E3.6532
G1 X138.099 Y86.577 E3.7135
G1 X138.965 Y87.637 E3.7682
G1 X138.969 Y87.643 E3.7684
G1 X138.974 Y87.645 E3.7687
G1 X140.145 Y88.325 E3.8227
G1 X141.344 Y89.213 E3.8823
G1 X142.276 Y90.067 E3.9327
G1 X143.434 Y91.372 E4.0024
G1 X144.345 Y92.728 E4.0676
G1 X145.221 Y94.507 E4.1467
G1 X145.758 Y96.159 E4.2160
G1 X146.005 Y97.580 E4.2736
G1 X146.243 Y97.914 E4.2900
G1 X146.875 Y99.040 E4.3415
G1 X147.572 Y100.664 E4.4120
G1 X148.011 Y102.250 E4.4777
G1 X148.281 Y104.230 E4.5575
G1 X148.265 Y105.984 E4.6275
G1 X147.951 Y108.028 E4.7100
G1 X147.454 Y109.669 E4.7784
G1 X146.622 Y111.464 E4.8574
G1 X146.020 Y112.405 E4.9020
G1 X145.743 Y113.850 E4.9607
G1 X145.346 Y115.135 E5.0144
G1 X144.751 Y116.504 E5.0740
G1 X144.125 Y117.611 E5.1248
G1 X143.110 Y119.036 E5.1946
G1 X141.992 Y120.228 E5.2598
G1 X140.607 Y121.355 E5.3311
G1 X139.475 Y122.085 E5.3848
G1 X138.971 Y122.336 E5.4073
G1 X138.725 Y122.704 E5.4250
G1 X137.527 Y124.025 E5.4961
G1 X135.897 Y125.366 E5.5804
G1 X134.391 Y126.276 E5.6506
G1 X132.657 Y127.008 E5.7257
G1 X131.319 Y127.400 E5.7814
G1 X131.106 Y127.437 E5.7900
G1 X130.704 Y127.768 E5.8108
G1 X129.632 Y128.476 E5.8621
G1 X128.047 Y129.297 E5.9333
G1 X126.465 Y129.857 E6.0003
G1 X124.666 Y130.226 E6.0736
G1 X123.509 Y130.328 E6.1199
G1 X123.330 Y130.438 E6.1283
G1 X122.173 Y130.989 E6.1795
G1 X120.494 Y131.581 E6.2505
G1 X118.853 Y131.916 E6.3174
G1 X117.024 Y132.033 E6.3905
G1 X116.022 Y131.983 E6.4306
G1 X114.915 Y132.417 E6.4780
G1 X113.229 Y132.813 E6.5471
G1 X111.232 Y132.991 E6.6272
G1 X109.561 Y132.909 E6.6939
G1 X108.725 Y132.752 E6.7279
G1 X108.663 Y132.774 E6.7305
G1 X107.417 Y133.064 E6.7816
G1 X105.652 Y133.283 E6.8526
G1 X103.979 Y133.260 E6.9193
G1 X102.169 Y132.985 E6.9924
G1 X101.290 Y132.746 E7.0288
G1 X100.158 Y132.938 E7.0746
G1 X98.427 Y132.983 E7.1437
G1 X96.435 Y132.751 E7.2237
G1 X94.816 Y132.331 E7.2905
G1 X93.966 Y131.981 E7.3272
G1 X92.976 Y132.046 E7.3668
G1 X90.886 Y131.879 E7.4505
G1 X89.183 Y131.492 E7.5202
G1 X87.439 Y130.823 E7.5947
G1 X86.507 Y130.337 E7.6367
G1 X86.473 Y130.337 E7.6380
G1 X85.126 Y130.192 E7.6921
G1 X83.280 Y129.783 E7.7676
G1 X81.644 Y129.164 E7.8374
G1 X80.063 Y128.288 E7.9095
G1 X79.031 Y127.569 E7.9597
G1 X78.882 Y127.440 E7.9676
G1 X77.477 Y127.065 E8.0256
G1 X75.609 Y126.276 E8.1066
G1 X74.104 Y125.366 E8.1768
G1 X72.432 Y123.992 E8.2631
G1 X71.176 Y122.581 E8.3385
G1 X71.031 Y122.357 E8.3492
G1 X71.026 Y122.355 E8.3494
G1 X69.855 Y121.675 E8.4035
G1 X68.655 Y120.786 E8.4630
G1 X67.723 Y119.933 E8.5135
G1 X66.429 Y118.474 E8.5913
G1 X65.347 Y116.741 E8.6729
G1 X64.459 Y114.580 E8.7661
G1 X64.032 Y112.889 E8.8357
G1 X63.980 Y112.393 E8.8556
G1 X63.177 Y111.092 E8.9166
G1 X62.488 Y109.514 E8.9853
G1 X62.014 Y107.802 E9.0562
G1 X61.806 Y106.586 E9.1055
G1 X61.713 Y105.206 E9.1607
G1 X62.193 Y105.198 F21000
G92 E0.0000
G1 X62.233 Y104.013 E0.0473 F1800
G1 X62.439 Y102.498 E0.1083
G1 X62.748 Y101.260 E0.1593
G1 X63.252 Y99.895 E0.2173
G1 X63.814 Y98.765 E0.2677
G1 X64.429 Y97.803 E0.3133
G1 X64.723 Y96.267 E0.3757
G1 X65.104 Y95.032 E0.4273
G1 X65.679 Y93.711 E0.4848
G1 X66.280 Y92.647 E0.5336
G1 X67.262 Y91.269 E0.6011
G1 X68.336 Y90.124 E0.6637
G1 X69.675 Y89.034 E0.7327
G1 X70.762 Y88.333 E0.7843
G1 X71.357 Y88.037 E0.8108
G1 X71.548 Y87.752 E0.8245
G1 X72.405 Y86.741 E0.8774
G1 X73.487 Y85.725 E0.9366
G1 X74.497 Y84.964 E0.9871
G1 X76.045 Y84.041 E1.0590
G1 X77.646 Y83.383 E1.1281
G1 X79.085 Y83.028 E1.1873
G1 X79.581 Y82.619 E1.2130
G1 X80.611 Y81.939 E1.2622
G1 X82.145 Y81.145 E1.3311
G1 X83.664 Y80.607 E1.3955
G1 X85.404 Y80.250 E1.4663
G1 X86.646 Y80.140 E1.5161
G1 X86.899 Y79.985 E1.5280
G1 X88.010 Y79.456 E1.5771
G1 X89.635 Y78.883 E1.6458
G1 X91.211 Y78.561 E1.7100
G1 X92.980 Y78.447 E1.7808
G1 X94.000 Y78.498 E1.8215
G1 X95.151 Y78.080 E1.8704
G1 X96.924 Y77.650 E1.9432
G1 X98.591 Y77.492 E2.0101
G1 X100.394 Y77.579 E2.0821
G1 X101.329 Y77.732 E2.1199
G1 X102.465 Y77.447 E2.1667
G1 X104.073 Y77.228 E2.2315
G1 X105.345 Y77.194 E2.2823
G1 X106.731 Y77.309 E2.3377
G1 X107.914 Y77.531 E2.3858
G1 X108.618 Y77.740 E2.4151
G1 X108.791 Y77.699 E2.4222
G1 X110.010 Y77.544 E2.4713
G1 X111.731 Y77.508 E2.5399
G1 X113.327 Y77.694 E2.6041
G1 X115.041 Y78.138 E2.6748
G1 X115.989 Y78.503 E2.7153
G1 X116.449 Y78.458 E2.7337
G1 X117.922 Y78.479 E2.7926
G1 X119.166 Y78.632 E2.8425
G1 X120.854 Y79.025 E2.9117
G1 X122.356 Y79.602 E2.9759
G1 X123.345 Y80.147 E3.0210
G1 X124.599 Y80.238 E3.0712
G1 X126.582 Y80.678 E3.1523
G1 X128.154 Y81.273 E3.2194
G1 X129.738 Y82.150 E3.2916
G1 X130.824 Y82.925 E3.3449
G1 X130.934 Y83.024 E3.3508
G1 X131.785 Y83.220 E3.3856
G1 X133.116 Y83.677 E3.4418
G1 X134.288 Y84.230 E3.4935
G1 X135.680 Y85.087 E3.5588
G1 X136.701 Y85.883 E3.6105
G1 X137.744 Y86.902 E3.6686
G1 X138.576 Y87.920 E3.7211
G1 X138.643 Y88.024 E3.7261
G1 X138.756 Y88.074 E3.7310
G1 X139.881 Y88.727 E3.7829
G1 X141.038 Y89.584 E3.8404
G1 X141.934 Y90.404 E3.8888
G1 X143.054 Y91.666 E3.9562
G1 X143.929 Y92.969 E4.0188
G1 X144.775 Y94.688 E4.0953
G1 X145.291 Y96.275 E4.1619
G1 X145.551 Y97.769 E4.2224
G1 X145.837 Y98.171 E4.2421
G1 X146.444 Y99.253 E4.2916
G1 X147.118 Y100.823 E4.3598
G1 X147.540 Y102.347 E4.4229
G1 X147.800 Y104.261 E4.5000
G1 X147.786 Y105.945 E4.5672
G1 X147.481 Y107.921 E4.6471
G1 X147.005 Y109.498 E4.7128
G1 X146.200 Y111.233 E4.7891
G1 X145.566 Y112.224 E4.8361
G1 X145.277 Y113.734 E4.8974
G1 X144.895 Y114.968 E4.9490
G1 X144.321 Y116.290 E5.0065
G1 X143.719 Y117.353 E5.0553
G1 X142.738 Y118.731 E5.1228
G1 X141.664 Y119.876 E5.1855
G1 X140.324 Y120.966 E5.2544
G1 X139.238 Y121.667 E5.3060
G1 X138.643 Y121.963 E5.3325
G1 X138.345 Y122.408 E5.3539
G1 X137.195 Y123.677 E5.4222
G1 X135.619 Y124.973 E5.5037
G1 X134.173 Y125.848 E5.5712
G1 X132.496 Y126.555 E5.6438
G1 X131.211 Y126.932 E5.6972
G1 X130.899 Y126.985 E5.7099
G1 X130.419 Y127.381 E5.7347
G1 X129.389 Y128.061 E5.7840
G1 X127.855 Y128.855 E5.8529
G1 X126.336 Y129.393 E5.9172
G1 X124.596 Y129.750 E5.9881
G1 X123.354 Y129.860 E6.0379
G1 X123.101 Y130.015 E6.0497
G1 X121.990 Y130.544 E6.0988
G1 X120.365 Y131.117 E6.1676
G1 X118.789 Y131.439 E6.2318
G1 X117.020 Y131.553 E6.3025
G1 X115.943 Y131.499 E6.3456
G1 X114.772 Y131.957 E6.3958
G1 X113.153 Y132.338 E6.4622
G1 X111.223 Y132.510 E6.5395
G1 X109.617 Y132.432 E6.6037
G1 X108.689 Y132.257 E6.6414
G1 X108.530 Y132.312 E6.6481
G1 X107.333 Y132.591 E6.6971
G1 X105.626 Y132.803 E6.7658
G1 X104.018 Y132.781 E6.8299
G1 X102.268 Y132.514 E6.9006
G1 X101.313 Y132.255 E6.9401
G1 X100.111 Y132.459 E6.9888
G1 X98.449 Y132.503 E7.0551
G1 X96.524 Y132.278 E7.1325
G1 X94.968 Y131.875 E7.1966
G1 X94.046 Y131.495 E7.2364
G1 X92.979 Y131.565 E7.2791
G1 X90.958 Y131.403 E7.3600
G1 X89.323 Y131.032 E7.4269
G1 X87.636 Y130.384 E7.4991
G1 X86.624 Y129.857 E7.5446
G1 X86.497 Y129.857 E7.5497
G1 X85.204 Y129.718 E7.6016
G1 X83.418 Y129.322 E7.6746
G1 X81.846 Y128.727 E7.7417
G1 X80.317 Y127.880 E7.8114
G1 X79.326 Y127.189 E7.8597
G1 X79.112 Y127.005 E7.8709
G1 X77.633 Y126.610 E7.9321
G1 X75.827 Y125.848 E8.0103
G1 X74.382 Y124.974 E8.0777
G1 X72.765 Y123.644 E8.1612
G1 X71.559 Y122.290 E8.2336
G1 X71.357 Y121.976 E8.2485
G1 X71.244 Y121.926 E8.2534
G1 X70.119 Y121.273 E8.3054
G1 X68.961 Y120.416 E8.3629
G1 X68.066 Y119.596 E8.4113
G1 X66.815 Y118.186 E8.4865
G1 X65.776 Y116.521 E8.5649
G1 X64.916 Y114.429 E8.6551
G1 X64.506 Y112.805 E8.7220
G1 X64.446 Y112.235 E8.7449
G1 X63.603 Y110.869 E8.8089
G1 X62.942 Y109.353 E8.8749
G1 X62.483 Y107.698 E8.9435
G1 X62.283 Y106.530 E8.9908
G1 X62.193 Y105.198 E9.0441
G1 X62.674 Y105.190 F21000
G92 E0.0000
G1 X62.712 Y104.054 E0.0454 F1800
G1 X62.911 Y102.588 E0.1044
G1 X63.207 Y101.401 E0.1532
G1 X63.693 Y100.086 E0.2092
G1 X64.232 Y99.001 E0.2575
G1 X64.883 Y97.984 E0.3057
G1 X65.189 Y96.383 E0.3708
G1 X65.555 Y95.199 E0.4202
G1 X66.109 Y93.925 E0.4757
G1 X66.686 Y92.905 E0.5225
G1 X67.634 Y91.574 E0.5877
G1 X68.664 Y90.476 E0.6478
G1 X69.958 Y89.423 E0.7143
G1 X71.000 Y88.751 E0.7638
G1 X71.685 Y88.410 E0.7944
G1 X71.931 Y88.042 E0.8121
G1 X72.754 Y87.072 E0.8628
G1 X73.797 Y86.093 E0.9199
G1 X74.765 Y85.363 E0.9683
G1 X76.260 Y84.471 E1.0378
G1 X77.795 Y83.840 E1.1040
G1 X79.306 Y83.468 E1.1661
G1 X79.867 Y83.006 E1.1951
G1 X80.855 Y82.353 E1.2424
