; G-Code generated by Simplify3D(R) Version 4.1.2
; Oct 28, 2019 at 8:06:15 PM
; Settings Summary
;   processName,Process1
;   applyToModels,bltouch-mount-temp
;   profileName,HBot (modified)
;   profileVersion,2019-10-26 23:38:43
;   baseProfile,Default
;   printMaterial,PLA
;   printQuality,Medium
;   printExtruders,
;   extruderName,Extruder 1
;   extruderToolheadNumber,0
;   extruderDiameter,0.4
;   extruderAutoWidth,0
;   extruderWidth,0.4
;   extrusionMultiplier,0.94
;   extruderUseRetract,0
;   extruderRetractionDistance,5
;   extruderExtraRestartDistance,0
;   extruderRetractionZLift,0
;   extruderRetractionSpeed,1800
;   extruderUseCoasting,0
;   extruderCoastingDistance,0.2
;   extruderUseWipe,0
;   extruderWipeDistance,5
;   primaryExtruder,0
;   layerHeight,0.2
;   topSolidLayers,3
;   bottomSolidLayers,3
;   perimeterOutlines,3
;   printPerimetersInsideOut,1
;   startPointOption,2
;   startPointOriginX,0
;   startPointOriginY,0
;   sequentialIslands,0
;   spiralVaseMode,0
;   firstLayerHeightPercentage,200
;   firstLayerWidthPercentage,200
;   firstLayerUnderspeed,0.3
;   useRaft,0
;   raftExtruder,0
;   raftTopLayers,3
;   raftBaseLayers,2
;   raftOffset,3
;   raftSeparationDistance,0.18
;   raftTopInfill,100
;   aboveRaftSpeedMultiplier,0.3
;   useSkirt,1
;   skirtExtruder,0
;   skirtLayers,1
;   skirtOutlines,3
;   skirtOffset,4
;   usePrimePillar,0
;   primePillarExtruder,999
;   primePillarWidth,12
;   primePillarLocation,7
;   primePillarSpeedMultiplier,1
;   useOozeShield,0
;   oozeShieldExtruder,999
;   oozeShieldOffset,2
;   oozeShieldOutlines,1
;   oozeShieldSidewallShape,1
;   oozeShieldSidewallAngle,30
;   oozeShieldSpeedMultiplier,1
;   infillExtruder,0
;   internalInfillPattern,Rectilinear
;   externalInfillPattern,Rectilinear
;   infillPercentage,20
;   outlineOverlapPercentage,15
;   infillExtrusionWidthPercentage,100
;   minInfillLength,5
;   infillLayerInterval,1
;   internalInfillAngles,45,-45
;   overlapInternalInfillAngles,0
;   externalInfillAngles,45,-45
;   generateSupport,0
;   supportExtruder,0
;   supportInfillPercentage,30
;   supportExtraInflation,0
;   supportBaseLayers,2
;   denseSupportExtruder,0
;   denseSupportLayers,0
;   denseSupportInfillPercentage,70
;   supportLayerInterval,1
;   supportHorizontalPartOffset,0.3
;   supportUpperSeparationLayers,1
;   supportLowerSeparationLayers,1
;   supportType,0
;   supportGridSpacing,4
;   maxOverhangAngle,45
;   supportAngles,0
;   temperatureName,Extruder 1
;   temperatureNumber,0
;   temperatureSetpointCount,1
;   temperatureSetpointLayers,1
;   temperatureSetpointTemperatures,217
;   temperatureStabilizeAtStartup,1
;   temperatureHeatedBed,0
;   fanLayers,1,2,5
;   fanSpeeds,0,20,60
;   blipFanToFullPower,1
;   adjustSpeedForCooling,1
;   minSpeedLayerTime,15
;   minCoolingSpeedSlowdown,20
;   increaseFanForCooling,1
;   minFanLayerTime,45
;   maxCoolingFanSpeed,100
;   increaseFanForBridging,1
;   bridgingFanSpeed,100
;   use5D,1
;   relativeEdistances,0
;   allowEaxisZeroing,1
;   independentExtruderAxes,0
;   includeM10123,0
;   stickySupport,1
;   applyToolheadOffsets,0
;   gcodeXoffset,0
;   gcodeYoffset,0
;   gcodeZoffset,0
;   overrideMachineDefinition,1
;   machineTypeOverride,0
;   strokeXoverride,200
;   strokeYoverride,200
;   strokeZoverride,200
;   originOffsetXoverride,0
;   originOffsetYoverride,0
;   originOffsetZoverride,0
;   homeXdirOverride,-1
;   homeYdirOverride,-1
;   homeZdirOverride,-1
;   flipXoverride,1
;   flipYoverride,-1
;   flipZoverride,1
;   toolheadOffsets,0,0|0,0|0,0|0,0|0,0|0,0
;   overrideFirmwareConfiguration,1
;   firmwareTypeOverride,RepRap (Marlin/Repetier/Sprinter)
;   GPXconfigOverride,r2
;   baudRateOverride,115200
;   overridePrinterModels,0
;   printerModelsOverride
;   startingGcode,G28 ; home all axes,G32 ; run bed.g -- probe bed and enable compensation
;   layerChangeGcode,
;   retractionGcode,
;   toolChangeGcode,
;   endingGcode,;retract 5mm,G91,G1 E-5.0 F240 ; retract 5mm,G90,;move print down,G1 Z220,;move printhead to center,G1 X100.0 Y100.0,,M104 S0 ; turn off extruder,M140 S0 ; turn off bed,M84 ; disable motors,
;   exportFileFormat,gcode
;   celebration,0
;   celebrationSong,Random Song
;   postProcessing,
;   defaultSpeed,3600
;   outlineUnderspeed,0.5
;   solidInfillUnderspeed,0.8
;   supportUnderspeed,0.8
;   rapidXYspeed,18000
;   rapidZspeed,1200
;   minBridgingArea,50
;   bridgingExtraInflation,0
;   bridgingExtrusionMultiplier,1
;   bridgingSpeedMultiplier,1
;   useFixedBridgingAngle,0
;   fixedBridgingAngle,0
;   applyBridgingToPerimeters,0
;   filamentDiameters,1.75|1.75|1.75|1.75|1.75|1.75
;   filamentPricesPerKg,46|46|46|46|46|46
;   filamentDensities,1.25|1.25|1.25|1.25|1.25|1.25
;   useMinPrintHeight,0
;   minPrintHeight,0
;   useMaxPrintHeight,0
;   maxPrintHeight,0
;   useDiaphragm,0
;   diaphragmLayerInterval,20
;   robustSlicing,1
;   mergeAllIntoSolid,0
;   onlyRetractWhenCrossingOutline,1
;   retractBetweenLayers,1
;   useRetractionMinTravel,0
;   retractionMinTravel,3
;   retractWhileWiping,0
;   onlyWipeOutlines,1
;   avoidCrossingOutline,0
;   maxMovementDetourFactor,3
;   toolChangeRetractionDistance,12
;   toolChangeExtraRestartDistance,-0.5
;   toolChangeRetractionSpeed,600
;   externalThinWallType,1
;   internalThinWallType,1
;   thinWallAllowedOverlapPercentage,10
;   singleExtrusionMinLength,1
;   singleExtrusionMinPrintingWidthPercentage,50
;   singleExtrusionMaxPrintingWidthPercentage,200
;   singleExtrusionEndpointExtension,0.2
;   horizontalSizeCompensation,-0.1
G90
M82
M106 S0
M104 S217 T0
M109 S217 T0
G28 ; home all axes
G32 ; run bed.g -- probe bed and enable compensation
; process Process1
; layer 1, Z = 0.400
T0
; feature skirt
; tool H0.400 W0.800
G1 Z0.400 F1200
G1 X76.115 Y81.600 F18000
G92 E0.0000
G1 X123.885 Y81.600 E5.9741 F1080
G1 X127.400 Y85.115 E6.5957
G1 X127.400 Y114.885 E10.3188
G1 X123.885 Y118.400 E10.9404
G1 X76.115 Y118.400 E16.9145
G1 X72.600 Y114.885 E17.5361
G1 X72.600 Y85.115 E21.2591
G1 X76.115 Y81.600 E21.8807
G1 X76.446 Y82.400 F18000
G92 E0.0000
G1 X123.554 Y82.400 E5.8912 F1080
G1 X126.600 Y85.446 E6.4299
G1 X126.600 Y114.554 E10.0701
G1 X123.554 Y117.600 E10.6088
G1 X76.446 Y117.600 E16.5001
G1 X73.400 Y114.554 E17.0388
G1 X73.400 Y85.446 E20.6790
G1 X76.446 Y82.400 E21.2177
G1 X76.777 Y83.200 F18000
G92 E0.0000
G1 X123.223 Y83.200 E5.8083 F1080
G1 X125.800 Y85.777 E6.2642
G1 X125.800 Y114.223 E9.8215
G1 X123.223 Y116.800 E10.2773
G1 X76.777 Y116.800 E16.0857
G1 X74.200 Y114.223 E16.5415
G1 X74.200 Y85.777 E20.0988
G1 X76.777 Y83.200 E20.5546
; feature inner perimeter
G1 X80.600 Y89.600 F18000
G92 E0.0000
G1 X119.400 Y89.600 E4.8523 F810
G1 X119.400 Y110.400 E7.4535
G1 X110.499 Y110.400 E8.5666
G1 X110.356 Y109.866 E8.6357
G1 X111.094 Y109.440 E8.7423
G1 X111.612 Y108.991 E8.8281
G1 X112.005 Y108.491 E8.9076
G1 X112.227 Y108.107 E8.9631
G1 X112.463 Y107.517 E9.0426
G1 X112.593 Y106.843 E9.1284
G1 X112.593 Y106.157 E9.2142
G1 X112.463 Y105.483 E9.3000
G1 X112.208 Y104.846 E9.3859
G1 X111.837 Y104.269 E9.4717
G1 X111.364 Y103.772 E9.5575
G1 X110.805 Y103.374 E9.6433
G1 X110.180 Y103.089 E9.7291
G1 X109.514 Y102.927 E9.8149
G1 X108.879 Y102.897 E9.8945
G1 X108.446 Y102.938 E9.9488
G1 X107.822 Y103.088 E10.0290
G1 X107.195 Y103.374 E10.1152
G1 X106.636 Y103.772 E10.2010
G1 X106.163 Y104.269 E10.2869
G1 X105.792 Y104.846 E10.3727
G1 X105.537 Y105.483 E10.4585
G1 X105.407 Y106.157 E10.5443
G1 X105.407 Y106.843 E10.6301
G1 X105.537 Y107.517 E10.7159
G1 X105.792 Y108.154 E10.8018
G1 X106.163 Y108.731 E10.8876
G1 X106.636 Y109.228 E10.9734
G1 X107.195 Y109.626 E11.0592
G1 X107.649 Y109.833 E11.1216
G1 X107.525 Y110.400 E11.1941
G1 X92.475 Y110.400 E13.0763
G1 X92.351 Y109.833 E13.1489
G1 X92.805 Y109.626 E13.2112
G1 X93.364 Y109.228 E13.2971
G1 X93.837 Y108.731 E13.3829
G1 X94.208 Y108.154 E13.4687
G1 X94.463 Y107.517 E13.5545
G1 X94.593 Y106.843 E13.6403
G1 X94.593 Y106.157 E13.7261
G1 X94.463 Y105.483 E13.8119
G1 X94.208 Y104.846 E13.8978
G1 X93.837 Y104.269 E13.9836
G1 X93.364 Y103.772 E14.0694
G1 X92.805 Y103.374 E14.1552
G1 X92.180 Y103.089 E14.2410
G1 X91.514 Y102.927 E14.3269
G1 X90.828 Y102.895 E14.4127
G1 X90.149 Y102.992 E14.4985
G1 X89.501 Y103.217 E14.5843
G1 X88.906 Y103.560 E14.6701
G1 X88.388 Y104.009 E14.7559
G1 X87.995 Y104.509 E14.8355
G1 X87.773 Y104.893 E14.8909
G1 X87.537 Y105.483 E14.9704
G1 X87.407 Y106.157 E15.0562
G1 X87.407 Y106.843 E15.1420
G1 X87.537 Y107.517 E15.2279
G1 X87.792 Y108.154 E15.3137
G1 X88.163 Y108.731 E15.3995
G1 X88.636 Y109.228 E15.4853
G1 X89.195 Y109.626 E15.5711
G1 X89.649 Y109.833 E15.6335
G1 X89.525 Y110.400 E15.7060
G1 X80.600 Y110.400 E16.8222
G1 X80.600 Y89.600 E19.4234
G1 X79.800 Y88.800 F18000
G92 E0.0000
G1 X120.200 Y88.800 E5.0523 F810
G1 X120.200 Y111.200 E7.8536
G1 X79.800 Y111.200 E12.9060
G1 X79.800 Y88.800 E15.7073
; feature outer perimeter
G1 X79.000 Y88.000 F18000
G92 E0.0000
G1 X121.000 Y88.000 E5.2524 F540
G1 X121.000 Y112.000 E8.2538
G1 X79.000 Y112.000 E13.5063
G1 X79.000 Y88.000 E16.5077
; feature inner perimeter
G1 X89.372 Y104.214 F18000
G92 E0.0000
G1 X88.969 Y104.564 E0.0667 F810
G1 X88.659 Y104.958 E0.1295
G1 X88.494 Y105.243 E0.1706
G1 X88.308 Y105.710 E0.2335
G1 X88.207 Y106.233 E0.3002
G1 X88.207 Y106.767 E0.3669
G1 X88.308 Y107.290 E0.4336
G1 X88.506 Y107.786 E0.5003
G1 X88.794 Y108.235 E0.5670
G1 X89.162 Y108.621 E0.6337
G1 X89.597 Y108.930 E0.7004
G1 X90.082 Y109.152 E0.7671
G1 X90.601 Y109.277 E0.8338
G1 X91.102 Y109.301 E0.8967
G1 X91.422 Y109.271 E0.9368
G1 X91.916 Y109.152 E1.0003
G1 X92.403 Y108.930 E1.0673
G1 X92.838 Y108.621 E1.1340
G1 X93.206 Y108.235 E1.2007
G1 X93.494 Y107.786 E1.2674
G1 X93.692 Y107.290 E1.3341
G1 X93.793 Y106.767 E1.4008
G1 X93.793 Y106.233 E1.4675
G1 X93.692 Y105.709 E1.5343
G1 X93.494 Y105.214 E1.6010
G1 X93.206 Y104.765 E1.6677
G1 X92.838 Y104.379 E1.7344
G1 X92.403 Y104.070 E1.8011
G1 X91.918 Y103.848 E1.8678
G1 X91.399 Y103.723 E1.9345
G1 X90.867 Y103.697 E2.0012
G1 X90.338 Y103.773 E2.0679
G1 X89.834 Y103.948 E2.1347
G1 X89.372 Y104.214 E2.2014
; feature outer perimeter
G1 X89.839 Y104.869 F18000
G92 E0.0000
G1 X89.551 Y105.118 E0.0476 F540
G1 X89.323 Y105.408 E0.0937
G1 X89.216 Y105.594 E0.1205
G1 X89.079 Y105.936 E0.1666
G1 X89.007 Y106.310 E0.2142
G1 X89.007 Y106.690 E0.2618
G1 X89.079 Y107.064 E0.3094
G1 X89.220 Y107.417 E0.3570
G1 X89.426 Y107.738 E0.4046
G1 X89.689 Y108.013 E0.4522
G1 X89.999 Y108.234 E0.4998
G1 X90.345 Y108.392 E0.5474
G1 X90.715 Y108.482 E0.5950
G1 X91.083 Y108.499 E0.6412
G1 X91.290 Y108.480 E0.6671
G1 X91.654 Y108.392 E0.7140
G1 X92.001 Y108.234 E0.7617
G1 X92.311 Y108.013 E0.8093
G1 X92.574 Y107.738 E0.8569
G1 X92.780 Y107.417 E0.9045
G1 X92.921 Y107.064 E0.9521
G1 X92.993 Y106.690 E0.9997
G1 X92.993 Y106.310 E1.0473
G1 X92.921 Y105.936 E1.0949
G1 X92.780 Y105.582 E1.1425
G1 X92.574 Y105.262 E1.1901
G1 X92.311 Y104.987 E1.2377
G1 X92.001 Y104.766 E1.2853
G1 X91.655 Y104.608 E1.3329
G1 X91.285 Y104.518 E1.3805
G1 X90.905 Y104.500 E1.4281
G1 X90.528 Y104.554 E1.4757
G1 X90.168 Y104.679 E1.5233
G1 X89.839 Y104.869 E1.5709
; feature inner perimeter
G1 X106.207 Y106.233 F18000
G92 E0.0000
G1 X106.207 Y106.767 E0.0667 F810
G1 X106.308 Y107.290 E0.1334
G1 X106.506 Y107.786 E0.2001
G1 X106.794 Y108.235 E0.2668
G1 X107.162 Y108.621 E0.3335
G1 X107.597 Y108.930 E0.4003
G1 X108.082 Y109.152 E0.4670
G1 X108.601 Y109.277 E0.5337
G1 X109.133 Y109.303 E0.6004
G1 X109.662 Y109.227 E0.6671
G1 X110.166 Y109.052 E0.7338
G1 X110.628 Y108.786 E0.8005
G1 X111.031 Y108.436 E0.8672
G1 X111.341 Y108.041 E0.9301
G1 X111.506 Y107.757 E0.9712
G1 X111.692 Y107.290 E1.0340
G1 X111.793 Y106.767 E1.1007
G1 X111.793 Y106.233 E1.1674
G1 X111.692 Y105.709 E1.2341
G1 X111.494 Y105.214 E1.3008
G1 X111.206 Y104.765 E1.3675
G1 X110.838 Y104.379 E1.4342
G1 X110.403 Y104.070 E1.5010
G1 X109.918 Y103.848 E1.5677
G1 X109.399 Y103.723 E1.6344
G1 X108.898 Y103.699 E1.6972
G1 X108.578 Y103.729 E1.7374
G1 X108.084 Y103.848 E1.8009
G1 X107.597 Y104.070 E1.8678
G1 X107.162 Y104.379 E1.9345
G1 X106.794 Y104.765 E2.0012
G1 X106.506 Y105.214 E2.0680
G1 X106.308 Y105.709 E2.1347
G1 X106.207 Y106.233 E2.2014
; feature outer perimeter
G1 X107.007 Y106.310 F18000
G92 E0.0000
G1 X107.007 Y106.690 E0.0476 F540
G1 X107.079 Y107.064 E0.0952
G1 X107.220 Y107.417 E0.1428
G1 X107.426 Y107.738 E0.1904
G1 X107.689 Y108.013 E0.2380
G1 X107.999 Y108.234 E0.2856
G1 X108.345 Y108.392 E0.3332
G1 X108.715 Y108.482 E0.3808
G1 X109.095 Y108.500 E0.4284
G1 X109.472 Y108.446 E0.4760
G1 X109.832 Y108.321 E0.5236
G1 X110.161 Y108.131 E0.5713
G1 X110.449 Y107.882 E0.6189
G1 X110.677 Y107.592 E0.6650
G1 X110.784 Y107.406 E0.6918
G1 X110.921 Y107.064 E0.7379
G1 X110.993 Y106.690 E0.7855
G1 X110.993 Y106.310 E0.8331
G1 X110.921 Y105.936 E0.8807
G1 X110.780 Y105.582 E0.9283
G1 X110.574 Y105.262 E0.9759
G1 X110.311 Y104.987 E1.0235
G1 X110.001 Y104.766 E1.0711
G1 X109.655 Y104.608 E1.1187
G1 X109.285 Y104.518 E1.1663
G1 X108.917 Y104.501 E1.2124
G1 X108.710 Y104.520 E1.2384
G1 X108.346 Y104.608 E1.2852
G1 X107.999 Y104.766 E1.3329
G1 X107.689 Y104.987 E1.3805
G1 X107.426 Y105.262 E1.4281
G1 X107.220 Y105.582 E1.4757
G1 X107.079 Y105.936 E1.5233
G1 X107.007 Y106.310 E1.5709
; feature internal single extrusion
G1 X108.354 Y110.233 F18000
G92 E0.0000
G1 X108.632 Y110.240 E0.0347 F540
G1 X108.709 Y110.242 E0.0444
G1 X108.787 Y110.244 E0.0541
G1 X108.865 Y110.245 E0.0638
G1 X108.942 Y110.247 E0.0735
G1 X109.020 Y110.249 E0.0832
G1 X109.097 Y110.251 E0.0930
G1 X109.175 Y110.252 E0.1027
G1 X109.252 Y110.248 E0.1124
G1 X109.330 Y110.242 E0.1221
G1 X109.607 Y110.222 E0.1568
G1 X91.634 Y110.227 F18000
G92 E0.0000
G1 X91.355 Y110.241 E0.0349 F540
G1 X91.276 Y110.244 E0.0448
G1 X91.197 Y110.248 E0.0546
G1 X91.118 Y110.251 E0.0645
G1 X91.039 Y110.250 E0.0744
G1 X90.961 Y110.248 E0.0843
G1 X90.882 Y110.246 E0.0941
G1 X90.803 Y110.244 E0.1040
G1 X90.724 Y110.242 E0.1139
G1 X90.645 Y110.240 E0.1237
G1 X90.566 Y110.238 E0.1336
G1 X90.346 Y109.985 E0.1756
; feature solid layer
G1 X93.857 Y109.696 F18000
G92 E0.0000
G1 X93.881 Y109.720 E0.0042 F864
G1 X95.012 Y109.720 E0.1457
G1 X94.402 Y109.110 E0.2536
G1 X94.815 Y108.467 E0.3492
G1 X94.837 Y108.413 E0.3564
G1 X96.144 Y109.720 E0.5875
G1 X97.275 Y109.720 E0.7290
G1 X95.142 Y107.587 E1.1062
G1 X95.273 Y106.908 E1.1927
G1 X95.273 Y106.587 E1.2328
G1 X98.406 Y109.720 E1.7870
G1 X99.538 Y109.720 E1.9284
G1 X95.121 Y105.304 E2.7095
G1 X81.436 Y109.720 F18000
G92 E0.0000
G1 X81.280 Y109.564 E0.0275 F864
G1 X81.280 Y108.433 E0.1690
G1 X82.567 Y109.720 E0.3967
G1 X83.698 Y109.720 E0.5382
G1 X81.280 Y107.302 E0.9659
G1 X81.280 Y106.170 E1.1074
G1 X84.830 Y109.720 E1.7352
G1 X85.961 Y109.720 E1.8767
G1 X81.280 Y105.039 E2.7046
G1 X81.280 Y103.907 E2.8461
G1 X87.093 Y109.720 E3.8741
G1 X88.166 Y109.720 E4.0083
G1 X87.626 Y109.153 E4.1062
G1 X87.569 Y109.065 E4.1194
G1 X81.280 Y102.776 E5.2316
G1 X81.280 Y101.645 E5.3731
G1 X86.771 Y107.135 E6.3442
G1 X86.727 Y106.908 E6.3731
G1 X86.727 Y106.092 E6.4751
G1 X86.748 Y105.981 E6.4892
G1 X81.280 Y100.513 E7.4563
G1 X81.280 Y99.382 E7.5978
G1 X86.969 Y105.071 E8.6040
G1 X87.160 Y104.595 E8.6681
G1 X87.330 Y104.300 E8.7106
G1 X81.280 Y98.251 E9.7806
G1 X81.280 Y97.119 E9.9221
G1 X87.808 Y103.647 E11.0765
G1 X87.893 Y103.538 E11.0939
G1 X88.395 Y103.103 E11.1769
G1 X81.280 Y95.988 E12.4353
G1 X81.280 Y94.856 E12.5768
G1 X89.091 Y102.668 E13.9583
G1 X89.217 Y102.595 E13.9764
G1 X89.910 Y102.355 E14.0682
G1 X81.280 Y93.725 E15.5945
G1 X81.280 Y92.594 E15.7360
G1 X90.904 Y102.217 E17.4380
G1 X91.611 Y102.251 E17.5266
G1 X92.215 Y102.398 E17.6043
G1 X81.280 Y91.462 E19.5384
G1 X81.280 Y90.331 E19.6799
G1 X100.669 Y109.720 E23.1090
G1 X101.800 Y109.720 E23.2505
G1 X82.360 Y90.280 E26.6886
G1 X83.492 Y90.280 E26.8301
G1 X102.932 Y109.720 E30.2682
G1 X104.063 Y109.720 E30.4097
G1 X84.623 Y90.280 E33.8478
G1 X85.755 Y90.280 E33.9893
G1 X105.195 Y109.720 E37.4275
G1 X106.166 Y109.720 E37.5489
G1 X105.626 Y109.153 E37.6468
G1 X105.385 Y108.779 E37.7024
