; G-Code generated by Simplify3D(R) Version 4.1.2
; Jul 20, 2022 at 9:53:11 PM
; Settings Summary
;   processName,Process1
;   applyToModels,z-motor-mount-v2
;   profileName,HSBot
;   profileVersion,2019-11-09 11:59:44
;   baseProfile,Default
;   printMaterial,PETG - Eryone
;   printQuality,Medium
;   printExtruders,
;   extruderName,Extruder - v6,Extruder - lgx ace
;   extruderToolheadNumber,0,1
;   extruderDiameter,0.4,0.4
;   extruderAutoWidth,1,1
;   extruderWidth,0.48,0.48
;   extrusionMultiplier,1.03,1.03
;   extruderUseRetract,0,1
;   extruderRetractionDistance,4,1
;   extruderExtraRestartDistance,0,0
;   extruderRetractionZLift,0,0
;   extruderRetractionSpeed,3600,3600
;   extruderUseCoasting,0,0
;   extruderCoastingDistance,0.2,0.2
;   extruderUseWipe,0,1
;   extruderWipeDistance,1,1
;   primaryExtruder,1
;   layerHeight,0.2
;   topSolidLayers,3
;   bottomSolidLayers,3
;   perimeterOutlines,3
;   printPerimetersInsideOut,1
;   startPointOption,2
;   startPointOriginX,0
;   startPointOriginY,0
;   sequentialIslands,0
;   spiralVaseMode,0
;   firstLayerHeightPercentage,100
;   firstLayerWidthPercentage,150
;   firstLayerUnderspeed,0.25
;   useRaft,0
;   raftExtruder,0
;   raftTopLayers,3
;   raftBaseLayers,2
;   raftOffset,3
;   raftSeparationDistance,0.18
;   raftTopInfill,100
;   aboveRaftSpeedMultiplier,0.3
;   useSkirt,1
;   skirtExtruder,1
;   skirtLayers,1
;   skirtOutlines,10
;   skirtOffset,0
;   usePrimePillar,0
;   primePillarExtruder,999
;   primePillarWidth,12
;   primePillarLocation,7
;   primePillarSpeedMultiplier,1
;   useOozeShield,0
;   oozeShieldExtruder,999
;   oozeShieldOffset,2
;   oozeShieldOutlines,1
;   oozeShieldSidewallShape,1
;   oozeShieldSidewallAngle,30
;   oozeShieldSpeedMultiplier,1
;   infillExtruder,1
;   internalInfillPattern,Rectilinear
;   externalInfillPattern,Rectilinear
;   infillPercentage,15
;   outlineOverlapPercentage,20
;   infillExtrusionWidthPercentage,100
;   minInfillLength,3
;   infillLayerInterval,1
;   internalInfillAngles,45,-45
;   overlapInternalInfillAngles,0
;   externalInfillAngles,45,-45
;   generateSupport,0
;   supportExtruder,1
;   supportInfillPercentage,30
;   supportExtraInflation,0
;   supportBaseLayers,1
;   denseSupportExtruder,0
;   denseSupportLayers,0
;   denseSupportInfillPercentage,70
;   supportLayerInterval,1
;   supportHorizontalPartOffset,0.3
;   supportUpperSeparationLayers,1
;   supportLowerSeparationLayers,1
;   supportType,0
;   supportGridSpacing,2
;   maxOverhangAngle,45
;   supportAngles,0
;   temperatureName,v6,Bed,lgx-ace
;   temperatureNumber,0,0,1
;   temperatureSetpointCount,1,1,1
;   temperatureSetpointLayers,1,1,1
;   temperatureSetpointTemperatures,0,85,230
;   temperatureStabilizeAtStartup,1,1,1
;   temperatureHeatedBed,0,1,0
;   fanLayers,1,2,3
;   fanSpeeds,0,15,15
;   blipFanToFullPower,0
;   adjustSpeedForCooling,0
;   minSpeedLayerTime,15
;   minCoolingSpeedSlowdown,50
;   increaseFanForCooling,0
;   minFanLayerTime,45
;   maxCoolingFanSpeed,70
;   increaseFanForBridging,0
;   bridgingFanSpeed,80
;   use5D,1
;   relativeEdistances,0
;   allowEaxisZeroing,1
;   independentExtruderAxes,0
;   includeM10123,0
;   stickySupport,1
;   applyToolheadOffsets,0
;   gcodeXoffset,0
;   gcodeYoffset,0
;   gcodeZoffset,0
;   overrideMachineDefinition,1
;   machineTypeOverride,0
;   strokeXoverride,220
;   strokeYoverride,220
;   strokeZoverride,175
;   originOffsetXoverride,0
;   originOffsetYoverride,0
;   originOffsetZoverride,0
;   homeXdirOverride,-1
;   homeYdirOverride,-1
;   homeZdirOverride,-1
;   flipXoverride,1
;   flipYoverride,-1
;   flipZoverride,1
;   toolheadOffsets,0,0|0,0|0,0|0,0|0,0|0,0
;   overrideFirmwareConfiguration,0
;   firmwareTypeOverride,RepRap (Marlin/Repetier/Sprinter)
;   GPXconfigOverride,r2
;   baudRateOverride,115200
;   overridePrinterModels,0
;   printerModelsOverride
;   startingGcode,G28 ; home all axes,G32 ; run bed.g -- probe bed and enable compensation
;   layerChangeGcode,
;   retractionGcode,
;   toolChangeGcode,
;   endingGcode,M0 ; call stop.g
;   exportFileFormat,gcode
;   celebration,0
;   celebrationSong,Random Song
;   postProcessing,|; 0.2mm layer, 8 bands 5mm each, total height 40mm|{REPLACE "; layer 25" "M572 D0 S0.69\n; layer 10"}|{REPLACE "; layer 50" "M572 D0 S0.70\n; layer 50"}|{REPLACE "; layer 75" "M572 D0 S0.71\n; layer 75"}|{REPLACE "; layer 100" "M572 D0 S0.72\n; layer 100"}|{REPLACE "; layer 125" "M572 D0 S0.73\n; layer 125"}|{REPLACE "; layer 150" "M572 D0 S0.74\n; layer 150"}|{REPLACE "; layer 175" "M572 D0 S0.75\n; layer 175"}|{REPLACE "; layer 200" "M572 D0 S0.76\n; layer 200"}
;   defaultSpeed,6600
;   outlineUnderspeed,0.8
;   solidInfillUnderspeed,0.75
;   supportUnderspeed,0.8
;   rapidXYspeed,18000
;   rapidZspeed,1200
;   minBridgingArea,60
;   bridgingExtraInflation,0
;   bridgingExtrusionMultiplier,0.96
;   bridgingSpeedMultiplier,1
;   useFixedBridgingAngle,0
;   fixedBridgingAngle,0
;   applyBridgingToPerimeters,0
;   filamentDiameters,1.75|1.75|1.75|1.75|1.75|1.75
;   filamentPricesPerKg,25|46|46|46|46|46
;   filamentDensities,1.29|1.25|1.25|1.25|1.25|1.25
;   useMinPrintHeight,0
;   minPrintHeight,0.3
;   useMaxPrintHeight,0
;   maxPrintHeight,110
;   useDiaphragm,0
;   diaphragmLayerInterval,20
;   robustSlicing,1
;   mergeAllIntoSolid,0
;   onlyRetractWhenCrossingOutline,1
;   retractBetweenLayers,0
;   useRetractionMinTravel,1
;   retractionMinTravel,5
;   retractWhileWiping,1
;   onlyWipeOutlines,1
;   avoidCrossingOutline,1
;   maxMovementDetourFactor,2
;   toolChangeRetractionDistance,12
;   toolChangeExtraRestartDistance,0
;   toolChangeRetractionSpeed,600
;   externalThinWallType,0
;   internalThinWallType,1
;   thinWallAllowedOverlapPercentage,10
;   singleExtrusionMinLength,0.1
;   singleExtrusionMinPrintingWidthPercentage,50
;   singleExtrusionMaxPrintingWidthPercentage,200
;   singleExtrusionEndpointExtension,0.2
;   horizontalSizeCompensation,0
G90
M82
M106 S0
M140 S85
M190 S85
G10 S0 R{0-50} P0
G10 S230 R{230-50} P1
M116 P1
G28 ; home all axes
G32 ; run bed.g -- probe bed and enable compensation
; process Process1
; layer 1, Z = 0.200
T1
G92 E0.0000
G1 E-1.0000 F3600
; feature skirt
; tool H0.200 W0.720
G1 Z0.200 F1200
G1 X82.701 Y75.875 F18000
G1 E0.0000 F3600
G92 E0.0000
G1 X89.625 Y68.951 E0.6038 F1650
G1 X92.139 Y67.910 E0.7716
G1 X127.861 Y67.910 E2.9743
G1 X130.375 Y68.951 E3.1421
G1 X137.298 Y75.875 E3.7459
G1 X138.340 Y78.389 E3.9137
G1 X138.340 Y148.083 E8.2114
G1 X134.333 Y152.090 E8.5608
G1 X119.139 Y152.090 E9.4977
G1 X116.625 Y151.049 E9.6655
G1 X114.601 Y149.025 E9.8420
G1 X113.560 Y146.511 E10.0098
G1 X113.560 Y132.090 E10.8990
G1 X106.440 Y132.090 E11.3381
G1 X106.440 Y146.510 E12.2273
G1 X105.399 Y149.024 E12.3951
G1 X103.375 Y151.049 E12.5716
G1 X100.861 Y152.090 E12.7394
G1 X85.667 Y152.090 E13.6763
G1 X81.660 Y148.083 E14.0258
G1 X81.660 Y78.389 E18.3234
G1 X82.701 Y75.875 E18.4912
G1 X83.312 Y76.283 F18000
G92 E0.0000
G1 X90.033 Y69.562 E0.5861 F1650
G1 X92.283 Y68.630 E0.7363
G1 X127.717 Y68.630 E2.9214
G1 X129.967 Y69.562 E3.0715
G1 X136.688 Y76.283 E3.6576
G1 X137.620 Y78.532 E3.8078
G1 X137.620 Y147.785 E8.0782
G1 X134.035 Y151.370 E8.3908
G1 X119.283 Y151.370 E9.3005
G1 X117.033 Y150.438 E9.4506
G1 X115.212 Y148.617 E9.6095
G1 X114.280 Y146.367 E9.7596
G1 X114.280 Y131.370 E10.6844
G1 X105.720 Y131.370 E11.2123
G1 X105.720 Y146.367 E12.1371
G1 X104.788 Y148.616 E12.2872
G1 X102.967 Y150.438 E12.4460
G1 X100.717 Y151.370 E12.5962
G1 X85.965 Y151.370 E13.5059
G1 X82.380 Y147.785 E13.8185
G1 X82.380 Y78.532 E18.0889
G1 X83.312 Y76.283 E18.2391
G1 X83.922 Y76.691 F18000
G92 E0.0000
G1 X90.441 Y70.172 E0.5685 F1650
G1 X92.426 Y69.350 E0.7010
G1 X127.574 Y69.350 E2.8684
G1 X129.559 Y70.172 E3.0008
G1 X136.078 Y76.691 E3.5693
G1 X136.900 Y78.676 E3.7018
G1 X136.900 Y147.487 E7.9450
G1 X133.737 Y150.650 E8.2208
G1 X119.426 Y150.650 E9.1033
G1 X117.441 Y149.828 E9.2358
G1 X115.822 Y148.209 E9.3770
G1 X115.000 Y146.224 E9.5094
G1 X115.000 Y130.650 E10.4698
G1 X105.000 Y130.650 E11.0864
G1 X105.000 Y146.224 E12.0468
G1 X104.178 Y148.209 E12.1793
G1 X102.559 Y149.828 E12.3205
G1 X100.574 Y150.650 E12.4529
G1 X86.263 Y150.650 E13.3354
G1 X83.100 Y147.487 E13.6113
G1 X83.100 Y78.676 E17.8545
G1 X83.922 Y76.691 E17.9869
G1 X84.533 Y77.099 F18000
G92 E0.0000
G1 X90.849 Y70.783 E0.5508 F1650
G1 X92.569 Y70.070 E0.6656
G1 X127.431 Y70.070 E2.8154
G1 X129.151 Y70.783 E2.9302
G1 X135.467 Y77.099 E3.4810
G1 X136.180 Y78.819 E3.5958
G1 X136.180 Y147.188 E7.8118
G1 X133.438 Y149.930 E8.0509
G1 X119.569 Y149.930 E8.9061
G1 X117.849 Y149.217 E9.0209
G1 X116.433 Y147.801 E9.1444
G1 X115.720 Y146.081 E9.2592
G1 X115.720 Y129.930 E10.2552
G1 X104.280 Y129.930 E10.9606
G1 X104.280 Y146.081 E11.9565
G1 X103.568 Y147.801 E12.0713
G1 X102.151 Y149.217 E12.1949
G1 X100.431 Y149.930 E12.3097
G1 X86.561 Y149.930 E13.1649
G1 X83.820 Y147.188 E13.4040
G1 X83.820 Y78.819 E17.6200
G1 X84.533 Y77.099 E17.7348
G1 X85.143 Y77.507 F18000
G92 E0.0000
G1 X91.257 Y71.393 E0.5332 F1650
G1 X92.712 Y70.790 E0.6303
G1 X127.288 Y70.790 E2.7624
G1 X128.743 Y71.393 E2.8595
G1 X134.857 Y77.507 E3.3927
G1 X135.460 Y78.962 E3.4898
G1 X135.460 Y146.890 E7.6786
G1 X133.140 Y149.210 E7.8809
G1 X119.712 Y149.210 E8.7089
G1 X118.257 Y148.607 E8.8060
G1 X117.043 Y147.393 E8.9119
G1 X116.440 Y145.938 E9.0091
G1 X116.440 Y129.210 E10.0406
G1 X103.560 Y129.210 E10.8348
G1 X103.560 Y145.938 E11.8663
G1 X102.957 Y147.393 E11.9634
G1 X101.743 Y148.607 E12.0693
G1 X100.288 Y149.210 E12.1665
G1 X86.860 Y149.210 E12.9945
G1 X84.540 Y146.890 E13.1968
G1 X84.540 Y78.962 E17.3855
G1 X85.143 Y77.507 E17.4827
G1 X85.753 Y77.915 F18000
G92 E0.0000
G1 X91.665 Y72.003 E0.5155 F1650
G1 X92.855 Y71.510 E0.5950
G1 X127.145 Y71.510 E2.7094
G1 X128.335 Y72.003 E2.7889
G1 X134.247 Y77.915 E3.3044
G1 X134.740 Y79.105 E3.3839
G1 X134.740 Y146.592 E7.5454
G1 X132.842 Y148.490 E7.7109
G1 X119.855 Y148.490 E8.5117
G1 X118.665 Y147.997 E8.5912
G1 X117.653 Y146.985 E8.6794
G1 X117.160 Y145.795 E8.7589
G1 X117.160 Y128.490 E9.8259
G1 X102.840 Y128.490 E10.7090
G1 X102.840 Y145.794 E11.7760
G1 X102.347 Y146.985 E11.8555
G1 X101.335 Y147.997 E11.9437
G1 X100.144 Y148.490 E12.0232
G1 X87.158 Y148.490 E12.8240
G1 X85.260 Y146.592 E12.9895
G1 X85.260 Y79.105 E17.1510
G1 X85.753 Y77.915 E17.2305
G1 X86.364 Y78.323 F18000
G92 E0.0000
G1 X92.073 Y72.614 E0.4978 F1650
G1 X92.999 Y72.230 E0.5597
G1 X127.001 Y72.230 E2.6564
G1 X127.927 Y72.614 E2.7182
G1 X133.636 Y78.322 E3.2161
G1 X134.020 Y79.249 E3.2779
G1 X134.020 Y146.294 E7.4122
G1 X132.544 Y147.770 E7.5409
G1 X119.999 Y147.770 E8.3145
G1 X119.073 Y147.386 E8.3763
G1 X118.264 Y146.577 E8.4469
G1 X117.880 Y145.651 E8.5087
G1 X117.880 Y127.770 E9.6113
G1 X102.120 Y127.770 E10.5831
G1 X102.120 Y145.651 E11.6858
G1 X101.736 Y146.577 E11.7476
G1 X100.928 Y147.386 E11.8181
G1 X100.001 Y147.770 E11.8800
G1 X87.456 Y147.770 E12.6535
G1 X85.980 Y146.294 E12.7823
G1 X85.980 Y79.249 E16.9166
G1 X86.364 Y78.323 E16.9784
G1 X86.974 Y78.730 F18000
G92 E0.0000
G1 X92.480 Y73.224 E0.4802 F1650
G1 X93.142 Y72.950 E0.5243
G1 X126.858 Y72.950 E2.6034
G1 X127.520 Y73.224 E2.6476
G1 X133.026 Y78.730 E3.1278
G1 X133.300 Y79.392 E3.1719
G1 X133.300 Y145.996 E7.2790
G1 X132.246 Y147.050 E7.3709
G1 X120.142 Y147.050 E8.1173
G1 X119.480 Y146.776 E8.1615
G1 X118.874 Y146.170 E8.2143
G1 X118.600 Y145.508 E8.2585
G1 X118.600 Y127.050 E9.3967
G1 X101.400 Y127.050 E10.4573
G1 X101.400 Y145.508 E11.5955
G1 X101.126 Y146.170 E11.6397
G1 X100.520 Y146.776 E11.6926
G1 X99.858 Y147.050 E11.7367
G1 X87.754 Y147.050 E12.4831
G1 X86.700 Y145.996 E12.5750
G1 X86.700 Y79.392 E16.6821
G1 X86.974 Y78.730 E16.7263
G1 X87.584 Y79.138 F18000
G92 E0.0000
G1 X92.888 Y73.834 E0.4625 F1650
G1 X93.285 Y73.670 E0.4890
G1 X126.715 Y73.670 E2.5504
G1 X127.112 Y73.834 E2.5769
G1 X132.416 Y79.138 E3.0395
G1 X132.580 Y79.535 E3.0659
G1 X132.580 Y145.697 E7.1458
G1 X131.947 Y146.330 E7.2010
G1 X120.285 Y146.330 E7.9201
G1 X119.888 Y146.166 E7.9466
G1 X119.484 Y145.762 E7.9818
G1 X119.320 Y145.365 E8.0083
G1 X119.320 Y126.330 E9.1821
G1 X100.680 Y126.330 E10.3315
G1 X100.680 Y145.365 E11.5053
G1 X100.516 Y145.762 E11.5318
G1 X100.112 Y146.166 E11.5670
G1 X99.715 Y146.330 E11.5935
G1 X88.053 Y146.330 E12.3126
G1 X87.420 Y145.697 E12.3678
G1 X87.420 Y79.535 E16.4476
G1 X87.584 Y79.138 E16.4741
G1 X88.195 Y79.546 F18000
G92 E0.0000
G1 X93.296 Y74.445 E0.4449 F1650
G1 X93.428 Y74.390 E0.4537
G1 X126.572 Y74.390 E2.4974
G1 X126.704 Y74.445 E2.5063
G1 X131.805 Y79.546 E2.9511
G1 X131.860 Y79.678 E2.9600
G1 X131.860 Y145.399 E7.0126
G1 X131.649 Y145.610 E7.0310
G1 X120.428 Y145.610 E7.7229
G1 X120.296 Y145.555 E7.7317
G1 X120.095 Y145.354 E7.7493
G1 X120.040 Y145.222 E7.7581
G1 X120.040 Y125.610 E8.9675
G1 X99.960 Y125.610 E10.2057
G1 X99.960 Y145.222 E11.4150
G1 X99.905 Y145.354 E11.4238
G1 X99.704 Y145.555 E11.4414
G1 X99.572 Y145.610 E11.4502
G1 X88.351 Y145.610 E12.1421
G1 X88.140 Y145.399 E12.1605
G1 X88.140 Y79.678 E16.2132
G1 X88.195 Y79.546 E16.2220
; feature inner perimeter
G1 X88.860 Y79.899 F18000
G1 X88.897 Y79.863
G1 X90.300 Y80.496
G92 E0.0000
G1 X91.206 Y79.590 E0.0790 F1485
G1 X91.091 Y80.750 E0.1508
G1 X91.157 Y81.415 E0.1920
G1 X91.351 Y82.054 E0.2332
G1 X91.666 Y82.644 E0.2744
G1 X92.090 Y83.160 E0.3157
G1 X92.606 Y83.584 E0.3569
G1 X93.196 Y83.899 E0.3981
G1 X93.835 Y84.093 E0.4393
G1 X94.500 Y84.159 E0.4805
G1 X95.165 Y84.093 E0.5217
G1 X95.804 Y83.899 E0.5629
G1 X96.394 Y83.584 E0.6041
G1 X96.910 Y83.160 E0.6453
G1 X97.334 Y82.644 E0.6865
G1 X97.649 Y82.054 E0.7277
G1 X97.843 Y81.415 E0.7689
G1 X97.909 Y80.750 E0.8101
G1 X97.844 Y80.088 E0.8512
G1 X97.649 Y79.444 E0.8926
G1 X97.333 Y78.855 E0.9339
G1 X96.909 Y78.339 E0.9750
G1 X96.393 Y77.915 E1.0162
G1 X95.803 Y77.600 E1.0574
G1 X95.164 Y77.407 E1.0986
G1 X94.499 Y77.341 E1.1398
G1 X93.340 Y77.456 E1.2117
G1 X94.246 Y76.550 E1.2906
G1 X125.754 Y76.550 E3.2336
G1 X126.660 Y77.456 E3.3126
G1 X125.501 Y77.341 E3.3844
G1 X124.836 Y77.407 E3.4256
G1 X124.197 Y77.600 E3.4668
G1 X123.607 Y77.915 E3.5080
G1 X123.091 Y78.339 E3.5492
G1 X122.667 Y78.855 E3.5904
G1 X122.352 Y79.443 E3.6315
G1 X122.157 Y80.082 E3.6727
G1 X122.091 Y80.749 E3.7141
G1 X122.157 Y81.415 E3.7553
G1 X122.351 Y82.054 E3.7965
G1 X122.666 Y82.644 E3.8377
G1 X123.090 Y83.160 E3.8789
G1 X123.606 Y83.584 E3.9201
G1 X124.196 Y83.899 E3.9613
G1 X124.835 Y84.093 E4.0026
G1 X125.500 Y84.159 E4.0438
G1 X126.165 Y84.093 E4.0850
G1 X126.804 Y83.899 E4.1262
G1 X127.394 Y83.584 E4.1674
G1 X127.910 Y83.160 E4.2086
G1 X128.334 Y82.644 E4.2498
G1 X128.649 Y82.054 E4.2910
G1 X128.843 Y81.415 E4.3322
G1 X128.909 Y80.750 E4.3734
G1 X128.794 Y79.590 E4.4453
G1 X129.700 Y80.496 E4.5242
G1 X129.700 Y143.450 E8.4063
G1 X122.200 Y143.450 E8.8688
G1 X122.200 Y123.450 E10.1020
G1 X97.800 Y123.450 E11.6067
G1 X97.800 Y143.450 E12.8399
G1 X90.300 Y143.450 E13.3024
G1 X90.300 Y80.496 E17.1845
G1 X89.580 Y80.197 F18000
G92 E0.0000
G1 X93.947 Y75.830 E0.3809 F1485
G1 X126.053 Y75.830 E2.3606
G1 X130.420 Y80.197 E2.7415
G1 X130.420 Y144.170 E6.6863
G1 X121.480 Y144.170 E7.2376
G1 X121.480 Y124.170 E8.4709
G1 X98.520 Y124.170 E9.8867
G1 X98.520 Y144.170 E11.1200
G1 X89.580 Y144.170 E11.6712
G1 X89.580 Y80.197 E15.6161
; feature outer perimeter
G1 X88.860 Y79.899 F18000
G92 E0.0000
G1 X93.649 Y75.110 E0.4176 F1320
G1 X126.351 Y75.110 E2.4342
G1 X131.140 Y79.899 E2.8518
G1 X131.140 Y144.890 E6.8594
G1 X120.760 Y144.890 E7.4995
G1 X120.760 Y124.890 E8.7328
G1 X99.240 Y124.890 E10.0598
G1 X99.240 Y144.890 E11.2931
G1 X88.860 Y144.890 E11.9332
G1 X88.860 Y79.899 E15.9408
G1 X89.567 Y79.192 F1320
; feature inner perimeter
G1 X92.019 Y79.723 F18000
G92 E0.0000
G1 X91.866 Y80.226 E0.0325 F1485
G1 X91.815 Y80.750 E0.0649
G1 X91.866 Y81.274 E0.0974
G1 X92.019 Y81.778 E0.1298
G1 X92.267 Y82.242 E0.1623
G1 X92.601 Y82.649 E0.1947
G1 X93.008 Y82.983 E0.2272
G1 X93.472 Y83.231 E0.2597
G1 X93.976 Y83.384 E0.2921
G1 X94.500 Y83.435 E0.3246
G1 X95.024 Y83.384 E0.3570
G1 X95.528 Y83.231 E0.3895
