; G-Code generated by Simplify3D(R) Version 4.1.2
; Jul 19, 2022 at 11:32:59 PM
; Settings Summary
;   processName,Process1
;   applyToModels,brush-mount-right
;   profileName,HSBot (modified)
;   profileVersion,2019-11-09 11:59:44
;   baseProfile,Default
;   printMaterial,PETG - Eryone
;   printQuality,Medium
;   printExtruders,
;   extruderName,Extruder - v6,Extruder - lgx ace
;   extruderToolheadNumber,0,1
;   extruderDiameter,0.4,0.4
;   extruderAutoWidth,1,1
;   extruderWidth,0.48,0.48
;   extrusionMultiplier,1.03,1.03
;   extruderUseRetract,0,1
;   extruderRetractionDistance,4,1
;   extruderExtraRestartDistance,0,0
;   extruderRetractionZLift,0,0
;   extruderRetractionSpeed,3600,3600
;   extruderUseCoasting,0,0
;   extruderCoastingDistance,0.2,0.2
;   extruderUseWipe,0,1
;   extruderWipeDistance,1,1
;   primaryExtruder,1
;   layerHeight,0.2
;   topSolidLayers,3
;   bottomSolidLayers,3
;   perimeterOutlines,3
;   printPerimetersInsideOut,1
;   startPointOption,2
;   startPointOriginX,0
;   startPointOriginY,0
;   sequentialIslands,0
;   spiralVaseMode,0
;   firstLayerHeightPercentage,100
;   firstLayerWidthPercentage,150
;   firstLayerUnderspeed,0.25
;   useRaft,0
;   raftExtruder,0
;   raftTopLayers,3
;   raftBaseLayers,2
;   raftOffset,3
;   raftSeparationDistance,0.18
;   raftTopInfill,100
;   aboveRaftSpeedMultiplier,0.3
;   useSkirt,0
;   skirtExtruder,1
;   skirtLayers,1
;   skirtOutlines,2
;   skirtOffset,10
;   usePrimePillar,0
;   primePillarExtruder,999
;   primePillarWidth,12
;   primePillarLocation,7
;   primePillarSpeedMultiplier,1
;   useOozeShield,0
;   oozeShieldExtruder,999
;   oozeShieldOffset,2
;   oozeShieldOutlines,1
;   oozeShieldSidewallShape,1
;   oozeShieldSidewallAngle,30
;   oozeShieldSpeedMultiplier,1
;   infillExtruder,1
;   internalInfillPattern,Rectilinear
;   externalInfillPattern,Rectilinear
;   infillPercentage,15
;   outlineOverlapPercentage,20
;   infillExtrusionWidthPercentage,100
;   minInfillLength,3
;   infillLayerInterval,1
;   internalInfillAngles,45,-45
;   overlapInternalInfillAngles,0
;   externalInfillAngles,45,-45
;   generateSupport,1
;   supportExtruder,1
;   supportInfillPercentage,30
;   supportExtraInflation,0
;   supportBaseLayers,1
;   denseSupportExtruder,0
;   denseSupportLayers,0
;   denseSupportInfillPercentage,70
;   supportLayerInterval,1
;   supportHorizontalPartOffset,0.3
;   supportUpperSeparationLayers,1
;   supportLowerSeparationLayers,1
;   supportType,0
;   supportGridSpacing,2
;   maxOverhangAngle,45
;   supportAngles,0
;   temperatureName,v6,Bed,lgx-ace
;   temperatureNumber,0,0,1
;   temperatureSetpointCount,1,1,1
;   temperatureSetpointLayers,1,1,1
;   temperatureSetpointTemperatures,0,85,245
;   temperatureStabilizeAtStartup,1,1,1
;   temperatureHeatedBed,0,1,0
;   fanLayers,1,2,3
;   fanSpeeds,0,15,15
;   blipFanToFullPower,0
;   adjustSpeedForCooling,0
;   minSpeedLayerTime,15
;   minCoolingSpeedSlowdown,50
;   increaseFanForCooling,0
;   minFanLayerTime,45
;   maxCoolingFanSpeed,70
;   increaseFanForBridging,0
;   bridgingFanSpeed,80
;   use5D,1
;   relativeEdistances,0
;   allowEaxisZeroing,1
;   independentExtruderAxes,0
;   includeM10123,0
;   stickySupport,1
;   applyToolheadOffsets,0
;   gcodeXoffset,0
;   gcodeYoffset,0
;   gcodeZoffset,0
;   overrideMachineDefinition,1
;   machineTypeOverride,0
;   strokeXoverride,220
;   strokeYoverride,220
;   strokeZoverride,175
;   originOffsetXoverride,0
;   originOffsetYoverride,0
;   originOffsetZoverride,0
;   homeXdirOverride,-1
;   homeYdirOverride,-1
;   homeZdirOverride,-1
;   flipXoverride,1
;   flipYoverride,-1
;   flipZoverride,1
;   toolheadOffsets,0,0|0,0|0,0|0,0|0,0|0,0
;   overrideFirmwareConfiguration,0
;   firmwareTypeOverride,RepRap (Marlin/Repetier/Sprinter)
;   GPXconfigOverride,r2
;   baudRateOverride,115200
;   overridePrinterModels,0
;   printerModelsOverride
;   startingGcode,G28 ; home all axes,G32 ; run bed.g -- probe bed and enable compensation
;   layerChangeGcode,
;   retractionGcode,
;   toolChangeGcode,
;   endingGcode,M0 ; call stop.g
;   exportFileFormat,gcode
;   celebration,0
;   celebrationSong,Random Song
;   postProcessing,|; 0.2mm layer, 8 bands 5mm each, total height 40mm|{REPLACE "; layer 25" "M572 D0 S0.69\n; layer 10"}|{REPLACE "; layer 50" "M572 D0 S0.70\n; layer 50"}|{REPLACE "; layer 75" "M572 D0 S0.71\n; layer 75"}|{REPLACE "; layer 100" "M572 D0 S0.72\n; layer 100"}|{REPLACE "; layer 125" "M572 D0 S0.73\n; layer 125"}|{REPLACE "; layer 150" "M572 D0 S0.74\n; layer 150"}|{REPLACE "; layer 175" "M572 D0 S0.75\n; layer 175"}|{REPLACE "; layer 200" "M572 D0 S0.76\n; layer 200"}
;   defaultSpeed,5400
;   outlineUnderspeed,1
;   solidInfillUnderspeed,0.75
;   supportUnderspeed,0.8
;   rapidXYspeed,18000
;   rapidZspeed,1200
;   minBridgingArea,60
;   bridgingExtraInflation,0
;   bridgingExtrusionMultiplier,0.96
;   bridgingSpeedMultiplier,1
;   useFixedBridgingAngle,0
;   fixedBridgingAngle,0
;   applyBridgingToPerimeters,0
;   filamentDiameters,1.75|1.75|1.75|1.75|1.75|1.75
;   filamentPricesPerKg,25|46|46|46|46|46
;   filamentDensities,1.29|1.25|1.25|1.25|1.25|1.25
;   useMinPrintHeight,0
;   minPrintHeight,0.3
;   useMaxPrintHeight,0
;   maxPrintHeight,110
;   useDiaphragm,0
;   diaphragmLayerInterval,20
;   robustSlicing,1
;   mergeAllIntoSolid,0
;   onlyRetractWhenCrossingOutline,1
;   retractBetweenLayers,0
;   useRetractionMinTravel,1
;   retractionMinTravel,5
;   retractWhileWiping,1
;   onlyWipeOutlines,1
;   avoidCrossingOutline,1
;   maxMovementDetourFactor,2
;   toolChangeRetractionDistance,12
;   toolChangeExtraRestartDistance,0
;   toolChangeRetractionSpeed,600
;   externalThinWallType,0
;   internalThinWallType,1
;   thinWallAllowedOverlapPercentage,10
;   singleExtrusionMinLength,0.1
;   singleExtrusionMinPrintingWidthPercentage,50
;   singleExtrusionMaxPrintingWidthPercentage,200
;   singleExtrusionEndpointExtension,0.2
;   horizontalSizeCompensation,0
G90
M82
M106 S0
M140 S85
M190 S85
G10 S0 R{0-50} P0
G10 S245 R{245-50} P1
M116 P1
G28 ; home all axes
G32 ; run bed.g -- probe bed and enable compensation
; process Process1
; layer 1, Z = 0.200
T1
G92 E0.0000
G1 E-1.0000 F3600
; feature inner perimeter
; tool H0.200 W0.720
G1 Z0.200 F1200
G1 X77.300 Y109.729 F18000
G1 E0.0000 F3600
G92 E0.0000
G1 X123.300 Y91.729 E3.0460 F1350
G1 X123.300 Y90.300 E3.1341
G1 X142.700 Y90.300 E4.3304
G1 X142.700 Y129.700 E6.7599
G1 X141.300 Y129.700 E6.8463
G1 X141.300 Y91.700 E9.1895
G1 X124.700 Y91.700 E10.2131
G1 X124.700 Y129.700 E12.5564
G1 X121.840 Y129.700 E12.7328
G1 X77.300 Y112.271 E15.6820
G1 X77.300 Y109.729 E15.8389
G1 X76.580 Y109.237 F18000
G92 E0.0000
G1 X122.580 Y91.237 E3.0460 F1350
G1 X122.580 Y89.580 E3.1482
G1 X143.420 Y89.580 E4.4333
G1 X143.420 Y130.420 E6.9516
G1 X140.580 Y130.420 E7.1268
G1 X140.580 Y92.420 E9.4700
G1 X125.420 Y92.420 E10.4048
G1 X125.420 Y130.420 E12.7481
G1 X121.704 Y130.420 E12.9772
G1 X76.580 Y112.763 E15.9652
G1 X76.580 Y109.237 E16.1826
; feature outer perimeter
G1 X75.860 Y108.746 F18000
G92 E0.0000
G1 X121.860 Y90.746 E3.0460 F1350
G1 X121.860 Y88.860 E3.1623
G1 X144.140 Y88.860 E4.5362
G1 X144.140 Y131.140 E7.1433
G1 X139.860 Y131.140 E7.4072
G1 X139.860 Y93.140 E9.7505
G1 X126.140 Y93.140 E10.5965
G1 X126.140 Y131.140 E12.9398
G1 X121.568 Y131.140 E13.2217
G1 X75.860 Y113.254 E16.2483
G1 X75.860 Y108.746 E16.5264
G1 X76.791 Y108.381 F1350
; feature solid layer
G1 X77.876 Y111.478 F18000
G92 E0.0000
G1 X78.534 Y112.136 E0.0574 F1013
G1 X80.207 Y112.790 E0.1682
G1 X77.876 Y110.460 E0.3714
G1 X77.876 Y110.122 E0.3923
G1 X78.365 Y109.930 E0.4246
G1 X81.880 Y113.445 E0.7311
G1 X83.553 Y114.100 E0.8419
G1 X79.097 Y109.644 E1.2305
G1 X79.829 Y109.358 E1.2789
G1 X85.225 Y114.754 E1.7495
G1 X86.898 Y115.409 E1.8603
G1 X80.561 Y109.071 E2.4130
G1 X81.293 Y108.785 E2.4615
G1 X88.571 Y116.063 E3.0962
G1 X90.244 Y116.718 E3.2070
G1 X82.024 Y108.498 E3.9237
G1 X82.756 Y108.212 E3.9722
G1 X91.917 Y117.372 E4.7711
G1 X93.589 Y118.027 E4.8818
G1 X83.488 Y107.926 E5.7627
G1 X84.220 Y107.639 E5.8112
G1 X95.262 Y118.682 E6.7742
G1 X96.935 Y119.336 E6.8849
G1 X84.952 Y107.353 E7.9299
G1 X85.684 Y107.067 E7.9784
G1 X98.608 Y119.991 E9.1055
G1 X100.281 Y120.645 E9.2163
G1 X86.415 Y106.780 E10.4254
G1 X87.147 Y106.494 E10.4738
G1 X101.954 Y121.300 E11.7650
G1 X103.626 Y121.955 E11.8758
G1 X87.879 Y106.207 E13.2491
G1 X88.611 Y105.921 E13.2975
G1 X105.299 Y122.609 E14.7528
G1 X106.972 Y123.264 E14.8636
G1 X89.343 Y105.635 E16.4010
G1 X90.075 Y105.348 E16.4494
G1 X108.645 Y123.918 E18.0689
G1 X110.318 Y124.573 E18.1796
G1 X90.807 Y105.062 E19.8811
G1 X91.538 Y104.776 E19.9296
G1 X111.990 Y125.227 E21.7131
G1 X113.663 Y125.882 E21.8239
G1 X92.270 Y104.489 E23.6895
G1 X93.002 Y104.203 E23.7379
G1 X115.336 Y126.537 E25.6856
G1 X117.009 Y127.191 E25.7964
G1 X93.734 Y103.916 E27.8261
G1 X94.466 Y103.630 E27.8745
G1 X118.682 Y127.846 E29.9863
G1 X120.354 Y128.500 E30.0971
G1 X95.198 Y103.344 E32.2909
G1 X95.930 Y103.057 E32.3394
G1 X121.996 Y129.124 E34.6125
G1 X123.015 Y129.124 E34.6753
G1 X96.661 Y102.771 E36.9735
G1 X97.393 Y102.484 E37.0220
G1 X124.033 Y129.124 E39.3451
G1 X124.124 Y129.124 E39.3507
G1 X124.124 Y128.197 E39.4079
G1 X98.125 Y102.198 E41.6751
G1 X98.857 Y101.912 E41.7236
G1 X124.124 Y127.179 E43.9271
G1 X124.124 Y126.160 E43.9898
G1 X99.589 Y101.625 E46.1295
G1 X100.321 Y101.339 E46.1779
G1 X124.124 Y125.142 E48.2537
G1 X124.124 Y124.124 E48.3165
G1 X101.053 Y101.053 E50.3285
G1 X101.784 Y100.766 E50.3769
G1 X124.124 Y123.106 E52.3251
G1 X124.124 Y122.088 E52.3879
G1 X102.516 Y100.480 E54.2722
G1 X103.248 Y100.193 E54.3207
G1 X124.124 Y121.069 E56.1412
G1 X124.124 Y120.051 E56.2040
G1 X103.980 Y99.907 E57.9607
G1 X104.712 Y99.621 E58.0091
G1 X124.124 Y119.033 E59.7020
G1 X124.124 Y118.015 E59.7648
G1 X105.444 Y99.334 E61.3938
G1 X106.176 Y99.048 E61.4423
G1 X124.124 Y116.996 E63.0075
G1 X124.124 Y115.978 E63.0703
G1 X106.907 Y98.762 E64.5717
G1 X107.639 Y98.475 E64.6201
G1 X124.124 Y114.960 E66.0577
G1 X124.124 Y113.942 E66.1205
G1 X108.371 Y98.189 E67.4942
G1 X109.103 Y97.902 E67.5427
G1 X124.124 Y112.923 E68.8526
G1 X124.124 Y111.905 E68.9154
G1 X109.835 Y97.616 E70.1615
G1 X110.567 Y97.330 E70.2100
G1 X124.124 Y110.887 E71.3923
G1 X124.124 Y109.869 E71.4551
G1 X111.299 Y97.043 E72.5735
G1 X112.030 Y96.757 E72.6220
G1 X124.124 Y108.850 E73.6766
G1 X124.124 Y107.832 E73.7394
G1 X112.762 Y96.471 E74.7302
G1 X113.494 Y96.184 E74.7787
G1 X124.124 Y106.814 E75.7057
G1 X124.124 Y105.796 E75.7685
G1 X114.226 Y95.898 E76.6316
G1 X114.958 Y95.611 E76.6801
G1 X124.124 Y104.778 E77.4794
G1 X124.124 Y103.759 E77.5422
G1 X115.690 Y95.325 E78.2778
G1 X116.422 Y95.039 E78.3262
G1 X124.124 Y102.741 E78.9979
G1 X124.124 Y101.723 E79.0607
G1 X117.153 Y94.752 E79.6686
G1 X117.885 Y94.466 E79.7171
G1 X124.124 Y100.705 E80.2611
G1 X124.124 Y99.686 E80.3239
G1 X118.617 Y94.180 E80.8041
G1 X119.349 Y93.893 E80.8526
G1 X124.124 Y98.668 E81.2690
G1 X124.124 Y97.650 E81.3318
G1 X120.081 Y93.607 E81.6844
G1 X120.813 Y93.320 E81.7328
G1 X124.124 Y96.632 E82.0216
G1 X124.124 Y95.613 E82.0844
G1 X121.545 Y93.034 E82.3093
G1 X122.276 Y92.748 E82.3578
G1 X124.124 Y94.595 E82.5189
G1 X124.124 Y93.577 E82.5817
G1 X123.008 Y92.461 E82.6790
G1 X123.740 Y92.175 E82.7275
G1 X124.124 Y92.559 E82.7610
G1 X124.124 Y91.541 E82.8237
G1 X123.876 Y91.293 E82.8454
G1 X123.876 Y90.876 E82.8711
G1 X124.478 Y90.876 E82.9082
G1 X124.726 Y91.124 E82.9298
G1 X125.744 Y91.124 E82.9926
G1 X125.496 Y90.876 E83.0142
G1 X126.514 Y90.876 E83.0770
G1 X126.762 Y91.124 E83.0986
G1 X127.780 Y91.124 E83.1614
G1 X127.532 Y90.876 E83.1830
G1 X128.551 Y90.876 E83.2458
G1 X128.799 Y91.124 E83.2675
G1 X129.817 Y91.124 E83.3302
G1 X129.569 Y90.876 E83.3519
G1 X130.587 Y90.876 E83.4147
G1 X130.835 Y91.124 E83.4363
G1 X131.853 Y91.124 E83.4991
G1 X131.605 Y90.876 E83.5207
G1 X132.624 Y90.876 E83.5835
G1 X132.872 Y91.124 E83.6051
G1 X133.890 Y91.124 E83.6679
G1 X133.642 Y90.876 E83.6895
G1 X134.660 Y90.876 E83.7523
G1 X134.908 Y91.124 E83.7739
G1 X135.926 Y91.124 E83.8367
G1 X135.678 Y90.876 E83.8584
G1 X136.697 Y90.876 E83.9212
G1 X136.945 Y91.124 E83.9428
G1 X137.963 Y91.124 E84.0056
G1 X137.715 Y90.876 E84.0272
G1 X138.733 Y90.876 E84.0900
G1 X138.981 Y91.124 E84.1116
G1 X139.999 Y91.124 E84.1744
G1 X139.751 Y90.876 E84.1960
G1 X140.769 Y90.876 E84.2588
G1 X141.017 Y91.124 E84.2804
G1 X141.876 Y91.124 E84.3334
G1 X141.876 Y91.983 E84.3863
G1 X142.124 Y92.231 E84.4080
G1 X142.124 Y91.212 E84.4707
G1 X141.788 Y90.876 E84.5001
G1 X141.876 Y93.001 F18000
G92 E0.0000
G1 X142.124 Y93.249 E0.0216 F1013
G1 X142.124 Y94.267 E0.0844
G1 X141.876 Y94.019 E0.1060
G1 X141.876 Y95.037 E0.1688
G1 X142.124 Y95.285 E0.1905
G1 X142.124 Y96.303 E0.2532
G1 X141.876 Y96.055 E0.2749
G1 X141.876 Y97.074 E0.3377
G1 X142.124 Y97.322 E0.3593
G1 X142.124 Y98.340 E0.4221
G1 X141.876 Y98.092 E0.4437
G1 X141.876 Y99.110 E0.5065
G1 X142.124 Y99.358 E0.5281
G1 X142.124 Y100.376 E0.5909
G1 X141.876 Y100.128 E0.6125
G1 X141.876 Y101.147 E0.6753
G1 X142.124 Y101.395 E0.6970
G1 X142.124 Y102.413 E0.7597
G1 X141.876 Y102.165 E0.7814
G1 X141.876 Y103.183 E0.8442
G1 X142.124 Y103.431 E0.8658
G1 X142.124 Y104.449 E0.9286
G1 X141.876 Y104.201 E0.9502
G1 X141.876 Y105.220 E1.0130
G1 X142.124 Y105.468 E1.0346
G1 X142.124 Y106.486 E1.0974
G1 X141.876 Y106.238 E1.1190
G1 X141.876 Y107.256 E1.1818
G1 X142.124 Y107.504 E1.2034
G1 X142.124 Y108.522 E1.2662
G1 X141.876 Y108.274 E1.2879
G1 X141.876 Y109.293 E1.3507
G1 X142.124 Y109.541 E1.3723
G1 X142.124 Y110.559 E1.4351
G1 X141.876 Y110.311 E1.4567
G1 X141.876 Y111.329 E1.5195
G1 X142.124 Y111.577 E1.5411
G1 X142.124 Y112.595 E1.6039
G1 X141.876 Y112.347 E1.6255
G1 X141.876 Y113.365 E1.6883
G1 X142.124 Y113.613 E1.7099
G1 X142.124 Y114.632 E1.7727
G1 X141.876 Y114.384 E1.7944
G1 X141.876 Y115.402 E1.8571
G1 X142.124 Y115.650 E1.8788
G1 X142.124 Y116.668 E1.9416
G1 X141.876 Y116.420 E1.9632
G1 X141.876 Y117.438 E2.0260
G1 X142.124 Y117.686 E2.0476
G1 X142.124 Y118.705 E2.1104
G1 X141.876 Y118.457 E2.1320
G1 X141.876 Y119.475 E2.1948
G1 X142.124 Y119.723 E2.2164
G1 X142.124 Y120.741 E2.2792
G1 X141.876 Y120.493 E2.3009
G1 X141.876 Y121.511 E2.3636
G1 X142.124 Y121.759 E2.3853
G1 X142.124 Y122.778 E2.4481
G1 X141.876 Y122.530 E2.4697
G1 X141.876 Y123.548 E2.5325
G1 X142.124 Y123.796 E2.5541
G1 X142.124 Y124.814 E2.6169
G1 X141.876 Y124.566 E2.6385
G1 X141.876 Y125.584 E2.7013
G1 X142.124 Y125.832 E2.7229
G1 X142.124 Y126.850 E2.7857
G1 X141.876 Y126.602 E2.8074
G1 X141.876 Y127.621 E2.8701
G1 X142.124 Y127.869 E2.8918
G1 X142.124 Y128.887 E2.9546
G1 X141.876 Y128.639 E2.9762
; feature support
G1 X139.860 Y130.016 F18000
G1 X139.860 Y131.140
G1 X138.830 Y130.720
G92 E0.0000
G1 X127.170 Y130.720 E0.7190 F1080
G1 X127.170 Y130.000 E0.7634
G1 X138.830 Y130.000 E1.4824
G1 X138.830 Y129.280 E1.5268
G1 X127.170 Y129.280 E2.2458
G1 X127.170 Y128.560 E2.2902
G1 X138.830 Y128.560 E3.0092
G1 X138.830 Y127.840 E3.0536
G1 X127.170 Y127.840 E3.7726
G1 X127.170 Y127.120 E3.8170
G1 X138.830 Y127.120 E4.5360
G1 X138.830 Y126.400 E4.5804
G1 X127.170 Y126.400 E5.2994
G1 X127.170 Y125.680 E5.3438
G1 X138.830 Y125.680 E6.0628
G1 X138.830 Y124.960 E6.1072
G1 X127.170 Y124.960 E6.8262
G1 X127.170 Y124.240 E6.8706
G1 X138.830 Y124.240 E7.5896
G1 X138.830 Y123.520 E7.6340
G1 X127.170 Y123.520 E8.3530
G1 X127.170 Y122.800 E8.3974
G1 X138.830 Y122.800 E9.1164
G1 X138.830 Y122.080 E9.1608
G1 X127.170 Y122.080 E9.8799
G1 X127.170 Y121.360 E9.9243
G1 X138.830 Y121.360 E10.6433
G1 X138.830 Y120.640 E10.6877
G1 X127.170 Y120.640 E11.4067
G1 X127.170 Y119.920 E11.4511
G1 X138.830 Y119.920 E12.1701
G1 X138.830 Y119.200 E12.2145
G1 X127.170 Y119.200 E12.9335
G1 X127.170 Y118.480 E12.9779
G1 X138.830 Y118.480 E13.6969
G1 X138.830 Y117.760 E13.7413
G1 X127.170 Y117.760 E14.4603
G1 X127.170 Y117.040 E14.5047
G1 X138.830 Y117.040 E15.2237
G1 X138.830 Y116.320 E15.2681
G1 X127.170 Y116.320 E15.9871
G1 X127.170 Y115.600 E16.0315
G1 X138.830 Y115.600 E16.7505
G1 X138.830 Y114.880 E16.7949
