; G-Code generated by Simplify3D(R) Version 4.1.2
; Nov 18, 2019 at 8:58:05 PM
; Settings Summary
;   processName,Process1
;   applyToModels,druckplatte-halterung-hinten,druckplatte-halterung-vorne-rechts,druckplatte-halterung-vorne-rechts(2)
;   profileName,HBot
;   profileVersion,2019-10-26 23:38:43
;   baseProfile,Default
;   printMaterial,PLA
;   printQuality,Fast
;   printExtruders,
;   extruderName,Extruder 1
;   extruderToolheadNumber,0
;   extruderDiameter,0.4
;   extruderAutoWidth,1
;   extruderWidth,0.48
;   extrusionMultiplier,0.94
;   extruderUseRetract,1
;   extruderRetractionDistance,3
;   extruderExtraRestartDistance,0
;   extruderRetractionZLift,0
;   extruderRetractionSpeed,3600
;   extruderUseCoasting,1
;   extruderCoastingDistance,0.2
;   extruderUseWipe,1
;   extruderWipeDistance,5
;   primaryExtruder,0
;   layerHeight,0.3
;   topSolidLayers,3
;   bottomSolidLayers,3
;   perimeterOutlines,3
;   printPerimetersInsideOut,1
;   startPointOption,2
;   startPointOriginX,0
;   startPointOriginY,0
;   sequentialIslands,0
;   spiralVaseMode,0
;   firstLayerHeightPercentage,100
;   firstLayerWidthPercentage,150
;   firstLayerUnderspeed,0.5
;   useRaft,0
;   raftExtruder,0
;   raftTopLayers,3
;   raftBaseLayers,2
;   raftOffset,3
;   raftSeparationDistance,0.18
;   raftTopInfill,100
;   aboveRaftSpeedMultiplier,0.3
;   useSkirt,1
;   skirtExtruder,0
;   skirtLayers,1
;   skirtOutlines,3
;   skirtOffset,4
;   usePrimePillar,0
;   primePillarExtruder,999
;   primePillarWidth,12
;   primePillarLocation,7
;   primePillarSpeedMultiplier,1
;   useOozeShield,0
;   oozeShieldExtruder,999
;   oozeShieldOffset,2
;   oozeShieldOutlines,1
;   oozeShieldSidewallShape,1
;   oozeShieldSidewallAngle,30
;   oozeShieldSpeedMultiplier,1
;   infillExtruder,0
;   internalInfillPattern,Rectilinear
;   externalInfillPattern,Rectilinear
;   infillPercentage,15
;   outlineOverlapPercentage,25
;   infillExtrusionWidthPercentage,150
;   minInfillLength,5
;   infillLayerInterval,1
;   internalInfillAngles,45,-45
;   overlapInternalInfillAngles,0
;   externalInfillAngles,45,-45
;   generateSupport,0
;   supportExtruder,0
;   supportInfillPercentage,25
;   supportExtraInflation,0
;   supportBaseLayers,1
;   denseSupportExtruder,0
;   denseSupportLayers,0
;   denseSupportInfillPercentage,70
;   supportLayerInterval,1
;   supportHorizontalPartOffset,0.3
;   supportUpperSeparationLayers,1
;   supportLowerSeparationLayers,1
;   supportType,0
;   supportGridSpacing,4
;   maxOverhangAngle,45
;   supportAngles,0
;   temperatureName,Extruder 1
;   temperatureNumber,0
;   temperatureSetpointCount,2
;   temperatureSetpointLayers,1,2
;   temperatureSetpointTemperatures,217,210
;   temperatureStabilizeAtStartup,1
;   temperatureHeatedBed,0
;   fanLayers,1,3,5
;   fanSpeeds,0,15,20
;   blipFanToFullPower,1
;   adjustSpeedForCooling,1
;   minSpeedLayerTime,15
;   minCoolingSpeedSlowdown,20
;   increaseFanForCooling,0
;   minFanLayerTime,45
;   maxCoolingFanSpeed,40
;   increaseFanForBridging,0
;   bridgingFanSpeed,80
;   use5D,1
;   relativeEdistances,0
;   allowEaxisZeroing,1
;   independentExtruderAxes,0
;   includeM10123,0
;   stickySupport,1
;   applyToolheadOffsets,0
;   gcodeXoffset,0
;   gcodeYoffset,0
;   gcodeZoffset,0
;   overrideMachineDefinition,1
;   machineTypeOverride,0
;   strokeXoverride,200
;   strokeYoverride,200
;   strokeZoverride,150
;   originOffsetXoverride,0
;   originOffsetYoverride,0
;   originOffsetZoverride,0
;   homeXdirOverride,-1
;   homeYdirOverride,-1
;   homeZdirOverride,-1
;   flipXoverride,1
;   flipYoverride,-1
;   flipZoverride,1
;   toolheadOffsets,0,0|0,0|0,0|0,0|0,0|0,0
;   overrideFirmwareConfiguration,1
;   firmwareTypeOverride,RepRap (Marlin/Repetier/Sprinter)
;   GPXconfigOverride,r2
;   baudRateOverride,115200
;   overridePrinterModels,0
;   printerModelsOverride
;   startingGcode,G28 ; home all axes,G32 ; run bed.g -- probe bed and enable compensation
;   layerChangeGcode,
;   retractionGcode,
;   toolChangeGcode,
;   endingGcode,M0 ; call stop.g
;   exportFileFormat,gcode
;   celebration,0
;   celebrationSong,Random Song
;   postProcessing,
;   defaultSpeed,3600
;   outlineUnderspeed,0.5
;   solidInfillUnderspeed,0.8
;   supportUnderspeed,0.8
;   rapidXYspeed,18000
;   rapidZspeed,1200
;   minBridgingArea,50
;   bridgingExtraInflation,0
;   bridgingExtrusionMultiplier,0.96
;   bridgingSpeedMultiplier,1
;   useFixedBridgingAngle,0
;   fixedBridgingAngle,0
;   applyBridgingToPerimeters,0
;   filamentDiameters,1.75|1.75|1.75|1.75|1.75|1.75
;   filamentPricesPerKg,46|46|46|46|46|46
;   filamentDensities,1.25|1.25|1.25|1.25|1.25|1.25
;   useMinPrintHeight,0
;   minPrintHeight,0
;   useMaxPrintHeight,0
;   maxPrintHeight,0
;   useDiaphragm,1
;   diaphragmLayerInterval,20
;   robustSlicing,1
;   mergeAllIntoSolid,0
;   onlyRetractWhenCrossingOutline,1
;   retractBetweenLayers,0
;   useRetractionMinTravel,1
;   retractionMinTravel,3
;   retractWhileWiping,1
;   onlyWipeOutlines,1
;   avoidCrossingOutline,1
;   maxMovementDetourFactor,3
;   toolChangeRetractionDistance,12
;   toolChangeExtraRestartDistance,-0.5
;   toolChangeRetractionSpeed,600
;   externalThinWallType,1
;   internalThinWallType,1
;   thinWallAllowedOverlapPercentage,10
;   singleExtrusionMinLength,1
;   singleExtrusionMinPrintingWidthPercentage,50
;   singleExtrusionMaxPrintingWidthPercentage,200
;   singleExtrusionEndpointExtension,0.2
;   horizontalSizeCompensation,-0.1
G90
M82
M106 S0
M104 S217 T0
M109 S217 T0
G28 ; home all axes
G32 ; run bed.g -- probe bed and enable compensation
; process Process1
; layer 1, Z = 0.300
T0
G92 E0.0000
G1 E-3.0000 F3600
; feature skirt
; tool H0.300 W0.720
G1 Z0.300 F1200
G1 X59.894 Y63.918 F18000
G1 E0.0000 F3600
G92 E0.0000
G1 X64.536 Y62.674 E0.4056 F1800
G1 X83.300 Y73.508 E2.2346
G1 X83.300 Y66.460 E2.8296
G1 X86.698 Y63.062 E3.2352
G1 X96.302 Y63.062 E4.0460
G1 X99.700 Y66.460 E4.4516
G1 X99.700 Y80.895 E5.6702
G1 X118.710 Y113.822 E8.8796
G1 X118.710 Y66.460 E12.8777
G1 X122.108 Y63.062 E13.2833
G1 X131.713 Y63.062 E14.0941
G1 X135.110 Y66.460 E14.4997
G1 X135.110 Y78.062 E15.4791
G1 X151.713 Y78.062 E16.8806
G1 X155.110 Y81.460 E17.2862
G1 X155.110 Y106.064 E19.3632
G1 X151.713 Y109.462 E19.7688
G1 X135.110 Y109.462 E21.1702
G1 X135.110 Y121.064 E22.1496
G1 X131.713 Y124.462 E22.5552
G1 X122.108 Y124.462 E23.3660
G1 X121.553 Y123.907 E23.4322
G1 X121.254 Y125.023 E23.5297
G1 X99.946 Y137.326 E25.6067
G1 X95.305 Y136.082 E26.0123
G1 X88.596 Y124.462 E27.1450
G1 X86.698 Y124.462 E27.3052
G1 X83.300 Y121.064 E27.7108
G1 X83.300 Y86.178 E30.6557
G1 X64.290 Y119.105 E33.8652
G1 X64.290 Y133.540 E35.0837
G1 X60.892 Y136.938 E35.4893
G1 X51.287 Y136.938 E36.3001
G1 X47.890 Y133.540 E36.7057
G1 X47.890 Y78.936 E41.3151
G1 X51.287 Y75.538 E41.7207
G1 X53.186 Y75.538 E41.8810
G1 X59.894 Y63.918 E43.0136
G1 X60.369 Y64.536 F18000
G92 E0.0000
G1 X64.434 Y63.447 E0.3552 F1800
G1 X84.020 Y74.755 E2.2644
G1 X84.020 Y66.758 E2.9395
G1 X86.996 Y63.782 E3.2947
G1 X96.004 Y63.782 E4.0552
G1 X98.980 Y66.758 E4.4104
G1 X98.980 Y81.088 E5.6201
G1 X119.430 Y116.509 E9.0727
G1 X119.430 Y66.758 E13.2723
G1 X122.406 Y63.782 E13.6276
G1 X131.414 Y63.782 E14.3880
G1 X134.390 Y66.758 E14.7433
G1 X134.390 Y78.782 E15.7583
G1 X151.414 Y78.782 E17.1954
G1 X154.390 Y81.758 E17.5506
G1 X154.390 Y105.766 E19.5773
G1 X151.414 Y108.742 E19.9325
G1 X134.390 Y108.742 E21.3696
G1 X134.390 Y120.766 E22.3846
G1 X131.414 Y123.742 E22.7399
G1 X122.406 Y123.742 E23.5003
G1 X121.180 Y122.516 E23.6466
G1 X120.636 Y124.549 E23.8242
G1 X99.844 Y136.553 E25.8509
G1 X95.779 Y135.464 E26.2061
G1 X89.012 Y123.742 E27.3487
G1 X86.996 Y123.742 E27.5188
G1 X84.020 Y120.766 E27.8741
G1 X84.020 Y83.491 E31.0206
G1 X63.570 Y118.912 E34.4732
G1 X63.570 Y133.242 E35.6829
G1 X60.594 Y136.218 E36.0381
G1 X51.586 Y136.218 E36.7985
G1 X48.610 Y133.242 E37.1538
G1 X48.610 Y79.234 E41.7129
G1 X51.586 Y76.258 E42.0681
G1 X53.601 Y76.258 E42.2383
G1 X60.369 Y64.536 E43.3808
G1 X60.843 Y65.155 F18000
G92 E0.0000
G1 X64.332 Y64.220 E0.3049 F1800
G1 X84.607 Y75.926 E2.2812
G1 X84.740 Y76.421 E2.3244
G1 X84.740 Y67.056 E3.1149
G1 X87.294 Y64.502 E3.4198
G1 X95.706 Y64.502 E4.1299
G1 X98.260 Y67.056 E4.4348
G1 X98.260 Y81.281 E5.6356
G1 X120.150 Y119.196 E9.3313
G1 X120.150 Y67.056 E13.7326
G1 X122.704 Y64.502 E14.0375
G1 X131.116 Y64.502 E14.7476
G1 X133.670 Y67.056 E15.0525
G1 X133.670 Y79.502 E16.1031
G1 X151.116 Y79.502 E17.5758
G1 X153.670 Y82.056 E17.8807
G1 X153.670 Y105.468 E19.8570
G1 X151.116 Y108.022 E20.1619
G1 X133.670 Y108.022 E21.6346
G1 X133.670 Y120.468 E22.6852
G1 X131.116 Y123.022 E22.9901
G1 X122.704 Y123.022 E23.7002
G1 X120.808 Y121.126 E23.9266
G1 X120.018 Y124.074 E24.1843
G1 X99.742 Y135.780 E26.1606
G1 X96.253 Y134.845 E26.4655
G1 X89.427 Y123.022 E27.6180
G1 X87.294 Y123.022 E27.7980
G1 X84.740 Y120.468 E28.1029
G1 X84.740 Y80.804 E31.4511
G1 X62.850 Y118.719 E35.1468
G1 X62.850 Y132.944 E36.3476
G1 X60.296 Y135.498 E36.6525
G1 X51.884 Y135.498 E37.3626
G1 X49.330 Y132.944 E37.6675
G1 X49.330 Y79.532 E42.1762
G1 X51.884 Y76.978 E42.4811
G1 X54.017 Y76.978 E42.6612
G1 X60.843 Y65.155 E43.8136
G92 E0.0000
G1 E-3.0000 F3600
; feature inner perimeter
G1 X63.848 Y69.390 F18000
G1 X63.549 Y69.907
G1 X64.375 Y71.357
G1 E0.0000 F3600
G92 E0.0000
G1 X78.405 Y79.457 E1.3675 F1350
G1 X56.690 Y117.069 E5.0336
G1 X56.690 Y129.338 E6.0693
G1 X55.490 Y129.338 E6.1706
G1 X55.490 Y83.138 E10.0705
G1 X57.573 Y83.138 E10.2464
G1 X64.275 Y71.531 E11.3778
G1 X64.375 Y71.357 F1350
G1 X64.111 Y70.374 F18000
G92 E0.0000
G1 X79.388 Y79.194 E1.4891 F1350
G1 X57.410 Y117.262 E5.1996
G1 X57.410 Y130.058 E6.2798
G1 X54.770 Y130.058 E6.5027
G1 X54.770 Y82.418 E10.5242
G1 X57.158 Y82.418 E10.7258
G1 X64.011 Y70.547 E11.8829
G1 X64.111 Y70.374 F1350
; feature outer perimeter
G1 X63.848 Y69.390 F18000
G92 E0.0000
G1 X80.372 Y78.930 E1.6106 F900
G1 X58.130 Y117.454 E5.3657
G1 X58.130 Y130.778 E6.4904
G1 X54.050 Y130.778 E6.8348
G1 X54.050 Y81.698 E10.9778
G1 X56.742 Y81.698 E11.2051
G1 X63.748 Y69.564 E12.3879
G1 X63.848 Y69.390 F900
G1 X68.178 Y71.890 F900
; feature solid layer
G1 X77.553 Y79.589 F18000
G92 E0.0000
G1 X77.649 Y79.686 E0.0115 F1440
G1 X77.277 Y80.331 E0.0744
G1 X75.144 Y78.198 E0.3291
G1 X72.734 Y76.807 E0.5639
G1 X76.904 Y80.977 E1.0616
G1 X76.531 Y81.622 E1.1246
G1 X70.325 Y75.416 E1.8654
G1 X67.916 Y74.025 E2.1002
G1 X76.158 Y82.268 E3.0842
G1 X75.786 Y82.913 E3.1471
G1 X65.507 Y72.635 E4.3742
G1 X64.573 Y72.095 E4.4653
G1 X64.344 Y72.490 E4.5038
G1 X75.413 Y83.559 E5.8252
G1 X75.040 Y84.204 E5.8881
G1 X63.972 Y73.136 E7.2095
G1 X63.599 Y73.781 E7.2724
G1 X74.668 Y84.850 E8.5938
G1 X74.295 Y85.496 E8.6567
G1 X63.226 Y74.427 E9.9780
G1 X62.854 Y75.072 E10.0410
G1 X73.922 Y86.141 E11.3623
G1 X73.550 Y86.787 E11.4253
G1 X62.481 Y75.718 E12.7466
G1 X62.108 Y76.364 E12.8096
G1 X73.177 Y87.432 E14.1309
G1 X72.804 Y88.078 E14.1938
G1 X61.736 Y77.009 E15.5152
G1 X61.363 Y77.655 E15.5781
G1 X72.431 Y88.723 E16.8995
G1 X72.059 Y89.369 E16.9624
G1 X60.990 Y78.300 E18.2838
G1 X60.617 Y78.946 E18.3467
G1 X71.686 Y90.014 E19.6681
G1 X71.313 Y90.660 E19.7310
G1 X60.245 Y79.591 E21.0524
G1 X59.872 Y80.237 E21.1153
G1 X70.941 Y91.305 E22.4367
G1 X70.568 Y91.951 E22.4996
G1 X59.499 Y80.882 E23.8210
G1 X59.127 Y81.528 E23.8839
G1 X70.195 Y92.596 E25.2052
G1 X69.823 Y93.242 E25.2682
G1 X58.754 Y82.173 E26.5895
G1 X58.381 Y82.819 E26.6525
G1 X69.450 Y93.887 E27.9738
G1 X69.077 Y94.533 E28.0367
G1 X58.009 Y83.464 E29.3581
G1 X57.885 Y83.678 E29.3789
G1 X57.204 Y83.678 E29.4364
G1 X68.704 Y95.179 E30.8094
G1 X68.332 Y95.824 E30.8723
G1 X56.186 Y83.678 E32.3223
G1 X56.030 Y83.678 E32.3355
G1 X56.030 Y84.540 E32.4083
G1 X67.959 Y96.470 E33.8324
G1 X67.586 Y97.115 E33.8953
G1 X56.030 Y85.559 E35.2749
G1 X56.030 Y86.577 E35.3609
G1 X67.214 Y97.761 E36.6960
G1 X66.841 Y98.406 E36.7589
G1 X56.030 Y87.595 E38.0496
G1 X56.030 Y88.613 E38.1355
G1 X66.468 Y99.052 E39.3817
G1 X66.096 Y99.697 E39.4446
G1 X56.030 Y89.631 E40.6462
G1 X56.030 Y90.650 E40.7322
G1 X65.723 Y100.343 E41.8894
G1 X65.350 Y100.988 E41.9523
G1 X56.030 Y91.668 E43.0649
G1 X56.030 Y92.686 E43.1509
G1 X64.977 Y101.634 E44.2191
G1 X64.605 Y102.279 E44.2820
G1 X56.030 Y93.704 E45.3057
G1 X56.030 Y94.723 E45.3916
G1 X64.232 Y102.925 E46.3708
G1 X63.859 Y103.570 E46.4338
G1 X56.030 Y95.741 E47.3684
G1 X56.030 Y96.759 E47.4544
G1 X63.487 Y104.216 E48.3446
G1 X63.114 Y104.862 E48.4075
G1 X56.030 Y97.777 E49.2532
G1 X56.030 Y98.796 E49.3392
G1 X62.741 Y105.507 E50.1404
G1 X62.369 Y106.153 E50.2033
G1 X56.030 Y99.814 E50.9601
G1 X56.030 Y100.832 E51.0460
G1 X61.996 Y106.798 E51.7583
G1 X61.623 Y107.444 E51.8212
G1 X56.030 Y101.850 E52.4889
G1 X56.030 Y102.868 E52.5749
G1 X61.250 Y108.089 E53.1981
G1 X60.878 Y108.735 E53.2610
G1 X56.030 Y103.887 E53.8398
G1 X56.030 Y104.905 E53.9257
G1 X60.505 Y109.380 E54.4600
G1 X60.132 Y110.026 E54.5229
G1 X56.030 Y105.923 E55.0127
G1 X56.030 Y106.941 E55.0987
G1 X59.760 Y110.671 E55.5439
G1 X59.387 Y111.317 E55.6069
G1 X56.030 Y107.960 E56.0076
G1 X56.030 Y108.978 E56.0936
G1 X59.014 Y111.962 E56.4499
G1 X58.642 Y112.608 E56.5128
G1 X56.030 Y109.996 E56.8246
G1 X56.030 Y111.014 E56.9106
G1 X58.269 Y113.253 E57.1779
G1 X57.896 Y113.899 E57.2408
G1 X56.030 Y112.033 E57.4636
G1 X56.030 Y113.051 E57.5496
G1 X57.523 Y114.545 E57.7279
G1 X57.151 Y115.190 E57.7908
G1 X56.030 Y114.069 E57.9246
G1 X56.030 Y115.087 E58.0106
G1 X56.778 Y115.836 E58.0999
G1 X56.405 Y116.481 E58.1628
G1 X56.030 Y116.106 E58.2077
G1 X56.030 Y117.124 E58.2936
G1 X56.150 Y117.244 E58.3080
G1 X56.150 Y118.262 E58.3939
G1 X56.030 Y118.142 E58.4082
G1 X56.030 Y119.160 E58.4942
G1 X56.150 Y119.280 E58.5085
G1 X56.150 Y120.298 E58.5945
G1 X56.030 Y120.178 E58.6088
G1 X56.030 Y121.197 E58.6948
G1 X56.150 Y121.317 E58.7091
G1 X56.150 Y122.335 E58.7950
G1 X56.030 Y122.215 E58.8094
G1 X56.030 Y123.233 E58.8953
G1 X56.150 Y123.353 E58.9096
G1 X56.150 Y124.371 E58.9956
G1 X56.030 Y124.251 E59.0099
G1 X56.030 Y125.270 E59.0959
G1 X56.150 Y125.390 E59.1102
G1 X56.150 Y126.408 E59.1961
G1 X56.030 Y126.288 E59.2105
G1 X56.030 Y127.306 E59.2964
G1 X56.150 Y127.426 E59.3108
G1 X56.150 Y128.414 E59.3942
G1 X56.150 Y128.444 F1440
G1 X56.030 Y128.324
G92 E0.0000
G1 E-3.0000 F3600
; feature inner perimeter
G1 X58.130 Y127.634 F18000
G1 X58.130 Y117.454
G1 X89.460 Y117.335
G1 X90.900 Y116.862
G1 E0.0000 F3600
G92 E0.0000
G1 X90.900 Y70.662 E3.8999 F1350
G1 X92.100 Y70.662 E4.0012
G1 X92.100 Y82.931 E5.0369
G1 X113.815 Y120.543 E8.7030
G1 X99.785 Y128.643 E10.0705
G1 X92.984 Y116.862 E11.2188
G1 X91.100 Y116.862 E11.3778
G1 X90.900 Y116.862 F1350
G1 X90.180 Y117.582 F18000
G92 E0.0000
G1 X90.180 Y69.942 E4.0215 F1350
G1 X92.820 Y69.942 E4.2443
G1 X92.820 Y82.738 E5.3245
G1 X114.798 Y120.806 E9.0351
G1 X99.522 Y129.626 E10.5242
G1 X92.568 Y117.582 E11.6982
G1 X90.380 Y117.582 E11.8829
G1 X90.180 Y117.582 F1350
; feature outer perimeter
G1 X89.460 Y118.302 F18000
G92 E0.0000
G1 X89.460 Y69.222 E4.1431 F900
G1 X93.540 Y69.222 E4.4875
G1 X93.540 Y82.546 E5.6122
G1 X115.782 Y121.070 E9.3672
G1 X99.258 Y130.610 E10.9778
G1 X92.152 Y118.302 E12.1775
G1 X89.660 Y118.302 E12.3879
G1 X89.460 Y118.302 F900
G1 X89.460 Y113.302 F900
; feature solid layer
G1 X91.440 Y115.878 F18000
G92 E0.0000
G1 X91.884 Y116.322 E0.0531 F1440
G1 X92.903 Y116.322 E0.1390
G1 X91.440 Y114.859 E0.3136
G1 X91.440 Y113.841 E0.3996
G1 X103.483 Y125.884 E1.8373
G1 X104.128 Y125.511 E1.9002
G1 X91.440 Y112.823 E3.4149
G1 X91.440 Y111.805 E3.5009
G1 X104.774 Y125.139 E5.0927
G1 X105.420 Y124.766 E5.1556
G1 X91.440 Y110.786 E6.8245
G1 X91.440 Y109.768 E6.9104
G1 X106.065 Y124.393 E8.6564
G1 X106.711 Y124.021 E8.7193
G1 X91.440 Y108.750 E10.5423
G1 X91.440 Y107.732 E10.6283
G1 X107.356 Y123.648 E12.5283
G1 X108.002 Y123.275 E12.5912
G1 X91.440 Y106.713 E14.5684
G1 X91.440 Y105.695 E14.6543
G1 X108.647 Y122.902 E16.7085
G1 X109.293 Y122.530 E16.7714
G1 X91.440 Y104.677 E18.9027
G1 X91.440 Y103.659 E18.9887
G1 X109.938 Y122.157 E21.1970
G1 X110.584 Y121.784 E21.2599
