; G-Code generated by Simplify3D(R) Version 4.1.2
; Nov 3, 2019 at 10:05:08 PM
; Settings Summary
;   processName,Process1
;   applyToModels,Duet_Mount
;   profileName,HBot (modified)
;   profileVersion,2019-10-26 23:38:43
;   baseProfile,Default
;   printMaterial,PLA
;   printQuality,Medium
;   printExtruders,
;   extruderName,Extruder 1
;   extruderToolheadNumber,0
;   extruderDiameter,0.4
;   extruderAutoWidth,0
;   extruderWidth,0.4
;   extrusionMultiplier,0.94
;   extruderUseRetract,0
;   extruderRetractionDistance,2
;   extruderExtraRestartDistance,0
;   extruderRetractionZLift,0
;   extruderRetractionSpeed,3600
;   extruderUseCoasting,0
;   extruderCoastingDistance,0.2
;   extruderUseWipe,1
;   extruderWipeDistance,5
;   primaryExtruder,0
;   layerHeight,0.2
;   topSolidLayers,3
;   bottomSolidLayers,3
;   perimeterOutlines,3
;   printPerimetersInsideOut,1
;   startPointOption,2
;   startPointOriginX,0
;   startPointOriginY,0
;   sequentialIslands,0
;   spiralVaseMode,0
;   firstLayerHeightPercentage,200
;   firstLayerWidthPercentage,200
;   firstLayerUnderspeed,0.3
;   useRaft,0
;   raftExtruder,0
;   raftTopLayers,3
;   raftBaseLayers,2
;   raftOffset,3
;   raftSeparationDistance,0.18
;   raftTopInfill,100
;   aboveRaftSpeedMultiplier,0.3
;   useSkirt,1
;   skirtExtruder,0
;   skirtLayers,1
;   skirtOutlines,3
;   skirtOffset,4
;   usePrimePillar,0
;   primePillarExtruder,999
;   primePillarWidth,12
;   primePillarLocation,7
;   primePillarSpeedMultiplier,1
;   useOozeShield,0
;   oozeShieldExtruder,999
;   oozeShieldOffset,2
;   oozeShieldOutlines,1
;   oozeShieldSidewallShape,1
;   oozeShieldSidewallAngle,30
;   oozeShieldSpeedMultiplier,1
;   infillExtruder,0
;   internalInfillPattern,Fast Honeycomb
;   externalInfillPattern,Rectilinear
;   infillPercentage,20
;   outlineOverlapPercentage,15
;   infillExtrusionWidthPercentage,150
;   minInfillLength,5
;   infillLayerInterval,1
;   internalInfillAngles,0
;   overlapInternalInfillAngles,0
;   externalInfillAngles,45,-45
;   generateSupport,0
;   supportExtruder,0
;   supportInfillPercentage,30
;   supportExtraInflation,0
;   supportBaseLayers,2
;   denseSupportExtruder,0
;   denseSupportLayers,0
;   denseSupportInfillPercentage,70
;   supportLayerInterval,1
;   supportHorizontalPartOffset,0.3
;   supportUpperSeparationLayers,1
;   supportLowerSeparationLayers,1
;   supportType,0
;   supportGridSpacing,4
;   maxOverhangAngle,45
;   supportAngles,0
;   temperatureName,Extruder 1
;   temperatureNumber,0
;   temperatureSetpointCount,1
;   temperatureSetpointLayers,1
;   temperatureSetpointTemperatures,217
;   temperatureStabilizeAtStartup,1
;   temperatureHeatedBed,0
;   fanLayers,1
;   fanSpeeds,0
;   blipFanToFullPower,1
;   adjustSpeedForCooling,1
;   minSpeedLayerTime,15
;   minCoolingSpeedSlowdown,20
;   increaseFanForCooling,1
;   minFanLayerTime,45
;   maxCoolingFanSpeed,40
;   increaseFanForBridging,1
;   bridgingFanSpeed,40
;   use5D,1
;   relativeEdistances,0
;   allowEaxisZeroing,1
;   independentExtruderAxes,0
;   includeM10123,0
;   stickySupport,1
;   applyToolheadOffsets,0
;   gcodeXoffset,0
;   gcodeYoffset,0
;   gcodeZoffset,0
;   overrideMachineDefinition,1
;   machineTypeOverride,0
;   strokeXoverride,200
;   strokeYoverride,200
;   strokeZoverride,150
;   originOffsetXoverride,0
;   originOffsetYoverride,0
;   originOffsetZoverride,0
;   homeXdirOverride,-1
;   homeYdirOverride,-1
;   homeZdirOverride,-1
;   flipXoverride,1
;   flipYoverride,-1
;   flipZoverride,1
;   toolheadOffsets,0,0|0,0|0,0|0,0|0,0|0,0
;   overrideFirmwareConfiguration,1
;   firmwareTypeOverride,RepRap (Marlin/Repetier/Sprinter)
;   GPXconfigOverride,r2
;   baudRateOverride,115200
;   overridePrinterModels,0
;   printerModelsOverride
;   startingGcode,G28 ; home all axes,G32 ; run bed.g -- probe bed and enable compensation
;   layerChangeGcode,
;   retractionGcode,
;   toolChangeGcode,
;   endingGcode,M0 ; call stop.g
;   exportFileFormat,gcode
;   celebration,0
;   celebrationSong,Random Song
;   postProcessing,
;   defaultSpeed,6000
;   outlineUnderspeed,0.5
;   solidInfillUnderspeed,0.8
;   supportUnderspeed,0.8
;   rapidXYspeed,18000
;   rapidZspeed,1200
;   minBridgingArea,50
;   bridgingExtraInflation,0
;   bridgingExtrusionMultiplier,0.96
;   bridgingSpeedMultiplier,1
;   useFixedBridgingAngle,0
;   fixedBridgingAngle,0
;   applyBridgingToPerimeters,0
;   filamentDiameters,1.75|1.75|1.75|1.75|1.75|1.75
;   filamentPricesPerKg,46|46|46|46|46|46
;   filamentDensities,1.25|1.25|1.25|1.25|1.25|1.25
;   useMinPrintHeight,0
;   minPrintHeight,0
;   useMaxPrintHeight,0
;   maxPrintHeight,0
;   useDiaphragm,1
;   diaphragmLayerInterval,20
;   robustSlicing,1
;   mergeAllIntoSolid,0
;   onlyRetractWhenCrossingOutline,1
;   retractBetweenLayers,0
;   useRetractionMinTravel,1
;   retractionMinTravel,3
;   retractWhileWiping,1
;   onlyWipeOutlines,1
;   avoidCrossingOutline,1
;   maxMovementDetourFactor,3
;   toolChangeRetractionDistance,12
;   toolChangeExtraRestartDistance,-0.5
;   toolChangeRetractionSpeed,600
;   externalThinWallType,1
;   internalThinWallType,1
;   thinWallAllowedOverlapPercentage,10
;   singleExtrusionMinLength,1
;   singleExtrusionMinPrintingWidthPercentage,50
;   singleExtrusionMaxPrintingWidthPercentage,200
;   singleExtrusionEndpointExtension,0.2
;   horizontalSizeCompensation,-0.1
G90
M82
M106 S0
M104 S217 T0
M109 S217 T0
G28 ; home all axes
G32 ; run bed.g -- probe bed and enable compensation
; process Process1
; layer 1, Z = 0.400
T0
; feature skirt
; tool H0.400 W0.800
G1 Z0.400 F1200
G1 X33.142 Y42.641 F18000
G92 E0.0000
G1 X33.655 Y42.305 E0.0767 F1800
G1 X34.621 Y41.805 E0.2128
G1 X35.173 Y41.585 E0.2871
G1 X36.178 Y41.296 E0.4178
G1 X36.734 Y41.191 E0.4886
G1 X37.593 Y41.113 E0.5965
G1 X37.867 Y41.100 E0.6308
G1 X162.133 Y41.100 E16.1712
G1 X162.407 Y41.113 E16.2055
G1 X163.266 Y41.191 E16.3134
G1 X163.822 Y41.296 E16.3842
G1 X164.827 Y41.585 E16.5149
G1 X165.379 Y41.805 E16.5893
G1 X166.345 Y42.305 E16.7253
G1 X166.858 Y42.641 E16.8020
G1 X167.720 Y43.342 E16.9409
G1 X168.158 Y43.780 E17.0184
G1 X168.859 Y44.642 E17.1574
G1 X169.195 Y45.155 E17.2341
G1 X169.695 Y46.121 E17.3701
G1 X169.915 Y46.673 E17.4444
G1 X170.204 Y47.677 E17.5751
G1 X170.309 Y48.234 E17.6459
G1 X170.387 Y49.093 E17.7538
G1 X170.400 Y49.367 E17.7881
G1 X170.400 Y150.633 E30.4522
G1 X170.387 Y150.907 E30.4865
G1 X170.309 Y151.766 E30.5945
G1 X170.204 Y152.323 E30.6653
G1 X169.915 Y153.327 E30.7959
G1 X169.695 Y153.879 E30.8703
G1 X169.195 Y154.845 E31.0063
G1 X168.859 Y155.358 E31.0830
G1 X168.158 Y156.220 E31.2219
G1 X167.720 Y156.658 E31.2994
G1 X166.858 Y157.359 E31.4384
G1 X166.345 Y157.695 E31.5151
G1 X165.379 Y158.195 E31.6511
G1 X164.827 Y158.415 E31.7254
G1 X163.823 Y158.704 E31.8561
G1 X163.266 Y158.809 E31.9269
G1 X162.407 Y158.887 E32.0348
G1 X162.133 Y158.900 E32.0691
G1 X37.867 Y158.900 E47.6096
G1 X37.593 Y158.887 E47.6439
G1 X36.734 Y158.809 E47.7518
G1 X36.177 Y158.704 E47.8226
G1 X35.173 Y158.415 E47.9533
G1 X34.621 Y158.195 E48.0276
G1 X33.655 Y157.695 E48.1636
G1 X33.142 Y157.359 E48.2403
G1 X32.280 Y156.658 E48.3793
G1 X31.842 Y156.220 E48.4568
G1 X31.141 Y155.358 E48.5957
G1 X30.805 Y154.845 E48.6723
G1 X30.300 Y153.870 E48.8096
G1 X30.074 Y153.298 E48.8866
G1 X29.788 Y152.274 E49.0195
G1 X29.689 Y151.738 E49.0877
G1 X29.613 Y150.907 E49.1921
G1 X29.600 Y150.633 E49.2265
G1 X29.600 Y49.367 E61.8905
G1 X29.613 Y49.093 E61.9248
G1 X29.691 Y48.234 E62.0327
G1 X29.796 Y47.678 E62.1035
G1 X30.085 Y46.673 E62.2342
G1 X30.305 Y46.121 E62.3086
G1 X30.805 Y45.155 E62.4446
G1 X31.141 Y44.642 E62.5213
G1 X31.842 Y43.780 E62.6602
G1 X32.280 Y43.342 E62.7377
G1 X33.142 Y42.641 E62.8766
G1 X33.615 Y43.288 F18000
G92 E0.0000
G1 X34.059 Y42.997 E0.0665 F1800
G1 X34.954 Y42.533 E0.1925
G1 X35.432 Y42.343 E0.2569
G1 X36.362 Y42.075 E0.3779
G1 X36.844 Y41.985 E0.4393
G1 X37.648 Y41.911 E0.5402
G1 X37.886 Y41.900 E0.5699
G1 X162.114 Y41.900 E16.1057
G1 X162.352 Y41.911 E16.1355
G1 X163.156 Y41.985 E16.2364
G1 X163.638 Y42.075 E16.2977
G1 X164.568 Y42.343 E16.4187
G1 X165.046 Y42.533 E16.4832
G1 X165.941 Y42.997 E16.6092
G1 X166.385 Y43.288 E16.6756
G1 X167.184 Y43.936 E16.8043
G1 X167.563 Y44.316 E16.8714
G1 X168.212 Y45.115 E17.0001
G1 X168.504 Y45.559 E17.0666
G1 X168.967 Y46.454 E17.1925
G1 X169.157 Y46.932 E17.2569
G1 X169.425 Y47.862 E17.3779
G1 X169.515 Y48.344 E17.4393
G1 X169.589 Y49.148 E17.5402
G1 X169.600 Y49.386 E17.5700
G1 X169.600 Y150.614 E30.2295
G1 X169.589 Y150.852 E30.2592
G1 X169.515 Y151.656 E30.3601
G1 X169.425 Y152.138 E30.4215
G1 X169.157 Y153.068 E30.5425
G1 X168.967 Y153.546 E30.6069
G1 X168.503 Y154.441 E30.7329
G1 X168.212 Y154.885 E30.7994
G1 X167.563 Y155.684 E30.9280
G1 X167.184 Y156.064 E30.9952
G1 X166.385 Y156.712 E31.1238
G1 X165.941 Y157.003 E31.1903
G1 X165.046 Y157.467 E31.3163
G1 X164.568 Y157.657 E31.3807
G1 X163.638 Y157.925 E31.5017
G1 X163.156 Y158.015 E31.5630
G1 X162.352 Y158.089 E31.6639
G1 X162.114 Y158.100 E31.6937
G1 X37.886 Y158.100 E47.2295
G1 X37.648 Y158.089 E47.2593
G1 X36.844 Y158.015 E47.3602
G1 X36.362 Y157.925 E47.4215
G1 X35.432 Y157.657 E47.5426
G1 X34.954 Y157.467 E47.6070
G1 X34.059 Y157.003 E47.7329
G1 X33.615 Y156.712 E47.7994
G1 X32.816 Y156.063 E47.9281
G1 X32.436 Y155.684 E47.9952
G1 X31.788 Y154.885 E48.1239
G1 X31.497 Y154.441 E48.1903
G1 X31.029 Y153.539 E48.3174
G1 X30.834 Y153.043 E48.3840
G1 X30.568 Y152.094 E48.5073
G1 X30.482 Y151.629 E48.5664
G1 X30.411 Y150.852 E48.6640
G1 X30.400 Y150.614 E48.6937
G1 X30.400 Y49.386 E61.3532
G1 X30.411 Y49.148 E61.3830
G1 X30.485 Y48.344 E61.4839
G1 X30.575 Y47.862 E61.5452
G1 X30.843 Y46.932 E61.6662
G1 X31.033 Y46.454 E61.7307
G1 X31.497 Y45.559 E61.8567
G1 X31.788 Y45.115 E61.9231
G1 X32.436 Y44.316 E62.0518
G1 X32.816 Y43.937 E62.1189
G1 X33.615 Y43.288 E62.2476
G1 X34.087 Y43.935 F18000
G92 E0.0000
G1 X34.463 Y43.688 E0.0562 F1800
G1 X35.287 Y43.262 E0.1722
G1 X35.692 Y43.100 E0.2267
G1 X36.547 Y42.854 E0.3380
G1 X36.955 Y42.778 E0.3899
G1 X37.703 Y42.709 E0.4838
G1 X37.904 Y42.700 E0.5090
G1 X162.096 Y42.700 E16.0402
G1 X162.297 Y42.709 E16.0654
G1 X163.045 Y42.778 E16.1593
G1 X163.453 Y42.854 E16.2112
G1 X164.308 Y43.100 E16.3226
G1 X164.713 Y43.262 E16.3771
G1 X165.537 Y43.688 E16.4930
G1 X165.913 Y43.935 E16.5492
G1 X166.647 Y44.531 E16.6676
G1 X166.969 Y44.853 E16.7244
G1 X167.565 Y45.587 E16.8428
G1 X167.812 Y45.964 E16.8991
G1 X168.238 Y46.787 E17.0150
G1 X168.399 Y47.191 E17.0695
G1 X168.646 Y48.047 E17.1808
G1 X168.722 Y48.455 E17.2327
G1 X168.791 Y49.203 E17.3266
G1 X168.800 Y49.404 E17.3518
G1 X168.800 Y150.596 E30.0067
G1 X168.791 Y150.797 E30.0319
G1 X168.722 Y151.545 E30.1258
G1 X168.646 Y151.953 E30.1777
G1 X168.399 Y152.809 E30.2890
G1 X168.238 Y153.213 E30.3435
G1 X167.812 Y154.036 E30.4594
G1 X167.565 Y154.413 E30.5157
G1 X166.969 Y155.147 E30.6341
G1 X166.647 Y155.469 E30.6909
G1 X165.913 Y156.065 E30.8093
G1 X165.536 Y156.312 E30.8655
G1 X164.713 Y156.738 E30.9814
G1 X164.309 Y156.899 E31.0359
G1 X163.453 Y157.145 E31.1473
G1 X163.045 Y157.222 E31.1992
G1 X162.297 Y157.291 E31.2931
G1 X162.096 Y157.300 E31.3183
G1 X37.904 Y157.300 E46.8495
G1 X37.703 Y157.291 E46.8747
G1 X36.955 Y157.222 E46.9686
G1 X36.547 Y157.146 E47.0205
G1 X35.691 Y156.899 E47.1318
G1 X35.287 Y156.738 E47.1863
G1 X34.464 Y156.312 E47.3022
G1 X34.087 Y156.065 E47.3585
G1 X33.353 Y155.469 E47.4769
G1 X33.031 Y155.147 E47.5337
G1 X32.435 Y154.413 E47.6521
G1 X32.188 Y154.037 E47.7083
G1 X31.759 Y153.207 E47.8251
G1 X31.593 Y152.788 E47.8815
G1 X31.348 Y151.913 E47.9951
G1 X31.275 Y151.520 E48.0451
G1 X31.209 Y150.797 E48.1359
G1 X31.200 Y150.596 E48.1610
G1 X31.200 Y49.404 E60.8159
G1 X31.209 Y49.203 E60.8411
G1 X31.278 Y48.455 E60.9350
G1 X31.354 Y48.047 E60.9869
G1 X31.600 Y47.192 E61.0982
G1 X31.762 Y46.786 E61.1528
G1 X32.188 Y45.963 E61.2687
G1 X32.435 Y45.587 E61.3249
G1 X33.031 Y44.853 E61.4433
G1 X33.353 Y44.531 E61.5001
G1 X34.087 Y43.935 E61.6185
; feature inner perimeter
G1 X36.907 Y47.828 F18000
G1 X36.864 Y47.864
G1 X37.789 Y49.173
G92 E0.0000
G1 X37.861 Y49.136 E0.0101 F1350
G1 X37.935 Y49.115 E0.0197
G1 X38.096 Y49.100 E0.0400
G1 X161.904 Y49.100 E15.5232
G1 X162.066 Y49.115 E15.5435
G1 X162.139 Y49.136 E15.5531
G1 X162.211 Y49.173 E15.5632
G1 X162.275 Y49.225 E15.5735
G1 X162.327 Y49.289 E15.5837
G1 X162.364 Y49.360 E15.5938
G1 X162.385 Y49.435 E15.6035
G1 X162.400 Y49.596 E15.6237
G1 X162.400 Y150.404 E28.2306
G1 X162.385 Y150.565 E28.2508
G1 X162.364 Y150.639 E28.2605
G1 X162.327 Y150.711 E28.2705
G1 X162.275 Y150.775 E28.2809
G1 X162.211 Y150.827 E28.2912
G1 X162.140 Y150.864 E28.3012
G1 X162.065 Y150.885 E28.3109
G1 X161.904 Y150.900 E28.3311
G1 X38.096 Y150.900 E43.8143
G1 X37.935 Y150.885 E43.8346
G1 X37.860 Y150.864 E43.8443
G1 X37.789 Y150.827 E43.8543
G1 X37.725 Y150.775 E43.8646
G1 X37.650 Y150.682 E43.8796
G1 X37.614 Y150.554 E43.8962
G1 X37.600 Y150.404 E43.9151
G1 X37.600 Y49.596 E56.5219
G1 X37.615 Y49.435 E56.5422
G1 X37.636 Y49.361 E56.5518
G1 X37.673 Y49.289 E56.5619
G1 X37.725 Y49.225 E56.5722
G1 X37.789 Y49.173 E56.5825
G1 X37.348 Y48.500 F18000
G92 E0.0000
G1 X37.563 Y48.389 E0.0302 F1350
G1 X37.786 Y48.325 E0.0593
G1 X38.059 Y48.300 E0.0936
G1 X161.940 Y48.300 E15.5859
G1 X162.214 Y48.325 E15.6202
G1 X162.437 Y48.389 E15.6493
G1 X162.652 Y48.501 E15.6795
G1 X162.844 Y48.656 E15.7105
G1 X162.999 Y48.848 E15.7414
G1 X163.111 Y49.063 E15.7716
G1 X163.175 Y49.286 E15.8007
G1 X163.200 Y49.559 E15.8350
G1 X163.200 Y150.441 E28.4510
G1 X163.175 Y150.714 E28.4853
G1 X163.111 Y150.937 E28.5143
G1 X163.000 Y151.152 E28.5446
G1 X162.844 Y151.344 E28.5755
G1 X162.652 Y151.499 E28.6064
G1 X162.437 Y151.611 E28.6367
G1 X162.214 Y151.675 E28.6657
G1 X161.941 Y151.700 E28.7000
G1 X38.059 Y151.700 E44.1923
G1 X37.786 Y151.675 E44.2266
G1 X37.563 Y151.611 E44.2557
G1 X37.348 Y151.499 E44.2859
G1 X37.156 Y151.344 E44.3169
G1 X37.001 Y151.152 E44.3478
G1 X36.891 Y150.941 E44.3775
G1 X36.824 Y150.700 E44.4088
G1 X36.800 Y150.441 E44.4413
G1 X36.800 Y49.559 E57.0574
G1 X36.825 Y49.286 E57.0916
G1 X36.889 Y49.063 E57.1207
G1 X37.001 Y48.848 E57.1510
G1 X37.156 Y48.656 E57.1819
G1 X37.348 Y48.500 E57.2128
; feature outer perimeter
G1 X36.907 Y47.828 F18000
G92 E0.0000
G1 X37.266 Y47.642 E0.0504 F900
G1 X37.638 Y47.535 E0.0989
G1 X38.023 Y47.500 E0.1472
G1 X161.977 Y47.500 E15.6487
G1 X162.362 Y47.535 E15.6971
G1 X162.734 Y47.642 E15.7455
G1 X163.093 Y47.828 E15.7959
G1 X163.412 Y48.088 E15.8475
G1 X163.672 Y48.407 E15.8990
G1 X163.858 Y48.766 E15.9494
G1 X163.965 Y49.138 E15.9979
G1 X164.000 Y49.523 E16.0462
G1 X164.000 Y150.477 E28.6714
G1 X163.965 Y150.862 E28.7197
G1 X163.858 Y151.234 E28.7682
G1 X163.672 Y151.593 E28.8186
G1 X163.412 Y151.912 E28.8701
G1 X163.093 Y152.172 E28.9217
G1 X162.734 Y152.358 E28.9721
G1 X162.362 Y152.465 E29.0205
G1 X161.977 Y152.500 E29.0689
G1 X38.023 Y152.500 E44.5704
G1 X37.638 Y152.465 E44.6187
G1 X37.266 Y152.358 E44.6672
G1 X36.907 Y152.172 E44.7176
G1 X36.588 Y151.912 E44.7691
G1 X36.328 Y151.592 E44.8207
G1 X36.143 Y151.236 E44.8709
G1 X36.034 Y150.846 E44.9216
G1 X36.000 Y150.477 E44.9678
G1 X36.000 Y49.523 E57.5930
G1 X36.035 Y49.138 E57.6413
G1 X36.142 Y48.766 E57.6898
G1 X36.328 Y48.407 E57.7402
G1 X36.588 Y48.088 E57.7918
G1 X36.907 Y47.828 E57.8433
G1 X37.266 Y47.642 F900
G1 X37.638 Y47.535
G1 X38.023 Y47.500
G1 X41.846 Y47.500
; feature inner perimeter
G1 X42.500 Y51.427 F18000
G92 E0.0000
G1 X41.542 Y51.609 E0.1219 F1350
G1 X40.677 Y52.177 E0.2513
G1 X40.109 Y53.042 E0.3808
G1 X39.927 Y54.000 E0.5027
G1 X40.109 Y54.958 E0.6246
G1 X40.677 Y55.823 E0.7540
G1 X41.542 Y56.391 E0.8834
G1 X42.500 Y56.573 E1.0054
G1 X43.458 Y56.391 E1.1273
G1 X44.323 Y55.823 E1.2567
G1 X44.891 Y54.958 E1.3861
G1 X45.073 Y54.000 E1.5080
G1 X44.896 Y53.070 E1.6265
G1 X44.330 Y52.182 E1.7581
G1 X43.458 Y51.609 E1.8886
G1 X42.500 Y51.427 E2.0106
; feature outer perimeter
G1 X42.500 Y52.241 F18000
G92 E0.0000
G1 X41.849 Y52.365 E0.0829 F900
G1 X41.255 Y52.755 E0.1717
G1 X40.865 Y53.349 E0.2605
