; G-Code generated by Simplify3D(R) Version 4.1.2
; Nov 15, 2019 at 6:58:39 PM
; Settings Summary
;   processName,Process1
;   applyToModels,HANDLE,HANDLE(2)
;   profileName,HBot
;   profileVersion,2019-10-26 23:38:43
;   baseProfile,Default
;   printMaterial,PLA
;   printQuality,Fast
;   printExtruders,
;   extruderName,Extruder 1
;   extruderToolheadNumber,0
;   extruderDiameter,0.4
;   extruderAutoWidth,1
;   extruderWidth,0.48
;   extrusionMultiplier,0.94
;   extruderUseRetract,1
;   extruderRetractionDistance,3
;   extruderExtraRestartDistance,0
;   extruderRetractionZLift,0
;   extruderRetractionSpeed,3600
;   extruderUseCoasting,1
;   extruderCoastingDistance,0.2
;   extruderUseWipe,1
;   extruderWipeDistance,5
;   primaryExtruder,0
;   layerHeight,0.3
;   topSolidLayers,3
;   bottomSolidLayers,3
;   perimeterOutlines,3
;   printPerimetersInsideOut,1
;   startPointOption,2
;   startPointOriginX,0
;   startPointOriginY,0
;   sequentialIslands,0
;   spiralVaseMode,0
;   firstLayerHeightPercentage,100
;   firstLayerWidthPercentage,150
;   firstLayerUnderspeed,0.5
;   useRaft,0
;   raftExtruder,0
;   raftTopLayers,3
;   raftBaseLayers,2
;   raftOffset,3
;   raftSeparationDistance,0.18
;   raftTopInfill,100
;   aboveRaftSpeedMultiplier,0.3
;   useSkirt,1
;   skirtExtruder,0
;   skirtLayers,1
;   skirtOutlines,3
;   skirtOffset,4
;   usePrimePillar,0
;   primePillarExtruder,999
;   primePillarWidth,12
;   primePillarLocation,7
;   primePillarSpeedMultiplier,1
;   useOozeShield,0
;   oozeShieldExtruder,999
;   oozeShieldOffset,2
;   oozeShieldOutlines,1
;   oozeShieldSidewallShape,1
;   oozeShieldSidewallAngle,30
;   oozeShieldSpeedMultiplier,1
;   infillExtruder,0
;   internalInfillPattern,Fast Honeycomb
;   externalInfillPattern,Rectilinear
;   infillPercentage,15
;   outlineOverlapPercentage,25
;   infillExtrusionWidthPercentage,150
;   minInfillLength,5
;   infillLayerInterval,1
;   internalInfillAngles,0
;   overlapInternalInfillAngles,0
;   externalInfillAngles,45,-45
;   generateSupport,0
;   supportExtruder,0
;   supportInfillPercentage,25
;   supportExtraInflation,0
;   supportBaseLayers,1
;   denseSupportExtruder,0
;   denseSupportLayers,0
;   denseSupportInfillPercentage,70
;   supportLayerInterval,1
;   supportHorizontalPartOffset,0.3
;   supportUpperSeparationLayers,1
;   supportLowerSeparationLayers,1
;   supportType,0
;   supportGridSpacing,4
;   maxOverhangAngle,45
;   supportAngles,0
;   temperatureName,Extruder 1
;   temperatureNumber,0
;   temperatureSetpointCount,2
;   temperatureSetpointLayers,1,2
;   temperatureSetpointTemperatures,217,210
;   temperatureStabilizeAtStartup,1
;   temperatureHeatedBed,0
;   fanLayers,1,3,5
;   fanSpeeds,0,15,20
;   blipFanToFullPower,1
;   adjustSpeedForCooling,1
;   minSpeedLayerTime,15
;   minCoolingSpeedSlowdown,20
;   increaseFanForCooling,0
;   minFanLayerTime,45
;   maxCoolingFanSpeed,40
;   increaseFanForBridging,0
;   bridgingFanSpeed,80
;   use5D,1
;   relativeEdistances,0
;   allowEaxisZeroing,1
;   independentExtruderAxes,0
;   includeM10123,0
;   stickySupport,1
;   applyToolheadOffsets,0
;   gcodeXoffset,0
;   gcodeYoffset,0
;   gcodeZoffset,0
;   overrideMachineDefinition,1
;   machineTypeOverride,0
;   strokeXoverride,200
;   strokeYoverride,200
;   strokeZoverride,150
;   originOffsetXoverride,0
;   originOffsetYoverride,0
;   originOffsetZoverride,0
;   homeXdirOverride,-1
;   homeYdirOverride,-1
;   homeZdirOverride,-1
;   flipXoverride,1
;   flipYoverride,-1
;   flipZoverride,1
;   toolheadOffsets,0,0|0,0|0,0|0,0|0,0|0,0
;   overrideFirmwareConfiguration,1
;   firmwareTypeOverride,RepRap (Marlin/Repetier/Sprinter)
;   GPXconfigOverride,r2
;   baudRateOverride,115200
;   overridePrinterModels,0
;   printerModelsOverride
;   startingGcode,G28 ; home all axes,G32 ; run bed.g -- probe bed and enable compensation
;   layerChangeGcode,
;   retractionGcode,
;   toolChangeGcode,
;   endingGcode,M0 ; call stop.g
;   exportFileFormat,gcode
;   celebration,0
;   celebrationSong,Random Song
;   postProcessing,
;   defaultSpeed,3600
;   outlineUnderspeed,0.5
;   solidInfillUnderspeed,0.8
;   supportUnderspeed,0.8
;   rapidXYspeed,18000
;   rapidZspeed,1200
;   minBridgingArea,50
;   bridgingExtraInflation,0
;   bridgingExtrusionMultiplier,0.96
;   bridgingSpeedMultiplier,1
;   useFixedBridgingAngle,0
;   fixedBridgingAngle,0
;   applyBridgingToPerimeters,0
;   filamentDiameters,1.75|1.75|1.75|1.75|1.75|1.75
;   filamentPricesPerKg,46|46|46|46|46|46
;   filamentDensities,1.25|1.25|1.25|1.25|1.25|1.25
;   useMinPrintHeight,0
;   minPrintHeight,0
;   useMaxPrintHeight,0
;   maxPrintHeight,0
;   useDiaphragm,1
;   diaphragmLayerInterval,20
;   robustSlicing,1
;   mergeAllIntoSolid,0
;   onlyRetractWhenCrossingOutline,1
;   retractBetweenLayers,0
;   useRetractionMinTravel,1
;   retractionMinTravel,3
;   retractWhileWiping,1
;   onlyWipeOutlines,1
;   avoidCrossingOutline,1
;   maxMovementDetourFactor,3
;   toolChangeRetractionDistance,12
;   toolChangeExtraRestartDistance,-0.5
;   toolChangeRetractionSpeed,600
;   externalThinWallType,1
;   internalThinWallType,1
;   thinWallAllowedOverlapPercentage,10
;   singleExtrusionMinLength,1
;   singleExtrusionMinPrintingWidthPercentage,50
;   singleExtrusionMaxPrintingWidthPercentage,200
;   singleExtrusionEndpointExtension,0.2
;   horizontalSizeCompensation,-0.1
G90
M82
M106 S0
M104 S217 T0
M109 S217 T0
G28 ; home all axes
G32 ; run bed.g -- probe bed and enable compensation
; process Process1
; layer 1, Z = 0.300
T0
G92 E0.0000
G1 E-3.0000 F3600
; feature skirt
; tool H0.300 W0.720
G1 Z0.300 F1200
G1 X52.982 Y58.427 F18000
G1 E0.0000 F3600
G92 E0.0000
G1 X53.748 Y57.817 E0.0826 F1800
G1 X54.106 Y57.572 E0.1193
G1 X54.954 Y57.083 E0.2019
G1 X55.345 Y56.895 E0.2386
G1 X56.257 Y56.537 E0.3212
G1 X56.672 Y56.409 E0.3579
G1 X57.626 Y56.191 E0.4405
G1 X58.055 Y56.126 E0.4772
G1 X58.927 Y56.061 E0.5510
G1 X59.144 Y56.053 E0.5693
G1 X140.856 Y56.053 E7.4669
G1 X141.073 Y56.061 E7.4852
G1 X141.945 Y56.126 E7.5590
G1 X142.374 Y56.191 E7.5957
G1 X143.328 Y56.409 E7.6783
G1 X143.743 Y56.537 E7.7150
G1 X144.655 Y56.895 E7.7976
G1 X145.045 Y57.083 E7.8342
G1 X145.893 Y57.572 E7.9169
G1 X146.252 Y57.817 E7.9535
G1 X147.018 Y58.427 E8.0362
G1 X147.336 Y58.723 E8.0729
G1 X148.002 Y59.440 E8.1555
G1 X148.272 Y59.780 E8.1921
G1 X148.765 Y60.502 E8.2659
G1 X148.880 Y60.685 E8.2842
G1 X170.086 Y97.399 E11.8632
G1 X168.585 Y100.000 E12.1167
G1 X170.086 Y102.601 E12.3702
G1 X148.880 Y139.315 E15.9493
G1 X148.765 Y139.498 E15.9675
G1 X148.272 Y140.220 E16.0413
G1 X148.002 Y140.560 E16.0779
G1 X147.336 Y141.277 E16.1606
G1 X147.018 Y141.573 E16.1972
G1 X146.252 Y142.183 E16.2799
G1 X145.894 Y142.428 E16.3165
G1 X145.046 Y142.917 E16.3992
G1 X144.654 Y143.105 E16.4358
G1 X143.743 Y143.463 E16.5185
G1 X143.328 Y143.591 E16.5551
G1 X142.374 Y143.809 E16.6377
G1 X141.945 Y143.874 E16.6744
G1 X141.073 Y143.939 E16.7482
G1 X140.856 Y143.947 E16.7665
G1 X59.144 Y143.947 E23.6642
G1 X58.927 Y143.939 E23.6825
G1 X58.055 Y143.874 E23.7563
G1 X57.626 Y143.809 E23.7929
G1 X56.672 Y143.591 E23.8756
G1 X56.257 Y143.463 E23.9122
G1 X55.345 Y143.105 E23.9949
G1 X54.954 Y142.917 E24.0315
G1 X54.106 Y142.428 E24.1141
G1 X53.748 Y142.183 E24.1508
G1 X52.982 Y141.573 E24.2334
G1 X52.664 Y141.277 E24.2701
G1 X51.998 Y140.560 E24.3527
G1 X51.728 Y140.220 E24.3893
G1 X51.235 Y139.498 E24.4631
G1 X51.120 Y139.315 E24.4814
G1 X29.914 Y102.601 E28.0604
G1 X31.415 Y100.000 E28.3139
G1 X29.914 Y97.399 E28.5675
G1 X51.120 Y60.685 E32.1465
G1 X51.235 Y60.502 E32.1647
G1 X51.728 Y59.780 E32.2385
G1 X51.998 Y59.440 E32.2752
G1 X52.664 Y58.723 E32.3578
G1 X52.982 Y58.427 E32.3945
G1 X53.452 Y58.974 F18000
G92 E0.0000
G1 X54.176 Y58.397 E0.0781 F1800
G1 X54.490 Y58.183 E0.1102
G1 X55.291 Y57.720 E0.1883
G1 X55.634 Y57.555 E0.2204
G1 X56.495 Y57.217 E0.2985
G1 X56.858 Y57.105 E0.3306
G1 X57.760 Y56.899 E0.4087
G1 X58.136 Y56.842 E0.4408
G1 X58.968 Y56.780 E0.5112
G1 X59.157 Y56.773 E0.5272
G1 X140.843 Y56.773 E7.4226
G1 X141.032 Y56.780 E7.4386
G1 X141.864 Y56.842 E7.5090
G1 X142.240 Y56.899 E7.5411
G1 X143.142 Y57.105 E7.6192
G1 X143.505 Y57.217 E7.6513
G1 X144.366 Y57.555 E7.7294
G1 X144.709 Y57.720 E7.7615
G1 X145.510 Y58.182 E7.8396
G1 X145.824 Y58.397 E7.8717
G1 X146.548 Y58.974 E7.9498
G1 X146.826 Y59.232 E7.9819
G1 X147.456 Y59.910 E8.0600
G1 X147.693 Y60.207 E8.0920
G1 X148.162 Y60.896 E8.1624
G1 X148.263 Y61.057 E8.1784
G1 X169.255 Y97.399 E11.7212
G1 X167.754 Y100.000 E11.9747
G1 X169.255 Y102.601 E12.2282
G1 X148.263 Y138.943 E15.7710
G1 X148.162 Y139.104 E15.7870
G1 X147.693 Y139.792 E15.8574
G1 X147.456 Y140.090 E15.8895
G1 X146.826 Y140.768 E15.9676
G1 X146.548 Y141.026 E15.9997
G1 X145.824 Y141.603 E16.0778
G1 X145.510 Y141.817 E16.1099
G1 X144.709 Y142.280 E16.1880
G1 X144.366 Y142.445 E16.2201
G1 X143.505 Y142.783 E16.2982
G1 X143.142 Y142.895 E16.3303
G1 X142.240 Y143.101 E16.4084
G1 X141.864 Y143.158 E16.4405
G1 X141.032 Y143.220 E16.5108
G1 X140.843 Y143.227 E16.5269
G1 X59.157 Y143.227 E23.4223
G1 X58.968 Y143.220 E23.4383
G1 X58.136 Y143.158 E23.5087
G1 X57.760 Y143.101 E23.5408
G1 X56.858 Y142.895 E23.6189
G1 X56.495 Y142.783 E23.6510
G1 X55.633 Y142.445 E23.7291
G1 X55.291 Y142.280 E23.7612
G1 X54.490 Y141.817 E23.8393
G1 X54.176 Y141.603 E23.8714
G1 X53.452 Y141.026 E23.9495
G1 X53.174 Y140.768 E23.9816
G1 X52.544 Y140.090 E24.0597
G1 X52.307 Y139.793 E24.0917
G1 X51.838 Y139.104 E24.1621
G1 X51.737 Y138.943 E24.1781
G1 X30.745 Y102.601 E27.7209
G1 X32.246 Y100.000 E27.9744
G1 X30.745 Y97.399 E28.2279
G1 X51.737 Y61.057 E31.7707
G1 X51.838 Y60.896 E31.7867
G1 X52.307 Y60.208 E31.8571
G1 X52.544 Y59.910 E31.8892
G1 X53.174 Y59.232 E31.9673
G1 X53.452 Y58.974 E31.9994
G1 X53.922 Y59.520 F18000
G92 E0.0000
G1 X54.604 Y58.976 E0.0735 F1800
G1 X54.873 Y58.793 E0.1011
G1 X55.628 Y58.357 E0.1746
G1 X55.922 Y58.215 E0.2022
G1 X56.733 Y57.897 E0.2757
G1 X57.045 Y57.801 E0.3033
G1 X57.894 Y57.607 E0.3768
G1 X58.217 Y57.558 E0.4044
G1 X59.008 Y57.499 E0.4714
G1 X59.171 Y57.493 E0.4851
G1 X140.829 Y57.493 E7.3782
G1 X140.992 Y57.499 E7.3920
G1 X141.783 Y57.558 E7.4590
G1 X142.106 Y57.607 E7.4865
G1 X142.955 Y57.801 E7.5601
G1 X143.267 Y57.897 E7.5876
G1 X144.078 Y58.215 E7.6612
G1 X144.372 Y58.357 E7.6887
G1 X145.127 Y58.793 E7.7623
G1 X145.396 Y58.976 E7.7898
G1 X146.078 Y59.520 E7.8634
G1 X146.317 Y59.742 E7.8909
G1 X146.910 Y60.380 E7.9645
G1 X147.113 Y60.635 E7.9920
G1 X147.560 Y61.291 E8.0590
G1 X147.646 Y61.429 E8.0727
G1 X168.424 Y97.399 E11.5793
G1 X166.922 Y100.000 E11.8328
G1 X168.423 Y102.601 E12.0863
G1 X147.646 Y138.571 E15.5928
G1 X147.560 Y138.709 E15.6066
G1 X147.113 Y139.365 E15.6735
G1 X146.910 Y139.620 E15.7011
G1 X146.317 Y140.258 E15.7746
G1 X146.078 Y140.480 E15.8022
G1 X145.397 Y141.024 E15.8757
G1 X145.127 Y141.207 E15.9032
G1 X144.372 Y141.643 E15.9768
G1 X144.078 Y141.785 E16.0044
G1 X143.267 Y142.103 E16.0779
G1 X142.955 Y142.199 E16.1055
G1 X142.106 Y142.393 E16.1790
G1 X141.783 Y142.442 E16.2065
G1 X140.992 Y142.501 E16.2735
G1 X140.829 Y142.507 E16.2873
G1 X59.171 Y142.507 E23.1804
G1 X59.008 Y142.501 E23.1942
G1 X58.217 Y142.442 E23.2612
G1 X57.894 Y142.393 E23.2887
G1 X57.045 Y142.199 E23.3622
G1 X56.733 Y142.103 E23.3898
G1 X55.922 Y141.785 E23.4633
G1 X55.628 Y141.643 E23.4909
G1 X54.873 Y141.207 E23.5644
G1 X54.604 Y141.024 E23.5920
G1 X53.922 Y140.480 E23.6655
G1 X53.683 Y140.258 E23.6931
G1 X53.090 Y139.620 E23.7666
G1 X52.887 Y139.365 E23.7942
G1 X52.440 Y138.709 E23.8611
G1 X52.354 Y138.571 E23.8749
G1 X31.576 Y102.601 E27.3814
G1 X33.078 Y100.000 E27.6349
G1 X31.576 Y97.399 E27.8884
G1 X52.354 Y61.429 E31.3950
G1 X52.440 Y61.291 E31.4087
G1 X52.887 Y60.635 E31.4757
G1 X53.090 Y60.380 E31.5032
G1 X53.683 Y59.742 E31.5768
G1 X53.922 Y59.520 E31.6043
G92 E0.0000
G1 E-3.0000 F3600
; feature inner perimeter
G1 X57.014 Y63.091 F18000
G1 X57.044 Y63.068
G1 X57.996 Y64.150
G1 E0.0000 F3600
G92 E0.0000
G1 X58.211 Y63.978 E0.0232 F1350
G1 X58.450 Y63.841 E0.0465
G1 X58.706 Y63.740 E0.0697
G1 X58.974 Y63.679 E0.0929
G1 X59.320 Y63.653 E0.1222
G1 X140.680 Y63.653 E6.9902
G1 X141.026 Y63.679 E7.0194
G1 X141.294 Y63.740 E7.0427
G1 X141.550 Y63.841 E7.0659
G1 X141.789 Y63.978 E7.0891
G1 X142.004 Y64.150 E7.1124
G1 X142.191 Y64.352 E7.1356
G1 X142.387 Y64.638 E7.1649
G1 X160.270 Y95.600 E10.1832
G1 X153.679 Y95.600 E10.7396
G1 X140.848 Y73.362 E12.9068
G1 X140.201 Y72.413 E13.0038
G1 X139.372 Y71.520 E13.1067
G1 X138.419 Y70.759 E13.2096
G1 X137.363 Y70.150 E13.3126
G1 X136.228 Y69.704 E13.4155
G1 X135.039 Y69.433 E13.5184
G1 X133.894 Y69.347 E13.6153
G1 X72.922 Y69.347 E18.7623
G1 X66.106 Y69.347 E19.3376
G1 X64.961 Y69.433 E19.4345
G1 X63.772 Y69.704 E19.5375
G1 X62.637 Y70.150 E19.6404
G1 X61.581 Y70.759 E19.7433
G1 X60.628 Y71.520 E19.8463
G1 X59.798 Y72.413 E19.9492
G1 X59.152 Y73.361 E20.0460
G1 X47.873 Y92.870 E21.9483
G1 X46.315 Y95.600 E22.2136
G1 X39.730 Y95.600 E22.7695
G1 X57.614 Y64.638 E25.7878
G1 X57.809 Y64.352 E25.8171
G1 X57.860 Y64.297 E25.8234
G1 X57.996 Y64.150 F1350
G1 X57.505 Y63.621 F18000
G92 E0.0000
G1 X57.804 Y63.382 E0.0323 F1350
G1 X58.136 Y63.190 E0.0647
G1 X58.493 Y63.050 E0.0970
G1 X58.867 Y62.965 E0.1294
G1 X59.293 Y62.933 E0.1655
G1 X140.707 Y62.933 E7.0380
G1 X141.133 Y62.965 E7.0741
G1 X141.507 Y63.050 E7.1064
G1 X141.864 Y63.190 E7.1388
G1 X142.195 Y63.382 E7.1711
G1 X142.495 Y63.621 E7.2035
G1 X142.756 Y63.902 E7.2358
G1 X142.997 Y64.255 E7.2719
G1 X161.518 Y96.320 E10.3977
G1 X153.263 Y96.320 E11.0946
G1 X140.238 Y73.745 E13.2946
G1 X139.637 Y72.864 E13.3847
G1 X138.881 Y72.049 E13.4785
G1 X138.012 Y71.356 E13.5724
G1 X137.050 Y70.800 E13.6662
G1 X136.015 Y70.394 E13.7600
G1 X134.931 Y70.147 E13.8538
G1 X133.867 Y70.067 E13.9439
G1 X72.922 Y70.067 E19.0886
G1 X66.133 Y70.067 E19.6617
G1 X65.069 Y70.147 E19.7517
G1 X63.985 Y70.394 E19.8456
G1 X62.950 Y70.800 E19.9394
G1 X61.988 Y71.356 E20.0332
G1 X61.119 Y72.049 E20.1270
G1 X60.363 Y72.864 E20.2208
G1 X59.762 Y73.745 E20.3109
G1 X48.497 Y93.228 E22.2107
G1 X46.733 Y96.320 E22.5112
G1 X38.482 Y96.320 E23.2077
G1 X57.003 Y64.255 E26.3335
G1 X57.244 Y63.902 E26.3696
G1 X57.265 Y63.879 E26.3722
G1 X57.369 Y63.767 E26.3851
G1 X57.505 Y63.621 F1350
; feature outer perimeter
G1 X57.014 Y63.091 F18000
G92 E0.0000
G1 X57.398 Y62.785 E0.0415 F900
G1 X57.823 Y62.540 E0.0829
G1 X58.280 Y62.360 E0.1244
G1 X58.759 Y62.251 E0.1658
G1 X59.266 Y62.213 E0.2087
G1 X140.734 Y62.213 E7.0858
G1 X141.241 Y62.251 E7.1287
G1 X141.720 Y62.360 E7.1702
G1 X142.177 Y62.540 E7.2116
G1 X142.602 Y62.785 E7.2531
G1 X142.986 Y63.091 E7.2945
G1 X143.320 Y63.451 E7.3360
G1 X143.607 Y63.871 E7.3789
G1 X162.765 Y97.040 E10.6123
G1 X152.847 Y97.040 E11.4496
G1 X139.628 Y74.129 E13.6824
G1 X139.072 Y73.314 E13.7657
G1 X138.390 Y72.578 E13.8504
G1 X137.605 Y71.952 E13.9351
G1 X136.736 Y71.451 E14.0198
G1 X135.802 Y71.084 E14.1045
G1 X134.824 Y70.861 E14.1892
G1 X133.840 Y70.787 E14.2725
G1 X72.922 Y70.787 E19.4149
G1 X66.160 Y70.787 E19.9857
G1 X65.176 Y70.861 E20.0689
G1 X64.198 Y71.084 E20.1537
G1 X63.264 Y71.451 E20.2384
G1 X62.395 Y71.952 E20.3231
G1 X61.610 Y72.578 E20.4078
G1 X60.927 Y73.314 E20.4925
G1 X60.372 Y74.128 E20.5757
G1 X49.121 Y93.587 E22.4731
G1 X47.151 Y97.040 E22.8087
G1 X37.235 Y97.040 E23.6458
G1 X56.393 Y63.871 E26.8792
G1 X56.680 Y63.451 E26.9221
G1 X56.737 Y63.389 E26.9293
G1 X56.878 Y63.238 E26.9467
G1 X57.014 Y63.091 F900
G1 X57.398 Y62.785 F900
G1 X57.823 Y62.540
G1 X58.280 Y62.360
G1 X58.759 Y62.251
G1 X59.266 Y62.213
G1 X61.793 Y62.213
; feature solid layer
G1 X41.094 Y95.060 F18000
G92 E0.0000
G1 X40.822 Y94.788 E0.0324 F1440
G1 X41.195 Y94.143 E0.0953
G1 X42.112 Y95.060 E0.2048
G1 X43.130 Y95.060 E0.2908
G1 X41.568 Y93.497 E0.4773
G1 X41.940 Y92.852 E0.5402
G1 X44.148 Y95.060 E0.8038
G1 X45.167 Y95.060 E0.8898
G1 X42.313 Y92.207 E1.2304
G1 X42.686 Y91.561 E1.2933
G1 X46.068 Y94.943 E1.6971
G1 X46.438 Y94.295 E1.7601
G1 X43.059 Y90.916 E2.1635
G1 X43.432 Y90.270 E2.2264
G1 X46.808 Y93.646 E2.6294
G1 X47.178 Y92.998 E2.6924
