; G-Code generated by Simplify3D(R) Version 4.1.2
; Oct 27, 2019 at 9:15:57 PM
; Settings Summary
;   processName,Process1
;   applyToModels,hotend-halterung-e3dv6
;   profileName,HBot
;   profileVersion,2019-10-26 23:38:43
;   baseProfile,Default
;   printMaterial,PLA
;   printQuality,Medium
;   printExtruders,
;   extruderName,Extruder 1
;   extruderToolheadNumber,0
;   extruderDiameter,0.4
;   extruderAutoWidth,0
;   extruderWidth,0.4
;   extrusionMultiplier,0.94
;   extruderUseRetract,0
;   extruderRetractionDistance,5
;   extruderExtraRestartDistance,0
;   extruderRetractionZLift,0
;   extruderRetractionSpeed,1800
;   extruderUseCoasting,0
;   extruderCoastingDistance,0.2
;   extruderUseWipe,0
;   extruderWipeDistance,5
;   primaryExtruder,0
;   layerHeight,0.2
;   topSolidLayers,3
;   bottomSolidLayers,3
;   perimeterOutlines,3
;   printPerimetersInsideOut,1
;   startPointOption,2
;   startPointOriginX,0
;   startPointOriginY,0
;   sequentialIslands,0
;   spiralVaseMode,0
;   firstLayerHeightPercentage,150
;   firstLayerWidthPercentage,200
;   firstLayerUnderspeed,0.3
;   useRaft,1
;   raftExtruder,0
;   raftTopLayers,3
;   raftBaseLayers,2
;   raftOffset,3
;   raftSeparationDistance,0.18
;   raftTopInfill,100
;   aboveRaftSpeedMultiplier,0.3
;   useSkirt,1
;   skirtExtruder,0
;   skirtLayers,1
;   skirtOutlines,3
;   skirtOffset,4
;   usePrimePillar,0
;   primePillarExtruder,999
;   primePillarWidth,12
;   primePillarLocation,7
;   primePillarSpeedMultiplier,1
;   useOozeShield,0
;   oozeShieldExtruder,999
;   oozeShieldOffset,2
;   oozeShieldOutlines,1
;   oozeShieldSidewallShape,1
;   oozeShieldSidewallAngle,30
;   oozeShieldSpeedMultiplier,1
;   infillExtruder,0
;   internalInfillPattern,Rectilinear
;   externalInfillPattern,Rectilinear
;   infillPercentage,20
;   outlineOverlapPercentage,15
;   infillExtrusionWidthPercentage,100
;   minInfillLength,5
;   infillLayerInterval,1
;   internalInfillAngles,45,-45
;   overlapInternalInfillAngles,0
;   externalInfillAngles,45,-45
;   generateSupport,0
;   supportExtruder,0
;   supportInfillPercentage,30
;   supportExtraInflation,0
;   supportBaseLayers,2
;   denseSupportExtruder,0
;   denseSupportLayers,0
;   denseSupportInfillPercentage,70
;   supportLayerInterval,1
;   supportHorizontalPartOffset,0.3
;   supportUpperSeparationLayers,1
;   supportLowerSeparationLayers,1
;   supportType,0
;   supportGridSpacing,4
;   maxOverhangAngle,45
;   supportAngles,0
;   temperatureName,Extruder 1
;   temperatureNumber,0
;   temperatureSetpointCount,1
;   temperatureSetpointLayers,1
;   temperatureSetpointTemperatures,217
;   temperatureStabilizeAtStartup,1
;   temperatureHeatedBed,0
;   fanLayers,1,2,5
;   fanSpeeds,0,20,60
;   blipFanToFullPower,1
;   adjustSpeedForCooling,1
;   minSpeedLayerTime,15
;   minCoolingSpeedSlowdown,20
;   increaseFanForCooling,1
;   minFanLayerTime,45
;   maxCoolingFanSpeed,100
;   increaseFanForBridging,1
;   bridgingFanSpeed,100
;   use5D,1
;   relativeEdistances,0
;   allowEaxisZeroing,1
;   independentExtruderAxes,0
;   includeM10123,0
;   stickySupport,1
;   applyToolheadOffsets,0
;   gcodeXoffset,0
;   gcodeYoffset,0
;   gcodeZoffset,0
;   overrideMachineDefinition,1
;   machineTypeOverride,0
;   strokeXoverride,200
;   strokeYoverride,200
;   strokeZoverride,200
;   originOffsetXoverride,0
;   originOffsetYoverride,0
;   originOffsetZoverride,0
;   homeXdirOverride,-1
;   homeYdirOverride,-1
;   homeZdirOverride,-1
;   flipXoverride,1
;   flipYoverride,-1
;   flipZoverride,1
;   toolheadOffsets,0,0|0,0|0,0|0,0|0,0|0,0
;   overrideFirmwareConfiguration,1
;   firmwareTypeOverride,RepRap (Marlin/Repetier/Sprinter)
;   GPXconfigOverride,r2
;   baudRateOverride,115200
;   overridePrinterModels,0
;   printerModelsOverride
;   startingGcode,G28 ; home all axes,G32 ; run bed.g -- probe bed and enable compensation
;   layerChangeGcode,
;   retractionGcode,
;   toolChangeGcode,
;   endingGcode,;retract 5mm,G91,G1 E-5.0 F240 ; retract 5mm,G90,;move print down,G1 Z220,;move printhead to center,G1 X100.0 Y100.0,,M104 S0 ; turn off extruder,M140 S0 ; turn off bed,M84 ; disable motors,
;   exportFileFormat,gcode
;   celebration,0
;   celebrationSong,Random Song
;   postProcessing,
;   defaultSpeed,3600
;   outlineUnderspeed,0.5
;   solidInfillUnderspeed,0.8
;   supportUnderspeed,0.8
;   rapidXYspeed,18000
;   rapidZspeed,1200
;   minBridgingArea,50
;   bridgingExtraInflation,0
;   bridgingExtrusionMultiplier,1
;   bridgingSpeedMultiplier,1
;   useFixedBridgingAngle,0
;   fixedBridgingAngle,0
;   applyBridgingToPerimeters,0
;   filamentDiameters,1.75|1.75|1.75|1.75|1.75|1.75
;   filamentPricesPerKg,46|46|46|46|46|46
;   filamentDensities,1.25|1.25|1.25|1.25|1.25|1.25
;   useMinPrintHeight,0
;   minPrintHeight,0
;   useMaxPrintHeight,0
;   maxPrintHeight,0
;   useDiaphragm,0
;   diaphragmLayerInterval,20
;   robustSlicing,1
;   mergeAllIntoSolid,0
;   onlyRetractWhenCrossingOutline,1
;   retractBetweenLayers,1
;   useRetractionMinTravel,0
;   retractionMinTravel,3
;   retractWhileWiping,0
;   onlyWipeOutlines,1
;   avoidCrossingOutline,0
;   maxMovementDetourFactor,3
;   toolChangeRetractionDistance,12
;   toolChangeExtraRestartDistance,-0.5
;   toolChangeRetractionSpeed,600
;   externalThinWallType,1
;   internalThinWallType,1
;   thinWallAllowedOverlapPercentage,10
;   singleExtrusionMinLength,1
;   singleExtrusionMinPrintingWidthPercentage,50
;   singleExtrusionMaxPrintingWidthPercentage,200
;   singleExtrusionEndpointExtension,0.2
;   horizontalSizeCompensation,-0.1
G90
M82
M106 S0
M104 S217 T0
M109 S217 T0
G28 ; home all axes
G32 ; run bed.g -- probe bed and enable compensation
; process Process1
; layer 1, Z = 0.750
T0
; feature skirt
; tool H0.750 W0.800
G1 Z0.750 F1200
G1 X70.513 Y65.959 F18000
G92 E0.0000
G1 X73.959 Y62.513 E1.1425 F1080
G1 X76.164 Y61.600 E1.7022
G1 X123.836 Y61.600 E12.8805
G1 X126.041 Y62.513 E13.4402
G1 X129.487 Y65.959 E14.5827
G1 X130.400 Y68.164 E15.1424
G1 X130.400 Y88.836 E19.9897
G1 X129.487 Y91.041 E20.5494
G1 X126.041 Y94.487 E21.6919
G1 X123.836 Y95.400 E22.2516
G1 X122.150 Y95.400 E22.6469
G1 X122.150 Y131.836 E31.1906
G1 X121.237 Y134.041 E31.7503
G1 X117.791 Y137.487 E32.8928
G1 X115.586 Y138.400 E33.4525
G1 X83.514 Y138.400 E40.9729
G1 X81.309 Y137.487 E41.5326
G1 X77.863 Y134.041 E42.6751
G1 X76.950 Y131.836 E43.2348
G1 X76.950 Y95.400 E51.7785
G1 X76.164 Y95.400 E51.9628
G1 X73.959 Y94.487 E52.5225
G1 X70.513 Y91.041 E53.6649
G1 X69.600 Y88.836 E54.2246
G1 X69.600 Y68.164 E59.0719
G1 X70.513 Y65.959 E59.6317
G1 X71.192 Y66.412 F18000
G92 E0.0000
G1 X74.412 Y63.192 E1.0678 F1080
G1 X76.323 Y62.400 E1.5529
G1 X123.677 Y62.400 E12.6567
G1 X125.588 Y63.192 E13.1417
G1 X128.808 Y66.412 E14.2096
G1 X129.600 Y68.323 E14.6946
G1 X129.600 Y88.677 E19.4673
G1 X128.808 Y90.588 E19.9524
G1 X125.588 Y93.808 E21.0202
G1 X123.677 Y94.600 E21.5053
G1 X121.350 Y94.600 E22.0509
G1 X121.350 Y131.677 E30.7449
G1 X120.558 Y133.588 E31.2300
G1 X117.338 Y136.808 E32.2978
G1 X115.427 Y137.600 E32.7829
G1 X83.673 Y137.600 E40.2287
G1 X81.762 Y136.808 E40.7138
G1 X78.542 Y133.588 E41.7816
G1 X77.750 Y131.677 E42.2667
G1 X77.750 Y94.600 E50.9606
G1 X76.323 Y94.600 E51.2952
G1 X74.412 Y93.808 E51.7803
G1 X71.192 Y90.588 E52.8481
G1 X70.400 Y88.677 E53.3332
G1 X70.400 Y68.323 E58.1059
G1 X71.192 Y66.412 E58.5910
G1 X71.870 Y66.865 F18000
G92 E0.0000
G1 X74.865 Y63.870 E0.9932 F1080
G1 X76.482 Y63.200 E1.4037
G1 X123.518 Y63.200 E12.4328
G1 X125.135 Y63.870 E12.8432
G1 X128.130 Y66.865 E13.8364
G1 X128.800 Y68.482 E14.2469
G1 X128.800 Y88.518 E18.9449
G1 X128.130 Y90.135 E19.3554
G1 X125.135 Y93.130 E20.3486
G1 X123.518 Y93.800 E20.7590
G1 X120.550 Y93.800 E21.4549
G1 X120.550 Y131.518 E30.2992
G1 X119.880 Y133.135 E30.7096
G1 X116.885 Y136.130 E31.7028
G1 X115.268 Y136.800 E32.1133
G1 X83.832 Y136.800 E39.4844
G1 X82.215 Y136.130 E39.8949
G1 X79.220 Y133.135 E40.8881
G1 X78.550 Y131.518 E41.2986
G1 X78.550 Y93.800 E50.1428
G1 X76.482 Y93.800 E50.6277
G1 X74.865 Y93.130 E51.0381
G1 X71.870 Y90.135 E52.0313
G1 X71.200 Y88.518 E52.4418
G1 X71.200 Y68.482 E57.1398
G1 X71.870 Y66.865 E57.5503
; feature raft
G1 X76.000 Y69.523 F18000
G92 E0.0000
G1 X77.523 Y68.000 E0.5051 F270
G1 X122.477 Y68.000 E11.0460
G1 X124.000 Y69.523 E11.5511
G1 X124.000 Y87.477 E15.7610
G1 X122.477 Y89.000 E16.2661
G1 X115.750 Y89.000 E17.8434
G1 X115.750 Y130.477 E27.5691
G1 X114.227 Y132.000 E28.0742
G1 X84.873 Y132.000 E34.9572
G1 X83.350 Y130.477 E35.4622
G1 X83.350 Y89.000 E45.1879
G1 X77.523 Y89.000 E46.5542
G1 X76.000 Y87.477 E47.0593
G1 X76.000 Y69.523 E51.2692
G1 X95.307 Y102.119 F18000
G92 E0.0000
G1 X94.555 Y102.655 E0.2166 F270
G1 X93.845 Y103.284 E0.4389
G1 X93.453 Y103.698 E0.5727
G1 X92.865 Y104.441 E0.7948
G1 X92.359 Y105.242 E1.0170
G1 X92.097 Y105.749 E1.1508
G1 X91.739 Y106.626 E1.3729
G1 X91.482 Y107.513 E1.5895
G1 X91.316 Y108.446 E1.8118
G1 X91.266 Y109.014 E1.9454
G1 X91.266 Y109.962 E2.1676
G1 X91.366 Y110.904 E2.3899
G1 X91.476 Y111.463 E2.5235
G1 X91.739 Y112.374 E2.7457
G1 X92.097 Y113.250 E2.9678
G1 X92.370 Y113.780 E3.1074
G1 X92.690 Y114.306 E3.2518
G1 X93.033 Y114.790 E3.3910
G1 X93.647 Y115.511 E3.6131
G1 X94.316 Y116.148 E3.8297
G1 X95.050 Y116.711 E4.0466
G1 X95.839 Y117.193 E4.2634
G1 X96.701 Y117.602 E4.4871
G1 X97.241 Y117.801 E4.6220
G1 X98.183 Y118.057 E4.8509
G1 X98.762 Y118.159 E4.9887
G1 X99.736 Y118.244 E5.2181
G1 X100.333 Y118.242 E5.3580
G1 X100.938 Y118.197 E5.5003
G1 X101.903 Y118.038 E5.7296
G1 X102.481 Y117.889 E5.8695
G1 X103.078 Y117.689 E6.0172
G1 X103.643 Y117.453 E6.1608
G1 X104.188 Y117.180 E6.3036
G1 X105.019 Y116.665 E6.5329
G1 X105.496 Y116.306 E6.6729
G1 X105.974 Y115.891 E6.8212
G1 X106.386 Y115.478 E6.9583
G1 X107.021 Y114.717 E7.1905
G1 X107.362 Y114.226 E7.3308
G1 X107.677 Y113.694 E7.4757
G1 X107.964 Y113.121 E7.6260
G1 X108.192 Y112.571 E7.7656
G1 X108.396 Y111.958 E7.9171
G1 X108.547 Y111.365 E8.0606
G1 X108.657 Y110.751 E8.2068
G1 X108.743 Y109.785 E8.4343
G1 X108.743 Y109.217 E8.5673
G1 X108.655 Y108.242 E8.7969
G1 X108.475 Y107.337 E9.0134
G1 X108.191 Y106.429 E9.2363
G1 X107.973 Y105.900 E9.3705
G1 X107.511 Y105.016 E9.6044
G1 X107.211 Y104.548 E9.7348
G1 X106.612 Y103.773 E9.9646
G1 X106.195 Y103.323 E10.1085
G1 X105.742 Y102.900 E10.2536
G1 X105.251 Y102.502 E10.4019
G1 X104.769 Y102.167 E10.5396
G1 X103.931 Y101.687 E10.7660
G1 X103.077 Y101.313 E10.9845
G1 X102.188 Y101.032 E11.2031
G1 X101.269 Y100.846 E11.4231
G1 X100.334 Y100.760 E11.6432
G1 X99.402 Y100.774 E11.8618
G1 X98.471 Y100.888 E12.0818
G1 X97.544 Y101.104 E12.3050
G1 X96.987 Y101.288 E12.4424
G1 X96.112 Y101.665 E12.6659
G1 X95.307 Y102.119 E12.8825
G1 X106.064 Y102.286 F18000
G92 E0.0000
G1 X115.070 Y102.286 E2.1117 F270
G1 X115.070 Y104.571 E2.6477
G1 X108.034 Y104.571 E4.2976
G1 X108.100 Y104.675 E4.3264
G1 X108.590 Y105.613 E4.5745
G1 X108.831 Y106.198 E4.7229
G1 X109.037 Y106.857 E4.8849
G1 X115.070 Y106.857 E6.2995
G1 X115.070 Y109.143 E6.8355
G1 X109.419 Y109.143 E8.1605
G1 X109.423 Y109.187 E8.1709
G1 X109.423 Y109.815 E8.3181
G1 X109.332 Y110.842 E8.5598
G1 X109.227 Y111.429 E8.6997
G1 X115.070 Y111.429 E10.0698
G1 X115.070 Y113.714 E10.6058
G1 X108.427 Y113.714 E12.1634
G1 X108.275 Y114.020 E12.2435
G1 X107.935 Y114.593 E12.3998
G1 X107.563 Y115.130 E12.5529
G1 X106.889 Y115.937 E12.7993
G1 X106.826 Y116.000 E12.8203
G1 X115.070 Y116.000 E14.7535
G1 X115.070 Y118.286 E15.2894
G1 X103.414 Y118.286 E18.0226
G1 X115.070 Y129.714 F18000
G92 E0.0000
G1 X84.030 Y129.714 E7.2784 F270
G1 X84.030 Y127.429 E7.8143
G1 X115.070 Y127.429 E15.0927
G1 X115.070 Y125.143 E15.6287
G1 X84.030 Y125.143 E22.9071
G1 X84.030 Y122.857 E23.4430
G1 X115.070 Y122.857 E30.7214
G1 X115.070 Y120.571 E31.2574
G1 X84.030 Y120.571 E38.5358
G1 X84.030 Y118.286 E39.0717
G1 X96.590 Y118.286 E42.0170
G1 X96.437 Y118.229 E42.0552
G1 X95.515 Y117.792 E42.2944
G1 X94.665 Y117.273 E42.5282
G1 X93.874 Y116.666 E42.7619
G1 X93.174 Y116.000 E42.9884
G1 X84.030 Y116.000 E45.1325
G1 X84.030 Y113.714 E45.6685
G1 X91.571 Y113.714 E47.4368
G1 X91.479 Y113.535 E47.4840
G1 X91.096 Y112.597 E47.7216
G1 X90.814 Y111.624 E47.9592
G1 X90.776 Y111.429 E48.0059
G1 X84.030 Y111.429 E49.5876
G1 X84.030 Y109.143 E50.1236
G1 X90.586 Y109.143 E51.6608
G1 X90.586 Y108.984 E51.6981
G1 X90.641 Y108.357 E51.8458
G1 X90.819 Y107.358 E52.0835
G1 X90.964 Y106.857 E52.2059
G1 X84.030 Y106.857 E53.8319
G1 X84.030 Y104.571 E54.3679
G1 X91.978 Y104.571 E56.2316
G1 X92.310 Y104.047 E56.3771
G1 X92.939 Y103.252 E56.6147
G1 X93.372 Y102.794 E56.7625
G1 X93.947 Y102.286 E56.9425
G1 X84.030 Y102.286 E59.2677
G1 X84.030 Y100.000 E59.8037
G1 X115.070 Y100.000 E67.0821
G1 X115.070 Y97.714 E67.6180
G1 X84.030 Y97.714 E74.8964
G1 X84.030 Y95.429 E75.4324
G1 X115.070 Y95.429 E82.7108
G1 X115.070 Y93.143 E83.2467
G1 X84.030 Y93.143 E90.5251
G1 X84.030 Y90.857 E91.0611
G1 X115.070 Y90.857 E98.3395
G1 X115.070 Y88.571 E98.8754
G1 X84.030 Y88.571 E106.1538
G1 X84.030 Y88.320 E106.2128
G1 X77.805 Y88.320 E107.6725
G1 X76.680 Y87.195 E108.0455
G1 X76.680 Y86.286 E108.2588
G1 X123.320 Y86.286 E119.1951
G1 X123.320 Y84.000 E119.7311
G1 X76.680 Y84.000 E130.6674
G1 X76.680 Y81.714 E131.2033
G1 X123.320 Y81.714 E142.1397
G1 X123.320 Y79.429 E142.6756
G1 X76.680 Y79.429 E153.6120
G1 X76.680 Y77.143 E154.1479
G1 X123.320 Y77.143 E165.0843
G1 X123.320 Y74.857 E165.6202
G1 X76.680 Y74.857 E176.5566
G1 X76.680 Y72.571 E177.0925
G1 X123.320 Y72.571 E188.0289
G1 X123.320 Y70.286 E188.5648
G1 X76.680 Y70.286 E199.5012
; layer 2, Z = 1.250
M106 S255
G4 P500
M106 S51
; tool H0.500 W0.800
G1 Z1.250 F1200
G1 X76.000 Y69.523 F18000
G92 E0.0000
G1 X77.523 Y68.000 E0.3367 F900
G1 X122.477 Y68.000 E7.3640
G1 X124.000 Y69.523 E7.7007
G1 X124.000 Y87.477 E10.5073
G1 X122.477 Y89.000 E10.8440
G1 X115.750 Y89.000 E11.8956
G1 X115.750 Y130.477 E18.3794
G1 X114.227 Y132.000 E18.7161
G1 X84.873 Y132.000 E23.3048
G1 X83.350 Y130.477 E23.6415
G1 X83.350 Y89.000 E30.1253
G1 X77.523 Y89.000 E31.0362
G1 X76.000 Y87.477 E31.3729
G1 X76.000 Y69.523 E34.1795
G1 X95.307 Y102.119 F18000
G92 E0.0000
G1 X94.555 Y102.655 E0.1444 F900
G1 X93.845 Y103.284 E0.2926
G1 X93.453 Y103.698 E0.3818
G1 X92.865 Y104.441 E0.5299
G1 X92.359 Y105.242 E0.6780
G1 X92.097 Y105.749 E0.7672
G1 X91.739 Y106.626 E0.9153
G1 X91.482 Y107.513 E1.0597
G1 X91.316 Y108.446 E1.2079
G1 X91.266 Y109.014 E1.2970
G1 X91.266 Y109.962 E1.4451
G1 X91.366 Y110.904 E1.5933
G1 X91.476 Y111.463 E1.6824
G1 X91.739 Y112.374 E1.8305
G1 X92.097 Y113.250 E1.9785
G1 X92.370 Y113.780 E2.0716
G1 X92.690 Y114.306 E2.1678
G1 X93.033 Y114.790 E2.2606
G1 X93.647 Y115.511 E2.4087
G1 X94.316 Y116.148 E2.5531
G1 X95.050 Y116.711 E2.6977
G1 X95.839 Y117.193 E2.8423
G1 X96.701 Y117.602 E2.9914
G1 X97.241 Y117.801 E3.0813
G1 X98.183 Y118.057 E3.2339
G1 X98.762 Y118.159 E3.3258
G1 X99.736 Y118.244 E3.4787
G1 X100.333 Y118.242 E3.5720
G1 X100.938 Y118.197 E3.6669
G1 X101.903 Y118.038 E3.8197
G1 X102.481 Y117.889 E3.9130
G1 X103.078 Y117.689 E4.0115
G1 X103.643 Y117.453 E4.1072
G1 X104.188 Y117.180 E4.2024
G1 X105.019 Y116.665 E4.3553
G1 X105.496 Y116.306 E4.4486
G1 X105.974 Y115.891 E4.5475
G1 X106.386 Y115.478 E4.6388
G1 X107.021 Y114.717 E4.7937
G1 X107.362 Y114.226 E4.8872
G1 X107.677 Y113.694 E4.9838
G1 X107.964 Y113.121 E5.0840
G1 X108.192 Y112.571 E5.1771
G1 X108.396 Y111.958 E5.2781
G1 X108.547 Y111.365 E5.3738
G1 X108.657 Y110.751 E5.4712
G1 X108.743 Y109.785 E5.6229
G1 X108.743 Y109.217 E5.7115
G1 X108.655 Y108.242 E5.8646
G1 X108.475 Y107.337 E6.0089
G1 X108.191 Y106.429 E6.1575
G1 X107.973 Y105.900 E6.2470
G1 X107.511 Y105.016 E6.4029
G1 X107.211 Y104.548 E6.4899
G1 X106.612 Y103.773 E6.6430
G1 X106.195 Y103.323 E6.7390
G1 X105.742 Y102.900 E6.8357
G1 X105.251 Y102.502 E6.9346
G1 X104.769 Y102.167 E7.0264
G1 X103.931 Y101.687 E7.1773
G1 X103.077 Y101.313 E7.3230
G1 X102.188 Y101.032 E7.4688
G1 X101.269 Y100.846 E7.6154
G1 X100.334 Y100.760 E7.7622
G1 X99.402 Y100.774 E7.9079
G1 X98.471 Y100.888 E8.0546
G1 X97.544 Y101.104 E8.2033
G1 X96.987 Y101.288 E8.2949
