; G-Code generated by Simplify3D(R) Version 4.1.2
; Oct 29, 2019 at 7:25:37 PM
; Settings Summary
;   processName,Process1
;   applyToModels,luefter-umlenkrohr
;   profileName,HBot (modified)
;   profileVersion,2019-10-26 23:38:43
;   baseProfile,Default
;   printMaterial,PLA
;   printQuality,High
;   printExtruders,
;   extruderName,Extruder 1
;   extruderToolheadNumber,0
;   extruderDiameter,0.4
;   extruderAutoWidth,0
;   extruderWidth,0.4
;   extrusionMultiplier,0.94
;   extruderUseRetract,0
;   extruderRetractionDistance,5
;   extruderExtraRestartDistance,0
;   extruderRetractionZLift,0
;   extruderRetractionSpeed,1800
;   extruderUseCoasting,0
;   extruderCoastingDistance,0.2
;   extruderUseWipe,0
;   extruderWipeDistance,5
;   primaryExtruder,0
;   layerHeight,0.1
;   topSolidLayers,4
;   bottomSolidLayers,4
;   perimeterOutlines,3
;   printPerimetersInsideOut,1
;   startPointOption,2
;   startPointOriginX,0
;   startPointOriginY,0
;   sequentialIslands,0
;   spiralVaseMode,0
;   firstLayerHeightPercentage,200
;   firstLayerWidthPercentage,200
;   firstLayerUnderspeed,0.3
;   useRaft,0
;   raftExtruder,0
;   raftTopLayers,3
;   raftBaseLayers,2
;   raftOffset,3
;   raftSeparationDistance,0.18
;   raftTopInfill,100
;   aboveRaftSpeedMultiplier,0.3
;   useSkirt,1
;   skirtExtruder,0
;   skirtLayers,1
;   skirtOutlines,3
;   skirtOffset,4
;   usePrimePillar,0
;   primePillarExtruder,999
;   primePillarWidth,12
;   primePillarLocation,7
;   primePillarSpeedMultiplier,1
;   useOozeShield,0
;   oozeShieldExtruder,999
;   oozeShieldOffset,2
;   oozeShieldOutlines,1
;   oozeShieldSidewallShape,1
;   oozeShieldSidewallAngle,30
;   oozeShieldSpeedMultiplier,1
;   infillExtruder,0
;   internalInfillPattern,Rectilinear
;   externalInfillPattern,Rectilinear
;   infillPercentage,30
;   outlineOverlapPercentage,15
;   infillExtrusionWidthPercentage,100
;   minInfillLength,5
;   infillLayerInterval,1
;   internalInfillAngles,45,-45
;   overlapInternalInfillAngles,0
;   externalInfillAngles,45,-45
;   generateSupport,1
;   supportExtruder,0
;   supportInfillPercentage,40
;   supportExtraInflation,0
;   supportBaseLayers,2
;   denseSupportExtruder,0
;   denseSupportLayers,0
;   denseSupportInfillPercentage,70
;   supportLayerInterval,1
;   supportHorizontalPartOffset,0.3
;   supportUpperSeparationLayers,1
;   supportLowerSeparationLayers,1
;   supportType,0
;   supportGridSpacing,4
;   maxOverhangAngle,45
;   supportAngles,0
;   temperatureName,Extruder 1
;   temperatureNumber,0
;   temperatureSetpointCount,1
;   temperatureSetpointLayers,1
;   temperatureSetpointTemperatures,217
;   temperatureStabilizeAtStartup,1
;   temperatureHeatedBed,0
;   fanLayers,1
;   fanSpeeds,0
;   blipFanToFullPower,1
;   adjustSpeedForCooling,1
;   minSpeedLayerTime,15
;   minCoolingSpeedSlowdown,20
;   increaseFanForCooling,1
;   minFanLayerTime,45
;   maxCoolingFanSpeed,40
;   increaseFanForBridging,1
;   bridgingFanSpeed,40
;   use5D,1
;   relativeEdistances,0
;   allowEaxisZeroing,1
;   independentExtruderAxes,0
;   includeM10123,0
;   stickySupport,1
;   applyToolheadOffsets,0
;   gcodeXoffset,0
;   gcodeYoffset,0
;   gcodeZoffset,0
;   overrideMachineDefinition,1
;   machineTypeOverride,0
;   strokeXoverride,200
;   strokeYoverride,200
;   strokeZoverride,200
;   originOffsetXoverride,0
;   originOffsetYoverride,0
;   originOffsetZoverride,0
;   homeXdirOverride,-1
;   homeYdirOverride,-1
;   homeZdirOverride,-1
;   flipXoverride,1
;   flipYoverride,-1
;   flipZoverride,1
;   toolheadOffsets,0,0|0,0|0,0|0,0|0,0|0,0
;   overrideFirmwareConfiguration,1
;   firmwareTypeOverride,RepRap (Marlin/Repetier/Sprinter)
;   GPXconfigOverride,r2
;   baudRateOverride,115200
;   overridePrinterModels,0
;   printerModelsOverride
;   startingGcode,G28 ; home all axes,G32 ; run bed.g -- probe bed and enable compensation
;   layerChangeGcode,
;   retractionGcode,
;   toolChangeGcode,
;   endingGcode,;retract 5mm,G91,G1 E-5.0 F240 ; retract 5mm,G90,;move print down,G1 Z220,;move printhead to center,G1 X100.0 Y100.0,,M104 S0 ; turn off extruder,M140 S0 ; turn off bed,M84 ; disable motors,
;   exportFileFormat,gcode
;   celebration,0
;   celebrationSong,Random Song
;   postProcessing,
;   defaultSpeed,3600
;   outlineUnderspeed,0.5
;   solidInfillUnderspeed,0.8
;   supportUnderspeed,0.8
;   rapidXYspeed,18000
;   rapidZspeed,1200
;   minBridgingArea,50
;   bridgingExtraInflation,0
;   bridgingExtrusionMultiplier,0.96
;   bridgingSpeedMultiplier,1
;   useFixedBridgingAngle,0
;   fixedBridgingAngle,0
;   applyBridgingToPerimeters,0
;   filamentDiameters,1.75|1.75|1.75|1.75|1.75|1.75
;   filamentPricesPerKg,46|46|46|46|46|46
;   filamentDensities,1.25|1.25|1.25|1.25|1.25|1.25
;   useMinPrintHeight,0
;   minPrintHeight,0
;   useMaxPrintHeight,0
;   maxPrintHeight,0
;   useDiaphragm,1
;   diaphragmLayerInterval,20
;   robustSlicing,1
;   mergeAllIntoSolid,0
;   onlyRetractWhenCrossingOutline,1
;   retractBetweenLayers,1
;   useRetractionMinTravel,0
;   retractionMinTravel,3
;   retractWhileWiping,0
;   onlyWipeOutlines,1
;   avoidCrossingOutline,0
;   maxMovementDetourFactor,3
;   toolChangeRetractionDistance,12
;   toolChangeExtraRestartDistance,-0.5
;   toolChangeRetractionSpeed,600
;   externalThinWallType,1
;   internalThinWallType,1
;   thinWallAllowedOverlapPercentage,10
;   singleExtrusionMinLength,1
;   singleExtrusionMinPrintingWidthPercentage,50
;   singleExtrusionMaxPrintingWidthPercentage,200
;   singleExtrusionEndpointExtension,0.2
;   horizontalSizeCompensation,-0.1
G90
M82
M106 S0
M104 S217 T0
M109 S217 T0
G28 ; home all axes
G32 ; run bed.g -- probe bed and enable compensation
; process Process1
; layer 1, Z = 0.200
T0
; feature skirt
; tool H0.200 W0.800
G1 Z0.200 F1200
G1 X84.444 Y79.121 F18000
G92 E0.0000
G1 X87.959 Y75.607 E0.3108 F1080
G1 X95.156 Y75.607 E0.7608
G1 X95.219 Y75.543 E0.7664
G1 X110.630 Y75.543 E1.7301
G1 X113.589 Y78.503 E1.9918
G1 X114.196 Y78.503 E2.0297
G1 X117.711 Y82.017 E2.3405
G1 X117.711 Y91.926 E2.9601
G1 X117.900 Y92.115 E2.9768
G1 X117.900 Y115.885 E4.4631
G1 X114.385 Y119.400 E4.7739
G1 X85.615 Y119.400 E6.5729
G1 X82.100 Y115.885 E6.8837
G1 X82.100 Y92.115 E8.3701
G1 X83.505 Y90.710 E8.4943
G1 X83.505 Y81.984 E9.0399
G1 X84.444 Y81.045 E9.1230
G1 X84.444 Y79.121 E9.2433
G1 X85.244 Y79.453 F18000
G92 E0.0000
G1 X88.290 Y76.407 E0.2694 F1080
G1 X95.487 Y76.407 E0.7194
G1 X95.551 Y76.343 E0.7250
G1 X110.298 Y76.343 E1.6472
G1 X113.258 Y79.303 E1.9089
G1 X113.865 Y79.303 E1.9468
G1 X116.911 Y82.349 E2.2162
G1 X116.911 Y92.257 E2.8357
G1 X117.100 Y92.446 E2.8525
G1 X117.100 Y115.554 E4.2974
G1 X114.054 Y118.600 E4.5667
G1 X85.946 Y118.600 E6.3243
G1 X82.900 Y115.554 E6.5937
G1 X82.900 Y92.446 E8.0386
G1 X84.305 Y91.041 E8.1628
G1 X84.305 Y82.316 E8.7084
G1 X85.244 Y81.376 E8.7915
G1 X85.244 Y79.453 E8.9117
G1 X86.044 Y79.784 F18000
G92 E0.0000
G1 X88.621 Y77.207 E0.2279 F1080
G1 X95.819 Y77.207 E0.6779
G1 X95.882 Y77.143 E0.6836
G1 X109.967 Y77.143 E1.5643
G1 X112.545 Y79.721 E1.7922
G1 X112.545 Y80.103 E1.8161
G1 X113.533 Y80.103 E1.8779
G1 X116.111 Y82.680 E2.1059
G1 X116.111 Y92.588 E2.7254
G1 X116.300 Y92.777 E2.7421
G1 X116.300 Y115.223 E4.1456
G1 X113.723 Y117.800 E4.3735
G1 X86.277 Y117.800 E6.0896
G1 X83.700 Y115.223 E6.3176
G1 X83.700 Y92.777 E7.7210
G1 X85.105 Y91.373 E7.8453
G1 X85.105 Y82.647 E8.3909
G1 X86.044 Y81.708 E8.4739
G1 X86.044 Y79.784 E8.5942
; feature outer perimeter
G1 X88.500 Y95.000 F18000
G92 E0.0000
G1 X111.500 Y95.000 E1.4382 F540
G1 X111.500 Y113.000 E2.5637
G1 X88.500 Y113.000 E4.0019
G1 X88.500 Y95.000 E5.1274
G1 X89.500 Y96.000 F18000
G92 E0.0000
G1 X89.500 Y112.000 E1.0005 F540
G1 X110.500 Y111.993 E2.3136
G1 X110.500 Y96.000 E3.3136
G1 X89.500 Y96.000 E4.6267
; feature internal single extrusion
; tool H0.200 W0.211
G1 X89.140 Y95.500 F18000
G92 E0.0000
; tool H0.200 W0.200
G1 X110.860 Y95.500 E0.3395 F540
; tool H0.200 W0.204
G1 X110.940 Y95.504 E0.3408
; tool H0.200 W0.208
G1 X110.996 Y95.559 E0.3421
; tool H0.200 W0.204
G1 X111.000 Y95.639 E0.3434
; tool H0.200 W0.200
G1 X111.000 Y112.361 E0.6048
; tool H0.200 W0.205
G1 X110.940 Y112.493 E0.6071
; tool H0.200 W0.211
G1 X110.860 Y112.497 E0.6084
; tool H0.200 W0.203
G1 X89.140 Y112.500 E0.9536
; tool H0.200 W0.204
G1 X89.060 Y112.496 E0.9548
; tool H0.200 W0.208
G1 X89.004 Y112.441 E0.9561
; tool H0.200 W0.204
G1 X89.000 Y112.361 E0.9574
; tool H0.200 W0.200
G1 X89.000 Y95.639 E1.2188
; tool H0.200 W0.204
G1 X89.004 Y95.559 E1.2201
; tool H0.200 W0.208
G1 X89.060 Y95.504 E1.2213
; tool H0.200 W0.204
G1 X89.140 Y95.500 E1.2226
; feature support
; tool H0.200 W0.800
G1 X89.915 Y93.114 F18000
G92 E0.0000
G1 X111.301 Y93.114 E1.3373 F864
G1 X111.301 Y92.314 E1.3873
G1 X89.915 Y92.314 E2.7245
G1 X89.915 Y91.514 E2.7746
G1 X111.301 Y91.514 E4.1118
G1 X111.301 Y90.714 E4.1619
G1 X89.915 Y90.714 E5.4991
G1 X89.915 Y89.914 E5.5491
G1 X111.301 Y89.914 E6.8864
G1 X111.301 Y89.114 E6.9364
G1 X89.915 Y89.114 E8.2737
G1 X89.915 Y88.314 E8.3237
G1 X111.301 Y88.314 E9.6610
G1 X111.301 Y87.514 E9.7110
G1 X89.915 Y87.514 E11.0482
G1 X89.915 Y86.714 E11.0983
G1 X111.301 Y86.714 E12.4355
G1 X111.301 Y85.914 E12.4856
G1 X89.915 Y85.914 E13.8228
G1 X89.915 Y85.114 E13.8728
G1 X111.301 Y85.114 E15.2101
G1 X111.301 Y84.913 E15.2227
G1 X107.735 Y84.913 E15.4457
G1 X107.735 Y84.314 E15.4831
G1 X90.854 Y84.314 E16.5386
G1 X90.854 Y83.514 E16.5887
G1 X107.735 Y83.514 E17.6442
G1 X107.735 Y82.714 E17.6942
G1 X90.854 Y82.714 E18.7497
; layer 2, Z = 0.300
M106 S255
G4 P500
M106 S102
; feature inner perimeter
; tool H0.100 W0.400
G1 Z0.300 F1200
G1 X88.700 Y95.200 F18000
G92 E0.0000
G1 X111.300 Y95.200 E0.3533 F2700
G1 X111.300 Y112.800 E0.6284
G1 X88.700 Y112.800 E0.9817
G1 X88.700 Y95.200 E1.2568
; feature outer perimeter
G1 X88.300 Y94.800 F18000
G92 E0.0000
G1 X111.700 Y94.800 E0.3658 F1800
G1 X111.700 Y113.200 E0.6534
G1 X88.300 Y113.200 E1.0192
G1 X88.300 Y94.800 E1.3069
; feature inner perimeter
G1 X89.300 Y95.800 F18000
G92 E0.0000
G1 X89.300 Y112.199 E0.2563 F2700
G1 X110.700 Y112.200 E0.5909
G1 X110.700 Y95.800 E0.8472
G1 X89.300 Y95.800 E1.1818
; feature outer perimeter
G1 X89.700 Y96.200 F18000
G92 E0.0000
G1 X89.700 Y111.799 E0.2438 F1800
G1 X110.300 Y111.800 E0.5659
G1 X110.300 Y96.200 E0.8097
G1 X89.700 Y96.200 E1.1318
; feature internal single extrusion
; tool H0.100 W0.204
G1 X89.140 Y95.500 F18000
G92 E0.0000
; tool H0.100 W0.200
G1 X110.860 Y95.500 E0.1698 F1800
; tool H0.100 W0.204
G1 X110.940 Y95.504 E0.1704
; tool H0.100 W0.208
G1 X110.996 Y95.559 E0.1710
; tool H0.100 W0.204
G1 X111.000 Y95.639 E0.1717
; tool H0.100 W0.200
G1 X111.000 Y112.361 E0.3024
; tool H0.100 W0.202
G1 X110.940 Y112.496 E0.3036
; tool H0.100 W0.204
G1 X110.860 Y112.500 E0.3042
; tool H0.100 W0.201
G1 X89.140 Y112.499 E0.4745
; tool H0.100 W0.205
G1 X89.060 Y112.495 E0.4752
; tool H0.100 W0.209
G1 X89.004 Y112.441 E0.4758
; tool H0.100 W0.204
G1 X89.000 Y112.361 E0.4764
; tool H0.100 W0.200
G1 X89.000 Y95.639 E0.6071
; tool H0.100 W0.204
G1 X89.004 Y95.559 E0.6078
; tool H0.100 W0.208
G1 X89.060 Y95.504 E0.6084
; tool H0.100 W0.204
G1 X89.140 Y95.500 E0.6090
; feature support
; tool H0.100 W0.400
G1 X90.654 Y81.914 F18000
G92 E0.0000
G1 X107.935 Y81.914 E0.2701 F2880
G1 X107.935 Y82.314 E0.2764
G1 X90.654 Y82.314 E0.5465
G1 X90.654 Y82.714 E0.5528
G1 X107.935 Y82.714 E0.8229
G1 X107.935 Y83.114 E0.8292
G1 X90.654 Y83.114 E1.0993
G1 X90.654 Y83.514 E1.1055
G1 X107.935 Y83.514 E1.3757
G1 X107.935 Y83.914 E1.3819
G1 X90.654 Y83.914 E1.6521
G1 X90.654 Y84.314 E1.6583
G1 X107.935 Y84.314 E1.9285
G1 X107.935 Y84.713 E1.9347
G1 X111.501 Y84.714 E1.9905
G1 X89.715 Y84.714 E2.3310
G1 X89.715 Y85.114 E2.3373
G1 X111.501 Y85.114 E2.6778
G1 X111.501 Y85.514 E2.6841
G1 X89.715 Y85.514 E3.0247
G1 X89.715 Y85.914 E3.0309
G1 X111.501 Y85.914 E3.3715
G1 X111.501 Y86.314 E3.3777
G1 X89.715 Y86.314 E3.7183
G1 X89.715 Y86.714 E3.7246
G1 X111.501 Y86.714 E4.0651
G1 X111.501 Y87.114 E4.0714
G1 X89.715 Y87.114 E4.4120
G1 X89.715 Y87.514 E4.4182
G1 X111.501 Y87.514 E4.7588
G1 X111.501 Y87.914 E4.7650
G1 X89.715 Y87.914 E5.1056
G1 X89.715 Y88.314 E5.1118
G1 X111.501 Y88.314 E5.4524
G1 X111.501 Y88.714 E5.4587
G1 X89.715 Y88.714 E5.7992
G1 X89.715 Y89.114 E5.8055
G1 X111.501 Y89.114 E6.1461
G1 X111.501 Y89.514 E6.1523
G1 X89.715 Y89.514 E6.4929
G1 X89.715 Y89.914 E6.4991
G1 X111.501 Y89.914 E6.8397
G1 X111.501 Y90.314 E6.8460
G1 X89.715 Y90.314 E7.1865
G1 X89.715 Y90.714 E7.1928
G1 X111.501 Y90.714 E7.5333
G1 X111.501 Y91.114 E7.5396
G1 X89.715 Y91.114 E7.8802
G1 X89.715 Y91.514 E7.8864
G1 X111.501 Y91.514 E8.2270
G1 X111.501 Y91.914 E8.2332
G1 X89.715 Y91.914 E8.5738
G1 X89.715 Y92.314 E8.5801
G1 X111.501 Y92.314 E8.9206
G1 X111.501 Y92.714 E8.9269
G1 X89.715 Y92.714 E9.2674
G1 X89.715 Y93.114 E9.2737
G1 X111.501 Y93.114 E9.6143
G1 X111.501 Y93.514 E9.6205
G1 X89.715 Y93.514 E9.9611
G1 X89.715 Y93.914 E9.9673
G1 X111.501 Y93.914 E10.3079
; layer 3, Z = 0.400
; feature inner perimeter
G1 Z0.400 F1200
G1 X111.300 Y95.200 F18000
G92 E0.0000
G1 X111.300 Y112.800 E0.2751 F2700
G1 X88.700 Y112.800 E0.6284
G1 X88.700 Y95.200 E0.9035
G1 X111.300 Y95.200 E1.2568
; feature outer perimeter
G1 X111.700 Y94.800 F18000
G92 E0.0000
G1 X111.700 Y113.200 E0.2876 F1800
G1 X88.300 Y113.200 E0.6534
G1 X88.300 Y94.800 E0.9411
G1 X111.700 Y94.800 E1.3069
; feature inner perimeter
G1 X110.700 Y95.800 F18000
G92 E0.0000
G1 X89.300 Y95.800 E0.3345 F2700
G1 X89.300 Y112.199 E0.5909
G1 X110.700 Y112.200 E0.9254
G1 X110.700 Y95.800 E1.1818
; feature outer perimeter
G1 X110.300 Y96.200 F18000
G92 E0.0000
G1 X89.700 Y96.200 E0.3220 F1800
G1 X89.700 Y111.799 E0.5659
G1 X110.300 Y111.800 E0.8879
G1 X110.300 Y96.200 E1.1318
; feature internal single extrusion
; tool H0.100 W0.204
G1 X110.860 Y95.500 F18000
G92 E0.0000
; tool H0.100 W0.204
G1 X110.940 Y95.504 E0.0006 F1800
; tool H0.100 W0.208
G1 X110.996 Y95.559 E0.0013
; tool H0.100 W0.204
G1 X111.000 Y95.639 E0.0019
; tool H0.100 W0.200
G1 X111.000 Y112.361 E0.1326
; tool H0.100 W0.202
G1 X110.940 Y112.496 E0.1338
; tool H0.100 W0.204
G1 X110.860 Y112.500 E0.1344
; tool H0.100 W0.200
G1 X89.140 Y112.500 E0.3044
; tool H0.100 W0.205
G1 X89.060 Y112.496 E0.3050
; tool H0.100 W0.209
G1 X89.004 Y112.441 E0.3057
; tool H0.100 W0.204
G1 X89.000 Y112.361 E0.3063
; tool H0.100 W0.200
G1 X89.000 Y95.639 E0.4370
; tool H0.100 W0.204
G1 X89.004 Y95.559 E0.4377
; tool H0.100 W0.208
G1 X89.060 Y95.504 E0.4383
; tool H0.100 W0.204
G1 X89.140 Y95.500 E0.4389
; tool H0.100 W0.200
G1 X110.860 Y95.500 E0.6087
; feature support
; tool H0.100 W0.400
G1 X89.715 Y93.314 F18000
G92 E0.0000
G1 X111.501 Y93.314 E0.3406 F2880
G1 X111.501 Y92.314 E0.3562
G1 X89.715 Y92.314 E0.6968
G1 X89.715 Y91.314 E0.7124
G1 X111.501 Y91.314 E1.0530
G1 X111.501 Y90.314 E1.0686
G1 X89.715 Y90.314 E1.4092
G1 X89.715 Y89.314 E1.4248
G1 X111.501 Y89.314 E1.7654
G1 X111.501 Y88.314 E1.7810
G1 X89.715 Y88.314 E2.1216
G1 X89.715 Y87.314 E2.1372
G1 X111.501 Y87.314 E2.4778
G1 X111.501 Y86.314 E2.4934
G1 X89.715 Y86.314 E2.8340
G1 X89.715 Y85.314 E2.8496
G1 X111.501 Y85.314 E3.1902
G1 X111.501 Y84.713 E3.1996
G1 X107.935 Y84.713 E3.2553
G1 X107.935 Y84.314 E3.2616
G1 X90.654 Y84.314 E3.5317
G1 X90.654 Y83.314 E3.5473
G1 X107.935 Y83.314 E3.8175
G1 X107.935 Y82.314 E3.8331
G1 X90.654 Y82.314 E4.1032
; layer 4, Z = 0.500
; feature inner perimeter
G1 Z0.500 F1200
G1 X88.700 Y95.200 F18000
G92 E0.0000
G1 X111.300 Y95.200 E0.3533 F2700
G1 X111.300 Y112.800 E0.6284
G1 X88.700 Y112.800 E0.9817
G1 X88.700 Y95.200 E1.2568
; feature outer perimeter
G1 X88.300 Y94.800 F18000
G92 E0.0000
G1 X111.700 Y94.800 E0.3658 F1800
G1 X111.700 Y113.200 E0.6534
G1 X88.300 Y113.200 E1.0192
G1 X88.300 Y94.800 E1.3069
; feature inner perimeter
G1 X89.300 Y95.800 F18000
G92 E0.0000
G1 X89.300 Y112.198 E0.2563 F2700
G1 X110.700 Y112.200 E0.5909
G1 X110.700 Y95.800 E0.8472
G1 X89.300 Y95.800 E1.1818
; feature outer perimeter
G1 X89.700 Y96.200 F18000
G92 E0.0000
G1 X89.700 Y111.798 E0.2438 F1800
G1 X110.300 Y111.800 E0.5659
