; G-Code generated by Simplify3D(R) Version 4.1.2
; Oct 22, 2019 at 8:51:27 PM
; Settings Summary
;   processName,Process1
;   applyToModels,printbed-old-mount,printbed-old-mount(2),printbed-old-mount(3),printbed-old-mount(4)
;   profileName,HBot (modified)
;   profileVersion,2019-10-21 20:03:51
;   baseProfile,Default
;   printMaterial,PLA
;   printQuality,Medium
;   printExtruders,
;   extruderName,Extruder 1
;   extruderToolheadNumber,0
;   extruderDiameter,0.4
;   extruderAutoWidth,0
;   extruderWidth,0.4
;   extrusionMultiplier,0.9
;   extruderUseRetract,0
;   extruderRetractionDistance,1
;   extruderExtraRestartDistance,0
;   extruderRetractionZLift,0
;   extruderRetractionSpeed,1800
;   extruderUseCoasting,0
;   extruderCoastingDistance,0.2
;   extruderUseWipe,0
;   extruderWipeDistance,5
;   primaryExtruder,0
;   layerHeight,0.2
;   topSolidLayers,3
;   bottomSolidLayers,3
;   perimeterOutlines,3
;   printPerimetersInsideOut,1
;   startPointOption,2
;   startPointOriginX,0
;   startPointOriginY,0
;   sequentialIslands,0
;   spiralVaseMode,0
;   firstLayerHeightPercentage,90
;   firstLayerWidthPercentage,110
;   firstLayerUnderspeed,0.5
;   useRaft,0
;   raftExtruder,0
;   raftTopLayers,3
;   raftBaseLayers,2
;   raftOffset,3
;   raftSeparationDistance,0.14
;   raftTopInfill,100
;   aboveRaftSpeedMultiplier,0.3
;   useSkirt,1
;   skirtExtruder,0
;   skirtLayers,1
;   skirtOutlines,3
;   skirtOffset,4
;   usePrimePillar,0
;   primePillarExtruder,999
;   primePillarWidth,12
;   primePillarLocation,7
;   primePillarSpeedMultiplier,1
;   useOozeShield,0
;   oozeShieldExtruder,999
;   oozeShieldOffset,2
;   oozeShieldOutlines,1
;   oozeShieldSidewallShape,1
;   oozeShieldSidewallAngle,30
;   oozeShieldSpeedMultiplier,1
;   infillExtruder,0
;   internalInfillPattern,Rectilinear
;   externalInfillPattern,Rectilinear
;   infillPercentage,20
;   outlineOverlapPercentage,15
;   infillExtrusionWidthPercentage,100
;   minInfillLength,5
;   infillLayerInterval,1
;   internalInfillAngles,45,-45
;   overlapInternalInfillAngles,0
;   externalInfillAngles,45,-45
;   generateSupport,0
;   supportExtruder,0
;   supportInfillPercentage,30
;   supportExtraInflation,0
;   supportBaseLayers,0
;   denseSupportExtruder,0
;   denseSupportLayers,0
;   denseSupportInfillPercentage,70
;   supportLayerInterval,1
;   supportHorizontalPartOffset,0.3
;   supportUpperSeparationLayers,1
;   supportLowerSeparationLayers,1
;   supportType,0
;   supportGridSpacing,4
;   maxOverhangAngle,45
;   supportAngles,0
;   temperatureName,Extruder 1
;   temperatureNumber,0
;   temperatureSetpointCount,1
;   temperatureSetpointLayers,1
;   temperatureSetpointTemperatures,214
;   temperatureStabilizeAtStartup,1
;   temperatureHeatedBed,0
;   fanLayers,1,2,5
;   fanSpeeds,0,20,60
;   blipFanToFullPower,1
;   adjustSpeedForCooling,1
;   minSpeedLayerTime,15
;   minCoolingSpeedSlowdown,20
;   increaseFanForCooling,1
;   minFanLayerTime,45
;   maxCoolingFanSpeed,100
;   increaseFanForBridging,1
;   bridgingFanSpeed,100
;   use5D,1
;   relativeEdistances,0
;   allowEaxisZeroing,1
;   independentExtruderAxes,0
;   includeM10123,0
;   stickySupport,1
;   applyToolheadOffsets,0
;   gcodeXoffset,0
;   gcodeYoffset,0
;   gcodeZoffset,0
;   overrideMachineDefinition,1
;   machineTypeOverride,0
;   strokeXoverride,200
;   strokeYoverride,200
;   strokeZoverride,200
;   originOffsetXoverride,0
;   originOffsetYoverride,0
;   originOffsetZoverride,0
;   homeXdirOverride,-1
;   homeYdirOverride,-1
;   homeZdirOverride,-1
;   flipXoverride,1
;   flipYoverride,-1
;   flipZoverride,1
;   toolheadOffsets,0,0|0,0|0,0|0,0|0,0|0,0
;   overrideFirmwareConfiguration,1
;   firmwareTypeOverride,RepRap (Marlin/Repetier/Sprinter)
;   GPXconfigOverride,r2
;   baudRateOverride,115200
;   overridePrinterModels,0
;   printerModelsOverride
;   startingGcode,G28 ; home all axes
;   layerChangeGcode,
;   retractionGcode,
;   toolChangeGcode,
;   endingGcode,G1 Z200,G91,G1 E-5.0 F240 ; retract 5mm,G90,M104 S0 ; turn off extruder,;M140 S0 ; turn off bed,G1 X100.0 Y100.0,M107 ; disable part cooling fan,M84 ; disable motors
;   exportFileFormat,gcode
;   celebration,0
;   celebrationSong,Random Song
;   postProcessing,
;   defaultSpeed,6000
;   outlineUnderspeed,0.5
;   solidInfillUnderspeed,0.8
;   supportUnderspeed,0.8
;   rapidXYspeed,4800
;   rapidZspeed,1002
;   minBridgingArea,50
;   bridgingExtraInflation,0
;   bridgingExtrusionMultiplier,1
;   bridgingSpeedMultiplier,1
;   useFixedBridgingAngle,0
;   fixedBridgingAngle,0
;   applyBridgingToPerimeters,0
;   filamentDiameters,1.75|1.75|1.75|1.75|1.75|1.75
;   filamentPricesPerKg,46|46|46|46|46|46
;   filamentDensities,1.25|1.25|1.25|1.25|1.25|1.25
;   useMinPrintHeight,0
;   minPrintHeight,0
;   useMaxPrintHeight,0
;   maxPrintHeight,0
;   useDiaphragm,0
;   diaphragmLayerInterval,20
;   robustSlicing,1
;   mergeAllIntoSolid,0
;   onlyRetractWhenCrossingOutline,1
;   retractBetweenLayers,1
;   useRetractionMinTravel,0
;   retractionMinTravel,3
;   retractWhileWiping,0
;   onlyWipeOutlines,1
;   avoidCrossingOutline,0
;   maxMovementDetourFactor,3
;   toolChangeRetractionDistance,12
;   toolChangeExtraRestartDistance,-0.5
;   toolChangeRetractionSpeed,600
;   externalThinWallType,0
;   internalThinWallType,2
;   thinWallAllowedOverlapPercentage,10
;   singleExtrusionMinLength,1
;   singleExtrusionMinPrintingWidthPercentage,50
;   singleExtrusionMaxPrintingWidthPercentage,200
;   singleExtrusionEndpointExtension,0.2
;   horizontalSizeCompensation,0
G90
M82
M106 S0
M104 S214 T0
M109 S214 T0
G28 ; home all axes
; process Process1
; layer 1, Z = 0.180
T0
; feature skirt
; tool H0.180 W0.440
G1 Z0.180 F1002
G1 X69.127 Y47.839 F4800
G92 E0.0000
G1 X72.115 Y44.852 E0.1252 F3000
G1 X98.328 Y44.849 E0.9020
G1 X127.552 Y44.849 E1.7681
G1 X130.540 Y47.836 E1.8933
G1 X130.540 Y102.061 E3.5003
G1 X130.513 Y102.088 E3.5014
G1 X130.513 Y123.436 E4.1340
G1 X127.526 Y126.424 E4.2592
G1 X98.301 Y126.424 E5.1253
G1 X98.098 Y126.220 E5.1338
G1 X72.172 Y126.220 E5.9021
G1 X69.184 Y123.233 E6.0273
G1 X69.184 Y72.121 E7.5420
G1 X69.127 Y72.064 E7.5444
G1 X69.127 Y47.839 E8.2623
G1 X69.567 Y48.022 F4800
G92 E0.0000
G1 X72.297 Y45.292 E0.1144 F3000
G1 X98.510 Y45.289 E0.8912
G1 X127.370 Y45.289 E1.7465
G1 X130.100 Y48.019 E1.8609
G1 X130.100 Y101.879 E3.4571
G1 X130.073 Y101.906 E3.4582
G1 X130.073 Y123.254 E4.0908
G1 X127.344 Y125.984 E4.2052
G1 X98.483 Y125.984 E5.0605
G1 X98.280 Y125.780 E5.0690
G1 X72.354 Y125.780 E5.8373
G1 X69.624 Y123.051 E5.9517
G1 X69.624 Y71.939 E7.4664
G1 X69.567 Y71.882 E7.4688
G1 X69.567 Y48.022 E8.1759
G1 X70.007 Y48.204 F4800
G92 E0.0000
G1 X72.480 Y45.732 E0.1036 F3000
G1 X98.692 Y45.729 E0.8804
G1 X127.188 Y45.729 E1.7249
G1 X129.660 Y48.201 E1.8285
G1 X129.660 Y101.697 E3.4139
G1 X129.633 Y101.723 E3.4150
G1 X129.633 Y123.071 E4.0476
G1 X127.161 Y125.543 E4.1512
G1 X98.665 Y125.543 E4.9957
G1 X98.462 Y125.340 E5.0042
G1 X72.536 Y125.340 E5.7725
G1 X70.064 Y122.868 E5.8761
G1 X70.064 Y71.757 E7.3908
G1 X70.007 Y71.700 E7.3932
G1 X70.007 Y48.204 E8.0895
; feature inner perimeter
G1 X75.327 Y51.052 F4800
G92 E0.0000
G1 X98.127 Y51.052 E0.6757 F2250
G1 X98.127 Y98.852 E2.0922
G1 X95.327 Y98.852 E2.1752
G1 X95.327 Y68.852 E3.0642
G1 X75.327 Y68.852 E3.6569
G1 X75.327 Y51.052 E4.1844
G1 X74.887 Y50.612 F4800
G92 E0.0000
G1 X98.567 Y50.612 E0.7018 F2250
G1 X98.567 Y99.292 E2.1444
G1 X94.887 Y99.292 E2.2534
G1 X94.887 Y69.292 E3.1425
G1 X74.887 Y69.292 E3.7352
G1 X74.887 Y50.612 E4.2887
; feature outer perimeter
G1 X74.447 Y50.172 F4800
G92 E0.0000
G1 X99.007 Y50.172 E0.7278 F1500
G1 X99.007 Y99.732 E2.1965
G1 X94.447 Y99.732 E2.3317
G1 X94.447 Y69.732 E3.2207
G1 X74.447 Y69.732 E3.8134
G1 X74.447 Y50.172 E4.3931
; feature solid layer
G1 X75.831 Y68.478 F4800
G92 E0.0000
G1 X75.701 Y68.349 E0.0054 F2400
G1 X75.701 Y67.726 E0.0239
G1 X76.453 Y68.478 E0.0554
G1 X77.075 Y68.478 E0.0738
G1 X75.701 Y67.104 E0.1314
G1 X75.701 Y66.482 E0.1498
G1 X77.697 Y68.478 E0.2335
G1 X78.320 Y68.478 E0.2519
G1 X75.701 Y65.860 E0.3616
G1 X75.701 Y65.237 E0.3801
G1 X78.942 Y68.478 E0.5159
G1 X79.564 Y68.478 E0.5343
G1 X75.701 Y64.615 E0.6962
G1 X75.701 Y63.993 E0.7146
G1 X80.187 Y68.478 E0.9026
G1 X80.809 Y68.478 E0.9211
G1 X75.701 Y63.371 E1.1351
G1 X75.701 Y62.748 E1.1535
G1 X81.431 Y68.478 E1.3937
G1 X82.053 Y68.478 E1.4121
G1 X75.701 Y62.126 E1.6783
G1 X75.701 Y61.504 E1.6968
G1 X82.676 Y68.478 E1.9890
G1 X83.298 Y68.478 E2.0075
G1 X75.701 Y60.882 E2.3258
G1 X75.701 Y60.259 E2.3443
G1 X83.920 Y68.478 E2.6887
G1 X84.542 Y68.478 E2.7072
G1 X75.701 Y59.637 E3.0777
G1 X75.701 Y59.015 E3.0961
G1 X85.165 Y68.478 E3.4927
G1 X85.787 Y68.478 E3.5111
G1 X75.701 Y58.393 E3.9338
G1 X75.701 Y57.770 E3.9523
G1 X86.409 Y68.478 E4.4010
G1 X87.031 Y68.478 E4.4195
G1 X75.701 Y57.148 E4.8943
G1 X75.701 Y56.526 E4.9127
G1 X87.654 Y68.478 E5.4136
G1 X88.276 Y68.478 E5.4321
G1 X75.701 Y55.904 E5.9591
G1 X75.701 Y55.281 E5.9775
G1 X88.898 Y68.478 E6.5306
G1 X89.520 Y68.478 E6.5490
G1 X75.701 Y54.659 E7.1282
G1 X75.701 Y54.037 E7.1466
G1 X90.143 Y68.478 E7.7518
G1 X90.765 Y68.478 E7.7703
G1 X75.701 Y53.415 E8.4016
G1 X75.701 Y52.792 E8.4200
G1 X91.387 Y68.478 E9.0774
G1 X92.009 Y68.478 E9.0958
G1 X75.701 Y52.170 E9.7793
G1 X75.701 Y51.548 E9.7977
G1 X92.632 Y68.478 E10.5073
G1 X93.254 Y68.478 E10.5257
G1 X76.202 Y51.426 E11.2404
G1 X76.824 Y51.426 E11.2588
G1 X93.876 Y68.478 E11.9734
G1 X94.498 Y68.478 E11.9919
G1 X77.446 Y51.426 E12.7065
G1 X78.069 Y51.426 E12.7250
G1 X95.121 Y68.478 E13.4396
G1 X95.701 Y68.478 E13.4568
G1 X95.701 Y69.059 E13.4741
G1 X97.753 Y71.111 E13.5600
G1 X97.753 Y70.489 E13.5785
G1 X78.691 Y51.426 E14.3774
G1 X79.313 Y51.426 E14.3958
G1 X97.753 Y69.866 E15.1687
G1 X97.753 Y69.244 E15.1871
G1 X79.935 Y51.426 E15.9339
G1 X80.558 Y51.426 E15.9523
G1 X97.753 Y68.622 E16.6730
G1 X97.753 Y68.000 E16.6914
G1 X81.180 Y51.426 E17.3860
G1 X81.802 Y51.426 E17.4045
G1 X97.753 Y67.377 E18.0730
G1 X97.753 Y66.755 E18.0914
G1 X82.424 Y51.426 E18.7339
G1 X83.047 Y51.426 E18.7523
G1 X97.753 Y66.133 E19.3687
G1 X97.753 Y65.511 E19.3871
G1 X83.669 Y51.426 E19.9774
G1 X84.291 Y51.426 E19.9958
G1 X97.753 Y64.888 E20.5600
G1 X97.753 Y64.266 E20.5785
G1 X84.913 Y51.426 E21.1166
G1 X85.536 Y51.426 E21.1351
G1 X97.753 Y63.644 E21.6471
G1 X97.753 Y63.022 E21.6655
G1 X86.158 Y51.426 E22.1515
G1 X86.780 Y51.426 E22.1700
G1 X97.753 Y62.399 E22.6298
G1 X97.753 Y61.777 E22.6483
G1 X87.402 Y51.426 E23.0821
G1 X88.025 Y51.426 E23.1005
G1 X97.753 Y61.155 E23.5083
G1 X97.753 Y60.532 E23.5267
G1 X88.647 Y51.426 E23.9084
G1 X89.269 Y51.426 E23.9268
G1 X97.753 Y59.910 E24.2824
G1 X97.753 Y59.288 E24.3008
G1 X89.891 Y51.426 E24.6303
G1 X90.514 Y51.426 E24.6488
G1 X97.753 Y58.666 E24.9522
G1 X97.753 Y58.043 E24.9706
G1 X91.136 Y51.426 E25.2480
G1 X91.758 Y51.426 E25.2664
G1 X97.753 Y57.421 E25.5177
G1 X97.753 Y56.799 E25.5361
G1 X92.380 Y51.426 E25.7613
G1 X93.003 Y51.426 E25.7797
G1 X97.753 Y56.177 E25.9788
G1 X97.753 Y55.554 E25.9973
G1 X93.625 Y51.426 E26.1703
G1 X94.247 Y51.426 E26.1887
G1 X97.753 Y54.932 E26.3357
G1 X97.753 Y54.310 E26.3541
G1 X94.869 Y51.426 E26.4750
G1 X95.492 Y51.426 E26.4934
G1 X97.753 Y53.688 E26.5882
G1 X97.753 Y53.065 E26.6067
G1 X96.114 Y51.426 E26.6754
G1 X96.736 Y51.426 E26.6938
G1 X97.753 Y52.443 E26.7365
G1 X97.753 Y51.821 E26.7549
G1 X97.358 Y51.426 E26.7715
G1 X95.701 Y69.681 F4800
G92 E0.0000
G1 X97.753 Y71.733 E0.0860 F2400
G1 X97.753 Y72.355 E0.1044
G1 X95.701 Y70.303 E0.1904
G1 X95.701 Y70.926 E0.2089
G1 X97.753 Y72.978 E0.2949
G1 X97.753 Y73.600 E0.3133
G1 X95.701 Y71.548 E0.3993
G1 X95.701 Y72.170 E0.4178
G1 X97.753 Y74.222 E0.5038
G1 X97.753 Y74.844 E0.5222
G1 X95.701 Y72.792 E0.6082
G1 X95.701 Y73.415 E0.6266
G1 X97.753 Y75.467 E0.7126
G1 X97.753 Y76.089 E0.7311
G1 X95.701 Y74.037 E0.8171
G1 X95.701 Y74.659 E0.8355
G1 X97.753 Y76.711 E0.9215
G1 X97.753 Y77.333 E0.9400
G1 X95.701 Y75.281 E1.0260
G1 X95.701 Y75.904 E1.0444
G1 X97.753 Y77.956 E1.1304
G1 X97.753 Y78.578 E1.1488
G1 X95.701 Y76.526 E1.2348
G1 X95.701 Y77.148 E1.2533
G1 X97.753 Y79.200 E1.3393
G1 X97.753 Y79.822 E1.3577
G1 X95.701 Y77.770 E1.4437
G1 X95.701 Y78.393 E1.4622
G1 X97.753 Y80.445 E1.5482
G1 X97.753 Y81.067 E1.5666
G1 X95.701 Y79.015 E1.6526
G1 X95.701 Y79.637 E1.6710
G1 X97.753 Y81.689 E1.7570
G1 X97.753 Y82.311 E1.7755
G1 X95.701 Y80.259 E1.8615
G1 X95.701 Y80.882 E1.8799
G1 X97.753 Y82.934 E1.9659
G1 X97.753 Y83.556 E1.9844
G1 X95.701 Y81.504 E2.0703
G1 X95.701 Y82.126 E2.0888
G1 X97.753 Y84.178 E2.1748
G1 X97.753 Y84.800 E2.1932
G1 X95.701 Y82.748 E2.2792
G1 X95.701 Y83.371 E2.2977
G1 X97.753 Y85.423 E2.3837
G1 X97.753 Y86.045 E2.4021
G1 X95.701 Y83.993 E2.4881
G1 X95.701 Y84.615 E2.5065
G1 X97.753 Y86.667 E2.5925
G1 X97.753 Y87.289 E2.6110
G1 X95.701 Y85.237 E2.6970
G1 X95.701 Y85.860 E2.7154
G1 X97.753 Y87.912 E2.8014
G1 X97.753 Y88.534 E2.8199
G1 X95.701 Y86.482 E2.9059
G1 X95.701 Y87.104 E2.9243
G1 X97.753 Y89.156 E3.0103
G1 X97.753 Y89.778 E3.0287
G1 X95.701 Y87.726 E3.1147
G1 X95.701 Y88.349 E3.1332
G1 X97.753 Y90.401 E3.2192
G1 X97.753 Y91.023 E3.2376
G1 X95.701 Y88.971 E3.3236
G1 X95.701 Y89.593 E3.3421
G1 X97.753 Y91.645 E3.4281
G1 X97.753 Y92.267 E3.4465
G1 X95.701 Y90.215 E3.5325
G1 X95.701 Y90.838 E3.5509
G1 X97.753 Y92.890 E3.6369
G1 X97.753 Y93.512 E3.6554
G1 X95.701 Y91.460 E3.7414
G1 X95.701 Y92.082 E3.7598
G1 X97.753 Y94.134 E3.8458
G1 X97.753 Y94.756 E3.8643
G1 X95.701 Y92.704 E3.9503
G1 X95.701 Y93.327 E3.9687
G1 X97.753 Y95.379 E4.0547
G1 X97.753 Y96.001 E4.0731
G1 X95.701 Y93.949 E4.1591
G1 X95.701 Y94.571 E4.1776
G1 X97.753 Y96.623 E4.2636
G1 X97.753 Y97.245 E4.2820
G1 X95.701 Y95.193 E4.3680
G1 X95.701 Y95.816 E4.3865
G1 X97.753 Y97.868 E4.4725
G1 X97.753 Y98.478 E4.4905
G1 X97.741 Y98.478 E4.4909
G1 X95.701 Y96.438 E4.5764
G1 X95.701 Y97.060 E4.5948
G1 X97.119 Y98.478 E4.6542
G1 X96.497 Y98.478 E4.6727
G1 X95.701 Y97.682 E4.7060
G1 X95.701 Y98.305 E4.7245
G1 X95.875 Y98.478 E4.7317
; feature inner perimeter
G1 X98.184 Y102.220 F4800
G92 E0.0000
G1 X98.184 Y120.020 E0.5275 F2250
G1 X75.384 Y120.020 E1.2032
G1 X75.384 Y72.220 E2.6197
G1 X78.184 Y72.220 E2.7027
G1 X78.184 Y102.220 E3.5917
G1 X98.184 Y102.220 E4.1844
G1 X98.624 Y101.780 F4800
G92 E0.0000
G1 X98.624 Y120.460 E0.5536 F2250
G1 X74.944 Y120.460 E1.2553
G1 X74.944 Y71.780 E2.6980
G1 X78.624 Y71.780 E2.8070
G1 X78.624 Y101.780 E3.6960
G1 X98.624 Y101.780 E4.2887
; feature outer perimeter
G1 X99.064 Y101.340 F4800
G92 E0.0000
G1 X99.064 Y120.900 E0.5797 F1500
G1 X74.504 Y120.900 E1.3075
G1 X74.504 Y71.340 E2.7762
G1 X79.064 Y71.340 E2.9113
G1 X79.064 Y101.340 E3.8004
G1 X99.064 Y101.340 E4.3931
; feature solid layer
G1 X97.502 Y102.594 F4800
G92 E0.0000
G1 X97.810 Y102.902 E0.0129 F2400
G1 X97.810 Y103.525 E0.0314
G1 X96.880 Y102.594 E0.0703
G1 X96.258 Y102.594 E0.0888
G1 X97.810 Y104.147 E0.1538
G1 X97.810 Y104.769 E0.1723
G1 X95.635 Y102.594 E0.2634
G1 X95.013 Y102.594 E0.2819
G1 X97.810 Y105.391 E0.3991
G1 X97.810 Y106.014 E0.4175
G1 X94.391 Y102.594 E0.5608
G1 X93.769 Y102.594 E0.5793
G1 X97.810 Y106.636 E0.7487
G1 X97.810 Y107.258 E0.7671
G1 X93.146 Y102.594 E0.9626
G1 X92.524 Y102.594 E0.9810
G1 X97.810 Y107.880 E1.2025
G1 X97.810 Y108.503 E1.2210
G1 X91.902 Y102.594 E1.4686
G1 X91.280 Y102.594 E1.4870
G1 X97.810 Y109.125 E1.7607
G1 X97.810 Y109.747 E1.7792
G1 X90.657 Y102.594 E2.0790
G1 X90.035 Y102.594 E2.0974
G1 X97.810 Y110.370 E2.4233
G1 X97.810 Y110.992 E2.4417
G1 X89.413 Y102.594 E2.7936
G1 X88.791 Y102.594 E2.8121
G1 X97.810 Y111.614 E3.1901
G1 X97.810 Y112.236 E3.2085
G1 X88.168 Y102.594 E3.6126
G1 X87.546 Y102.594 E3.6310
G1 X97.810 Y112.859 E4.0612
G1 X97.810 Y113.481 E4.0797
G1 X86.924 Y102.594 E4.5359
G1 X86.302 Y102.594 E4.5543
G1 X97.810 Y114.103 E5.0367
G1 X97.810 Y114.725 E5.0551
G1 X85.679 Y102.594 E5.5635
G1 X85.057 Y102.594 E5.5820
G1 X97.810 Y115.348 E6.1164
G1 X97.810 Y115.970 E6.1349
G1 X84.435 Y102.594 E6.6954
G1 X83.813 Y102.594 E6.7139
G1 X97.810 Y116.592 E7.3005
G1 X97.810 Y117.214 E7.3190
G1 X83.190 Y102.594 E7.9317
