; G-Code generated by Simplify3D(R) Version 4.1.2
; Nov 3, 2019 at 9:40:50 PM
; Settings Summary
;   processName,Process1
;   applyToModels,spuhlen-halter
;   profileName,HBot (modified)
;   profileVersion,2019-10-26 23:38:43
;   baseProfile,Default
;   printMaterial,PLA
;   printQuality,Medium
;   printExtruders,
;   extruderName,Extruder 1
;   extruderToolheadNumber,0
;   extruderDiameter,0.4
;   extruderAutoWidth,0
;   extruderWidth,0.4
;   extrusionMultiplier,0.94
;   extruderUseRetract,0
;   extruderRetractionDistance,2
;   extruderExtraRestartDistance,0
;   extruderRetractionZLift,0
;   extruderRetractionSpeed,3600
;   extruderUseCoasting,0
;   extruderCoastingDistance,0.2
;   extruderUseWipe,1
;   extruderWipeDistance,5
;   primaryExtruder,0
;   layerHeight,0.2
;   topSolidLayers,3
;   bottomSolidLayers,3
;   perimeterOutlines,3
;   printPerimetersInsideOut,1
;   startPointOption,2
;   startPointOriginX,0
;   startPointOriginY,0
;   sequentialIslands,0
;   spiralVaseMode,0
;   firstLayerHeightPercentage,200
;   firstLayerWidthPercentage,200
;   firstLayerUnderspeed,0.3
;   useRaft,0
;   raftExtruder,0
;   raftTopLayers,3
;   raftBaseLayers,2
;   raftOffset,3
;   raftSeparationDistance,0.18
;   raftTopInfill,100
;   aboveRaftSpeedMultiplier,0.3
;   useSkirt,1
;   skirtExtruder,0
;   skirtLayers,1
;   skirtOutlines,3
;   skirtOffset,4
;   usePrimePillar,0
;   primePillarExtruder,999
;   primePillarWidth,12
;   primePillarLocation,7
;   primePillarSpeedMultiplier,1
;   useOozeShield,0
;   oozeShieldExtruder,999
;   oozeShieldOffset,2
;   oozeShieldOutlines,1
;   oozeShieldSidewallShape,1
;   oozeShieldSidewallAngle,30
;   oozeShieldSpeedMultiplier,1
;   infillExtruder,0
;   internalInfillPattern,Fast Honeycomb
;   externalInfillPattern,Rectilinear
;   infillPercentage,20
;   outlineOverlapPercentage,15
;   infillExtrusionWidthPercentage,150
;   minInfillLength,5
;   infillLayerInterval,1
;   internalInfillAngles,0
;   overlapInternalInfillAngles,0
;   externalInfillAngles,45,-45
;   generateSupport,0
;   supportExtruder,0
;   supportInfillPercentage,30
;   supportExtraInflation,0
;   supportBaseLayers,2
;   denseSupportExtruder,0
;   denseSupportLayers,0
;   denseSupportInfillPercentage,70
;   supportLayerInterval,1
;   supportHorizontalPartOffset,0.3
;   supportUpperSeparationLayers,1
;   supportLowerSeparationLayers,1
;   supportType,0
;   supportGridSpacing,4
;   maxOverhangAngle,45
;   supportAngles,0
;   temperatureName,Extruder 1
;   temperatureNumber,0
;   temperatureSetpointCount,1
;   temperatureSetpointLayers,1
;   temperatureSetpointTemperatures,217
;   temperatureStabilizeAtStartup,1
;   temperatureHeatedBed,0
;   fanLayers,1
;   fanSpeeds,0
;   blipFanToFullPower,1
;   adjustSpeedForCooling,1
;   minSpeedLayerTime,15
;   minCoolingSpeedSlowdown,20
;   increaseFanForCooling,1
;   minFanLayerTime,45
;   maxCoolingFanSpeed,40
;   increaseFanForBridging,1
;   bridgingFanSpeed,40
;   use5D,1
;   relativeEdistances,0
;   allowEaxisZeroing,1
;   independentExtruderAxes,0
;   includeM10123,0
;   stickySupport,1
;   applyToolheadOffsets,0
;   gcodeXoffset,0
;   gcodeYoffset,0
;   gcodeZoffset,0
;   overrideMachineDefinition,1
;   machineTypeOverride,0
;   strokeXoverride,200
;   strokeYoverride,200
;   strokeZoverride,150
;   originOffsetXoverride,0
;   originOffsetYoverride,0
;   originOffsetZoverride,0
;   homeXdirOverride,-1
;   homeYdirOverride,-1
;   homeZdirOverride,-1
;   flipXoverride,1
;   flipYoverride,-1
;   flipZoverride,1
;   toolheadOffsets,0,0|0,0|0,0|0,0|0,0|0,0
;   overrideFirmwareConfiguration,1
;   firmwareTypeOverride,RepRap (Marlin/Repetier/Sprinter)
;   GPXconfigOverride,r2
;   baudRateOverride,115200
;   overridePrinterModels,0
;   printerModelsOverride
;   startingGcode,G28 ; home all axes,G32 ; run bed.g -- probe bed and enable compensation
;   layerChangeGcode,
;   retractionGcode,
;   toolChangeGcode,
;   endingGcode,M0 ; call stop.g
;   exportFileFormat,gcode
;   celebration,0
;   celebrationSong,Random Song
;   postProcessing,
;   defaultSpeed,6000
;   outlineUnderspeed,0.5
;   solidInfillUnderspeed,0.8
;   supportUnderspeed,0.8
;   rapidXYspeed,18000
;   rapidZspeed,1200
;   minBridgingArea,50
;   bridgingExtraInflation,0
;   bridgingExtrusionMultiplier,0.96
;   bridgingSpeedMultiplier,1
;   useFixedBridgingAngle,0
;   fixedBridgingAngle,0
;   applyBridgingToPerimeters,0
;   filamentDiameters,1.75|1.75|1.75|1.75|1.75|1.75
;   filamentPricesPerKg,46|46|46|46|46|46
;   filamentDensities,1.25|1.25|1.25|1.25|1.25|1.25
;   useMinPrintHeight,0
;   minPrintHeight,0
;   useMaxPrintHeight,0
;   maxPrintHeight,0
;   useDiaphragm,1
;   diaphragmLayerInterval,20
;   robustSlicing,1
;   mergeAllIntoSolid,0
;   onlyRetractWhenCrossingOutline,1
;   retractBetweenLayers,0
;   useRetractionMinTravel,1
;   retractionMinTravel,3
;   retractWhileWiping,1
;   onlyWipeOutlines,1
;   avoidCrossingOutline,1
;   maxMovementDetourFactor,3
;   toolChangeRetractionDistance,12
;   toolChangeExtraRestartDistance,-0.5
;   toolChangeRetractionSpeed,600
;   externalThinWallType,1
;   internalThinWallType,1
;   thinWallAllowedOverlapPercentage,10
;   singleExtrusionMinLength,1
;   singleExtrusionMinPrintingWidthPercentage,50
;   singleExtrusionMaxPrintingWidthPercentage,200
;   singleExtrusionEndpointExtension,0.2
;   horizontalSizeCompensation,-0.1
G90
M82
M106 S0
M104 S217 T0
M109 S217 T0
G28 ; home all axes
G32 ; run bed.g -- probe bed and enable compensation
; process Process1
; layer 1, Z = 0.400
T0
; feature skirt
; tool H0.400 W0.800
G1 Z0.400 F1200
G1 X55.115 Y64.100 F18000
G92 E0.0000
G1 X64.885 Y64.100 E1.2219 F1800
G1 X68.400 Y67.615 E1.8435
G1 X68.400 Y89.125 E4.5335
G1 X70.038 Y90.873 E4.8330
G1 X70.101 Y90.943 E4.8449
G1 X70.125 Y90.969 E4.8493
G1 X74.885 Y90.969 E5.4447
G1 X75.014 Y91.099 E5.4675
G1 X132.986 Y91.099 E12.7173
G1 X133.115 Y90.969 E12.7401
G1 X143.351 Y90.969 E14.0203
G1 X145.863 Y92.210 E14.3706
G1 X147.465 Y94.302 E14.7002
G1 X148.100 Y96.175 E14.9475
G1 X148.100 Y103.825 E15.9041
G1 X147.465 Y105.698 E16.1515
G1 X145.863 Y107.790 E16.4811
G1 X143.351 Y109.031 E16.8314
G1 X133.115 Y109.031 E18.1115
G1 X132.986 Y108.901 E18.1344
G1 X75.014 Y108.901 E25.3841
G1 X74.885 Y109.031 E25.4070
G1 X70.125 Y109.031 E26.0023
G1 X70.108 Y109.050 E26.0055
G1 X70.040 Y109.125 E26.0182
G1 X68.400 Y110.875 E26.3181
G1 X68.400 Y132.385 E29.0081
G1 X64.885 Y135.900 E29.6298
G1 X55.115 Y135.900 E30.8516
G1 X51.600 Y132.385 E31.4732
G1 X51.600 Y67.615 E39.5733
G1 X55.115 Y64.100 E40.1949
G1 X55.446 Y64.900 F18000
G92 E0.0000
G1 X64.554 Y64.900 E1.1390 F1800
G1 X67.600 Y67.946 E1.6777
G1 X67.600 Y89.441 E4.3659
G1 X69.450 Y91.415 E4.7041
G1 X69.505 Y91.476 E4.7144
G1 X69.763 Y91.769 E4.7633
G1 X74.554 Y91.769 E5.3625
G1 X74.683 Y91.899 E5.3853
G1 X133.317 Y91.899 E12.7179
G1 X133.446 Y91.769 E12.7408
G1 X143.164 Y91.769 E13.9561
G1 X145.341 Y92.844 E14.2598
G1 X146.750 Y94.684 E14.5495
G1 X147.300 Y96.307 E14.7639
G1 X147.300 Y103.693 E15.6875
G1 X146.750 Y105.316 E15.9019
G1 X145.341 Y107.156 E16.1916
G1 X143.164 Y108.231 E16.4952
G1 X133.446 Y108.231 E17.7105
G1 X133.317 Y108.101 E17.7334
G1 X74.683 Y108.101 E25.0660
G1 X74.554 Y108.231 E25.0889
G1 X69.762 Y108.231 E25.6881
G1 X69.510 Y108.518 E25.7359
G1 X69.451 Y108.583 E25.7469
G1 X67.600 Y110.559 E26.0855
G1 X67.600 Y132.054 E28.7736
G1 X64.554 Y135.100 E29.3124
G1 X55.446 Y135.100 E30.4514
G1 X52.400 Y132.054 E30.9901
G1 X52.400 Y67.946 E39.0073
G1 X55.446 Y64.900 E39.5460
G1 X55.777 Y65.700 F18000
G92 E0.0000
G1 X64.223 Y65.700 E1.0561 F1800
G1 X66.800 Y68.277 E1.5120
G1 X66.800 Y89.757 E4.1982
G1 X68.862 Y91.957 E4.5753
G1 X68.908 Y92.009 E4.5839
G1 X69.401 Y92.569 E4.6773
G1 X74.223 Y92.569 E5.2802
G1 X74.352 Y92.699 E5.3031
G1 X133.648 Y92.699 E12.7186
G1 X133.777 Y92.569 E12.7415
G1 X142.978 Y92.569 E13.8920
G1 X144.820 Y93.479 E14.1489
G1 X146.034 Y95.065 E14.3988
G1 X146.500 Y96.439 E14.5802
G1 X146.500 Y103.561 E15.4708
G1 X146.034 Y104.935 E15.6522
G1 X144.820 Y106.521 E15.9021
G1 X142.978 Y107.431 E16.1590
G1 X133.777 Y107.431 E17.3096
G1 X133.648 Y107.301 E17.3324
G1 X74.352 Y107.301 E24.7479
G1 X74.223 Y107.431 E24.7708
G1 X69.399 Y107.431 E25.3740
G1 X68.913 Y107.986 E25.4663
G1 X68.863 Y108.041 E25.4756
G1 X66.800 Y110.243 E25.8529
G1 X66.800 Y131.723 E28.5391
G1 X64.223 Y134.300 E28.9950
G1 X55.777 Y134.300 E30.0511
G1 X53.200 Y131.723 E30.5070
G1 X53.200 Y68.277 E38.4413
G1 X55.777 Y65.700 E38.8971
; feature inner perimeter
G1 X58.000 Y70.500 F18000
G1 X58.644 Y70.500
G1 X59.600 Y72.100
G92 E0.0000
G1 X60.400 Y72.100 E0.1000 F1350
G1 X60.400 Y92.296 E2.6257
G1 X62.654 Y94.665 E3.0347
G1 X64.140 Y96.279 E3.3090
G1 X64.987 Y97.241 E3.4693
G1 X67.236 Y99.995 E3.9140
G1 X65.108 Y102.616 E4.3361
G1 X64.139 Y103.723 E4.5201
G1 X62.654 Y105.335 E4.7942
G1 X60.400 Y107.704 E5.2032
G1 X60.400 Y127.900 E7.7288
G1 X59.600 Y127.900 E7.8289
G1 X59.600 Y72.100 E14.8071
G1 X62.000 Y78.549 F18000
G1 X62.000 Y91.657
G1 X63.822 Y93.572
G1 X65.330 Y95.208
G1 X66.208 Y96.206
G1 X68.000 Y98.401
G1 X68.000 Y97.369
G1 X69.005 Y97.369
G1 X69.600 Y98.969
G92 E0.0000
G1 X70.400 Y98.969 E0.1000 F1350
G1 X70.400 Y99.099 E0.1162
G1 X137.600 Y99.099 E8.5201
G1 X137.600 Y98.969 E8.5362
G1 X140.100 Y98.969 E8.8489
G1 X140.100 Y101.031 E9.1067
G1 X137.600 Y101.031 E9.4193
G1 X137.600 Y100.901 E9.4355
G1 X70.400 Y100.901 E17.8394
G1 X70.400 Y101.031 E17.8555
G1 X69.600 Y101.031 E17.9556
G1 X69.600 Y98.969 E18.2133
G1 X68.800 Y98.169 F18000
G92 E0.0000
G1 X71.200 Y98.169 E0.3001 F1350
G1 X71.200 Y98.299 E0.3163
G1 X136.800 Y98.299 E8.5201
G1 X136.800 Y98.169 E8.5362
G1 X140.900 Y98.169 E9.0490
G1 X140.900 Y101.831 E9.5068
G1 X136.800 Y101.831 E10.0196
G1 X136.800 Y101.701 E10.0357
G1 X71.200 Y101.701 E18.2395
G1 X71.200 Y101.831 E18.2557
G1 X68.800 Y101.831 E18.5558
G1 X68.800 Y98.169 E19.0137
G1 X68.267 Y99.994 F18000
G92 E0.0000
G1 X65.720 Y103.131 E0.5054 F1350
G1 X64.734 Y104.258 E0.6926
G1 X63.238 Y105.881 E0.9687
G1 X61.200 Y108.024 E1.3385
G1 X61.200 Y128.700 E3.9243
G1 X58.800 Y128.700 E4.2244
G1 X58.800 Y71.300 E11.4027
G1 X61.200 Y71.300 E11.7029
G1 X61.200 Y91.976 E14.2886
G1 X63.238 Y94.119 E14.6584
G1 X64.735 Y95.743 E14.9347
G1 X65.597 Y96.724 E15.0980
G1 X68.267 Y99.994 E15.6259
; feature outer perimeter
G1 X68.000 Y98.401 F18000
G92 E0.0000
G1 X68.000 Y97.369 E0.1290 F900
G1 X72.000 Y97.369 E0.6293
G1 X72.000 Y97.499 E0.6454
G1 X136.000 Y97.499 E8.6491
G1 X136.000 Y97.369 E8.6653
G1 X141.700 Y97.369 E9.3781
G1 X141.700 Y102.631 E10.0361
G1 X136.000 Y102.631 E10.7489
G1 X136.000 Y102.501 E10.7651
G1 X72.000 Y102.501 E18.7688
G1 X72.000 Y102.631 E18.7849
G1 X68.000 Y102.631 E19.2852
G1 X68.000 Y101.592 E19.4150
G1 X66.332 Y103.647 E19.7460
G1 X65.329 Y104.792 E19.9363
G1 X63.822 Y106.428 E20.2145
G1 X62.000 Y108.343 E20.5451
G1 X62.000 Y129.500 E23.1909
G1 X58.000 Y129.500 E23.6912
G1 X58.000 Y70.500 E31.0696
G1 X62.000 Y70.500 E31.5698
G1 X62.000 Y91.657 E34.2156
G1 X63.822 Y93.572 E34.5462
G1 X65.330 Y95.208 E34.8245
G1 X66.208 Y96.207 E34.9907
G1 X68.000 Y98.401 E35.3451
G1 X68.000 Y97.369 F900
G1 X71.968 Y97.369
; feature solid layer
G1 X70.363 Y99.779 F18000
G92 E0.0000
G1 X70.806 Y100.221 E0.0783 F1440
G1 X71.937 Y100.221 E0.2198
G1 X71.494 Y99.779 E0.2982
G1 X72.626 Y99.779 E0.4396
G1 X73.069 Y100.221 E0.5180
G1 X74.200 Y100.221 E0.6595
G1 X73.757 Y99.779 E0.7378
G1 X74.888 Y99.779 E0.8793
G1 X75.331 Y100.221 E0.9576
G1 X76.463 Y100.221 E1.0991
G1 X76.020 Y99.779 E1.1775
G1 X77.151 Y99.779 E1.3189
G1 X77.594 Y100.221 E1.3973
G1 X78.725 Y100.221 E1.5388
G1 X78.282 Y99.779 E1.6171
G1 X79.414 Y99.779 E1.7586
G1 X79.857 Y100.221 E1.8369
G1 X80.988 Y100.221 E1.9784
G1 X80.545 Y99.779 E2.0567
G1 X81.677 Y99.779 E2.1982
G1 X82.120 Y100.221 E2.2766
G1 X83.251 Y100.221 E2.4181
G1 X82.808 Y99.779 E2.4964
G1 X83.939 Y99.779 E2.6379
G1 X84.382 Y100.221 E2.7162
G1 X85.514 Y100.221 E2.8577
G1 X85.071 Y99.779 E2.9360
G1 X86.202 Y99.779 E3.0775
G1 X86.645 Y100.221 E3.1559
G1 X87.776 Y100.221 E3.2973
G1 X87.333 Y99.779 E3.3757
G1 X88.465 Y99.779 E3.5172
G1 X88.908 Y100.221 E3.5955
G1 X90.039 Y100.221 E3.7370
G1 X89.596 Y99.779 E3.8153
G1 X90.728 Y99.779 E3.9568
G1 X91.171 Y100.221 E4.0352
G1 X92.302 Y100.221 E4.1766
G1 X91.859 Y99.779 E4.2550
G1 X92.990 Y99.779 E4.3965
G1 X93.433 Y100.221 E4.4748
G1 X94.565 Y100.221 E4.6163
G1 X94.122 Y99.779 E4.6946
G1 X95.253 Y99.779 E4.8361
G1 X95.696 Y100.221 E4.9144
G1 X96.827 Y100.221 E5.0559
G1 X96.384 Y99.779 E5.1343
G1 X97.516 Y99.779 E5.2758
G1 X97.959 Y100.221 E5.3541
G1 X99.090 Y100.221 E5.4956
G1 X98.647 Y99.779 E5.5739
G1 X99.779 Y99.779 E5.7154
G1 X100.221 Y100.221 E5.7937
G1 X101.353 Y100.221 E5.9352
G1 X100.910 Y99.779 E6.0136
G1 X102.041 Y99.779 E6.1550
G1 X102.484 Y100.221 E6.2334
G1 X103.616 Y100.221 E6.3749
G1 X103.173 Y99.779 E6.4532
G1 X104.304 Y99.779 E6.5947
G1 X104.747 Y100.221 E6.6730
G1 X105.878 Y100.221 E6.8145
G1 X105.435 Y99.779 E6.8929
G1 X106.567 Y99.779 E7.0343
G1 X107.010 Y100.221 E7.1127
G1 X108.141 Y100.221 E7.2542
G1 X107.698 Y99.779 E7.3325
G1 X108.830 Y99.779 E7.4740
G1 X109.272 Y100.221 E7.5523
G1 X110.404 Y100.221 E7.6938
G1 X109.961 Y99.779 E7.7721
G1 X111.092 Y99.779 E7.9136
G1 X111.535 Y100.221 E7.9920
G1 X112.667 Y100.221 E8.1335
G1 X112.224 Y99.779 E8.2118
G1 X113.355 Y99.779 E8.3533
G1 X113.798 Y100.221 E8.4316
G1 X114.929 Y100.221 E8.5731
G1 X114.486 Y99.779 E8.6514
G1 X115.618 Y99.779 E8.7929
G1 X116.061 Y100.221 E8.8713
G1 X117.192 Y100.221 E9.0128
G1 X116.749 Y99.779 E9.0911
G1 X117.880 Y99.779 E9.2326
G1 X118.323 Y100.221 E9.3109
G1 X119.455 Y100.221 E9.4524
G1 X119.012 Y99.779 E9.5307
G1 X120.143 Y99.779 E9.6722
G1 X120.586 Y100.221 E9.7506
G1 X121.718 Y100.221 E9.8920
G1 X121.275 Y99.779 E9.9704
G1 X122.406 Y99.779 E10.1119
G1 X122.849 Y100.221 E10.1902
G1 X123.980 Y100.221 E10.3317
G1 X123.537 Y99.779 E10.4100
G1 X124.669 Y99.779 E10.5515
G1 X125.112 Y100.221 E10.6298
G1 X126.243 Y100.221 E10.7713
G1 X125.800 Y99.779 E10.8497
G1 X126.931 Y99.779 E10.9912
G1 X127.374 Y100.221 E11.0695
G1 X128.506 Y100.221 E11.2110
G1 X128.063 Y99.779 E11.2893
G1 X129.194 Y99.779 E11.4308
G1 X129.637 Y100.221 E11.5091
G1 X130.768 Y100.221 E11.6506
G1 X130.326 Y99.779 E11.7290
G1 X131.457 Y99.779 E11.8705
G1 X131.900 Y100.221 E11.9488
G1 X133.031 Y100.221 E12.0903
G1 X132.588 Y99.779 E12.1686
G1 X133.720 Y99.779 E12.3101
G1 X134.163 Y100.221 E12.3884
G1 X135.294 Y100.221 E12.5299
G1 X134.851 Y99.779 E12.6083
G1 X135.982 Y99.779 E12.7497
G1 X136.425 Y100.221 E12.8281
G1 X137.557 Y100.221 E12.9696
G1 X137.114 Y99.779 E13.0479
G1 X138.245 Y99.779 E13.1894
G1 X138.817 Y100.351 E13.2906
G1 X139.420 Y100.351 E13.3659
G1 X139.420 Y99.822 E13.4321
G1 X139.247 Y99.649 E13.4626
G1 X107.958 Y97.499 F18000
G1 X72.000 Y97.499
G1 X72.000 Y97.369
G1 X68.000 Y97.369
G1 X68.000 Y98.401
G1 X66.208 Y96.206
G1 X65.330 Y95.208
G1 X64.700 Y94.525
G1 X60.280 Y94.221
G92 E0.0000
G1 X66.223 Y100.164 E1.0510 F1440
G1 X65.716 Y100.788 E1.1516
G1 X60.280 Y95.352 E2.1130
G1 X60.280 Y96.484 E2.2545
G1 X65.209 Y101.413 E3.1262
G1 X64.702 Y102.037 E3.2268
G1 X60.280 Y97.615 E4.0089
G1 X60.280 Y98.747 E4.1504
G1 X64.179 Y102.645 E4.8399
G1 X63.651 Y103.248 E4.9401
G1 X60.280 Y99.878 E5.5362
G1 X60.280 Y101.009 E5.6777
G1 X63.108 Y103.838 E6.1780
G1 X62.566 Y104.427 E6.2781
G1 X60.280 Y102.141 E6.6824
G1 X60.280 Y103.272 E6.8239
G1 X62.021 Y105.013 E7.1318
G1 X61.470 Y105.593 E7.2319
G1 X60.280 Y104.403 E7.4423
G1 X60.280 Y105.535 E7.5838
G1 X60.918 Y106.173 E7.6966
G1 X60.366 Y106.753 E7.7967
G1 X60.280 Y106.666 E7.8120
; layer 2, Z = 0.600
M106 S255
G4 P500
M106 S92
; feature inner perimeter
; tool H0.200 W0.400
G1 Z0.600 F1200
G1 X61.400 Y108.181 F18000
G92 E0.0000
G1 X61.400 Y128.900 E0.6478 F4500
G1 X58.600 Y128.900 E0.7353
G1 X58.600 Y71.100 E2.5424
G1 X61.400 Y71.100 E2.6299
G1 X61.400 Y91.819 E3.2777
G1 X63.302 Y93.793 E3.3634
G1 X64.804 Y95.389 E3.4319
G1 X65.881 Y96.576 E3.4820
G1 X68.600 Y99.744 E3.6126
G1 X68.600 Y97.754 E3.6748
G1 X71.400 Y97.754 E3.7623
G1 X71.400 Y97.873 E3.7661
