; G-Code generated by Simplify3D(R) Version 4.1.2
; Oct 26, 2019 at 9:00:44 PM
; Settings Summary
;   processName,Process1
;   applyToModels,x-riemen-spanner,x-riemen-spanner-platte,x-riemen-halterung,x-riemen-halterung-platte
;   profileName,HBot (modified)
;   profileVersion,2019-10-25 22:59:37
;   baseProfile,Default
;   printMaterial,PLA
;   printQuality,Medium
;   printExtruders,
;   extruderName,Extruder 1
;   extruderToolheadNumber,0
;   extruderDiameter,0.4
;   extruderAutoWidth,0
;   extruderWidth,0.4
;   extrusionMultiplier,0.9
;   extruderUseRetract,0
;   extruderRetractionDistance,5
;   extruderExtraRestartDistance,0
;   extruderRetractionZLift,0
;   extruderRetractionSpeed,1800
;   extruderUseCoasting,0
;   extruderCoastingDistance,0.2
;   extruderUseWipe,0
;   extruderWipeDistance,5
;   primaryExtruder,0
;   layerHeight,0.2
;   topSolidLayers,3
;   bottomSolidLayers,3
;   perimeterOutlines,3
;   printPerimetersInsideOut,1
;   startPointOption,2
;   startPointOriginX,0
;   startPointOriginY,0
;   sequentialIslands,0
;   spiralVaseMode,0
;   firstLayerHeightPercentage,150
;   firstLayerWidthPercentage,200
;   firstLayerUnderspeed,0.5
;   useRaft,0
;   raftExtruder,0
;   raftTopLayers,3
;   raftBaseLayers,2
;   raftOffset,3
;   raftSeparationDistance,0.14
;   raftTopInfill,100
;   aboveRaftSpeedMultiplier,0.3
;   useSkirt,1
;   skirtExtruder,0
;   skirtLayers,1
;   skirtOutlines,4
;   skirtOffset,4
;   usePrimePillar,0
;   primePillarExtruder,999
;   primePillarWidth,12
;   primePillarLocation,7
;   primePillarSpeedMultiplier,1
;   useOozeShield,0
;   oozeShieldExtruder,999
;   oozeShieldOffset,2
;   oozeShieldOutlines,1
;   oozeShieldSidewallShape,1
;   oozeShieldSidewallAngle,30
;   oozeShieldSpeedMultiplier,1
;   infillExtruder,0
;   internalInfillPattern,Rectilinear
;   externalInfillPattern,Rectilinear
;   infillPercentage,20
;   outlineOverlapPercentage,15
;   infillExtrusionWidthPercentage,100
;   minInfillLength,5
;   infillLayerInterval,1
;   internalInfillAngles,45,-45
;   overlapInternalInfillAngles,0
;   externalInfillAngles,45,-45
;   generateSupport,1
;   supportExtruder,0
;   supportInfillPercentage,30
;   supportExtraInflation,0
;   supportBaseLayers,2
;   denseSupportExtruder,0
;   denseSupportLayers,0
;   denseSupportInfillPercentage,70
;   supportLayerInterval,1
;   supportHorizontalPartOffset,0.3
;   supportUpperSeparationLayers,1
;   supportLowerSeparationLayers,1
;   supportType,0
;   supportGridSpacing,4
;   maxOverhangAngle,45
;   supportAngles,0
;   temperatureName,Extruder 1
;   temperatureNumber,0
;   temperatureSetpointCount,1
;   temperatureSetpointLayers,1
;   temperatureSetpointTemperatures,214
;   temperatureStabilizeAtStartup,1
;   temperatureHeatedBed,0
;   fanLayers,1,2,5
;   fanSpeeds,0,20,60
;   blipFanToFullPower,1
;   adjustSpeedForCooling,1
;   minSpeedLayerTime,15
;   minCoolingSpeedSlowdown,20
;   increaseFanForCooling,1
;   minFanLayerTime,45
;   maxCoolingFanSpeed,100
;   increaseFanForBridging,1
;   bridgingFanSpeed,100
;   use5D,1
;   relativeEdistances,0
;   allowEaxisZeroing,1
;   independentExtruderAxes,0
;   includeM10123,0
;   stickySupport,1
;   applyToolheadOffsets,0
;   gcodeXoffset,0
;   gcodeYoffset,0
;   gcodeZoffset,0
;   overrideMachineDefinition,1
;   machineTypeOverride,0
;   strokeXoverride,200
;   strokeYoverride,200
;   strokeZoverride,200
;   originOffsetXoverride,0
;   originOffsetYoverride,0
;   originOffsetZoverride,0
;   homeXdirOverride,-1
;   homeYdirOverride,-1
;   homeZdirOverride,-1
;   flipXoverride,1
;   flipYoverride,-1
;   flipZoverride,1
;   toolheadOffsets,0,0|0,0|0,0|0,0|0,0|0,0
;   overrideFirmwareConfiguration,1
;   firmwareTypeOverride,RepRap (Marlin/Repetier/Sprinter)
;   GPXconfigOverride,r2
;   baudRateOverride,115200
;   overridePrinterModels,0
;   printerModelsOverride
;   startingGcode,G28 ; home all axes,G32 ; run bed.g -- probe bed and enable compensation
;   layerChangeGcode,
;   retractionGcode,
;   toolChangeGcode,
;   endingGcode,;retract 5mm,G91,G1 E-5.0 F240 ; retract 5mm,G90,;move print down,G1 Z220,;move printhead to center,G1 X100.0 Y100.0,,
;   exportFileFormat,gcode
;   celebration,0
;   celebrationSong,Random Song
;   postProcessing,
;   defaultSpeed,3600
;   outlineUnderspeed,0.5
;   solidInfillUnderspeed,0.8
;   supportUnderspeed,0.8
;   rapidXYspeed,18000
;   rapidZspeed,1200
;   minBridgingArea,50
;   bridgingExtraInflation,0
;   bridgingExtrusionMultiplier,1
;   bridgingSpeedMultiplier,1
;   useFixedBridgingAngle,0
;   fixedBridgingAngle,0
;   applyBridgingToPerimeters,0
;   filamentDiameters,1.75|1.75|1.75|1.75|1.75|1.75
;   filamentPricesPerKg,46|46|46|46|46|46
;   filamentDensities,1.25|1.25|1.25|1.25|1.25|1.25
;   useMinPrintHeight,0
;   minPrintHeight,0
;   useMaxPrintHeight,0
;   maxPrintHeight,0
;   useDiaphragm,0
;   diaphragmLayerInterval,20
;   robustSlicing,1
;   mergeAllIntoSolid,0
;   onlyRetractWhenCrossingOutline,1
;   retractBetweenLayers,1
;   useRetractionMinTravel,0
;   retractionMinTravel,3
;   retractWhileWiping,0
;   onlyWipeOutlines,1
;   avoidCrossingOutline,0
;   maxMovementDetourFactor,3
;   toolChangeRetractionDistance,12
;   toolChangeExtraRestartDistance,-0.5
;   toolChangeRetractionSpeed,600
;   externalThinWallType,1
;   internalThinWallType,1
;   thinWallAllowedOverlapPercentage,10
;   singleExtrusionMinLength,1
;   singleExtrusionMinPrintingWidthPercentage,50
;   singleExtrusionMaxPrintingWidthPercentage,200
;   singleExtrusionEndpointExtension,0.2
;   horizontalSizeCompensation,-0.1
G90
M82
M106 S0
M104 S214 T0
M109 S214 T0
G28 ; home all axes
G32 ; run bed.g -- probe bed and enable compensation
; process Process1
; layer 1, Z = 0.300
T0
; feature skirt
; tool H0.300 W0.800
G1 Z0.300 F1200
G1 X74.963 Y75.980 F18000
G92 E0.0000
G1 X77.603 Y75.980 E0.2371 F1800
G1 X81.283 Y72.300 E0.7044
G1 X96.017 Y72.300 E2.0275
G1 X99.150 Y75.433 E2.4255
G1 X102.283 Y72.300 E2.8234
G1 X117.017 Y72.300 E4.1465
G1 X120.448 Y75.731 E4.5823
G1 X120.556 Y75.761 E4.5923
G1 X121.399 Y76.040 E4.6721
G1 X121.736 Y76.172 E4.7045
G1 X122.532 Y76.534 E4.7831
G1 X122.852 Y76.700 E4.8154
G1 X123.653 Y77.171 E4.8989
G1 X124.027 Y77.427 E4.9396
G1 X124.997 Y78.188 E5.0503
G1 X125.333 Y78.490 E5.0909
G1 X126.014 Y79.188 E5.1785
G1 X126.308 Y79.533 E5.2192
G1 X127.072 Y80.560 E5.3342
G1 X127.360 Y81.021 E5.3830
G1 X127.972 Y82.196 E5.5019
G1 X128.183 Y82.697 E5.5507
G1 X128.600 Y83.954 E5.6697
G1 X128.729 Y84.482 E5.7185
G1 X128.940 Y85.789 E5.8374
G1 X128.984 Y86.332 E5.8862
G1 X128.984 Y87.620 E6.0019
G1 X128.954 Y88.075 E6.0429
G1 X128.829 Y88.998 E6.1266
G1 X128.762 Y89.354 E6.1591
G1 X128.551 Y90.213 E6.2385
G1 X128.447 Y90.560 E6.2711
G1 X128.147 Y91.388 E6.3501
G1 X128.006 Y91.722 E6.3827
G1 X127.619 Y92.517 E6.4621
G1 X127.443 Y92.834 E6.4946
G1 X126.949 Y93.622 E6.5782
G1 X126.683 Y93.990 E6.6189
G1 X125.866 Y94.974 E6.7338
G1 X125.486 Y95.363 E6.7826
G1 X124.524 Y96.204 E6.8974
G1 X124.165 Y96.478 E6.9379
G1 X123.391 Y96.991 E7.0213
G1 X123.079 Y97.175 E7.0538
G1 X122.255 Y97.602 E7.1372
G1 X121.841 Y97.783 E7.1778
G1 X120.681 Y98.201 E7.2885
G1 X120.449 Y98.268 E7.3102
G1 X119.417 Y99.300 E7.4413
G1 X126.217 Y99.300 E8.0519
G1 X130.200 Y103.283 E8.5578
G1 X130.200 Y103.483 E8.5758
G1 X130.700 Y103.983 E8.6393
G1 X130.700 Y115.717 E9.6930
G1 X130.270 Y116.147 E9.7476
G1 X130.270 Y123.537 E10.4112
G1 X126.287 Y127.520 E10.9171
G1 X116.213 Y127.520 E11.8217
G1 X112.230 Y123.537 E12.3276
G1 X112.230 Y121.537 E12.5072
G1 X112.213 Y121.520 E12.5093
G1 X110.213 Y121.520 E12.6889
G1 X108.393 Y119.700 E12.9200
G1 X103.770 Y119.700 E13.3352
G1 X103.770 Y123.537 E13.6798
G1 X99.787 Y127.520 E14.1857
G1 X89.713 Y127.520 E15.0903
G1 X85.730 Y123.537 E15.5961
G1 X85.730 Y121.537 E15.7758
G1 X85.713 Y121.520 E15.7779
G1 X83.713 Y121.520 E15.9575
G1 X81.893 Y119.700 E16.1886
G1 X73.283 Y119.700 E16.9618
G1 X69.300 Y115.717 E17.4677
G1 X69.300 Y103.283 E18.5842
G1 X73.283 Y99.300 E19.0901
G1 X77.300 Y99.300 E19.4508
G1 X77.300 Y98.020 E19.5658
G1 X74.963 Y98.020 E19.7756
G1 X68.980 Y92.037 E20.5355
G1 X68.980 Y81.963 E21.4401
G1 X74.963 Y75.980 E22.2000
G1 X75.295 Y76.780 F18000
G92 E0.0000
G1 X78.100 Y76.780 E0.2519 F1800
G1 X78.100 Y76.615 E0.2668
G1 X81.615 Y73.100 E0.7131
G1 X95.685 Y73.100 E1.9767
G1 X99.150 Y76.565 E2.4167
G1 X102.615 Y73.100 E2.8567
G1 X116.685 Y73.100 E4.1203
G1 X120.032 Y76.447 E4.5454
G1 X120.324 Y76.527 E4.5726
G1 X121.128 Y76.793 E4.6486
G1 X121.424 Y76.909 E4.6772
G1 X122.182 Y77.253 E4.7519
G1 X122.464 Y77.400 E4.7805
G1 X123.224 Y77.847 E4.8596
G1 X123.554 Y78.072 E4.8955
G1 X124.482 Y78.801 E5.0015
G1 X124.779 Y79.067 E5.0373
G1 X125.423 Y79.727 E5.1201
G1 X125.682 Y80.032 E5.1560
G1 X126.411 Y81.012 E5.2657
G1 X126.665 Y81.418 E5.3088
G1 X127.247 Y82.537 E5.4220
G1 X127.434 Y82.979 E5.4650
G1 X127.830 Y84.175 E5.5783
G1 X127.944 Y84.641 E5.6213
G1 X128.145 Y85.885 E5.7345
G1 X128.184 Y86.364 E5.7776
G1 X128.184 Y87.593 E5.8880
G1 X128.157 Y87.995 E5.9241
G1 X128.039 Y88.870 E6.0035
G1 X127.980 Y89.184 E6.0322
G1 X127.779 Y90.002 E6.1078
G1 X127.687 Y90.308 E6.1365
G1 X127.402 Y91.096 E6.2118
G1 X127.278 Y91.391 E6.2405
G1 X126.909 Y92.148 E6.3161
G1 X126.754 Y92.427 E6.3448
G1 X126.285 Y93.175 E6.4240
G1 X126.051 Y93.499 E6.4600
G1 X125.271 Y94.439 E6.5696
G1 X124.936 Y94.782 E6.6127
G1 X124.018 Y95.584 E6.7222
G1 X123.701 Y95.826 E6.7580
G1 X122.967 Y96.312 E6.8370
G1 X122.692 Y96.474 E6.8657
G1 X121.910 Y96.880 E6.9448
G1 X121.545 Y97.040 E6.9806
G1 X120.435 Y97.440 E7.0865
G1 X120.051 Y97.550 E7.1224
G1 X120.031 Y97.554 E7.1243
G1 X117.485 Y100.100 E7.4476
G1 X125.885 Y100.100 E8.2019
G1 X129.400 Y103.615 E8.6483
G1 X129.400 Y103.815 E8.6662
G1 X129.900 Y104.315 E8.7297
G1 X129.900 Y115.385 E9.7239
G1 X129.470 Y115.815 E9.7785
G1 X129.470 Y123.205 E10.4422
G1 X125.955 Y126.720 E10.8885
G1 X116.545 Y126.720 E11.7336
G1 X113.030 Y123.205 E12.1800
G1 X113.030 Y121.205 E12.3596
G1 X112.545 Y120.720 E12.4212
G1 X110.545 Y120.720 E12.6008
G1 X108.725 Y118.900 E12.8320
G1 X102.970 Y118.900 E13.3487
G1 X102.970 Y123.205 E13.7354
G1 X99.455 Y126.720 E14.1817
G1 X90.045 Y126.720 E15.0268
G1 X86.530 Y123.205 E15.4732
G1 X86.530 Y121.205 E15.6528
G1 X86.045 Y120.720 E15.7144
G1 X84.045 Y120.720 E15.8940
G1 X82.225 Y118.900 E16.1252
G1 X73.615 Y118.900 E16.8984
G1 X70.100 Y115.385 E17.3447
G1 X70.100 Y103.615 E18.4018
G1 X73.615 Y100.100 E18.8481
G1 X78.100 Y100.100 E19.2509
G1 X78.100 Y97.220 E19.5096
G1 X75.295 Y97.220 E19.7615
G1 X69.780 Y91.705 E20.4618
G1 X69.780 Y82.295 E21.3069
G1 X75.295 Y76.780 E22.0073
G1 X75.626 Y77.580 F18000
G92 E0.0000
G1 X78.900 Y77.580 E0.2940 F1800
G1 X78.900 Y76.946 E0.3509
G1 X81.946 Y73.900 E0.7378
G1 X95.354 Y73.900 E1.9418
G1 X98.400 Y76.946 E2.3287
G1 X98.400 Y89.900 E3.4920
G1 X99.900 Y89.900 E3.6267
G1 X99.900 Y76.946 E4.7900
G1 X102.946 Y73.900 E5.1768
G1 X116.354 Y73.900 E6.3809
G1 X119.400 Y76.946 E6.7677
G1 X119.400 Y77.128 E6.7841
G1 X119.825 Y77.220 E6.8231
G1 X120.093 Y77.293 E6.8481
G1 X120.856 Y77.546 E6.9202
G1 X121.113 Y77.646 E6.9450
G1 X121.832 Y77.973 E7.0160
G1 X122.077 Y78.100 E7.0407
G1 X122.795 Y78.523 E7.1156
G1 X123.081 Y78.718 E7.1467
G1 X123.968 Y79.414 E7.2478
G1 X124.225 Y79.645 E7.2789
G1 X124.831 Y80.267 E7.3569
G1 X125.056 Y80.531 E7.3880
G1 X125.750 Y81.464 E7.4925
G1 X125.970 Y81.816 E7.5298
G1 X126.523 Y82.878 E7.6373
G1 X126.684 Y83.260 E7.6746
G1 X127.061 Y84.397 E7.7821
G1 X127.160 Y84.800 E7.8194
G1 X127.350 Y85.981 E7.9268
G1 X127.384 Y86.396 E7.9642
G1 X127.384 Y87.566 E8.0693
G1 X127.361 Y87.914 E8.1006
G1 X127.249 Y88.743 E8.1756
G1 X127.198 Y89.015 E8.2005
G1 X127.007 Y89.791 E8.2723
G1 X126.927 Y90.056 E8.2972
G1 X126.657 Y90.805 E8.3686
G1 X126.549 Y91.059 E8.3935
G1 X126.199 Y91.778 E8.4653
G1 X126.065 Y92.020 E8.4901
G1 X125.622 Y92.728 E8.5651
G1 X125.418 Y93.009 E8.5962
G1 X124.676 Y93.903 E8.7006
G1 X124.386 Y94.200 E8.7379
G1 X123.512 Y94.964 E8.8422
G1 X123.237 Y95.174 E8.8732
G1 X122.543 Y95.634 E8.9480
G1 X122.304 Y95.774 E8.9728
G1 X121.565 Y96.158 E9.0476
G1 X121.249 Y96.296 E9.0786
G1 X120.189 Y96.678 E9.1798
G1 X119.856 Y96.774 E9.2109
G1 X119.400 Y96.872 E9.2528
G1 X119.400 Y97.054 E9.2691
G1 X116.354 Y100.100 E9.6560
G1 X105.100 Y100.100 E10.6666
G1 X105.100 Y100.900 E10.7385
G1 X125.554 Y100.900 E12.5753
G1 X128.600 Y103.946 E12.9621
G1 X128.600 Y104.146 E12.9801
G1 X129.100 Y104.646 E13.0436
G1 X129.100 Y115.054 E13.9782
G1 X128.670 Y115.484 E14.0328
G1 X128.670 Y122.874 E14.6965
G1 X125.624 Y125.920 E15.0833
G1 X116.876 Y125.920 E15.8689
G1 X113.830 Y122.874 E16.2557
G1 X113.830 Y120.874 E16.4354
G1 X112.876 Y119.920 E16.5565
G1 X110.876 Y119.920 E16.7361
G1 X109.056 Y118.100 E16.9672
G1 X102.170 Y118.100 E17.5856
G1 X102.170 Y122.874 E18.0143
G1 X99.124 Y125.920 E18.4012
G1 X90.376 Y125.920 E19.1868
G1 X87.330 Y122.874 E19.5736
G1 X87.330 Y120.874 E19.7532
G1 X86.376 Y119.920 E19.8744
G1 X84.376 Y119.920 E20.0540
G1 X82.556 Y118.100 E20.2851
G1 X73.946 Y118.100 E21.0583
G1 X70.900 Y115.054 E21.4452
G1 X70.900 Y103.946 E22.4427
G1 X73.946 Y100.900 E22.8295
G1 X78.900 Y100.900 E23.2744
G1 X78.900 Y96.420 E23.6767
G1 X75.626 Y96.420 E23.9707
G1 X70.580 Y91.374 E24.6116
G1 X70.580 Y82.626 E25.3971
G1 X75.626 Y77.580 E26.0380
G1 X75.957 Y78.380 F18000
G92 E0.0000
G1 X79.700 Y78.380 E0.3361 F1800
G1 X79.700 Y77.277 E0.4351
G1 X82.277 Y74.700 E0.7624
G1 X95.023 Y74.700 E1.9070
G1 X97.600 Y77.277 E2.2343
G1 X97.600 Y90.700 E3.4397
G1 X100.700 Y90.700 E3.7181
G1 X100.700 Y77.277 E4.9235
G1 X103.277 Y74.700 E5.2508
G1 X116.023 Y74.700 E6.3953
G1 X118.600 Y77.277 E6.7227
G1 X118.600 Y77.794 E6.7690
G1 X118.672 Y77.801 E6.7756
G1 X118.903 Y77.839 E6.7965
G1 X119.635 Y77.997 E6.8638
G1 X119.862 Y78.059 E6.8849
G1 X120.584 Y78.298 E6.9532
G1 X120.801 Y78.384 E6.9742
G1 X121.482 Y78.693 E7.0414
G1 X121.689 Y78.800 E7.0623
G1 X122.366 Y79.199 E7.1328
G1 X122.609 Y79.364 E7.1592
G1 X123.453 Y80.027 E7.2556
G1 X123.670 Y80.222 E7.2818
G1 X124.240 Y80.806 E7.3551
G1 X124.430 Y81.029 E7.3814
G1 X125.089 Y81.915 E7.4806
G1 X125.275 Y82.213 E7.5121
G1 X125.798 Y83.219 E7.6139
G1 X125.935 Y83.542 E7.6454
G1 X126.291 Y84.618 E7.7472
G1 X126.375 Y84.959 E7.7788
G1 X126.556 Y86.077 E7.8804
G1 X126.584 Y86.428 E7.9121
G1 X126.584 Y87.540 E8.0119
G1 X126.564 Y87.834 E8.0384
G1 X126.459 Y88.615 E8.1091
G1 X126.416 Y88.845 E8.1302
G1 X126.236 Y89.580 E8.1981
G1 X126.168 Y89.804 E8.2192
G1 X125.912 Y90.513 E8.2868
G1 X125.821 Y90.728 E8.3078
G1 X125.489 Y91.409 E8.3758
G1 X125.376 Y91.614 E8.3969
G1 X124.958 Y92.280 E8.4675
G1 X124.786 Y92.518 E8.4938
G1 X124.081 Y93.367 E8.5930
G1 X123.835 Y93.619 E8.6245
G1 X123.005 Y94.344 E8.7235
G1 X122.773 Y94.521 E8.7498
G1 X122.119 Y94.955 E8.8202
G1 X121.917 Y95.074 E8.8413
G1 X121.220 Y95.435 E8.9118
G1 X120.952 Y95.553 E8.9380
G1 X119.943 Y95.916 E9.0344
G1 X119.661 Y95.997 E9.0607
G1 X118.893 Y96.163 E9.1313
G1 X118.662 Y96.200 E9.1523
G1 X118.600 Y96.207 E9.1579
G1 X118.600 Y96.723 E9.2042
G1 X116.023 Y99.300 E9.5315
G1 X104.300 Y99.300 E10.5843
G1 X104.300 Y101.700 E10.7998
G1 X125.223 Y101.700 E12.6787
G1 X127.800 Y104.277 E13.0060
G1 X127.800 Y104.477 E13.0240
G1 X128.300 Y104.977 E13.0875
G1 X128.300 Y114.723 E13.9626
G1 X127.870 Y115.153 E14.0172
G1 X127.870 Y122.543 E14.6808
G1 X125.293 Y125.120 E15.0082
G1 X117.207 Y125.120 E15.7342
G1 X114.630 Y122.543 E16.0616
G1 X114.630 Y120.543 E16.2412
G1 X113.207 Y119.120 E16.4218
G1 X111.207 Y119.120 E16.6014
G1 X109.387 Y117.300 E16.8326
G1 X101.370 Y117.300 E17.5526
G1 X101.370 Y122.543 E18.0234
G1 X98.793 Y125.120 E18.3507
G1 X90.707 Y125.120 E19.0768
G1 X88.130 Y122.543 E19.4041
G1 X88.130 Y120.543 E19.5837
G1 X86.707 Y119.120 E19.7644
G1 X84.707 Y119.120 E19.9440
G1 X82.887 Y117.300 E20.1751
G1 X74.277 Y117.300 E20.9483
G1 X71.700 Y114.723 E21.2756
G1 X71.700 Y104.277 E22.2136
G1 X74.277 Y101.700 E22.5410
G1 X79.700 Y101.700 E23.0279
G1 X79.700 Y95.620 E23.5739
G1 X75.957 Y95.620 E23.9100
G1 X71.380 Y91.043 E24.4914
G1 X71.380 Y82.957 E25.2174
G1 X75.957 Y78.380 E25.7987
