; G-Code generated by Simplify3D(R) Version 4.1.2
; Apr 20, 2020 at 11:05:28 PM
; Settings Summary
;   processName,Process1
;   applyToModels,x-umlenkrolle-halterung,x-umlenkrolle-halterung(2)
;   profileName,HBot
;   profileVersion,2019-10-26 23:38:43
;   baseProfile,Default
;   printMaterial,PETG - ERYONE
;   printQuality,Medium
;   printExtruders,
;   extruderName,Extruder 1
;   extruderToolheadNumber,0
;   extruderDiameter,0.4
;   extruderAutoWidth,1
;   extruderWidth,0.48
;   extrusionMultiplier,1
;   extruderUseRetract,1
;   extruderRetractionDistance,3
;   extruderExtraRestartDistance,-0.1
;   extruderRetractionZLift,0
;   extruderRetractionSpeed,3600
;   extruderUseCoasting,1
;   extruderCoastingDistance,0.2
;   extruderUseWipe,1
;   extruderWipeDistance,5
;   primaryExtruder,0
;   layerHeight,0.2
;   topSolidLayers,3
;   bottomSolidLayers,3
;   perimeterOutlines,3
;   printPerimetersInsideOut,1
;   startPointOption,3
;   startPointOriginX,200
;   startPointOriginY,100
;   sequentialIslands,0
;   spiralVaseMode,0
;   firstLayerHeightPercentage,100
;   firstLayerWidthPercentage,150
;   firstLayerUnderspeed,0.5
;   useRaft,0
;   raftExtruder,0
;   raftTopLayers,3
;   raftBaseLayers,2
;   raftOffset,3
;   raftSeparationDistance,0.18
;   raftTopInfill,100
;   aboveRaftSpeedMultiplier,0.3
;   useSkirt,1
;   skirtExtruder,0
;   skirtLayers,1
;   skirtOutlines,8
;   skirtOffset,0
;   usePrimePillar,0
;   primePillarExtruder,999
;   primePillarWidth,12
;   primePillarLocation,7
;   primePillarSpeedMultiplier,1
;   useOozeShield,0
;   oozeShieldExtruder,999
;   oozeShieldOffset,2
;   oozeShieldOutlines,1
;   oozeShieldSidewallShape,1
;   oozeShieldSidewallAngle,30
;   oozeShieldSpeedMultiplier,1
;   infillExtruder,0
;   internalInfillPattern,Rectilinear
;   externalInfillPattern,Rectilinear
;   infillPercentage,20
;   outlineOverlapPercentage,25
;   infillExtrusionWidthPercentage,150
;   minInfillLength,5
;   infillLayerInterval,1
;   internalInfillAngles,45,-45
;   overlapInternalInfillAngles,0
;   externalInfillAngles,45,-45
;   generateSupport,1
;   supportExtruder,0
;   supportInfillPercentage,30
;   supportExtraInflation,0
;   supportBaseLayers,1
;   denseSupportExtruder,0
;   denseSupportLayers,0
;   denseSupportInfillPercentage,70
;   supportLayerInterval,1
;   supportHorizontalPartOffset,0.3
;   supportUpperSeparationLayers,1
;   supportLowerSeparationLayers,1
;   supportType,0
;   supportGridSpacing,4
;   maxOverhangAngle,25
;   supportAngles,0
;   temperatureName,Extruder 1,Heated Bed
;   temperatureNumber,0,1
;   temperatureSetpointCount,1,2
;   temperatureSetpointLayers,1,1,20
;   temperatureSetpointTemperatures,230,75,70
;   temperatureStabilizeAtStartup,1,1
;   temperatureHeatedBed,0,1
;   fanLayers,1,2,4
;   fanSpeeds,0,20,30
;   blipFanToFullPower,1
;   adjustSpeedForCooling,1
;   minSpeedLayerTime,15
;   minCoolingSpeedSlowdown,20
;   increaseFanForCooling,0
;   minFanLayerTime,45
;   maxCoolingFanSpeed,40
;   increaseFanForBridging,1
;   bridgingFanSpeed,80
;   use5D,1
;   relativeEdistances,0
;   allowEaxisZeroing,1
;   independentExtruderAxes,0
;   includeM10123,0
;   stickySupport,1
;   applyToolheadOffsets,0
;   gcodeXoffset,0
;   gcodeYoffset,0
;   gcodeZoffset,0
;   overrideMachineDefinition,1
;   machineTypeOverride,0
;   strokeXoverride,200
;   strokeYoverride,200
;   strokeZoverride,150
;   originOffsetXoverride,0
;   originOffsetYoverride,0
;   originOffsetZoverride,0
;   homeXdirOverride,-1
;   homeYdirOverride,-1
;   homeZdirOverride,-1
;   flipXoverride,1
;   flipYoverride,-1
;   flipZoverride,1
;   toolheadOffsets,0,0|0,0|0,0|0,0|0,0|0,0
;   overrideFirmwareConfiguration,1
;   firmwareTypeOverride,RepRap (Marlin/Repetier/Sprinter)
;   GPXconfigOverride,r2
;   baudRateOverride,115200
;   overridePrinterModels,0
;   printerModelsOverride
;   startingGcode,G28 ; home all axes,G32 ; run bed.g -- probe bed and enable compensation
;   layerChangeGcode,
;   retractionGcode,
;   toolChangeGcode,
;   endingGcode,M0 ; call stop.g
;   exportFileFormat,gcode
;   celebration,0
;   celebrationSong,Random Song
;   postProcessing,
;   defaultSpeed,3600
;   outlineUnderspeed,0.5
;   solidInfillUnderspeed,0.8
;   supportUnderspeed,0.8
;   rapidXYspeed,18000
;   rapidZspeed,1200
;   minBridgingArea,50
;   bridgingExtraInflation,0
;   bridgingExtrusionMultiplier,0.96
;   bridgingSpeedMultiplier,1
;   useFixedBridgingAngle,0
;   fixedBridgingAngle,0
;   applyBridgingToPerimeters,0
;   filamentDiameters,1.75|1.75|1.75|1.75|1.75|1.75
;   filamentPricesPerKg,46|46|46|46|46|46
;   filamentDensities,1.25|1.25|1.25|1.25|1.25|1.25
;   useMinPrintHeight,0
;   minPrintHeight,0
;   useMaxPrintHeight,0
;   maxPrintHeight,0
;   useDiaphragm,0
;   diaphragmLayerInterval,20
;   robustSlicing,1
;   mergeAllIntoSolid,0
;   onlyRetractWhenCrossingOutline,1
;   retractBetweenLayers,0
;   useRetractionMinTravel,1
;   retractionMinTravel,3
;   retractWhileWiping,1
;   onlyWipeOutlines,1
;   avoidCrossingOutline,1
;   maxMovementDetourFactor,5
;   toolChangeRetractionDistance,12
;   toolChangeExtraRestartDistance,-0.5
;   toolChangeRetractionSpeed,600
;   externalThinWallType,0
;   internalThinWallType,2
;   thinWallAllowedOverlapPercentage,10
;   singleExtrusionMinLength,1
;   singleExtrusionMinPrintingWidthPercentage,50
;   singleExtrusionMaxPrintingWidthPercentage,200
;   singleExtrusionEndpointExtension,0.2
;   horizontalSizeCompensation,-0.1
G90
M82
M106 S0
M140 S75
M190 S75
M104 S230 T0
M109 S230 T0
G28 ; home all axes
G32 ; run bed.g -- probe bed and enable compensation
; process Process1
; layer 1, Z = 0.200
T0
G92 E0.0000
G1 E-3.0000 F3600
; feature skirt
; tool H0.200 W0.720
G1 Z0.200 F1200
G1 X157.800 Y96.967 F18000
G1 E-0.1000 F3600
G92 E0.0000
G1 X157.800 Y134.137 E2.2253 F1800
G1 X154.637 Y137.300 E2.4931
G1 X147.467 Y137.300 E2.9223
G1 X145.482 Y136.478 E3.0509
G1 X143.022 Y134.017 E3.2593
G1 X142.200 Y132.033 E3.3879
G1 X142.200 Y113.300 E4.5094
G1 X112.800 Y113.300 E6.2695
G1 X112.800 Y132.033 E7.3910
G1 X111.978 Y134.017 E7.5196
G1 X109.518 Y136.478 E7.7279
G1 X107.533 Y137.300 E7.8565
G1 X100.363 Y137.300 E8.2858
G1 X97.200 Y134.137 E8.5536
G1 X97.200 Y127.335 E8.9608
G1 X58.360 Y127.335 E11.2861
G1 X55.196 Y124.172 E11.5539
G1 X55.196 Y99.230 E13.0471
G1 X51.019 Y95.053 E13.4008
G1 X50.196 Y93.068 E13.5294
G1 X50.196 Y55.898 E15.7547
G1 X53.360 Y52.735 E16.0225
G1 X60.529 Y52.735 E16.4518
G1 X62.514 Y53.557 E16.5804
G1 X64.969 Y56.012 E16.7882
G1 X65.791 Y57.996 E16.9168
G1 X65.795 Y76.735 E18.0387
G1 X95.196 Y76.735 E19.7988
G1 X95.196 Y58.002 E20.9203
G1 X96.019 Y56.018 E21.0490
G1 X98.479 Y53.557 E21.2573
G1 X100.464 Y52.735 E21.3859
G1 X107.633 Y52.735 E21.8151
G1 X110.796 Y55.898 E22.0829
G1 X110.796 Y62.700 E22.4901
G1 X149.637 Y62.700 E24.8154
G1 X152.800 Y65.863 E25.0832
G1 X152.800 Y90.805 E26.5765
G1 X156.978 Y94.982 E26.9302
G1 X157.800 Y96.967 E27.0588
G1 X157.080 Y97.110 F18000
G92 E0.0000
G1 X157.080 Y133.839 E2.1989 F1800
G1 X154.338 Y136.580 E2.4310
G1 X147.610 Y136.580 E2.8338
G1 X145.890 Y135.867 E2.9452
G1 X143.633 Y133.610 E3.1364
G1 X142.920 Y131.890 E3.2478
G1 X142.920 Y112.580 E4.4039
G1 X112.080 Y112.580 E6.2502
G1 X112.080 Y131.890 E7.4063
G1 X111.367 Y133.610 E7.5177
G1 X109.110 Y135.867 E7.7089
G1 X107.390 Y136.580 E7.8203
G1 X100.661 Y136.580 E8.2231
G1 X97.920 Y133.838 E8.4552
G1 X97.920 Y126.615 E8.8877
G1 X58.658 Y126.615 E11.2382
G1 X55.916 Y123.874 E11.4704
G1 X55.916 Y98.932 E12.9636
G1 X51.629 Y94.645 E13.3266
G1 X50.916 Y92.925 E13.4380
G1 X50.916 Y56.197 E15.6369
G1 X53.658 Y53.455 E15.8690
G1 X60.386 Y53.455 E16.2718
G1 X62.106 Y54.168 E16.3832
G1 X64.359 Y56.420 E16.5740
G1 X65.071 Y58.140 E16.6854
G1 X65.075 Y77.455 E17.8418
G1 X95.916 Y77.455 E19.6882
G1 X95.916 Y58.146 E20.8442
G1 X96.629 Y56.425 E20.9557
G1 X98.887 Y54.168 E21.1468
G1 X100.607 Y53.455 E21.2583
G1 X107.335 Y53.455 E21.6611
G1 X110.076 Y56.197 E21.8932
G1 X110.076 Y63.420 E22.3256
G1 X149.338 Y63.420 E24.6762
G1 X152.080 Y66.161 E24.9083
G1 X152.080 Y91.103 E26.4015
G1 X156.367 Y95.390 E26.7645
G1 X157.080 Y97.110 E26.8760
G1 X156.360 Y97.254 F18000
G92 E0.0000
G1 X156.360 Y133.540 E2.1724 F1800
G1 X154.040 Y135.860 E2.3688
G1 X147.754 Y135.860 E2.7452
G1 X146.298 Y135.257 E2.8395
G1 X144.243 Y133.202 E3.0135
G1 X143.640 Y131.746 E3.1078
G1 X143.640 Y111.860 E4.2984
G1 X111.360 Y111.860 E6.2309
G1 X111.360 Y131.746 E7.4215
G1 X110.757 Y133.202 E7.5158
G1 X108.702 Y135.257 E7.6898
G1 X107.246 Y135.860 E7.7842
G1 X100.960 Y135.860 E8.1605
G1 X98.640 Y133.540 E8.3569
G1 X98.640 Y125.895 E8.8146
G1 X58.956 Y125.895 E11.1904
G1 X56.636 Y123.575 E11.3868
G1 X56.636 Y98.634 E12.8800
G1 X52.239 Y94.237 E13.2523
G1 X51.636 Y92.781 E13.3466
G1 X51.636 Y56.495 E15.5190
G1 X53.956 Y54.175 E15.7154
G1 X60.243 Y54.175 E16.0918
G1 X61.698 Y54.778 E16.1861
G1 X63.748 Y56.828 E16.3597
G1 X64.351 Y58.283 E16.4540
G1 X64.356 Y78.175 E17.6449
G1 X96.636 Y78.175 E19.5775
G1 X96.636 Y58.289 E20.7680
G1 X97.239 Y56.833 E20.8624
G1 X99.295 Y54.778 E21.0364
G1 X100.750 Y54.175 E21.1307
G1 X107.037 Y54.175 E21.5071
G1 X109.356 Y56.495 E21.7035
G1 X109.356 Y64.140 E22.1612
G1 X149.040 Y64.140 E24.5370
G1 X151.360 Y66.460 E24.7334
G1 X151.360 Y91.401 E26.2266
G1 X155.757 Y95.798 E26.5988
G1 X156.360 Y97.254 E26.6932
G1 X155.640 Y97.397 F18000
G92 E0.0000
G1 X155.640 Y133.242 E2.1460 F1800
G1 X153.742 Y135.140 E2.3067
G1 X147.897 Y135.140 E2.6566
G1 X146.706 Y134.647 E2.7338
G1 X144.853 Y132.794 E2.8907
G1 X144.360 Y131.603 E2.9678
G1 X144.360 Y111.140 E4.1929
G1 X110.640 Y111.140 E6.2117
G1 X110.640 Y131.603 E7.4368
G1 X110.147 Y132.794 E7.5139
G1 X108.294 Y134.647 E7.6708
G1 X107.103 Y135.140 E7.7480
G1 X101.258 Y135.140 E8.0979
G1 X99.360 Y133.242 E8.2586
G1 X99.360 Y125.175 E8.7415
G1 X59.254 Y125.175 E11.1426
G1 X57.356 Y123.277 E11.3033
G1 X57.356 Y98.336 E12.7965
G1 X52.850 Y93.829 E13.1781
G1 X52.356 Y92.638 E13.2552
G1 X52.356 Y56.793 E15.4012
G1 X54.254 Y54.895 E15.5619
G1 X60.100 Y54.895 E15.9118
G1 X61.290 Y55.388 E15.9890
G1 X63.138 Y57.236 E16.1454
G1 X63.631 Y58.426 E16.2226
G1 X63.636 Y78.895 E17.4480
G1 X97.356 Y78.895 E19.4668
G1 X97.356 Y58.432 E20.6919
G1 X97.850 Y57.241 E20.7691
G1 X99.702 Y55.388 E20.9259
G1 X100.893 Y54.895 E21.0031
G1 X106.738 Y54.895 E21.3530
G1 X108.636 Y56.793 E21.5137
G1 X108.636 Y64.860 E21.9967
G1 X148.742 Y64.860 E24.3977
G1 X150.640 Y66.758 E24.5584
G1 X150.640 Y91.699 E26.0516
G1 X155.147 Y96.206 E26.4332
G1 X155.640 Y97.397 E26.5104
G1 X154.920 Y97.540 F18000
G92 E0.0000
G1 X154.920 Y132.944 E2.1196 F1800
G1 X153.444 Y134.420 E2.2445
G1 X148.040 Y134.420 E2.5681
G1 X147.114 Y134.036 E2.6281
G1 X145.464 Y132.386 E2.7678
G1 X145.080 Y131.460 E2.8278
G1 X145.080 Y110.420 E4.0874
G1 X109.920 Y110.420 E6.1924
G1 X109.920 Y131.460 E7.4520
G1 X109.536 Y132.386 E7.5120
G1 X107.886 Y134.036 E7.6518
G1 X106.960 Y134.420 E7.7118
G1 X101.556 Y134.420 E8.0353
G1 X100.080 Y132.944 E8.1603
G1 X100.080 Y124.455 E8.6685
G1 X59.553 Y124.455 E11.0948
G1 X58.076 Y122.979 E11.2198
G1 X58.076 Y98.038 E12.7130
G1 X53.460 Y93.421 E13.1038
G1 X53.076 Y92.495 E13.1638
G1 X53.076 Y57.091 E15.2834
G1 X54.553 Y55.615 E15.4084
G1 X59.956 Y55.615 E15.7319
G1 X60.882 Y55.999 E15.7919
G1 X62.527 Y57.644 E15.9312
G1 X62.911 Y58.570 E15.9912
G1 X62.916 Y79.615 E17.2511
G1 X98.076 Y79.615 E19.3561
G1 X98.076 Y58.575 E20.6157
G1 X98.460 Y57.649 E20.6758
G1 X100.110 Y55.999 E20.8155
G1 X101.037 Y55.615 E20.8755
G1 X106.440 Y55.615 E21.1990
G1 X107.916 Y57.091 E21.3240
G1 X107.916 Y65.580 E21.8322
G1 X148.444 Y65.580 E24.2585
G1 X149.920 Y67.056 E24.3835
G1 X149.920 Y91.998 E25.8767
G1 X154.536 Y96.614 E26.2675
G1 X154.920 Y97.540 E26.3275
G1 X154.200 Y97.683 F18000
G92 E0.0000
G1 X154.200 Y132.646 E2.0931 F1800
G1 X153.146 Y133.700 E2.1824
G1 X148.183 Y133.700 E2.4795
G1 X147.522 Y133.426 E2.5224
G1 X146.074 Y131.978 E2.6449
G1 X145.800 Y131.317 E2.6878
G1 X145.800 Y109.700 E3.9819
G1 X132.618 Y109.700 E4.7711
G1 X132.500 Y109.582 E4.7811
G1 X132.382 Y109.700 E4.7912
G1 X122.618 Y109.700 E5.3757
G1 X122.500 Y109.582 E5.3857
G1 X122.382 Y109.700 E5.3957
G1 X109.200 Y109.700 E6.1849
G1 X109.200 Y131.317 E7.4790
G1 X108.926 Y131.978 E7.5219
G1 X107.478 Y133.426 E7.6445
G1 X106.817 Y133.700 E7.6873
G1 X101.854 Y133.700 E7.9844
G1 X100.800 Y132.646 E8.0737
G1 X100.800 Y123.735 E8.6071
G1 X59.851 Y123.735 E11.0587
G1 X58.796 Y122.681 E11.1480
G1 X58.796 Y97.739 E12.6412
G1 X54.070 Y93.013 E13.0413
G1 X53.796 Y92.352 E13.0842
G1 X53.796 Y57.390 E15.1773
G1 X54.851 Y56.335 E15.2666
G1 X59.813 Y56.335 E15.5637
G1 X60.475 Y56.609 E15.6065
G1 X61.917 Y58.052 E15.7287
G1 X62.191 Y58.713 E15.7715
G1 X62.196 Y80.335 E17.0660
G1 X75.378 Y80.335 E17.8552
G1 X75.496 Y80.454 E17.8652
G1 X75.615 Y80.335 E17.8752
G1 X85.378 Y80.335 E18.4597
G1 X85.496 Y80.454 E18.4698
G1 X85.615 Y80.335 E18.4798
G1 X98.796 Y80.335 E19.2689
G1 X98.796 Y58.718 E20.5631
G1 X99.070 Y58.057 E20.6060
G1 X100.518 Y56.609 E20.7285
G1 X101.180 Y56.335 E20.7714
G1 X106.142 Y56.335 E21.0685
G1 X107.196 Y57.390 E21.1578
G1 X107.196 Y66.300 E21.6912
G1 X148.146 Y66.300 E24.1428
G1 X149.200 Y67.354 E24.2320
G1 X149.200 Y92.296 E25.7252
G1 X153.926 Y97.022 E26.1254
G1 X154.200 Y97.683 E26.1682
G92 E0.0000
G1 E-3.0000 F3600
G1 X152.040 Y98.191 F18000
G1 X151.187 Y97.338
G1 X106.476 Y92.209
G1 E-0.1000 F3600
G92 E0.0000
G1 X106.312 Y92.605 E0.0257 F1800
G1 X101.476 Y97.441 E0.4351
G1 X101.476 Y122.382 E1.9283
G1 X100.844 Y123.015 E1.9819
G1 X60.149 Y123.015 E4.4182
G1 X59.516 Y122.382 E4.4718
G1 X59.516 Y97.441 E5.9650
G1 X54.681 Y92.605 E6.3744
G1 X54.516 Y92.209 E6.4001
G1 X54.516 Y57.688 E8.4668
G1 X55.149 Y57.055 E8.5204
G1 X59.670 Y57.055 E8.7910
G1 X60.067 Y57.220 E8.8167
G1 X61.307 Y58.459 E8.9217
G1 X61.471 Y58.856 E8.9474
G1 X61.476 Y81.055 E10.2764
G1 X75.080 Y81.055 E11.0909
G1 X75.496 Y81.472 E11.1261
G1 X75.913 Y81.055 E11.1614
G1 X85.080 Y81.055 E11.7102
G1 X85.496 Y81.472 E11.7455
G1 X85.913 Y81.055 E11.7808
G1 X99.516 Y81.055 E12.5952
G1 X99.516 Y58.862 E13.9239
G1 X99.681 Y58.465 E13.9496
G1 X100.926 Y57.220 E14.0550
G1 X101.323 Y57.055 E14.0807
G1 X105.844 Y57.055 E14.3514
G1 X106.476 Y57.688 E14.4049
G1 X106.476 Y92.209 E16.4716
G1 X105.756 Y92.065 F18000
G92 E0.0000
G1 X105.702 Y92.198 E0.0086 F1800
G1 X100.756 Y97.143 E0.4273
G1 X100.756 Y122.084 E1.9205
G1 X100.546 Y122.295 E1.9383
G1 X60.447 Y122.295 E4.3389
G1 X60.236 Y122.084 E4.3568
G1 X60.236 Y97.143 E5.8500
G1 X55.291 Y92.198 E6.2687
G1 X55.236 Y92.065 E6.2773
G1 X55.236 Y57.986 E8.3175
G1 X55.447 Y57.775 E8.3354
G1 X59.527 Y57.775 E8.5796
G1 X59.659 Y57.830 E8.5882
G1 X60.696 Y58.867 E8.6760
G1 X60.751 Y59.000 E8.6846
G1 X60.756 Y81.775 E10.0481
G1 X74.782 Y81.775 E10.8878
G1 X74.992 Y81.986 E10.9056
G1 X74.992 Y91.775 E11.4917
G1 X76.000 Y91.775 E11.5520
G1 X76.000 Y81.986 E12.1381
G1 X76.211 Y81.775 E12.1559
G1 X84.782 Y81.775 E12.6690
G1 X84.992 Y81.986 E12.6869
G1 X84.992 Y91.775 E13.2729
G1 X86.000 Y91.775 E13.3333
G1 X86.000 Y81.986 E13.9193
G1 X86.211 Y81.775 E13.9372
G1 X100.236 Y81.775 E14.7769
G1 X100.236 Y59.005 E16.1401
G1 X100.291 Y58.873 E16.1486
G1 X101.334 Y57.830 E16.2369
G1 X101.466 Y57.775 E16.2455
G1 X105.546 Y57.775 E16.4897
G1 X105.756 Y57.986 E16.5076
G1 X105.756 Y92.065 E18.5478
G92 E0.0000
G1 E-3.0000 F3600
G1 X151.428 Y97.579 F18000
G1 X152.040 Y98.191
G1 X153.480 Y97.827
G1 E-0.1000 F3600
G92 E0.0000
G1 X153.480 Y132.347 E2.0667 F1800
G1 X152.847 Y132.980 E2.1203
G1 X148.327 Y132.980 E2.3909
G1 X147.930 Y132.816 E2.4166
G1 X146.684 Y131.570 E2.5221
G1 X146.520 Y131.173 E2.5478
G1 X146.520 Y108.980 E3.8765
G1 X132.917 Y108.980 E4.6909
G1 X132.500 Y108.563 E4.7262
G1 X132.083 Y108.980 E4.7614
G1 X122.917 Y108.980 E5.3102
G1 X122.500 Y108.563 E5.3455
G1 X122.083 Y108.980 E5.3808
G1 X108.480 Y108.980 E6.1952
G1 X108.480 Y131.173 E7.5239
G1 X108.316 Y131.570 E7.5496
G1 X107.070 Y132.816 E7.6550
G1 X106.673 Y132.980 E7.6807
G1 X102.153 Y132.980 E7.9514
G1 X101.520 Y132.347 E8.0050
G1 X101.520 Y97.827 E10.0716
G1 X101.684 Y97.430 E10.0974
