; G-Code generated by Simplify3D(R) Version 4.1.2
; Oct 24, 2019 at 11:58:47 PM
; Settings Summary
;   processName,Process1
;   applyToModels,z-platte-zwinge,z-platte-zwinge(2)
;   profileName,HBot
;   profileVersion,2019-10-21 20:03:51
;   baseProfile,Default
;   printMaterial,PLA
;   printQuality,Fast
;   printExtruders,
;   extruderName,Extruder 1
;   extruderToolheadNumber,0
;   extruderDiameter,0.4
;   extruderAutoWidth,0
;   extruderWidth,0.4
;   extrusionMultiplier,0.9
;   extruderUseRetract,1
;   extruderRetractionDistance,2
;   extruderExtraRestartDistance,0
;   extruderRetractionZLift,0
;   extruderRetractionSpeed,1800
;   extruderUseCoasting,0
;   extruderCoastingDistance,0.2
;   extruderUseWipe,0
;   extruderWipeDistance,5
;   primaryExtruder,0
;   layerHeight,0.24
;   topSolidLayers,3
;   bottomSolidLayers,3
;   perimeterOutlines,3
;   printPerimetersInsideOut,1
;   startPointOption,2
;   startPointOriginX,0
;   startPointOriginY,0
;   sequentialIslands,0
;   spiralVaseMode,0
;   firstLayerHeightPercentage,90
;   firstLayerWidthPercentage,110
;   firstLayerUnderspeed,0.5
;   useRaft,0
;   raftExtruder,0
;   raftTopLayers,3
;   raftBaseLayers,2
;   raftOffset,3
;   raftSeparationDistance,0.14
;   raftTopInfill,100
;   aboveRaftSpeedMultiplier,0.3
;   useSkirt,1
;   skirtExtruder,0
;   skirtLayers,1
;   skirtOutlines,3
;   skirtOffset,4
;   usePrimePillar,0
;   primePillarExtruder,999
;   primePillarWidth,12
;   primePillarLocation,7
;   primePillarSpeedMultiplier,1
;   useOozeShield,0
;   oozeShieldExtruder,999
;   oozeShieldOffset,2
;   oozeShieldOutlines,1
;   oozeShieldSidewallShape,1
;   oozeShieldSidewallAngle,30
;   oozeShieldSpeedMultiplier,1
;   infillExtruder,0
;   internalInfillPattern,Rectilinear
;   externalInfillPattern,Rectilinear
;   infillPercentage,15
;   outlineOverlapPercentage,15
;   infillExtrusionWidthPercentage,100
;   minInfillLength,5
;   infillLayerInterval,1
;   internalInfillAngles,45,-45
;   overlapInternalInfillAngles,0
;   externalInfillAngles,45,-45
;   generateSupport,0
;   supportExtruder,0
;   supportInfillPercentage,25
;   supportExtraInflation,0
;   supportBaseLayers,0
;   denseSupportExtruder,0
;   denseSupportLayers,0
;   denseSupportInfillPercentage,70
;   supportLayerInterval,1
;   supportHorizontalPartOffset,0.3
;   supportUpperSeparationLayers,1
;   supportLowerSeparationLayers,1
;   supportType,0
;   supportGridSpacing,4
;   maxOverhangAngle,45
;   supportAngles,0
;   temperatureName,Extruder 1
;   temperatureNumber,0
;   temperatureSetpointCount,1
;   temperatureSetpointLayers,1
;   temperatureSetpointTemperatures,214
;   temperatureStabilizeAtStartup,1
;   temperatureHeatedBed,0
;   fanLayers,1,2,5
;   fanSpeeds,0,20,60
;   blipFanToFullPower,1
;   adjustSpeedForCooling,1
;   minSpeedLayerTime,15
;   minCoolingSpeedSlowdown,20
;   increaseFanForCooling,1
;   minFanLayerTime,45
;   maxCoolingFanSpeed,100
;   increaseFanForBridging,1
;   bridgingFanSpeed,100
;   use5D,1
;   relativeEdistances,0
;   allowEaxisZeroing,1
;   independentExtruderAxes,0
;   includeM10123,0
;   stickySupport,1
;   applyToolheadOffsets,0
;   gcodeXoffset,0
;   gcodeYoffset,0
;   gcodeZoffset,0
;   overrideMachineDefinition,1
;   machineTypeOverride,0
;   strokeXoverride,200
;   strokeYoverride,200
;   strokeZoverride,200
;   originOffsetXoverride,0
;   originOffsetYoverride,0
;   originOffsetZoverride,0
;   homeXdirOverride,-1
;   homeYdirOverride,-1
;   homeZdirOverride,-1
;   flipXoverride,1
;   flipYoverride,-1
;   flipZoverride,1
;   toolheadOffsets,0,0|0,0|0,0|0,0|0,0|0,0
;   overrideFirmwareConfiguration,1
;   firmwareTypeOverride,RepRap (Marlin/Repetier/Sprinter)
;   GPXconfigOverride,r2
;   baudRateOverride,115200
;   overridePrinterModels,0
;   printerModelsOverride
;   startingGcode,G28 ; home all axes
;   layerChangeGcode,
;   retractionGcode,
;   toolChangeGcode,
;   endingGcode,G1 Z200,G91,G1 E-5.0 F240 ; retract 5mm,G90,M104 S0 ; turn off extruder,;M140 S0 ; turn off bed,G1 X100.0 Y100.0,M107 ; disable part cooling fan,M84 ; disable motors
;   exportFileFormat,gcode
;   celebration,0
;   celebrationSong,Random Song
;   postProcessing,
;   defaultSpeed,6000
;   outlineUnderspeed,0.5
;   solidInfillUnderspeed,0.8
;   supportUnderspeed,0.8
;   rapidXYspeed,18000
;   rapidZspeed,1200
;   minBridgingArea,50
;   bridgingExtraInflation,0
;   bridgingExtrusionMultiplier,1
;   bridgingSpeedMultiplier,1
;   useFixedBridgingAngle,0
;   fixedBridgingAngle,0
;   applyBridgingToPerimeters,0
;   filamentDiameters,1.75|1.75|1.75|1.75|1.75|1.75
;   filamentPricesPerKg,46|46|46|46|46|46
;   filamentDensities,1.25|1.25|1.25|1.25|1.25|1.25
;   useMinPrintHeight,0
;   minPrintHeight,0
;   useMaxPrintHeight,0
;   maxPrintHeight,0
;   useDiaphragm,0
;   diaphragmLayerInterval,20
;   robustSlicing,1
;   mergeAllIntoSolid,0
;   onlyRetractWhenCrossingOutline,1
;   retractBetweenLayers,1
;   useRetractionMinTravel,0
;   retractionMinTravel,3
;   retractWhileWiping,0
;   onlyWipeOutlines,1
;   avoidCrossingOutline,0
;   maxMovementDetourFactor,3
;   toolChangeRetractionDistance,12
;   toolChangeExtraRestartDistance,-0.5
;   toolChangeRetractionSpeed,600
;   externalThinWallType,0
;   internalThinWallType,2
;   thinWallAllowedOverlapPercentage,10
;   singleExtrusionMinLength,1
;   singleExtrusionMinPrintingWidthPercentage,50
;   singleExtrusionMaxPrintingWidthPercentage,200
;   singleExtrusionEndpointExtension,0.2
;   horizontalSizeCompensation,0
G90
M82
M106 S0
M104 S214 T0
M109 S214 T0
G28 ; home all axes
; process Process1
; layer 1, Z = 0.216
T0
G92 E0.0000
G1 E-2.0000 F1800
; feature skirt
; tool H0.216 W0.440
G1 Z0.216 F1200
G1 X53.747 Y12.879 F18000
G1 E0.0000 F1800
G92 E0.0000
G1 X56.735 Y9.891 E0.1502 F3000
G1 X100.960 Y9.891 E1.7230
G1 X101.144 Y10.076 E1.7322
G1 X143.696 Y10.075 E3.2454
G1 X146.683 Y13.063 E3.3957
G1 X146.683 Y37.288 E4.2572
G1 X143.696 Y40.275 E4.4074
G1 X126.683 Y40.275 E5.0124
G1 X126.683 Y145.075 E8.7393
G1 X143.696 Y145.075 E9.3443
G1 X146.683 Y148.063 E9.4945
G1 X146.683 Y172.288 E10.3560
G1 X143.696 Y175.275 E10.5063
G1 X99.471 Y175.275 E12.0790
G1 X99.286 Y175.091 E12.0882
G1 X56.735 Y175.091 E13.6014
G1 X53.747 Y172.104 E13.7517
G1 X53.747 Y147.879 E14.6132
G1 X56.735 Y144.891 E14.7634
G1 X73.747 Y144.891 E15.3684
G1 X73.747 Y40.091 E19.0953
G1 X56.735 Y40.091 E19.7003
G1 X53.747 Y37.104 E19.8505
G1 X53.747 Y12.879 E20.7120
G92 E0.0000
G1 E-2.0000 F1800
G1 X54.187 Y13.061 F18000
G1 E0.0000 F1800
G92 E0.0000
G1 X56.917 Y10.331 E0.1373 F3000
G1 X100.778 Y10.331 E1.6970
G1 X100.962 Y10.516 E1.7063
G1 X143.513 Y10.515 E3.2195
G1 X146.243 Y13.245 E3.3568
G1 X146.243 Y37.106 E4.2053
G1 X143.514 Y39.835 E4.3426
G1 X126.243 Y39.835 E4.9568
G1 X126.243 Y145.515 E8.7149
G1 X143.513 Y145.515 E9.3291
G1 X146.243 Y148.245 E9.4664
G1 X146.243 Y172.106 E10.3149
G1 X143.513 Y174.835 E10.4522
G1 X99.653 Y174.835 E12.0119
G1 X99.469 Y174.651 E12.0212
G1 X56.917 Y174.651 E13.5344
G1 X54.187 Y171.921 E13.6717
G1 X54.187 Y148.061 E14.5202
G1 X56.917 Y145.331 E14.6575
G1 X74.187 Y145.331 E15.2717
G1 X74.187 Y39.651 E19.0298
G1 X56.917 Y39.651 E19.6440
G1 X54.187 Y36.921 E19.7813
G1 X54.187 Y13.061 E20.6298
G92 E0.0000
G1 E-2.0000 F1800
G1 X54.627 Y13.243 F18000
G1 E0.0000 F1800
G92 E0.0000
G1 X57.099 Y10.771 E0.1243 F3000
G1 X100.595 Y10.771 E1.6711
G1 X100.780 Y10.956 E1.6804
G1 X143.331 Y10.955 E3.1936
G1 X145.803 Y13.428 E3.3179
G1 X145.803 Y36.923 E4.1535
G1 X143.331 Y39.395 E4.2778
G1 X125.803 Y39.395 E4.9011
G1 X125.803 Y145.955 E8.6906
G1 X143.331 Y145.955 E9.3139
G1 X145.803 Y148.428 E9.4382
G1 X145.803 Y171.923 E10.2738
G1 X143.331 Y174.395 E10.3981
G1 X99.835 Y174.395 E11.9449
G1 X99.651 Y174.211 E11.9542
G1 X57.099 Y174.211 E13.4674
G1 X54.627 Y171.739 E13.5917
G1 X54.627 Y148.243 E14.4273
G1 X57.099 Y145.771 E14.5516
G1 X74.627 Y145.771 E15.1749
G1 X74.627 Y39.211 E18.9644
G1 X57.099 Y39.211 E19.5877
G1 X54.627 Y36.739 E19.7120
G1 X54.627 Y13.243 E20.5476
G92 E0.0000
G1 E-2.0000 F1800
; feature inner perimeter
G1 X59.947 Y16.091 F18000
G1 E0.0000 F1800
G92 E0.0000
G1 X97.747 Y16.091 E1.3442 F2250
G1 X97.747 Y168.891 E6.7781
G1 X59.947 Y168.891 E8.1223
G1 X59.947 Y151.091 E8.7553
G1 X79.947 Y151.091 E9.4665
G1 X79.947 Y33.891 E13.6344
G1 X59.947 Y33.891 E14.3456
G1 X59.947 Y16.091 E14.9786
G1 X59.507 Y15.651 F18000
G92 E0.0000
G1 X98.187 Y15.651 E1.3755 F2250
G1 X98.187 Y169.331 E6.8407
G1 X59.507 Y169.331 E8.2162
G1 X59.507 Y150.651 E8.8805
G1 X79.507 Y150.651 E9.5917
G1 X79.507 Y34.331 E13.7282
G1 X59.507 Y34.331 E14.4395
G1 X59.507 Y15.651 E15.1038
; feature outer perimeter
G1 X59.067 Y15.211 F18000
G92 E0.0000
G1 X98.627 Y15.211 E1.4068 F1500
G1 X98.627 Y169.771 E6.9032
G1 X59.067 Y169.771 E8.3101
G1 X59.067 Y150.211 E9.0057
G1 X79.067 Y150.211 E9.7169
G1 X79.067 Y34.771 E13.8221
G1 X59.067 Y34.771 E14.5334
G1 X59.067 Y15.211 E15.2290
; feature solid layer
G1 X60.439 Y33.517 F18000
G92 E0.0000
G1 X60.321 Y33.399 E0.0059 F2400
G1 X60.321 Y32.777 E0.0280
G1 X61.061 Y33.517 E0.0653
G1 X61.684 Y33.517 E0.0874
G1 X60.321 Y32.155 E0.1559
G1 X60.321 Y31.533 E0.1780
G1 X62.306 Y33.517 E0.2778
G1 X62.928 Y33.517 E0.2999
G1 X60.321 Y30.910 E0.4310
G1 X60.321 Y30.288 E0.4532
G1 X63.550 Y33.517 E0.6156
G1 X64.173 Y33.517 E0.6377
G1 X60.321 Y29.666 E0.8314
G1 X60.321 Y29.044 E0.8535
G1 X64.795 Y33.517 E1.0785
G1 X65.417 Y33.517 E1.1006
G1 X60.321 Y28.421 E1.3569
G1 X60.321 Y27.799 E1.3790
G1 X66.039 Y33.517 E1.6666
G1 X66.662 Y33.517 E1.6887
G1 X60.321 Y27.177 E2.0076
G1 X60.321 Y26.555 E2.0297
G1 X67.284 Y33.517 E2.3798
G1 X67.906 Y33.517 E2.4020
G1 X60.321 Y25.932 E2.7834
G1 X60.321 Y25.310 E2.8055
G1 X68.528 Y33.517 E3.2183
G1 X69.151 Y33.517 E3.2404
G1 X60.321 Y24.688 E3.6845
G1 X60.321 Y24.066 E3.7066
G1 X69.773 Y33.517 E4.1819
G1 X70.395 Y33.517 E4.2040
G1 X60.321 Y23.443 E4.7107
G1 X60.321 Y22.821 E4.7328
G1 X71.017 Y33.517 E5.2707
G1 X71.640 Y33.517 E5.2928
G1 X60.321 Y22.199 E5.8621
G1 X60.321 Y21.577 E5.8842
G1 X72.262 Y33.517 E6.4847
G1 X72.884 Y33.517 E6.5068
G1 X60.321 Y20.954 E7.1386
G1 X60.321 Y20.332 E7.1608
G1 X73.506 Y33.517 E7.8239
G1 X74.129 Y33.517 E7.8460
G1 X60.321 Y19.710 E8.5404
G1 X60.321 Y19.088 E8.5625
G1 X74.751 Y33.517 E9.2882
G1 X75.373 Y33.517 E9.3103
G1 X60.321 Y18.465 E10.0673
G1 X60.321 Y17.843 E10.0894
G1 X75.995 Y33.517 E10.8777
G1 X76.618 Y33.517 E10.8998
G1 X60.321 Y17.221 E11.7194
G1 X60.321 Y16.599 E11.7415
G1 X77.240 Y33.517 E12.5924
G1 X77.862 Y33.517 E12.6145
G1 X60.810 Y16.465 E13.4721
G1 X61.432 Y16.465 E13.4942
G1 X78.484 Y33.517 E14.3518
G1 X79.107 Y33.517 E14.3739
G1 X62.055 Y16.465 E15.2315
G1 X62.677 Y16.465 E15.2536
G1 X79.729 Y33.517 E16.1112
G1 X80.321 Y33.517 E16.1323
G1 X80.321 Y34.110 E16.1534
G1 X97.373 Y51.162 E17.0109
G1 X97.373 Y50.539 E17.0331
G1 X63.299 Y16.465 E18.7467
G1 X63.921 Y16.465 E18.7688
G1 X97.373 Y49.917 E20.4512
G1 X97.373 Y49.295 E20.4733
G1 X64.544 Y16.465 E22.1244
G1 X65.166 Y16.465 E22.1465
G1 X97.373 Y48.673 E23.7663
G1 X97.373 Y48.050 E23.7884
G1 X65.788 Y16.465 E25.3769
G1 X66.410 Y16.465 E25.3990
G1 X97.373 Y47.428 E26.9562
G1 X97.373 Y46.806 E26.9784
G1 X67.033 Y16.465 E28.5042
G1 X67.655 Y16.465 E28.5264
G1 X97.373 Y46.184 E30.0210
G1 X97.373 Y45.561 E30.0431
G1 X68.277 Y16.465 E31.5064
G1 X68.899 Y16.465 E31.5285
G1 X97.373 Y44.939 E32.9605
G1 X97.373 Y44.317 E32.9827
G1 X69.522 Y16.465 E34.3834
G1 X70.144 Y16.465 E34.4055
G1 X97.373 Y43.695 E35.7749
G1 X97.373 Y43.072 E35.7971
G1 X70.766 Y16.465 E37.1352
G1 X71.388 Y16.465 E37.1573
G1 X97.373 Y42.450 E38.4641
G1 X97.373 Y41.828 E38.4863
G1 X72.011 Y16.465 E39.7618
G1 X72.633 Y16.465 E39.7839
G1 X97.373 Y41.206 E41.0282
G1 X97.373 Y40.583 E41.0503
G1 X73.255 Y16.465 E42.2632
G1 X73.877 Y16.465 E42.2854
G1 X97.373 Y39.961 E43.4670
G1 X97.373 Y39.339 E43.4892
G1 X74.500 Y16.465 E44.6395
G1 X75.122 Y16.465 E44.6616
G1 X97.373 Y38.717 E45.7807
G1 X97.373 Y38.094 E45.8028
G1 X75.744 Y16.465 E46.8906
G1 X76.367 Y16.465 E46.9127
G1 X97.373 Y37.472 E47.9692
G1 X97.373 Y36.850 E47.9913
G1 X76.989 Y16.465 E49.0165
G1 X77.611 Y16.465 E49.0386
G1 X97.373 Y36.227 E50.0325
G1 X97.373 Y35.605 E50.0547
G1 X78.233 Y16.465 E51.0172
G1 X78.856 Y16.465 E51.0394
G1 X97.373 Y34.983 E51.9707
G1 X97.373 Y34.361 E51.9928
G1 X79.478 Y16.465 E52.8928
G1 X80.100 Y16.465 E52.9149
G1 X97.373 Y33.738 E53.7836
G1 X97.373 Y33.116 E53.8058
G1 X80.722 Y16.465 E54.6432
G1 X81.345 Y16.465 E54.6653
G1 X97.373 Y32.494 E55.4714
G1 X97.373 Y31.872 E55.4936
G1 X81.967 Y16.465 E56.2684
G1 X82.589 Y16.465 E56.2905
G1 X97.373 Y31.249 E57.0341
G1 X97.373 Y30.627 E57.0562
G1 X83.211 Y16.465 E57.7684
G1 X83.834 Y16.465 E57.7905
G1 X97.373 Y30.005 E58.4715
G1 X97.373 Y29.383 E58.4936
G1 X84.456 Y16.465 E59.1433
G1 X85.078 Y16.465 E59.1654
G1 X97.373 Y28.760 E59.7837
G1 X97.373 Y28.138 E59.8059
G1 X85.700 Y16.465 E60.3929
G1 X86.323 Y16.465 E60.4151
G1 X97.373 Y27.516 E60.9708
G1 X97.373 Y26.894 E60.9930
G1 X86.945 Y16.465 E61.5174
G1 X87.567 Y16.465 E61.5396
G1 X97.373 Y26.271 E62.0327
G1 X97.373 Y25.649 E62.0549
G1 X88.189 Y16.465 E62.5167
G1 X88.812 Y16.465 E62.5389
G1 X97.373 Y25.027 E62.9695
G1 X97.373 Y24.405 E62.9916
G1 X89.434 Y16.465 E63.3909
G1 X90.056 Y16.465 E63.4130
G1 X97.373 Y23.782 E63.7810
G1 X97.373 Y23.160 E63.8031
G1 X90.678 Y16.465 E64.1399
G1 X91.301 Y16.465 E64.1620
G1 X97.373 Y22.538 E64.4674
G1 X97.373 Y21.916 E64.4895
G1 X91.923 Y16.465 E64.7636
G1 X92.545 Y16.465 E64.7858
G1 X97.373 Y21.293 E65.0286
G1 X97.373 Y20.671 E65.0507
G1 X93.167 Y16.465 E65.2622
G1 X93.790 Y16.465 E65.2844
G1 X97.373 Y20.049 E65.4646
G1 X97.373 Y19.427 E65.4867
G1 X94.412 Y16.465 E65.6357
G1 X95.034 Y16.465 E65.6578
G1 X97.373 Y18.804 E65.7754
G1 X97.373 Y18.182 E65.7976
G1 X95.656 Y16.465 E65.8839
G1 X96.279 Y16.465 E65.9061
G1 X97.373 Y17.560 E65.9611
G1 X97.373 Y16.938 E65.9832
G1 X96.901 Y16.465 E66.0070
G1 X80.321 Y34.732 F18000
G92 E0.0000
G1 X97.373 Y51.784 E0.8576 F2400
G1 X97.373 Y52.406 E0.8797
G1 X80.321 Y35.354 E1.7373
G1 X80.321 Y35.976 E1.7594
G1 X97.373 Y53.028 E2.6170
G1 X97.373 Y53.651 E2.6391
G1 X80.321 Y36.599 E3.4967
G1 X80.321 Y37.221 E3.5188
G1 X97.373 Y54.273 E4.3764
G1 X97.373 Y54.895 E4.3985
G1 X80.321 Y37.843 E5.2561
G1 X80.321 Y38.465 E5.2782
G1 X97.373 Y55.517 E6.1358
G1 X97.373 Y56.140 E6.1579
G1 X80.321 Y39.088 E7.0155
G1 X80.321 Y39.710 E7.0376
G1 X97.373 Y56.762 E7.8952
G1 X97.373 Y57.384 E7.9173
G1 X80.321 Y40.332 E8.7749
G1 X80.321 Y40.954 E8.7971
G1 X97.373 Y58.006 E9.6546
G1 X97.373 Y58.629 E9.6768
G1 X80.321 Y41.577 E10.5343
G1 X80.321 Y42.199 E10.5565
G1 X97.373 Y59.251 E11.4140
G1 X97.373 Y59.873 E11.4362
G1 X80.321 Y42.821 E12.2937
G1 X80.321 Y43.443 E12.3159
G1 X97.373 Y60.495 E13.1735
G1 X97.373 Y61.118 E13.1956
G1 X80.321 Y44.066 E14.0532
G1 X80.321 Y44.688 E14.0753
G1 X97.373 Y61.740 E14.9329
G1 X97.373 Y62.362 E14.9550
G1 X80.321 Y45.310 E15.8126
G1 X80.321 Y45.932 E15.8347
G1 X97.373 Y62.984 E16.6923
G1 X97.373 Y63.607 E16.7144
G1 X80.321 Y46.555 E17.5720
G1 X80.321 Y47.177 E17.5941
G1 X97.373 Y64.229 E18.4517
G1 X97.373 Y64.851 E18.4738
G1 X80.321 Y47.799 E19.3314
G1 X80.321 Y48.421 E19.3535
G1 X97.373 Y65.473 E20.2111
G1 X97.373 Y66.096 E20.2332
G1 X80.321 Y49.044 E21.0908
G1 X80.321 Y49.666 E21.1129
G1 X97.373 Y66.718 E21.9705
G1 X97.373 Y67.340 E21.9926
G1 X80.321 Y50.288 E22.8502
G1 X80.321 Y50.910 E22.8723
G1 X97.373 Y67.962 E23.7299
G1 X97.373 Y68.585 E23.7520
G1 X80.321 Y51.533 E24.6096
G1 X80.321 Y52.155 E24.6317
G1 X97.373 Y69.207 E25.4893
G1 X97.373 Y69.829 E25.5115
G1 X80.321 Y52.777 E26.3690
G1 X80.321 Y53.399 E26.3912
G1 X97.373 Y70.451 E27.2487
G1 X97.373 Y71.074 E27.2709
G1 X80.321 Y54.022 E28.1284
G1 X80.321 Y54.644 E28.1506
G1 X97.373 Y71.696 E29.0081
G1 X97.373 Y72.318 E29.0303
G1 X80.321 Y55.266 E29.8879
G1 X80.321 Y55.888 E29.9100
G1 X97.373 Y72.940 E30.7676
G1 X97.373 Y73.563 E30.7897
G1 X80.321 Y56.511 E31.6473
G1 X80.321 Y57.133 E31.6694
G1 X97.373 Y74.185 E32.5270
G1 X97.373 Y74.807 E32.5491
G1 X80.321 Y57.755 E33.4067
G1 X80.321 Y58.378 E33.4288
G1 X97.373 Y75.429 E34.2864
