; G-Code generated by Simplify3D(R) Version 4.1.2
; Nov 13, 2019 at 6:38:15 PM
; Settings Summary
;   processName,Process1
;   applyToModels,z-schlitten-halterung-v2
;   profileName,HBot (modified)
;   profileVersion,2019-10-26 23:38:43
;   baseProfile,Default
;   printMaterial,PLA
;   printQuality,Fast
;   printExtruders,
;   extruderName,Extruder 1
;   extruderToolheadNumber,0
;   extruderDiameter,0.4
;   extruderAutoWidth,1
;   extruderWidth,0.48
;   extrusionMultiplier,0.94
;   extruderUseRetract,1
;   extruderRetractionDistance,3
;   extruderExtraRestartDistance,0
;   extruderRetractionZLift,0
;   extruderRetractionSpeed,3600
;   extruderUseCoasting,1
;   extruderCoastingDistance,0.2
;   extruderUseWipe,1
;   extruderWipeDistance,5
;   primaryExtruder,0
;   layerHeight,0.3
;   topSolidLayers,3
;   bottomSolidLayers,3
;   perimeterOutlines,3
;   printPerimetersInsideOut,1
;   startPointOption,2
;   startPointOriginX,0
;   startPointOriginY,0
;   sequentialIslands,0
;   spiralVaseMode,0
;   firstLayerHeightPercentage,100
;   firstLayerWidthPercentage,150
;   firstLayerUnderspeed,0.5
;   useRaft,0
;   raftExtruder,0
;   raftTopLayers,3
;   raftBaseLayers,2
;   raftOffset,3
;   raftSeparationDistance,0.18
;   raftTopInfill,100
;   aboveRaftSpeedMultiplier,0.3
;   useSkirt,0
;   skirtExtruder,0
;   skirtLayers,1
;   skirtOutlines,3
;   skirtOffset,4
;   usePrimePillar,0
;   primePillarExtruder,999
;   primePillarWidth,12
;   primePillarLocation,7
;   primePillarSpeedMultiplier,1
;   useOozeShield,0
;   oozeShieldExtruder,999
;   oozeShieldOffset,2
;   oozeShieldOutlines,1
;   oozeShieldSidewallShape,1
;   oozeShieldSidewallAngle,30
;   oozeShieldSpeedMultiplier,1
;   infillExtruder,0
;   internalInfillPattern,Fast Honeycomb
;   externalInfillPattern,Rectilinear
;   infillPercentage,15
;   outlineOverlapPercentage,15
;   infillExtrusionWidthPercentage,150
;   minInfillLength,5
;   infillLayerInterval,1
;   internalInfillAngles,0
;   overlapInternalInfillAngles,0
;   externalInfillAngles,45,-45
;   generateSupport,0
;   supportExtruder,0
;   supportInfillPercentage,25
;   supportExtraInflation,0
;   supportBaseLayers,1
;   denseSupportExtruder,0
;   denseSupportLayers,0
;   denseSupportInfillPercentage,70
;   supportLayerInterval,1
;   supportHorizontalPartOffset,0.3
;   supportUpperSeparationLayers,1
;   supportLowerSeparationLayers,1
;   supportType,0
;   supportGridSpacing,4
;   maxOverhangAngle,45
;   supportAngles,0
;   temperatureName,Extruder 1
;   temperatureNumber,0
;   temperatureSetpointCount,2
;   temperatureSetpointLayers,1,2
;   temperatureSetpointTemperatures,220,210
;   temperatureStabilizeAtStartup,1
;   temperatureHeatedBed,0
;   fanLayers,1,2,3
;   fanSpeeds,0,15,25
;   blipFanToFullPower,1
;   adjustSpeedForCooling,1
;   minSpeedLayerTime,15
;   minCoolingSpeedSlowdown,20
;   increaseFanForCooling,0
;   minFanLayerTime,45
;   maxCoolingFanSpeed,40
;   increaseFanForBridging,0
;   bridgingFanSpeed,80
;   use5D,1
;   relativeEdistances,0
;   allowEaxisZeroing,1
;   independentExtruderAxes,0
;   includeM10123,0
;   stickySupport,1
;   applyToolheadOffsets,0
;   gcodeXoffset,0
;   gcodeYoffset,0
;   gcodeZoffset,0
;   overrideMachineDefinition,1
;   machineTypeOverride,0
;   strokeXoverride,200
;   strokeYoverride,200
;   strokeZoverride,150
;   originOffsetXoverride,0
;   originOffsetYoverride,0
;   originOffsetZoverride,0
;   homeXdirOverride,-1
;   homeYdirOverride,-1
;   homeZdirOverride,-1
;   flipXoverride,1
;   flipYoverride,-1
;   flipZoverride,1
;   toolheadOffsets,0,0|0,0|0,0|0,0|0,0|0,0
;   overrideFirmwareConfiguration,1
;   firmwareTypeOverride,RepRap (Marlin/Repetier/Sprinter)
;   GPXconfigOverride,r2
;   baudRateOverride,115200
;   overridePrinterModels,0
;   printerModelsOverride
;   startingGcode,G28 ; home all axes,G32 ; run bed.g -- probe bed and enable compensation
;   layerChangeGcode,
;   retractionGcode,
;   toolChangeGcode,
;   endingGcode,M0 ; call stop.g
;   exportFileFormat,gcode
;   celebration,0
;   celebrationSong,Random Song
;   postProcessing,
;   defaultSpeed,3600
;   outlineUnderspeed,0.5
;   solidInfillUnderspeed,0.8
;   supportUnderspeed,0.8
;   rapidXYspeed,18000
;   rapidZspeed,1200
;   minBridgingArea,50
;   bridgingExtraInflation,0
;   bridgingExtrusionMultiplier,0.96
;   bridgingSpeedMultiplier,1
;   useFixedBridgingAngle,0
;   fixedBridgingAngle,0
;   applyBridgingToPerimeters,0
;   filamentDiameters,1.75|1.75|1.75|1.75|1.75|1.75
;   filamentPricesPerKg,46|46|46|46|46|46
;   filamentDensities,1.25|1.25|1.25|1.25|1.25|1.25
;   useMinPrintHeight,0
;   minPrintHeight,0
;   useMaxPrintHeight,0
;   maxPrintHeight,0
;   useDiaphragm,1
;   diaphragmLayerInterval,20
;   robustSlicing,1
;   mergeAllIntoSolid,0
;   onlyRetractWhenCrossingOutline,1
;   retractBetweenLayers,0
;   useRetractionMinTravel,1
;   retractionMinTravel,3
;   retractWhileWiping,1
;   onlyWipeOutlines,0
;   avoidCrossingOutline,1
;   maxMovementDetourFactor,3
;   toolChangeRetractionDistance,12
;   toolChangeExtraRestartDistance,-0.5
;   toolChangeRetractionSpeed,600
;   externalThinWallType,1
;   internalThinWallType,1
;   thinWallAllowedOverlapPercentage,10
;   singleExtrusionMinLength,1
;   singleExtrusionMinPrintingWidthPercentage,50
;   singleExtrusionMaxPrintingWidthPercentage,200
;   singleExtrusionEndpointExtension,0.2
;   horizontalSizeCompensation,-0.1
G90
M82
M106 S0
M104 S220 T0
M109 S220 T0
G28 ; home all axes
G32 ; run bed.g -- probe bed and enable compensation
; process Process1
; layer 1, Z = 0.300
T0
G92 E0.0000
G1 E-3.0000 F3600
; feature inner perimeter
; tool H0.300 W0.720
G1 Z0.300 F1200
G1 X31.709 Y40.178 F18000
G1 E0.0000 F3600
G92 E0.0000
G1 X145.757 Y18.169 E9.8049 F1350
G1 X145.608 Y18.689 E9.8505
G1 X145.558 Y19.410 E9.9116
G1 X145.658 Y20.127 E9.9726
G1 X145.889 Y20.759 E10.0295
G1 X146.113 Y21.163 E10.0684
G1 X146.527 Y21.693 E10.1252
G1 X147.082 Y22.158 E10.1863
G1 X147.676 Y22.474 E10.2431
G1 X148.113 Y22.624 E10.2821
G1 X148.776 Y22.741 E10.3389
G1 X149.499 Y22.715 E10.4000
G1 X150.201 Y22.540 E10.4610
G1 X150.851 Y22.222 E10.5221
G1 X151.421 Y21.777 E10.5832
G1 X151.885 Y21.222 E10.6443
G1 X152.225 Y20.584 E10.7053
G1 X152.424 Y19.888 E10.7664
G1 X152.471 Y19.216 E10.8232
G1 X152.430 Y18.757 E10.8622
G1 X152.267 Y18.104 E10.9190
G1 X151.950 Y17.454 E10.9801
G1 X151.505 Y16.884 E11.0411
G1 X150.956 Y16.424 E11.1015
G1 X150.313 Y16.080 E11.1631
G1 X149.421 Y15.825 E11.2414
G1 X151.769 Y12.341 E11.5961
G1 X175.154 Y28.102 E13.9766
G1 X172.781 Y31.622 E14.3349
G1 X172.473 Y31.129 E14.3839
G1 X172.005 Y30.645 E14.4408
G1 X171.636 Y30.368 E14.4797
G1 X171.042 Y30.052 E14.5365
G1 X170.346 Y29.853 E14.5976
G1 X169.625 Y29.802 E14.6587
G1 X168.908 Y29.903 E14.7197
G1 X168.229 Y30.151 E14.7808
G1 X167.615 Y30.535 E14.8419
G1 X167.131 Y31.002 E14.8987
G1 X166.854 Y31.371 E14.9377
G1 X166.538 Y31.966 E14.9945
G1 X166.353 Y32.613 E15.0513
G1 X166.296 Y33.071 E15.0903
G1 X166.320 Y33.744 E15.1471
G1 X166.495 Y34.445 E15.2082
G1 X166.813 Y35.096 E15.2692
G1 X167.258 Y35.665 E15.3302
G1 X167.807 Y36.126 E15.3907
G1 X168.450 Y36.469 E15.4523
G1 X169.147 Y36.669 E15.5135
G1 X169.869 Y36.719 E15.5746
G1 X170.535 Y36.625 E15.6314
G1 X170.977 Y36.490 E15.6703
G1 X171.582 Y36.195 E15.7272
G1 X172.008 Y35.862 E15.7728
G1 X194.406 Y149.833 E25.5777
G1 X168.912 Y187.659 E29.4283
G1 X161.697 Y182.797 E30.1627
G1 X172.875 Y166.212 E31.8510
G1 X153.056 Y152.855 E33.8685
G1 X141.879 Y169.439 E35.5567
G1 X140.883 Y168.769 E35.6580
G1 X152.061 Y152.184 E37.3463
G1 X110.434 Y124.127 E41.5839
G1 X107.837 Y127.979 E41.9760
G1 X107.529 Y127.487 E42.0251
G1 X107.027 Y126.967 E42.0861
G1 X106.427 Y126.562 E42.1472
G1 X105.756 Y126.291 E42.2083
G1 X105.093 Y126.175 E42.2651
G1 X104.632 Y126.167 E42.3041
G1 X103.965 Y126.261 E42.3609
G1 X103.285 Y126.509 E42.4220
G1 X102.672 Y126.892 E42.4830
G1 X102.152 Y127.395 E42.5441
G1 X101.747 Y127.995 E42.6052
G1 X101.477 Y128.666 E42.6662
G1 X101.360 Y129.329 E42.7231
G1 X101.352 Y129.790 E42.7620
G1 X101.446 Y130.457 E42.8188
G1 X101.694 Y131.136 E42.8799
G1 X102.077 Y131.750 E42.9410
G1 X102.580 Y132.270 E43.0020
G1 X103.180 Y132.674 E43.0631
G1 X103.851 Y132.945 E43.1242
G1 X104.423 Y133.046 E43.1732
G1 X102.050 Y136.566 E43.5316
G1 X78.666 Y120.805 E45.9121
G1 X81.038 Y117.285 E46.2704
G1 X81.320 Y117.735 E46.3152
G1 X81.622 Y118.083 E46.3542
G1 X82.100 Y118.483 E46.4067
G1 X82.495 Y118.721 E46.4457
G1 X83.120 Y118.973 E46.5025
G1 X83.832 Y119.098 E46.5636
G1 X84.555 Y119.073 E46.6247
G1 X85.257 Y118.897 E46.6857
G1 X85.907 Y118.580 E46.7468
G1 X86.477 Y118.134 E46.8079
G1 X86.910 Y117.618 E46.8647
G1 X87.147 Y117.223 E46.9036
G1 X87.399 Y116.599 E46.9605
G1 X87.524 Y115.886 E47.0216
G1 X87.499 Y115.163 E47.0826
G1 X87.324 Y114.461 E47.1437
G1 X87.006 Y113.811 E47.2048
G1 X86.561 Y113.242 E47.2658
G1 X86.013 Y112.781 E47.3262
G1 X85.370 Y112.438 E47.3878
G1 X84.477 Y112.182 E47.4661
G1 X87.049 Y108.367 E47.8545
G1 X45.421 Y80.310 E52.0921
G1 X34.243 Y96.895 E53.7804
G1 X33.248 Y96.224 E53.8817
G1 X44.426 Y79.639 E55.5700
G1 X24.607 Y66.282 E57.5875
G1 X13.429 Y82.867 E59.2758
G1 X6.215 Y78.004 E60.0102
G1 X31.597 Y40.344 E63.8439
G1 X31.709 Y40.178 F1350
G1 X36.619 Y39.231 F1350
G1 X31.279 Y39.528 F18000
G92 E0.0000
G1 X147.051 Y17.186 E9.9531 F1350
G1 X146.478 Y18.264 E10.0562
G1 X146.321 Y18.814 E10.1045
G1 X146.281 Y19.385 E10.1528
G1 X146.361 Y19.951 E10.2011
G1 X146.546 Y20.460 E10.2467
G1 X146.715 Y20.764 E10.2761
G1 X147.048 Y21.190 E10.3218
G1 X147.486 Y21.558 E10.3701
G1 X147.964 Y21.811 E10.4157
G1 X148.293 Y21.925 E10.4451
G1 X148.826 Y22.018 E10.4907
G1 X149.398 Y21.998 E10.5391
G1 X149.953 Y21.859 E10.5873
G1 X150.467 Y21.609 E10.6356
G1 X150.918 Y21.256 E10.6839
G1 X151.285 Y20.818 E10.7322
G1 X151.553 Y20.313 E10.7805
G1 X151.711 Y19.763 E10.8288
G1 X151.748 Y19.223 E10.8745
G1 X151.718 Y18.876 E10.9038
G1 X151.587 Y18.351 E10.9495
G1 X151.336 Y17.837 E10.9978
G1 X150.984 Y17.387 E11.0460
G1 X150.550 Y17.023 E11.0938
G1 X150.041 Y16.751 E11.1425
G1 X149.490 Y16.593 E11.1910
G1 X148.919 Y16.554 E11.2392
G1 X147.971 Y16.687 E11.3201
G1 X151.574 Y11.341 E11.8642
G1 X176.153 Y27.907 E14.3663
G1 X172.609 Y33.166 E14.9016
G1 X172.206 Y32.060 E15.0009
G1 X171.903 Y31.575 E15.0492
G1 X171.527 Y31.186 E15.0949
G1 X171.249 Y30.977 E15.1243
G1 X170.771 Y30.723 E15.1699
G1 X170.221 Y30.566 E15.2182
G1 X169.650 Y30.526 E15.2665
G1 X169.084 Y30.606 E15.3148
G1 X168.546 Y30.802 E15.3631
G1 X168.061 Y31.105 E15.4114
G1 X167.672 Y31.481 E15.4570
G1 X167.463 Y31.759 E15.4864
G1 X167.209 Y32.237 E15.5321
G1 X167.060 Y32.757 E15.5777
G1 X167.018 Y33.102 E15.6071
G1 X167.037 Y33.643 E15.6528
G1 X167.176 Y34.198 E15.7011
G1 X167.427 Y34.712 E15.7493
G1 X167.779 Y35.162 E15.7976
G1 X168.212 Y35.526 E15.8454
G1 X168.721 Y35.798 E15.8941
G1 X169.273 Y35.956 E15.9425
G1 X169.843 Y35.996 E15.9908
G1 X170.379 Y35.920 E16.0365
G1 X170.712 Y35.818 E16.0658
G1 X171.198 Y35.581 E16.1115
G1 X171.648 Y35.229 E16.1598
G1 X172.433 Y34.293 E16.2629
G1 X195.170 Y149.988 E26.2160
G1 X169.106 Y188.659 E30.1526
G1 X160.698 Y182.992 E31.0085
G1 X171.876 Y166.407 E32.6968
G1 X153.251 Y153.854 E34.5928
G1 X142.073 Y170.439 E36.2811
G1 X139.884 Y168.963 E36.5039
G1 X151.062 Y152.379 E38.1922
G1 X110.628 Y125.127 E42.3082
G1 X107.665 Y129.523 E42.7558
G1 X107.262 Y128.418 E42.8551
G1 X106.959 Y127.933 E42.9034
G1 X106.562 Y127.521 E42.9517
G1 X106.087 Y127.202 E43.0000
G1 X105.557 Y126.987 E43.0483
G1 X105.024 Y126.894 E43.0939
G1 X104.676 Y126.888 E43.1233
G1 X104.140 Y126.963 E43.1689
G1 X103.603 Y127.159 E43.2172
G1 X103.118 Y127.463 E43.2655
G1 X102.706 Y127.860 E43.3138
G1 X102.387 Y128.335 E43.3621
G1 X102.173 Y128.865 E43.4104
G1 X102.079 Y129.398 E43.4561
G1 X102.073 Y129.746 E43.4854
G1 X102.148 Y130.281 E43.5311
G1 X102.344 Y130.819 E43.5794
G1 X102.647 Y131.304 E43.6277
G1 X103.045 Y131.715 E43.6760
G1 X103.519 Y132.035 E43.7243
G1 X104.050 Y132.249 E43.7726
G1 X104.583 Y132.343 E43.8182
G1 X104.931 Y132.349 E43.8476
G1 X105.848 Y132.219 E43.9258
G1 X102.245 Y137.565 E44.4700
G1 X77.666 Y121.000 E46.9721
G1 X81.210 Y115.741 E47.5074
G1 X81.613 Y116.846 E47.6067
G1 X81.900 Y117.305 E47.6524
G1 X82.128 Y117.568 E47.6817
G1 X82.519 Y117.895 E47.7247
G1 X82.817 Y118.074 E47.7541
G1 X83.319 Y118.277 E47.7998
G1 X83.882 Y118.376 E47.8481
G1 X84.454 Y118.356 E47.8964
G1 X85.009 Y118.217 E47.9447
G1 X85.523 Y117.966 E47.9930
G1 X85.974 Y117.614 E48.0413
G1 X86.322 Y117.199 E48.0869
G1 X86.501 Y116.901 E48.1163
G1 X86.703 Y116.399 E48.1620
G1 X86.802 Y115.836 E48.2102
G1 X86.782 Y115.264 E48.2585
G1 X86.643 Y114.709 E48.3068
G1 X86.392 Y114.195 E48.3551
G1 X86.040 Y113.745 E48.4034
G1 X85.607 Y113.381 E48.4511
G1 X85.098 Y113.109 E48.4999
G1 X84.547 Y112.951 E48.5483
G1 X83.976 Y112.911 E48.5966
G1 X83.028 Y113.045 E48.6774
G1 X86.050 Y108.561 E49.1338
G1 X45.616 Y81.310 E53.2499
G1 X34.438 Y97.894 E54.9381
G1 X32.249 Y96.419 E55.1610
G1 X43.427 Y79.834 E56.8493
G1 X24.802 Y67.281 E58.7452
G1 X13.624 Y83.866 E60.4335
G1 X5.216 Y78.199 E61.2895
G1 X31.167 Y39.694 E65.2092
G1 X31.279 Y39.528 F1350
G1 X36.189 Y38.580 F1350
; feature outer perimeter
G1 X30.849 Y38.878 F18000
G92 E0.0000
G1 X147.293 Y16.406 E10.0108 F900
G1 X151.380 Y10.342 E10.6281
G1 X177.152 Y27.712 E13.2517
G1 X173.065 Y33.776 E13.8691
G1 X195.934 Y150.142 E23.8799
G1 X169.301 Y189.658 E27.9025
G1 X159.698 Y183.186 E28.8800
G1 X170.876 Y166.601 E30.5683
G1 X153.446 Y154.853 E32.3427
G1 X142.268 Y171.438 E34.0310
G1 X138.885 Y169.158 E34.3754
G1 X150.062 Y152.573 E36.0637
G1 X110.823 Y126.126 E40.0581
G1 X102.439 Y138.565 E41.3244
G1 X76.667 Y121.194 E43.9480
G1 X85.050 Y108.756 E45.2142
G1 X45.811 Y82.309 E49.2087
G1 X34.633 Y98.894 E50.8969
G1 X31.249 Y96.613 E51.2414
G1 X42.427 Y80.029 E52.9296
G1 X24.997 Y68.281 E54.7040
G1 X13.819 Y84.866 E56.3923
G1 X4.216 Y78.394 E57.3698
G1 X30.738 Y39.043 E61.3756
G1 X30.849 Y38.878 F900
G1 X35.759 Y37.930 F900
; feature inner perimeter
G1 X37.643 Y55.532 F18000
G92 E0.0000
G1 X94.726 Y94.004 E5.8108 F1350
G1 X94.637 Y94.315 E5.8381
G1 X94.586 Y95.037 E5.8992
G1 X94.687 Y95.753 E5.9602
G1 X94.935 Y96.433 E6.0213
G1 X95.292 Y97.004 E6.0781
G1 X95.595 Y97.352 E6.1171
G1 X96.072 Y97.752 E6.1697
G1 X96.468 Y97.990 E6.2086
G1 X97.092 Y98.242 E6.2655
G1 X97.805 Y98.367 E6.3265
G1 X98.528 Y98.342 E6.3876
G1 X99.229 Y98.166 E6.4487
G1 X99.879 Y97.849 E6.5097
G1 X100.449 Y97.403 E6.5708
G1 X100.882 Y96.887 E6.6276
G1 X101.119 Y96.492 E6.6666
G1 X101.371 Y95.868 E6.7234
G1 X101.497 Y95.155 E6.7845
G1 X101.471 Y94.432 E6.8455
G1 X101.296 Y93.730 E6.9066
G1 X100.979 Y93.080 E6.9677
G1 X100.534 Y92.511 E7.0287
G1 X99.985 Y92.050 E7.0892
G1 X99.342 Y91.707 E7.1507
G1 X98.450 Y91.451 E7.2290
G1 X100.798 Y87.967 E7.5837
G1 X110.749 Y94.674 E8.5967
G1 X139.588 Y51.885 E12.9524
G1 X129.637 Y45.179 E13.9654
G1 X131.985 Y41.695 E14.3200
G1 X132.555 Y42.424 E14.3982
G1 X133.071 Y42.857 E14.4550
G1 X133.466 Y43.094 E14.4940
G1 X134.091 Y43.346 E14.5508
G1 X134.803 Y43.471 E14.6119
G1 X135.526 Y43.446 E14.6730
G1 X136.228 Y43.271 E14.7340
G1 X136.878 Y42.953 E14.7951
G1 X137.448 Y42.508 E14.8561
G1 X137.913 Y41.953 E14.9172
G1 X138.252 Y41.315 E14.9783
G1 X138.438 Y40.667 E15.0351
G1 X138.494 Y40.209 E15.0740
G1 X138.470 Y39.536 E15.1309
G1 X138.295 Y38.835 E15.1920
G1 X137.977 Y38.185 E15.2530
G1 X137.532 Y37.615 E15.3140
G1 X136.984 Y37.155 E15.3745
G1 X136.341 Y36.811 E15.4360
G1 X135.643 Y36.611 E15.4973
G1 X134.921 Y36.561 E15.5584
G1 X134.255 Y36.655 E15.6152
G1 X133.814 Y36.790 E15.6541
G1 X133.195 Y37.092 E15.7122
G1 X37.840 Y55.494 E23.9101
G1 X37.643 Y55.532 F1350
G1 X41.790 Y58.326 F1350
G1 X39.491 Y55.909 F18000
G92 E0.0000
G1 X95.562 Y93.700 E5.7079 F1350
G1 X95.350 Y94.441 E5.7729
G1 X95.310 Y95.011 E5.8212
G1 X95.390 Y95.578 E5.8695
G1 X95.586 Y96.115 E5.9178
G1 X95.872 Y96.574 E5.9635
G1 X96.101 Y96.837 E5.9929
G1 X96.491 Y97.164 E6.0359
G1 X96.790 Y97.343 E6.0653
G1 X97.291 Y97.546 E6.1109
G1 X97.855 Y97.645 E6.1592
G1 X98.426 Y97.625 E6.2075
