; G-Code generated by Simplify3D(R) Version 4.1.2
; Jun 27, 2022 at 10:41:39 PM
; Settings Summary
;   processName,Process1
;   applyToModels,HevACS_315_340_Fan_Bracket
;   profileName,HSBot (modified)
;   profileVersion,2019-11-09 11:59:44
;   baseProfile,Default
;   printMaterial,PETG - Eryone
;   printQuality,Medium
;   printExtruders,
;   extruderName,Extruder - v6,Extruder - lgx ace
;   extruderToolheadNumber,0,1
;   extruderDiameter,0.4,0.4
;   extruderAutoWidth,1,1
;   extruderWidth,0.48,0.48
;   extrusionMultiplier,1.03,1.03
;   extruderUseRetract,0,1
;   extruderRetractionDistance,4,1
;   extruderExtraRestartDistance,0,0
;   extruderRetractionZLift,0,0
;   extruderRetractionSpeed,3600,3600
;   extruderUseCoasting,0,0
;   extruderCoastingDistance,0.2,0.2
;   extruderUseWipe,0,0
;   extruderWipeDistance,1,1
;   primaryExtruder,1
;   layerHeight,0.2
;   topSolidLayers,4
;   bottomSolidLayers,4
;   perimeterOutlines,3
;   printPerimetersInsideOut,1
;   startPointOption,2
;   startPointOriginX,0
;   startPointOriginY,0
;   sequentialIslands,0
;   spiralVaseMode,0
;   firstLayerHeightPercentage,100
;   firstLayerWidthPercentage,150
;   firstLayerUnderspeed,0.25
;   useRaft,0
;   raftExtruder,0
;   raftTopLayers,3
;   raftBaseLayers,2
;   raftOffset,3
;   raftSeparationDistance,0.18
;   raftTopInfill,100
;   aboveRaftSpeedMultiplier,0.3
;   useSkirt,1
;   skirtExtruder,1
;   skirtLayers,1
;   skirtOutlines,15
;   skirtOffset,0
;   usePrimePillar,0
;   primePillarExtruder,999
;   primePillarWidth,12
;   primePillarLocation,7
;   primePillarSpeedMultiplier,1
;   useOozeShield,0
;   oozeShieldExtruder,999
;   oozeShieldOffset,2
;   oozeShieldOutlines,1
;   oozeShieldSidewallShape,1
;   oozeShieldSidewallAngle,30
;   oozeShieldSpeedMultiplier,1
;   infillExtruder,1
;   internalInfillPattern,Rectilinear
;   externalInfillPattern,Rectilinear
;   infillPercentage,10
;   outlineOverlapPercentage,20
;   infillExtrusionWidthPercentage,100
;   minInfillLength,3
;   infillLayerInterval,1
;   internalInfillAngles,45,-45
;   overlapInternalInfillAngles,0
;   externalInfillAngles,45,-45
;   generateSupport,0
;   supportExtruder,1
;   supportInfillPercentage,30
;   supportExtraInflation,0
;   supportBaseLayers,1
;   denseSupportExtruder,0
;   denseSupportLayers,0
;   denseSupportInfillPercentage,70
;   supportLayerInterval,1
;   supportHorizontalPartOffset,0.3
;   supportUpperSeparationLayers,1
;   supportLowerSeparationLayers,1
;   supportType,0
;   supportGridSpacing,2
;   maxOverhangAngle,45
;   supportAngles,0
;   temperatureName,v6,Bed,lgx-ace
;   temperatureNumber,0,0,1
;   temperatureSetpointCount,1,1,1
;   temperatureSetpointLayers,1,1,1
;   temperatureSetpointTemperatures,0,85,225
;   temperatureStabilizeAtStartup,1,1,1
;   temperatureHeatedBed,0,1,0
;   fanLayers,1,2,3
;   fanSpeeds,0,15,15
;   blipFanToFullPower,0
;   adjustSpeedForCooling,1
;   minSpeedLayerTime,15
;   minCoolingSpeedSlowdown,50
;   increaseFanForCooling,0
;   minFanLayerTime,45
;   maxCoolingFanSpeed,70
;   increaseFanForBridging,0
;   bridgingFanSpeed,80
;   use5D,1
;   relativeEdistances,0
;   allowEaxisZeroing,1
;   independentExtruderAxes,0
;   includeM10123,0
;   stickySupport,1
;   applyToolheadOffsets,0
;   gcodeXoffset,0
;   gcodeYoffset,0
;   gcodeZoffset,0
;   overrideMachineDefinition,1
;   machineTypeOverride,0
;   strokeXoverride,220
;   strokeYoverride,220
;   strokeZoverride,150
;   originOffsetXoverride,0
;   originOffsetYoverride,0
;   originOffsetZoverride,0
;   homeXdirOverride,-1
;   homeYdirOverride,-1
;   homeZdirOverride,-1
;   flipXoverride,1
;   flipYoverride,-1
;   flipZoverride,1
;   toolheadOffsets,0,0|0,0|0,0|0,0|0,0|0,0
;   overrideFirmwareConfiguration,0
;   firmwareTypeOverride,RepRap (Marlin/Repetier/Sprinter)
;   GPXconfigOverride,r2
;   baudRateOverride,115200
;   overridePrinterModels,0
;   printerModelsOverride
;   startingGcode,G28 ; home all axes,G32 ; run bed.g -- probe bed and enable compensation
;   layerChangeGcode,
;   retractionGcode,
;   toolChangeGcode,
;   endingGcode,M0 ; call stop.g
;   exportFileFormat,gcode
;   celebration,0
;   celebrationSong,Random Song
;   postProcessing,|; 0.2mm layer, 8 bands 5mm each, total height 40mm|{REPLACE "; layer 25" "M572 D0 S0.69\n; layer 10"}|{REPLACE "; layer 50" "M572 D0 S0.70\n; layer 50"}|{REPLACE "; layer 75" "M572 D0 S0.71\n; layer 75"}|{REPLACE "; layer 100" "M572 D0 S0.72\n; layer 100"}|{REPLACE "; layer 125" "M572 D0 S0.73\n; layer 125"}|{REPLACE "; layer 150" "M572 D0 S0.74\n; layer 150"}|{REPLACE "; layer 175" "M572 D0 S0.75\n; layer 175"}|{REPLACE "; layer 200" "M572 D0 S0.76\n; layer 200"}
;   defaultSpeed,7200
;   outlineUnderspeed,0.8
;   solidInfillUnderspeed,0.75
;   supportUnderspeed,0.8
;   rapidXYspeed,18000
;   rapidZspeed,1200
;   minBridgingArea,50
;   bridgingExtraInflation,0
;   bridgingExtrusionMultiplier,0.96
;   bridgingSpeedMultiplier,1
;   useFixedBridgingAngle,0
;   fixedBridgingAngle,0
;   applyBridgingToPerimeters,0
;   filamentDiameters,1.75|1.75|1.75|1.75|1.75|1.75
;   filamentPricesPerKg,25|46|46|46|46|46
;   filamentDensities,1.29|1.25|1.25|1.25|1.25|1.25
;   useMinPrintHeight,0
;   minPrintHeight,0.3
;   useMaxPrintHeight,0
;   maxPrintHeight,5
;   useDiaphragm,1
;   diaphragmLayerInterval,20
;   robustSlicing,1
;   mergeAllIntoSolid,0
;   onlyRetractWhenCrossingOutline,1
;   retractBetweenLayers,0
;   useRetractionMinTravel,1
;   retractionMinTravel,5
;   retractWhileWiping,1
;   onlyWipeOutlines,1
;   avoidCrossingOutline,1
;   maxMovementDetourFactor,2
;   toolChangeRetractionDistance,12
;   toolChangeExtraRestartDistance,0
;   toolChangeRetractionSpeed,600
;   externalThinWallType,0
;   internalThinWallType,1
;   thinWallAllowedOverlapPercentage,10
;   singleExtrusionMinLength,0.1
;   singleExtrusionMinPrintingWidthPercentage,50
;   singleExtrusionMaxPrintingWidthPercentage,200
;   singleExtrusionEndpointExtension,0.2
;   horizontalSizeCompensation,0
G90
M82
M106 S0
M140 S85
M190 S85
G10 S0 R{0-50} P0
G10 S225 R{225-50} P1
M116 P1
G28 ; home all axes
G32 ; run bed.g -- probe bed and enable compensation
; process Process1
; layer 1, Z = 0.200
T1
G92 E0.0000
G1 E-1.0000 F3600
; feature skirt
; tool H0.200 W0.720
G1 Z0.200 F1200
G1 X36.592 Y39.678 F18000
G1 E0.0000 F3600
G92 E0.0000
G1 X42.708 Y33.560 E0.5335 F1800
G1 X177.291 Y33.560 E8.8324
G1 X183.406 Y39.676 E9.3657
G1 X183.406 Y180.324 E18.0387
G1 X177.290 Y186.440 E18.5720
G1 X42.761 Y186.440 E26.8677
G1 X36.646 Y180.327 E27.4009
G1 X36.592 Y39.678 E36.0739
G1 X37.312 Y39.976 F18000
G92 E0.0000
G1 X43.007 Y34.280 E0.4967 F1800
G1 X176.992 Y34.280 E8.7588
G1 X182.686 Y39.974 E9.2553
G1 X182.686 Y180.026 E17.8916
G1 X176.992 Y185.720 E18.3881
G1 X43.059 Y185.720 E26.6470
G1 X37.366 Y180.029 E27.1434
G1 X37.312 Y39.976 E35.7796
G1 X38.033 Y40.274 F18000
G92 E0.0000
G1 X43.305 Y35.000 E0.4599 F1800
G1 X176.694 Y35.000 E8.6852
G1 X181.966 Y40.272 E9.1450
G1 X181.966 Y179.728 E17.7444
G1 X176.694 Y185.000 E18.2042
G1 X43.357 Y185.000 E26.4263
G1 X38.086 Y179.730 E26.8859
G1 X38.033 Y40.274 E35.4854
G1 X38.753 Y40.573 F18000
G92 E0.0000
G1 X43.603 Y35.720 E0.4231 F1800
G1 X176.396 Y35.720 E8.6116
G1 X181.246 Y40.570 E9.0346
G1 X181.246 Y179.430 E17.5973
G1 X176.396 Y184.280 E18.0203
G1 X43.656 Y184.280 E26.2056
G1 X38.806 Y179.432 E26.6285
G1 X38.753 Y40.573 E35.1911
G1 X39.473 Y40.871 F18000
G92 E0.0000
G1 X43.902 Y36.440 E0.3863 F1800
G1 X176.098 Y36.440 E8.5381
G1 X180.526 Y40.869 E8.9243
G1 X180.526 Y179.131 E17.4501
G1 X176.097 Y183.560 E17.8363
G1 X43.954 Y183.560 E25.9849
G1 X39.526 Y179.133 E26.3710
G1 X39.473 Y40.871 E34.8969
G1 X40.193 Y41.169 F18000
G92 E0.0000
G1 X44.200 Y37.160 E0.3495 F1800
G1 X175.799 Y37.160 E8.4645
G1 X179.806 Y41.167 E8.8139
G1 X179.806 Y178.833 E17.3030
G1 X175.799 Y182.840 E17.6524
G1 X44.252 Y182.840 E25.7642
G1 X40.245 Y178.835 E26.1135
G1 X40.193 Y41.169 E34.6026
G1 X40.913 Y41.467 F18000
G92 E0.0000
G1 X44.498 Y37.880 E0.3127 F1800
G1 X175.501 Y37.880 E8.3909
G1 X179.086 Y41.465 E8.7036
G1 X179.086 Y178.535 E17.1559
G1 X175.501 Y182.120 E17.4685
G1 X44.550 Y182.120 E25.5435
G1 X40.965 Y178.537 E25.8561
G1 X40.913 Y41.467 E34.3084
G1 X41.633 Y41.765 F18000
G92 E0.0000
G1 X44.797 Y38.600 E0.2759 F1800
G1 X175.203 Y38.600 E8.3173
G1 X178.366 Y41.763 E8.5932
G1 X178.366 Y178.237 E17.0087
G1 X175.203 Y181.400 E17.2846
G1 X44.848 Y181.400 E25.3228
G1 X41.685 Y178.238 E25.5986
G1 X41.633 Y41.765 E34.0141
G1 X42.353 Y42.063 F18000
G92 E0.0000
G1 X45.095 Y39.320 E0.2391 F1800
G1 X174.905 Y39.320 E8.2438
G1 X177.646 Y42.062 E8.4828
G1 X177.646 Y177.939 E16.8616
G1 X174.905 Y180.680 E17.1007
G1 X45.146 Y180.680 E25.1021
G1 X42.405 Y177.940 E25.3411
G1 X42.353 Y42.063 E33.7199
G1 X43.073 Y42.361 F18000
G92 E0.0000
G1 X45.393 Y40.040 E0.2023 F1800
G1 X174.606 Y40.040 E8.1702
G1 X176.926 Y42.360 E8.3725
G1 X176.926 Y177.640 E16.7145
G1 X174.606 Y179.960 E16.9168
G1 X45.445 Y179.960 E24.8814
G1 X43.125 Y177.641 E25.0837
G1 X43.073 Y42.361 E33.4256
G1 X43.793 Y42.659 F18000
G92 E0.0000
G1 X45.692 Y40.760 E0.1656 F1800
G1 X174.308 Y40.760 E8.0966
G1 X176.206 Y42.658 E8.2621
G1 X176.206 Y177.342 E16.5673
G1 X174.308 Y179.240 E16.7328
G1 X45.743 Y179.240 E24.6607
G1 X43.845 Y177.343 E24.8262
G1 X43.793 Y42.659 E33.1314
G1 X44.514 Y42.957 F18000
G92 E0.0000
G1 X45.990 Y41.480 E0.1288 F1800
G1 X174.010 Y41.480 E8.0230
G1 X175.486 Y42.956 E8.1518
G1 X175.486 Y177.044 E16.4202
G1 X174.010 Y178.520 E16.5489
G1 X46.041 Y178.520 E24.4400
G1 X44.565 Y177.044 E24.5687
G1 X44.514 Y42.957 E32.8372
G1 X45.234 Y43.255 F18000
G92 E0.0000
G1 X46.288 Y42.200 E0.0920 F1800
G1 X173.712 Y42.200 E7.9495
G1 X174.766 Y43.254 E8.0414
G1 X174.766 Y176.746 E16.2730
G1 X173.712 Y177.800 E16.3650
G1 X46.339 Y177.800 E24.2193
G1 X45.285 Y176.746 E24.3113
G1 X45.234 Y43.255 E32.5429
G1 X45.954 Y43.553 F18000
G92 E0.0000
G1 X46.586 Y42.920 E0.0552 F1800
G1 X173.413 Y42.920 E7.8759
G1 X174.046 Y43.553 E7.9311
G1 X174.046 Y176.447 E16.1259
G1 X173.413 Y177.080 E16.1811
G1 X46.637 Y177.080 E23.9986
G1 X46.005 Y176.448 E24.0538
G1 X45.954 Y43.553 E32.2487
G1 X46.674 Y43.851 F18000
G92 E0.0000
G1 X46.885 Y43.640 E0.0184 F1800
G1 X173.115 Y43.640 E7.8023
G1 X173.326 Y43.851 E7.8207
G1 X173.326 Y176.149 E15.9788
G1 X173.115 Y176.360 E15.9972
G1 X46.935 Y176.360 E23.7780
G1 X46.724 Y176.149 E23.7963
G1 X46.674 Y43.851 E31.9544
; feature inner perimeter
G1 X47.394 Y44.360 F18000
G1 X47.394 Y44.501
G1 X48.835 Y45.800
G92 E0.0000
G1 X171.166 Y45.800 E7.5435 F1620
G1 X171.166 Y174.200 E15.4612
G1 X48.884 Y174.200 E23.0016
G1 X48.865 Y126.336 E25.9531
G1 X49.427 Y126.261 E25.9881
G1 X49.588 Y126.848 E26.0256
G1 X50.227 Y128.889 E26.1575
G1 X50.936 Y130.898 E26.2889
G1 X51.715 Y132.878 E26.4201
G1 X52.569 Y134.841 E26.5521
G1 X53.494 Y136.773 E26.6842
G1 X54.480 Y138.658 E26.8153
G1 X55.531 Y140.504 E26.9464
G1 X56.658 Y142.329 E27.0786
G1 X57.863 Y144.131 E27.2123
G1 X59.092 Y145.834 E27.3418
G1 X60.401 Y147.520 E27.4734
G1 X61.770 Y149.158 E27.6050
G1 X63.220 Y150.771 E27.7388
G1 X64.678 Y152.282 E27.8683
G1 X66.214 Y153.765 E27.9999
G1 X67.802 Y155.191 E28.1316
G1 X69.467 Y156.582 E28.2653
G1 X71.125 Y157.870 E28.3948
G1 X72.856 Y159.118 E28.5264
G1 X74.632 Y160.305 E28.6581
G1 X76.477 Y161.444 E28.7918
G1 X78.302 Y162.483 E28.9213
G1 X80.193 Y163.472 E29.0529
G1 X82.119 Y164.394 E29.1846
G1 X84.108 Y165.259 E29.3183
G1 X86.062 Y166.028 E29.4478
G1 X88.075 Y166.738 E29.5794
G1 X90.112 Y167.376 E29.7111
G1 X92.204 Y167.949 E29.8448
G1 X94.248 Y168.432 E29.9743
G1 X96.342 Y168.849 E30.1059
G1 X98.479 Y169.195 E30.2395
G1 X100.565 Y169.457 E30.3691
G1 X102.681 Y169.646 E30.5001
G1 X104.822 Y169.762 E30.6324
G1 X106.986 Y169.800 E30.7658
G1 X109.110 Y169.762 E30.8968
G1 X111.211 Y169.649 E31.0265
G1 X113.366 Y169.457 E31.1600
G1 X115.474 Y169.192 E31.2909
G1 X117.569 Y168.853 E31.4218
G1 X119.684 Y168.432 E31.5548
G1 X121.762 Y167.941 E31.6865
G1 X123.787 Y167.385 E31.8159
G1 X125.857 Y166.738 E31.9497
G1 X127.870 Y166.028 E32.0813
G1 X129.856 Y165.246 E32.2130
G1 X131.782 Y164.408 E32.3425
G1 X133.738 Y163.473 E32.4762
G1 X135.630 Y162.483 E32.6078
G1 X137.485 Y161.426 E32.7395
G1 X139.271 Y160.323 E32.8689
G1 X141.075 Y159.119 E33.0027
G1 X142.807 Y157.869 E33.1344
G1 X144.465 Y156.581 E33.2638
G1 X146.130 Y155.191 E33.3976
G1 X147.718 Y153.764 E33.5292
G1 X149.254 Y152.282 E33.6608
G1 X150.712 Y150.771 E33.7903
G1 X152.162 Y149.158 E33.9241
G1 X153.531 Y147.520 E34.0557
G1 X154.841 Y145.834 E34.1874
G1 X156.069 Y144.131 E34.3168
G1 X157.275 Y142.328 E34.4506
G1 X158.397 Y140.512 E34.5822
G1 X159.436 Y138.687 E34.7117
G1 X160.442 Y136.766 E34.8454
G1 X161.363 Y134.840 E34.9771
G1 X162.215 Y132.883 E35.1087
G1 X162.984 Y130.929 E35.2382
G1 X163.707 Y128.884 E35.3720
G1 X164.344 Y126.846 E35.5036
G1 X164.909 Y124.788 E35.6352
G1 X165.392 Y122.744 E35.7647
G1 X165.816 Y120.617 E35.8985
G1 X166.158 Y118.510 E36.0301
G1 X166.424 Y116.392 E36.1617
G1 X166.611 Y114.301 E36.2912
G1 X166.728 Y112.134 E36.4250
G1 X166.766 Y109.965 E36.5588
G1 X166.728 Y107.866 E36.6882
G1 X166.614 Y105.734 E36.8199
G1 X166.424 Y103.608 E36.9515
G1 X166.152 Y101.456 E37.0853
G1 X165.816 Y99.383 E37.2147
G1 X165.400 Y97.289 E37.3464
G1 X164.900 Y95.179 E37.4801
G1 X164.344 Y93.154 E37.6096
G1 X163.707 Y91.117 E37.7412
G1 X162.996 Y89.103 E37.8729
G1 X162.201 Y87.085 E38.0066
G1 X161.363 Y85.160 E38.1361
G1 X160.442 Y83.234 E38.2678
G1 X159.453 Y81.343 E38.3994
G1 X158.378 Y79.459 E38.5331
G1 X157.275 Y77.672 E38.6626
G1 X156.089 Y75.897 E38.7943
G1 X154.819 Y74.138 E38.9280
G1 X153.531 Y72.480 E39.0575
G1 X152.163 Y70.842 E39.1891
G1 X150.736 Y69.253 E39.3208
G1 X149.229 Y67.694 E39.4545
G1 X147.718 Y66.235 E39.5840
G1 X146.130 Y64.809 E39.7156
G1 X144.492 Y63.440 E39.8473
G1 X142.779 Y62.110 E39.9810
G1 X141.076 Y60.882 E40.1105
G1 X139.301 Y59.695 E40.2422
G1 X137.455 Y58.556 E40.3759
G1 X135.630 Y57.517 E40.5054
G1 X133.739 Y56.528 E40.6370
G1 X131.813 Y55.606 E40.7687
G1 X129.824 Y54.741 E40.9024
G1 X127.870 Y53.972 E41.0319
G1 X125.857 Y53.262 E41.1635
G1 X123.820 Y52.624 E41.2952
G1 X121.728 Y52.051 E41.4289
G1 X119.685 Y51.568 E41.5584
G1 X117.591 Y51.151 E41.6901
G1 X115.453 Y50.805 E41.8236
G1 X113.367 Y50.543 E41.9532
G1 X111.251 Y50.354 E42.0842
G1 X109.110 Y50.238 E42.2165
G1 X106.947 Y50.200 E42.3499
G1 X104.823 Y50.238 E42.4809
G1 X102.721 Y50.351 E42.6107
G1 X100.566 Y50.543 E42.7441
G1 X98.459 Y50.808 E42.8750
G1 X96.363 Y51.147 E43.0059
G1 X94.248 Y51.568 E43.1389
G1 X92.170 Y52.059 E43.2706
G1 X90.145 Y52.615 E43.4001
G1 X88.075 Y53.262 E43.5338
G1 X86.062 Y53.972 E43.6654
G1 X84.076 Y54.754 E43.7971
G1 X82.150 Y55.592 E43.9266
G1 X80.194 Y56.527 E44.0603
G1 X78.302 Y57.517 E44.1919
G1 X76.447 Y58.574 E44.3236
G1 X74.661 Y59.677 E44.4530
G1 X72.857 Y60.882 E44.5868
G1 X71.153 Y62.110 E44.7163
G1 X69.440 Y63.440 E44.8500
G1 X67.802 Y64.809 E44.9817
G1 X66.214 Y66.235 E45.1133
G1 X64.703 Y67.694 E45.2428
G1 X63.196 Y69.253 E45.3765
G1 X61.770 Y70.842 E45.5082
G1 X60.423 Y72.453 E45.6377
G1 X59.092 Y74.165 E45.7714
G1 X57.843 Y75.897 E45.9031
G1 X56.657 Y77.672 E46.0347
G1 X55.541 Y79.479 E46.1657
G1 X54.480 Y81.342 E46.2979
G1 X53.487 Y83.240 E46.4300
G1 X52.569 Y85.159 E46.5612
G1 X51.720 Y87.110 E46.6924
G1 X50.936 Y89.102 E46.8244
G1 X50.226 Y91.115 E46.9560
G1 X49.589 Y93.148 E47.0874
G1 X49.414 Y93.786 E47.1282
G1 X48.853 Y93.711 E47.1631
G1 X48.835 Y45.800 E50.1175
G1 X48.114 Y45.080 F18000
G92 E0.0000
G1 X171.886 Y45.080 E7.6323 F1620
G1 X171.886 Y174.920 E15.6388
G1 X48.164 Y174.920 E23.2680
G1 X48.143 Y120.010 E26.6540
G1 X48.739 Y119.961 E26.6909
G1 X48.826 Y120.495 E26.7242
G1 X49.236 Y122.558 E26.8540
G1 X49.721 Y124.609 E26.9839
G1 X50.279 Y126.645 E27.1141
G1 X50.911 Y128.662 E27.2444
G1 X51.611 Y130.646 E27.3742
G1 X52.380 Y132.602 E27.5038
G1 X53.224 Y134.542 E27.6342
G1 X54.138 Y136.451 E27.7647
G1 X55.112 Y138.313 E27.8943
G1 X56.150 Y140.137 E28.0237
G1 X57.263 Y141.939 E28.1544
G1 X58.455 Y143.720 E28.2865
G1 X59.668 Y145.403 E28.4144
G1 X60.962 Y147.068 E28.5445
