; G-Code generated by Simplify3D(R) Version 4.1.2
; Jul 5, 2022 at 12:35:35 PM
; Settings Summary
;   processName,Process1
;   applyToModels,HevACS_315_340_Diffuser
;   profileName,HSBot
;   profileVersion,2019-11-09 11:59:44
;   baseProfile,Default
;   printMaterial,PETG - Eryone
;   printQuality,Medium
;   printExtruders,
;   extruderName,Extruder - v6,Extruder - lgx ace
;   extruderToolheadNumber,0,1
;   extruderDiameter,0.4,0.4
;   extruderAutoWidth,1,1
;   extruderWidth,0.48,0.48
;   extrusionMultiplier,1.03,1.03
;   extruderUseRetract,0,1
;   extruderRetractionDistance,4,1
;   extruderExtraRestartDistance,0,0
;   extruderRetractionZLift,0,0
;   extruderRetractionSpeed,3600,3600
;   extruderUseCoasting,0,0
;   extruderCoastingDistance,0.2,0.2
;   extruderUseWipe,0,1
;   extruderWipeDistance,1,1
;   primaryExtruder,1
;   layerHeight,0.2
;   topSolidLayers,4
;   bottomSolidLayers,4
;   perimeterOutlines,3
;   printPerimetersInsideOut,1
;   startPointOption,2
;   startPointOriginX,0
;   startPointOriginY,0
;   sequentialIslands,0
;   spiralVaseMode,0
;   firstLayerHeightPercentage,100
;   firstLayerWidthPercentage,150
;   firstLayerUnderspeed,0.25
;   useRaft,0
;   raftExtruder,0
;   raftTopLayers,3
;   raftBaseLayers,2
;   raftOffset,3
;   raftSeparationDistance,0.18
;   raftTopInfill,100
;   aboveRaftSpeedMultiplier,0.3
;   useSkirt,1
;   skirtExtruder,1
;   skirtLayers,1
;   skirtOutlines,15
;   skirtOffset,0
;   usePrimePillar,0
;   primePillarExtruder,999
;   primePillarWidth,12
;   primePillarLocation,7
;   primePillarSpeedMultiplier,1
;   useOozeShield,0
;   oozeShieldExtruder,999
;   oozeShieldOffset,2
;   oozeShieldOutlines,1
;   oozeShieldSidewallShape,1
;   oozeShieldSidewallAngle,30
;   oozeShieldSpeedMultiplier,1
;   infillExtruder,1
;   internalInfillPattern,Rectilinear
;   externalInfillPattern,Rectilinear
;   infillPercentage,15
;   outlineOverlapPercentage,20
;   infillExtrusionWidthPercentage,100
;   minInfillLength,3
;   infillLayerInterval,1
;   internalInfillAngles,45,-45
;   overlapInternalInfillAngles,0
;   externalInfillAngles,45,-45
;   generateSupport,0
;   supportExtruder,1
;   supportInfillPercentage,30
;   supportExtraInflation,0
;   supportBaseLayers,1
;   denseSupportExtruder,0
;   denseSupportLayers,0
;   denseSupportInfillPercentage,70
;   supportLayerInterval,1
;   supportHorizontalPartOffset,0.3
;   supportUpperSeparationLayers,1
;   supportLowerSeparationLayers,1
;   supportType,0
;   supportGridSpacing,2
;   maxOverhangAngle,45
;   supportAngles,0
;   temperatureName,v6,Bed,lgx-ace
;   temperatureNumber,0,0,1
;   temperatureSetpointCount,1,1,1
;   temperatureSetpointLayers,1,1,1
;   temperatureSetpointTemperatures,0,85,240
;   temperatureStabilizeAtStartup,1,1,1
;   temperatureHeatedBed,0,1,0
;   fanLayers,1,2,3
;   fanSpeeds,0,15,15
;   blipFanToFullPower,0
;   adjustSpeedForCooling,0
;   minSpeedLayerTime,15
;   minCoolingSpeedSlowdown,50
;   increaseFanForCooling,0
;   minFanLayerTime,45
;   maxCoolingFanSpeed,70
;   increaseFanForBridging,0
;   bridgingFanSpeed,80
;   use5D,1
;   relativeEdistances,0
;   allowEaxisZeroing,1
;   independentExtruderAxes,0
;   includeM10123,0
;   stickySupport,1
;   applyToolheadOffsets,0
;   gcodeXoffset,0
;   gcodeYoffset,0
;   gcodeZoffset,0
;   overrideMachineDefinition,1
;   machineTypeOverride,0
;   strokeXoverride,220
;   strokeYoverride,220
;   strokeZoverride,175
;   originOffsetXoverride,0
;   originOffsetYoverride,0
;   originOffsetZoverride,0
;   homeXdirOverride,-1
;   homeYdirOverride,-1
;   homeZdirOverride,-1
;   flipXoverride,1
;   flipYoverride,-1
;   flipZoverride,1
;   toolheadOffsets,0,0|0,0|0,0|0,0|0,0|0,0
;   overrideFirmwareConfiguration,0
;   firmwareTypeOverride,RepRap (Marlin/Repetier/Sprinter)
;   GPXconfigOverride,r2
;   baudRateOverride,115200
;   overridePrinterModels,0
;   printerModelsOverride
;   startingGcode,G28 ; home all axes,G32 ; run bed.g -- probe bed and enable compensation
;   layerChangeGcode,
;   retractionGcode,
;   toolChangeGcode,
;   endingGcode,M0 ; call stop.g
;   exportFileFormat,gcode
;   celebration,0
;   celebrationSong,Random Song
;   postProcessing,|; 0.2mm layer, 8 bands 5mm each, total height 40mm|{REPLACE "; layer 25" "M572 D0 S0.69\n; layer 10"}|{REPLACE "; layer 50" "M572 D0 S0.70\n; layer 50"}|{REPLACE "; layer 75" "M572 D0 S0.71\n; layer 75"}|{REPLACE "; layer 100" "M572 D0 S0.72\n; layer 100"}|{REPLACE "; layer 125" "M572 D0 S0.73\n; layer 125"}|{REPLACE "; layer 150" "M572 D0 S0.74\n; layer 150"}|{REPLACE "; layer 175" "M572 D0 S0.75\n; layer 175"}|{REPLACE "; layer 200" "M572 D0 S0.76\n; layer 200"}
;   defaultSpeed,5400
;   outlineUnderspeed,1
;   solidInfillUnderspeed,0.75
;   supportUnderspeed,0.8
;   rapidXYspeed,18000
;   rapidZspeed,1200
;   minBridgingArea,60
;   bridgingExtraInflation,0
;   bridgingExtrusionMultiplier,0.96
;   bridgingSpeedMultiplier,1
;   useFixedBridgingAngle,0
;   fixedBridgingAngle,0
;   applyBridgingToPerimeters,0
;   filamentDiameters,1.75|1.75|1.75|1.75|1.75|1.75
;   filamentPricesPerKg,25|46|46|46|46|46
;   filamentDensities,1.29|1.25|1.25|1.25|1.25|1.25
;   useMinPrintHeight,0
;   minPrintHeight,0.3
;   useMaxPrintHeight,0
;   maxPrintHeight,110
;   useDiaphragm,1
;   diaphragmLayerInterval,20
;   robustSlicing,1
;   mergeAllIntoSolid,0
;   onlyRetractWhenCrossingOutline,1
;   retractBetweenLayers,0
;   useRetractionMinTravel,1
;   retractionMinTravel,5
;   retractWhileWiping,1
;   onlyWipeOutlines,1
;   avoidCrossingOutline,1
;   maxMovementDetourFactor,2
;   toolChangeRetractionDistance,12
;   toolChangeExtraRestartDistance,0
;   toolChangeRetractionSpeed,600
;   externalThinWallType,0
;   internalThinWallType,1
;   thinWallAllowedOverlapPercentage,10
;   singleExtrusionMinLength,0.1
;   singleExtrusionMinPrintingWidthPercentage,50
;   singleExtrusionMaxPrintingWidthPercentage,200
;   singleExtrusionEndpointExtension,0.2
;   horizontalSizeCompensation,0
G90
M82
M106 S0
M140 S85
M190 S85
G10 S0 R{0-50} P0
G10 S240 R{240-50} P1
M116 P1
G28 ; home all axes
G32 ; run bed.g -- probe bed and enable compensation
; process Process1
; layer 1, Z = 0.200
T1
G92 E0.0000
G1 E-1.0000 F3600
; feature skirt
; tool H0.200 W0.720
G1 Z0.200 F1200
G1 X18.820 Y173.997 F18000
G1 E0.0000 F3600
G92 E0.0000
G1 X185.985 Y9.808 E14.4487 F1350
G1 X188.966 Y8.329 E14.6539
G1 X192.386 Y7.832 E14.8670
G1 X195.093 Y8.145 E15.0350
G1 X197.220 Y8.981 E15.1760
G1 X198.459 Y9.675 E15.2635
G1 X200.273 Y11.044 E15.4037
G1 X200.854 Y11.554 E15.4513
G1 X216.750 Y27.738 E16.8502
G1 X216.673 Y36.387 E17.3835
G1 X44.834 Y205.166 E32.2362
G1 X36.185 Y205.089 E32.7695
G1 X20.287 Y188.901 E34.1686
G1 X19.782 Y188.304 E34.2168
G1 X18.433 Y186.442 E34.3586
G1 X17.759 Y185.176 E34.4470
G1 X16.972 Y183.035 E34.5877
G1 X16.720 Y180.317 E34.7560
G1 X17.294 Y176.921 E34.9684
G1 X18.820 Y173.997 E35.1718
G1 X19.406 Y174.431 F18000
G92 E0.0000
G1 X186.408 Y10.402 E14.4346 F1350
G1 X189.183 Y9.025 E14.6256
G1 X192.397 Y8.558 E14.8259
G1 X194.917 Y8.849 E14.9823
G1 X196.911 Y9.633 E15.1144
G1 X198.065 Y10.280 E15.1960
G1 X199.818 Y11.603 E15.3315
G1 X200.359 Y12.077 E15.3758
G1 X216.027 Y28.030 E16.7547
G1 X215.955 Y36.082 E17.2512
G1 X44.542 Y204.443 E32.0671
G1 X36.490 Y204.371 E32.5636
G1 X20.819 Y188.416 E33.9427
G1 X20.349 Y187.860 E33.9876
G1 X19.045 Y186.059 E34.1246
G1 X18.418 Y184.881 E34.2070
G1 X17.680 Y182.875 E34.3388
G1 X17.445 Y180.344 E34.4955
G1 X17.985 Y177.154 E34.6950
G1 X19.406 Y174.431 E34.8844
G1 X19.992 Y174.865 F18000
G92 E0.0000
G1 X186.831 Y10.996 E14.4205 F1350
G1 X189.400 Y9.721 E14.5974
G1 X192.407 Y9.284 E14.7848
G1 X194.741 Y9.554 E14.9297
G1 X196.602 Y10.286 E15.0529
G1 X197.670 Y10.884 E15.1284
G1 X199.363 Y12.162 E15.2592
G1 X199.864 Y12.601 E15.3003
G1 X215.305 Y28.322 E16.6591
G1 X215.238 Y35.777 E17.1189
G1 X44.250 Y203.721 E31.8980
G1 X36.795 Y203.654 E32.3577
G1 X21.352 Y187.931 E33.7167
G1 X20.916 Y187.416 E33.7583
G1 X19.658 Y185.677 E33.8907
G1 X19.076 Y184.586 E33.9669
G1 X18.388 Y182.714 E34.0899
G1 X18.171 Y180.371 E34.2350
G1 X18.676 Y177.386 E34.4217
G1 X19.992 Y174.865 E34.5970
G1 X20.577 Y175.299 F18000
G92 E0.0000
G1 X187.253 Y11.590 E14.4064 F1350
G1 X189.617 Y10.417 E14.5692
G1 X192.418 Y10.010 E14.7437
G1 X194.565 Y10.258 E14.8770
G1 X196.293 Y10.938 E14.9914
G1 X197.275 Y11.488 E15.0609
G1 X198.908 Y12.720 E15.1870
G1 X199.369 Y13.124 E15.2248
G1 X214.582 Y28.614 E16.5636
G1 X214.521 Y35.473 E16.9866
G1 X43.959 Y202.998 E31.7289
G1 X37.099 Y202.937 E32.1519
G1 X21.884 Y187.445 E33.4908
G1 X21.484 Y186.972 E33.5291
G1 X20.270 Y185.295 E33.6567
G1 X19.735 Y184.291 E33.7268
G1 X19.096 Y182.554 E33.8410
G1 X18.896 Y180.398 E33.9745
G1 X19.367 Y177.618 E34.1483
G1 X20.577 Y175.299 E34.3097
G1 X21.163 Y175.733 F18000
G92 E0.0000
G1 X187.676 Y12.184 E14.3924 F1350
G1 X189.834 Y11.113 E14.5409
G1 X192.429 Y10.736 E14.7026
G1 X194.389 Y10.963 E14.8243
G1 X195.983 Y11.590 E14.9299
G1 X196.881 Y12.092 E14.9933
G1 X198.453 Y13.279 E15.1148
G1 X198.874 Y13.648 E15.1493
G1 X213.859 Y28.905 E16.4681
G1 X213.803 Y35.168 E16.8543
G1 X43.667 Y202.275 E31.5598
G1 X37.404 Y202.219 E31.9460
G1 X22.417 Y186.960 E33.2649
G1 X22.051 Y186.527 E33.2998
G1 X20.882 Y184.913 E33.4227
G1 X20.394 Y183.996 E33.4868
G1 X19.804 Y182.394 E33.5920
G1 X19.622 Y180.426 E33.7139
G1 X20.058 Y177.851 E33.8750
G1 X21.163 Y175.733 E34.0223
G1 X21.749 Y176.167 F18000
G92 E0.0000
G1 X188.099 Y12.778 E14.3783 F1350
G1 X190.052 Y11.809 E14.5127
G1 X192.439 Y11.462 E14.6615
G1 X194.213 Y11.667 E14.7716
G1 X195.674 Y12.242 E14.8684
G1 X196.486 Y12.697 E14.9258
G1 X197.998 Y13.838 E15.0426
G1 X198.379 Y14.172 E15.0738
G1 X213.137 Y29.197 E16.3725
G1 X213.086 Y34.863 E16.7219
G1 X43.375 Y201.553 E31.3907
G1 X37.709 Y201.502 E31.7401
G1 X22.949 Y186.475 E33.0390
G1 X22.618 Y186.083 E33.0706
G1 X21.494 Y184.531 E33.1888
G1 X21.052 Y183.701 E33.2467
G1 X20.513 Y182.234 E33.3431
G1 X20.348 Y180.453 E33.4534
G1 X20.749 Y178.083 E33.6017
G1 X21.749 Y176.167 E33.7349
G1 X22.334 Y176.601 F18000
G92 E0.0000
G1 X188.522 Y13.372 E14.3642 F1350
G1 X190.269 Y12.505 E14.4845
G1 X192.450 Y12.188 E14.6204
G1 X194.037 Y12.372 E14.7189
G1 X195.365 Y12.894 E14.8069
G1 X196.092 Y13.301 E14.8583
G1 X197.543 Y14.396 E14.9704
G1 X197.884 Y14.695 E14.9983
G1 X212.414 Y29.489 E16.2770
G1 X212.369 Y34.559 E16.5896
G1 X43.083 Y200.830 E31.2216
G1 X38.014 Y200.785 E31.5342
G1 X23.482 Y185.989 E32.8130
G1 X23.186 Y185.639 E32.8413
G1 X22.106 Y184.148 E32.9548
G1 X21.711 Y183.406 E33.0067
G1 X21.221 Y182.074 E33.0942
G1 X21.073 Y180.480 E33.1929
G1 X21.440 Y178.315 E33.3283
G1 X22.334 Y176.601 E33.4475
G1 X22.920 Y177.035 F18000
G92 E0.0000
G1 X188.944 Y13.966 E14.3501 F1350
G1 X190.486 Y13.201 E14.4562
G1 X192.460 Y12.914 E14.5793
G1 X193.861 Y13.076 E14.6662
G1 X195.056 Y13.546 E14.7454
G1 X195.697 Y13.905 E14.7907
G1 X197.089 Y14.955 E14.8982
G1 X197.389 Y15.219 E14.9228
G1 X211.692 Y29.781 E16.1815
G1 X211.651 Y34.254 E16.4573
G1 X42.791 Y200.107 E31.0525
G1 X38.318 Y200.067 E31.3284
G1 X24.014 Y185.504 E32.5871
G1 X23.753 Y185.195 E32.6121
G1 X22.719 Y183.766 E32.7208
G1 X22.370 Y183.112 E32.7666
G1 X21.929 Y181.914 E32.8453
G1 X21.799 Y180.508 E32.9324
G1 X22.131 Y178.547 E33.0550
G1 X22.920 Y177.035 E33.1602
G1 X23.506 Y177.469 F18000
G92 E0.0000
G1 X189.367 Y14.560 E14.3360 F1350
G1 X190.703 Y13.897 E14.4280
G1 X192.471 Y13.640 E14.5382
G1 X193.685 Y13.780 E14.6135
G1 X194.747 Y14.198 E14.6839
G1 X195.303 Y14.509 E14.7232
G1 X196.634 Y15.514 E14.8260
G1 X196.894 Y15.742 E14.8473
G1 X210.969 Y30.072 E16.0859
G1 X210.934 Y33.949 E16.3250
G1 X42.500 Y199.385 E30.8834
G1 X38.623 Y199.350 E31.1225
G1 X24.547 Y185.019 E32.3612
G1 X24.320 Y184.751 E32.3828
G1 X23.331 Y183.384 E32.4869
G1 X23.028 Y182.817 E32.5265
G1 X22.637 Y181.753 E32.5964
G1 X22.524 Y180.535 E32.6718
G1 X22.822 Y178.780 E32.7816
G1 X23.506 Y177.469 E32.8728
G1 X24.091 Y177.903 F18000
G92 E0.0000
G1 X189.790 Y15.154 E14.3219 F1350
G1 X190.920 Y14.593 E14.3998
G1 X192.482 Y14.366 E14.4971
G1 X193.509 Y14.485 E14.5608
G1 X194.438 Y14.850 E14.6224
G1 X194.908 Y15.114 E14.6556
G1 X196.179 Y16.073 E14.7538
G1 X196.399 Y16.266 E14.7718
G1 X210.246 Y30.364 E15.9904
G1 X210.217 Y33.645 E16.1927
G1 X42.208 Y198.662 E30.7143
G1 X38.928 Y198.633 E30.9166
G1 X25.079 Y184.533 E32.1353
G1 X24.888 Y184.307 E32.1536
G1 X23.943 Y183.002 E32.2529
G1 X23.687 Y182.522 E32.2865
G1 X23.346 Y181.593 E32.3475
G1 X23.250 Y180.562 E32.4113
G1 X23.512 Y179.012 E32.5083
G1 X24.091 Y177.903 E32.5854
G1 X24.677 Y178.337 F18000
G92 E0.0000
G1 X190.212 Y15.748 E14.3078 F1350
G1 X191.137 Y15.289 E14.3715
G1 X192.492 Y15.092 E14.4560
G1 X193.333 Y15.189 E14.5081
G1 X194.129 Y15.503 E14.5609
G1 X194.514 Y15.718 E14.5881
G1 X195.724 Y16.631 E14.6816
G1 X195.904 Y16.789 E14.6963
G1 X209.524 Y30.656 E15.8949
G1 X209.500 Y33.340 E16.0604
G1 X41.916 Y197.940 E30.5452
G1 X39.232 Y197.916 E30.7107
G1 X25.612 Y184.048 E31.9093
G1 X25.455 Y183.863 E31.9243
G1 X24.555 Y182.620 E32.0189
G1 X24.346 Y182.227 E32.0464
G1 X24.054 Y181.433 E32.0985
G1 X23.976 Y180.589 E32.1508
G1 X24.203 Y179.244 E32.2349
G1 X24.677 Y178.337 E32.2980
G1 X25.263 Y178.771 F18000
G92 E0.0000
G1 X190.635 Y16.342 E14.2938 F1350
G1 X191.354 Y15.985 E14.3433
G1 X192.503 Y15.818 E14.4149
G1 X193.157 Y15.894 E14.4554
G1 X193.820 Y16.155 E14.4994
G1 X194.119 Y16.322 E14.5205
G1 X195.269 Y17.190 E14.6093
G1 X195.409 Y17.313 E14.6208
G1 X208.801 Y30.948 E15.7993
G1 X208.782 Y33.035 E15.9281
G1 X41.624 Y197.217 E30.3761
G1 X39.537 Y197.198 E30.5049
G1 X26.144 Y183.563 E31.6834
G1 X26.022 Y183.419 E31.6951
G1 X25.167 Y182.237 E31.7850
G1 X25.004 Y181.932 E31.8063
G1 X24.762 Y181.273 E31.8496
G1 X24.701 Y180.617 E31.8903
G1 X24.894 Y179.477 E31.9616
G1 X25.263 Y178.771 E32.0107
G1 X25.848 Y179.205 F18000
G92 E0.0000
G1 X191.058 Y16.936 E14.2797 F1350
G1 X191.572 Y16.681 E14.3150
G1 X192.514 Y16.544 E14.3738
G1 X192.981 Y16.598 E14.4027
G1 X193.511 Y16.807 E14.4379
G1 X193.724 Y16.926 E14.4530
G1 X194.814 Y17.749 E14.5371
G1 X194.914 Y17.837 E14.5453
G1 X208.078 Y31.239 E15.7038
G1 X208.065 Y32.731 E15.7958
G1 X41.333 Y196.494 E30.2070
G1 X39.842 Y196.481 E30.2990
G1 X26.677 Y183.078 E31.4575
G1 X26.590 Y182.975 E31.4658
G1 X25.779 Y181.855 E31.5510
G1 X25.663 Y181.637 E31.5663
G1 X25.470 Y181.113 E31.6007
G1 X25.427 Y180.644 E31.6297
G1 X25.585 Y179.709 E31.6882
G1 X25.848 Y179.205 E31.7233
G1 X26.434 Y179.639 F18000
G92 E0.0000
G1 X191.480 Y17.530 E14.2656 F1350
G1 X191.789 Y17.377 E14.2868
G1 X192.524 Y17.270 E14.3327
G1 X192.805 Y17.303 E14.3500
G1 X193.202 Y17.459 E14.3764
G1 X193.330 Y17.531 E14.3854
G1 X194.359 Y18.307 E14.4649
G1 X194.419 Y18.360 E14.4698
G1 X207.356 Y31.531 E15.6083
G1 X207.348 Y32.426 E15.6634
G1 X41.041 Y195.772 E30.0379
G1 X40.146 Y195.764 E30.0931
G1 X27.209 Y182.592 E31.2316
G1 X27.157 Y182.530 E31.2366
G1 X26.392 Y181.473 E31.3171
G1 X26.322 Y181.342 E31.3262
G1 X26.179 Y180.953 E31.3518
G1 X26.153 Y180.671 E31.3692
G1 X26.276 Y179.941 E31.4149
G1 X26.434 Y179.639 E31.4359
G1 X27.020 Y180.073 F18000
G92 E0.0000
G1 X191.903 Y18.124 E14.2515 F1350
G1 X192.006 Y18.073 E14.2586
G1 X192.535 Y17.996 E14.2915
G1 X192.628 Y18.007 E14.2973
G1 X192.893 Y18.111 E14.3148
G1 X192.935 Y18.135 E14.3179
G1 X193.904 Y18.866 E14.3927
G1 X193.924 Y18.884 E14.3944
G1 X206.633 Y31.823 E15.5127
G1 X206.630 Y32.121 E15.5311
G1 X40.749 Y195.049 E29.8688
G1 X40.451 Y195.046 E29.8872
G1 X27.742 Y182.107 E31.0056
G1 X27.725 Y182.086 E31.0073
G1 X27.004 Y181.091 E31.0831
G1 X26.981 Y181.047 E31.0861
G1 X26.887 Y180.792 E31.1029
G1 X26.878 Y180.699 E31.1087
G1 X26.967 Y180.173 E31.1415
G1 X27.020 Y180.073 E31.1485
; feature inner perimeter
G1 X27.648 Y180.465 F18000
G1 X27.821 Y180.294
G1 X29.425 Y180.738
G92 E0.0000
G1 X192.525 Y20.541 E14.0973 F1350
G1 X203.726 Y31.946 E15.0831
G1 X40.626 Y192.142 E29.1804
G1 X29.425 Y180.738 E30.1661
G1 X28.836 Y181.165 F18000
G92 E0.0000
G1 X28.473 Y180.664 E0.0382 F1350
G1 X192.469 Y19.587 E14.2130
G1 X192.962 Y19.959 E14.2511
G1 X204.744 Y31.955 E15.2879
