; G-Code generated by Simplify3D(R) Version 4.1.2
; Jul 1, 2022 at 12:22:43 AM
; Settings Summary
;   processName,Process1
;   applyToModels,HevACS_315_340_Lower
;   profileName,HSBot
;   profileVersion,2019-11-09 11:59:44
;   baseProfile,Default
;   printMaterial,PETG - Eryone
;   printQuality,Fast
;   printExtruders,
;   extruderName,Extruder - v6,Extruder - lgx ace
;   extruderToolheadNumber,0,1
;   extruderDiameter,0.4,0.4
;   extruderAutoWidth,1,1
;   extruderWidth,0.48,0.48
;   extrusionMultiplier,1.03,1.03
;   extruderUseRetract,0,1
;   extruderRetractionDistance,4,1
;   extruderExtraRestartDistance,0,0
;   extruderRetractionZLift,0,0
;   extruderRetractionSpeed,3600,3600
;   extruderUseCoasting,0,0
;   extruderCoastingDistance,0.2,0.2
;   extruderUseWipe,0,0
;   extruderWipeDistance,1,1
;   primaryExtruder,1
;   layerHeight,0.28
;   topSolidLayers,3
;   bottomSolidLayers,3
;   perimeterOutlines,3
;   printPerimetersInsideOut,1
;   startPointOption,2
;   startPointOriginX,0
;   startPointOriginY,0
;   sequentialIslands,0
;   spiralVaseMode,0
;   firstLayerHeightPercentage,100
;   firstLayerWidthPercentage,150
;   firstLayerUnderspeed,0.25
;   useRaft,0
;   raftExtruder,0
;   raftTopLayers,3
;   raftBaseLayers,2
;   raftOffset,3
;   raftSeparationDistance,0.18
;   raftTopInfill,100
;   aboveRaftSpeedMultiplier,0.3
;   useSkirt,1
;   skirtExtruder,1
;   skirtLayers,1
;   skirtOutlines,15
;   skirtOffset,0
;   usePrimePillar,0
;   primePillarExtruder,999
;   primePillarWidth,12
;   primePillarLocation,7
;   primePillarSpeedMultiplier,1
;   useOozeShield,0
;   oozeShieldExtruder,999
;   oozeShieldOffset,2
;   oozeShieldOutlines,1
;   oozeShieldSidewallShape,1
;   oozeShieldSidewallAngle,30
;   oozeShieldSpeedMultiplier,1
;   infillExtruder,1
;   internalInfillPattern,Rectilinear
;   externalInfillPattern,Rectilinear
;   infillPercentage,10
;   outlineOverlapPercentage,20
;   infillExtrusionWidthPercentage,100
;   minInfillLength,3
;   infillLayerInterval,1
;   internalInfillAngles,45,-45
;   overlapInternalInfillAngles,0
;   externalInfillAngles,45,-45
;   generateSupport,0
;   supportExtruder,1
;   supportInfillPercentage,25
;   supportExtraInflation,0
;   supportBaseLayers,1
;   denseSupportExtruder,0
;   denseSupportLayers,0
;   denseSupportInfillPercentage,70
;   supportLayerInterval,1
;   supportHorizontalPartOffset,0.3
;   supportUpperSeparationLayers,1
;   supportLowerSeparationLayers,1
;   supportType,0
;   supportGridSpacing,2
;   maxOverhangAngle,45
;   supportAngles,0
;   temperatureName,v6,Bed,lgx-ace
;   temperatureNumber,0,0,1
;   temperatureSetpointCount,1,1,1
;   temperatureSetpointLayers,1,1,1
;   temperatureSetpointTemperatures,0,85,225
;   temperatureStabilizeAtStartup,1,1,1
;   temperatureHeatedBed,0,1,0
;   fanLayers,1,2,3
;   fanSpeeds,0,15,15
;   blipFanToFullPower,0
;   adjustSpeedForCooling,0
;   minSpeedLayerTime,15
;   minCoolingSpeedSlowdown,50
;   increaseFanForCooling,0
;   minFanLayerTime,45
;   maxCoolingFanSpeed,70
;   increaseFanForBridging,0
;   bridgingFanSpeed,80
;   use5D,1
;   relativeEdistances,0
;   allowEaxisZeroing,1
;   independentExtruderAxes,0
;   includeM10123,0
;   stickySupport,1
;   applyToolheadOffsets,0
;   gcodeXoffset,0
;   gcodeYoffset,0
;   gcodeZoffset,0
;   overrideMachineDefinition,1
;   machineTypeOverride,0
;   strokeXoverride,220
;   strokeYoverride,220
;   strokeZoverride,175
;   originOffsetXoverride,0
;   originOffsetYoverride,0
;   originOffsetZoverride,0
;   homeXdirOverride,-1
;   homeYdirOverride,-1
;   homeZdirOverride,-1
;   flipXoverride,1
;   flipYoverride,-1
;   flipZoverride,1
;   toolheadOffsets,0,0|0,0|0,0|0,0|0,0|0,0
;   overrideFirmwareConfiguration,0
;   firmwareTypeOverride,RepRap (Marlin/Repetier/Sprinter)
;   GPXconfigOverride,r2
;   baudRateOverride,115200
;   overridePrinterModels,0
;   printerModelsOverride
;   startingGcode,G28 ; home all axes,G32 ; run bed.g -- probe bed and enable compensation
;   layerChangeGcode,
;   retractionGcode,
;   toolChangeGcode,
;   endingGcode,M0 ; call stop.g
;   exportFileFormat,gcode
;   celebration,0
;   celebrationSong,Random Song
;   postProcessing,|; 0.2mm layer, 8 bands 5mm each, total height 40mm|{REPLACE "; layer 25" "M572 D0 S0.69\n; layer 10"}|{REPLACE "; layer 50" "M572 D0 S0.70\n; layer 50"}|{REPLACE "; layer 75" "M572 D0 S0.71\n; layer 75"}|{REPLACE "; layer 100" "M572 D0 S0.72\n; layer 100"}|{REPLACE "; layer 125" "M572 D0 S0.73\n; layer 125"}|{REPLACE "; layer 150" "M572 D0 S0.74\n; layer 150"}|{REPLACE "; layer 175" "M572 D0 S0.75\n; layer 175"}|{REPLACE "; layer 200" "M572 D0 S0.76\n; layer 200"}
;   defaultSpeed,5400
;   outlineUnderspeed,0.5
;   solidInfillUnderspeed,0.8
;   supportUnderspeed,0.8
;   rapidXYspeed,18000
;   rapidZspeed,1200
;   minBridgingArea,90
;   bridgingExtraInflation,0
;   bridgingExtrusionMultiplier,0.96
;   bridgingSpeedMultiplier,1
;   useFixedBridgingAngle,0
;   fixedBridgingAngle,0
;   applyBridgingToPerimeters,0
;   filamentDiameters,1.75|1.75|1.75|1.75|1.75|1.75
;   filamentPricesPerKg,25|46|46|46|46|46
;   filamentDensities,1.29|1.25|1.25|1.25|1.25|1.25
;   useMinPrintHeight,0
;   minPrintHeight,0.3
;   useMaxPrintHeight,0
;   maxPrintHeight,5
;   useDiaphragm,1
;   diaphragmLayerInterval,20
;   robustSlicing,1
;   mergeAllIntoSolid,0
;   onlyRetractWhenCrossingOutline,1
;   retractBetweenLayers,0
;   useRetractionMinTravel,1
;   retractionMinTravel,5
;   retractWhileWiping,1
;   onlyWipeOutlines,1
;   avoidCrossingOutline,1
;   maxMovementDetourFactor,2
;   toolChangeRetractionDistance,12
;   toolChangeExtraRestartDistance,0
;   toolChangeRetractionSpeed,600
;   externalThinWallType,0
;   internalThinWallType,1
;   thinWallAllowedOverlapPercentage,10
;   singleExtrusionMinLength,0.1
;   singleExtrusionMinPrintingWidthPercentage,50
;   singleExtrusionMaxPrintingWidthPercentage,200
;   singleExtrusionEndpointExtension,0.2
;   horizontalSizeCompensation,0
G90
M82
M106 S0
M140 S85
M190 S85
G10 S0 R{0-50} P0
G10 S225 R{225-50} P1
M116 P1
G28 ; home all axes
G32 ; run bed.g -- probe bed and enable compensation
; process Process1
; layer 1, Z = 0.280
T1
G92 E0.0000
G1 E-1.0000 F3600
; feature skirt
; tool H0.280 W0.720
G1 Z0.280 F1200
G1 X19.542 Y83.015 F18000
G1 E0.0000 F3600
G92 E0.0000
G1 X20.041 Y82.915 E0.0439 F1350
G1 X21.034 Y82.764 E0.1306
G1 X21.552 Y82.712 E0.1756
G1 X22.432 Y82.667 E0.2517
G1 X22.698 Y82.660 E0.2746
G1 X72.529 Y82.656 E4.5765
G1 X191.929 Y82.728 E14.8844
G1 X192.197 Y82.735 E14.9075
G1 X193.074 Y82.780 E14.9833
G1 X193.593 Y82.833 E15.0283
G1 X194.585 Y82.985 E15.1149
G1 X195.083 Y83.086 E15.1588
G1 X196.046 Y83.331 E15.2446
G1 X196.525 Y83.478 E15.2879
G1 X197.455 Y83.813 E15.3732
G1 X197.916 Y84.003 E15.4163
G1 X198.812 Y84.426 E15.5018
G1 X199.255 Y84.661 E15.5451
G1 X200.113 Y85.172 E15.6313
G1 X200.538 Y85.454 E15.6753
G1 X201.349 Y86.050 E15.7622
G1 X201.754 Y86.381 E15.8073
G1 X202.509 Y87.063 E15.8952
G1 X202.887 Y87.440 E15.9413
G1 X203.571 Y88.199 E16.0295
G1 X203.902 Y88.606 E16.0748
G1 X204.499 Y89.418 E16.1618
G1 X204.782 Y89.844 E16.2059
G1 X205.293 Y90.705 E16.2924
G1 X205.528 Y91.150 E16.3358
G1 X205.950 Y92.046 E16.4214
G1 X206.141 Y92.509 E16.4645
G1 X206.475 Y93.443 E16.5502
G1 X206.621 Y93.923 E16.5935
G1 X206.865 Y94.888 E16.6794
G1 X206.965 Y95.387 E16.7234
G1 X207.114 Y96.369 E16.8091
G1 X207.164 Y96.858 E16.8516
G1 X207.213 Y97.734 E16.9273
G1 X207.221 Y98.029 E16.9528
G1 X207.204 Y118.501 E18.7201
G1 X207.197 Y118.766 E18.7431
G1 X207.151 Y119.642 E18.8188
G1 X207.099 Y120.161 E18.8638
G1 X206.947 Y121.154 E18.9505
G1 X206.846 Y121.653 E18.9945
G1 X206.600 Y122.620 E19.0806
G1 X206.453 Y123.099 E19.1239
G1 X206.118 Y124.033 E19.2095
G1 X205.927 Y124.494 E19.2526
G1 X205.504 Y125.390 E19.3381
G1 X205.268 Y125.833 E19.3814
G1 X204.758 Y126.691 E19.4676
G1 X204.477 Y127.115 E19.5115
G1 X203.880 Y127.926 E19.5985
G1 X203.550 Y128.330 E19.6435
G1 X202.866 Y129.088 E19.7316
G1 X202.489 Y129.465 E19.7777
G1 X201.732 Y130.148 E19.8657
G1 X201.326 Y130.479 E19.9109
G1 X200.513 Y131.077 E19.9980
G1 X200.087 Y131.359 E20.0421
G1 X199.231 Y131.867 E20.1281
G1 X198.788 Y132.103 E20.1714
G1 X197.887 Y132.527 E20.2574
G1 X197.426 Y132.717 E20.3005
G1 X196.495 Y133.051 E20.3858
G1 X196.016 Y133.197 E20.4291
G1 X195.051 Y133.442 E20.5150
G1 X194.553 Y133.542 E20.5589
G1 X193.563 Y133.693 E20.6453
G1 X193.046 Y133.745 E20.6901
G1 X192.168 Y133.790 E20.7661
G1 X191.900 Y133.797 E20.7892
G1 X97.855 Y133.800 E28.9081
G1 X97.850 Y133.800 E28.9086
G1 X22.680 Y133.729 E35.3979
G1 X22.413 Y133.722 E35.4210
G1 X21.535 Y133.676 E35.4969
G1 X21.018 Y133.623 E35.5418
G1 X20.028 Y133.471 E35.6282
G1 X19.530 Y133.370 E35.6721
G1 X18.567 Y133.125 E35.7579
G1 X18.089 Y132.979 E35.8011
G1 X17.158 Y132.644 E35.8864
G1 X16.698 Y132.454 E35.9295
G1 X15.803 Y132.032 E36.0149
G1 X15.360 Y131.797 E36.0582
G1 X14.502 Y131.286 E36.1443
G1 X14.078 Y131.005 E36.1883
G1 X13.267 Y130.409 E36.2752
G1 X12.862 Y130.079 E36.3203
G1 X12.105 Y129.396 E36.4083
G1 X11.727 Y129.018 E36.4544
G1 X11.043 Y128.260 E36.5425
G1 X10.712 Y127.854 E36.5878
G1 X10.116 Y127.044 E36.6747
G1 X9.833 Y126.618 E36.7188
G1 X9.321 Y125.757 E36.8053
G1 X9.086 Y125.313 E36.8487
G1 X8.663 Y124.414 E36.9344
G1 X8.472 Y123.953 E36.9775
G1 X8.137 Y123.019 E37.0631
G1 X7.991 Y122.538 E37.1065
G1 X7.746 Y121.572 E37.1925
G1 X7.646 Y121.074 E37.2364
G1 X7.495 Y120.083 E37.3230
G1 X7.442 Y119.565 E37.3679
G1 X7.397 Y118.674 E37.4450
G1 X7.391 Y118.408 E37.4679
G1 X7.391 Y97.966 E39.2326
G1 X7.398 Y97.700 E39.2557
G1 X7.443 Y96.820 E39.3317
G1 X7.496 Y96.301 E39.3767
G1 X7.648 Y95.303 E39.4639
G1 X7.749 Y94.804 E39.5079
G1 X8.024 Y93.719 E39.6045
G1 X8.261 Y93.006 E39.6694
G1 X8.924 Y91.405 E39.8189
G1 X9.260 Y90.733 E39.8838
G1 X9.836 Y89.766 E39.9809
G1 X10.118 Y89.341 E40.0250
G1 X10.715 Y88.529 E40.1120
G1 X11.045 Y88.124 E40.1571
G1 X11.730 Y87.366 E40.2453
G1 X12.107 Y86.990 E40.2913
G1 X12.859 Y86.311 E40.3788
G1 X13.266 Y85.979 E40.4241
G1 X14.078 Y85.381 E40.5111
G1 X14.504 Y85.099 E40.5553
G1 X15.363 Y84.589 E40.6415
G1 X15.807 Y84.353 E40.6849
G1 X16.704 Y83.931 E40.7705
G1 X17.166 Y83.740 E40.8136
G1 X18.101 Y83.405 E40.8994
G1 X18.580 Y83.259 E40.9426
G1 X19.542 Y83.015 E41.0283
G1 X19.702 Y83.718 F18000
G92 E0.0000
G1 X20.166 Y83.624 E0.0409 F1350
G1 X21.124 Y83.478 E0.1245
G1 X21.607 Y83.430 E0.1664
G1 X22.460 Y83.386 E0.2401
G1 X22.707 Y83.380 E0.2615
G1 X72.529 Y83.376 E4.5626
G1 X191.919 Y83.448 E14.8696
G1 X192.168 Y83.454 E14.8911
G1 X193.019 Y83.498 E14.9646
G1 X193.502 Y83.548 E15.0065
G1 X194.458 Y83.694 E15.0901
G1 X194.922 Y83.788 E15.1310
G1 X195.852 Y84.025 E15.2137
G1 X196.298 Y84.162 E15.2540
G1 X197.196 Y84.484 E15.3364
G1 X197.625 Y84.662 E15.3765
G1 X198.490 Y85.070 E15.4590
G1 X198.902 Y85.289 E15.4993
G1 X199.730 Y85.782 E15.5825
G1 X200.125 Y86.044 E15.6235
G1 X200.908 Y86.620 E15.7073
G1 X201.284 Y86.927 E15.7493
G1 X202.013 Y87.585 E15.8341
G1 X202.364 Y87.936 E15.8769
G1 X203.025 Y88.668 E15.9620
G1 X203.333 Y89.046 E16.0042
G1 X203.909 Y89.830 E16.0881
G1 X204.172 Y90.227 E16.1292
G1 X204.665 Y91.058 E16.2126
G1 X204.884 Y91.472 E16.2531
G1 X205.291 Y92.337 E16.3356
G1 X205.469 Y92.768 E16.3758
G1 X205.791 Y93.669 E16.4585
G1 X205.927 Y94.116 E16.4988
G1 X206.162 Y95.047 E16.5817
G1 X206.256 Y95.512 E16.6226
G1 X206.399 Y96.459 E16.7054
G1 X206.446 Y96.915 E16.7449
G1 X206.494 Y97.764 E16.8183
G1 X206.501 Y98.039 E16.8420
G1 X206.484 Y118.491 E18.6077
G1 X206.477 Y118.738 E18.6290
G1 X206.433 Y119.587 E18.7025
G1 X206.384 Y120.070 E18.7444
G1 X206.238 Y121.028 E18.8280
G1 X206.144 Y121.493 E18.8689
G1 X205.906 Y122.426 E18.9520
G1 X205.770 Y122.872 E18.9924
G1 X205.446 Y123.773 E19.0750
G1 X205.268 Y124.202 E19.1151
G1 X204.860 Y125.067 E19.1977
G1 X204.641 Y125.480 E19.2380
G1 X204.148 Y126.307 E19.3211
G1 X203.886 Y126.702 E19.3620
G1 X203.311 Y127.485 E19.4459
G1 X203.003 Y127.861 E19.4879
G1 X202.344 Y128.592 E19.5728
G1 X201.993 Y128.943 E19.6157
G1 X201.263 Y129.601 E19.7006
G1 X200.885 Y129.910 E19.7427
G1 X200.101 Y130.486 E19.8267
G1 X199.704 Y130.749 E19.8678
G1 X198.878 Y131.240 E19.9507
G1 X198.465 Y131.459 E19.9911
G1 X197.596 Y131.868 E20.0740
G1 X197.167 Y132.045 E20.1141
G1 X196.268 Y132.367 E20.1965
G1 X195.822 Y132.504 E20.2368
G1 X194.891 Y132.739 E20.3197
G1 X194.427 Y132.833 E20.3605
G1 X193.473 Y132.978 E20.4439
G1 X192.991 Y133.027 E20.4857
G1 X192.140 Y133.071 E20.5593
G1 X191.891 Y133.077 E20.5808
G1 X97.850 Y133.080 E28.6993
G1 X22.690 Y133.009 E35.1878
G1 X22.441 Y133.002 E35.2093
G1 X21.591 Y132.958 E35.2829
G1 X21.109 Y132.908 E35.3247
G1 X20.154 Y132.762 E35.4081
G1 X19.690 Y132.668 E35.4489
G1 X18.761 Y132.432 E35.5317
G1 X18.316 Y132.295 E35.5719
G1 X17.418 Y131.973 E35.6543
G1 X16.989 Y131.795 E35.6944
G1 X16.125 Y131.388 E35.7768
G1 X15.713 Y131.169 E35.8171
G1 X14.885 Y130.677 E35.9003
G1 X14.490 Y130.415 E35.9412
G1 X13.708 Y129.839 E36.0250
G1 X13.331 Y129.532 E36.0670
G1 X12.601 Y128.873 E36.1519
G1 X12.250 Y128.522 E36.1948
G1 X11.590 Y127.791 E36.2798
G1 X11.281 Y127.413 E36.3219
G1 X10.706 Y126.631 E36.4057
G1 X10.443 Y126.234 E36.4468
G1 X9.949 Y125.404 E36.5302
G1 X9.730 Y124.990 E36.5706
G1 X9.322 Y124.123 E36.6534
G1 X9.144 Y123.694 E36.6935
G1 X8.821 Y122.792 E36.7762
G1 X8.684 Y122.345 E36.8165
G1 X8.448 Y121.413 E36.8996
G1 X8.355 Y120.949 E36.9404
G1 X8.210 Y119.992 E37.0239
G1 X8.161 Y119.510 E37.0658
G1 X8.117 Y118.647 E37.1404
G1 X8.111 Y118.399 E37.1618
G1 X8.111 Y97.975 E38.9250
G1 X8.118 Y97.727 E38.9464
G1 X8.161 Y96.875 E39.0201
G1 X8.210 Y96.392 E39.0620
G1 X8.357 Y95.429 E39.1461
G1 X8.451 Y94.964 E39.1870
G1 X8.716 Y93.921 E39.2799
G1 X8.936 Y93.257 E39.3403
G1 X9.579 Y91.705 E39.4854
G1 X9.893 Y91.079 E39.5458
G1 X10.445 Y90.149 E39.6392
G1 X10.708 Y89.754 E39.6802
G1 X11.284 Y88.970 E39.7641
G1 X11.592 Y88.594 E39.8061
G1 X12.252 Y87.863 E39.8911
G1 X12.603 Y87.512 E39.9339
G1 X13.328 Y86.857 E40.0183
G1 X13.707 Y86.548 E40.0605
G1 X14.491 Y85.972 E40.1445
G1 X14.887 Y85.709 E40.1856
G1 X15.716 Y85.217 E40.2688
G1 X16.129 Y84.997 E40.3092
G1 X16.995 Y84.590 E40.3918
G1 X17.425 Y84.412 E40.4320
G1 X18.327 Y84.089 E40.5147
G1 X18.774 Y83.953 E40.5550
G1 X19.702 Y83.718 E40.6377
G1 X19.862 Y84.420 F18000
G92 E0.0000
G1 X20.291 Y84.333 E0.0378 F1350
G1 X21.215 Y84.193 E0.1184
G1 X21.661 Y84.148 E0.1572
G1 X22.487 Y84.106 E0.2286
G1 X22.716 Y84.100 E0.2484
G1 X72.529 Y84.096 E4.5487
G1 X191.909 Y84.168 E14.8548
G1 X192.140 Y84.174 E14.8747
G1 X192.964 Y84.216 E14.9459
G1 X193.411 Y84.262 E14.9847
G1 X194.332 Y84.403 E15.0652
G1 X194.762 Y84.490 E15.1031
G1 X195.657 Y84.718 E15.1828
G1 X196.070 Y84.845 E15.2201
G1 X196.936 Y85.156 E15.2995
G1 X197.333 Y85.321 E15.3366
G1 X198.167 Y85.714 E15.4162
G1 X198.549 Y85.917 E15.4536
G1 X199.346 Y86.391 E15.5337
G1 X199.713 Y86.634 E15.5716
G1 X200.466 Y87.189 E15.6524
G1 X200.815 Y87.474 E15.6913
G1 X201.517 Y88.107 E15.7729
G1 X201.842 Y88.432 E15.8126
G1 X202.478 Y89.137 E15.8946
G1 X202.763 Y89.487 E15.9336
G1 X203.318 Y90.242 E16.0144
G1 X203.561 Y90.610 E16.0525
G1 X204.037 Y91.410 E16.1329
G1 X204.240 Y91.794 E16.1703
G1 X204.632 Y92.628 E16.2499
G1 X204.796 Y93.026 E16.2871
G1 X205.107 Y93.895 E16.3668
G1 X205.233 Y94.309 E16.4041
G1 X205.460 Y95.207 E16.4840
G1 X205.547 Y95.637 E16.5219
G1 X205.685 Y96.550 E16.6017
G1 X205.728 Y96.972 E16.6383
G1 X205.774 Y97.794 E16.7093
G1 X205.781 Y98.048 E16.7313
G1 X205.764 Y118.481 E18.4952
G1 X205.758 Y118.710 E18.5150
G1 X205.715 Y119.532 E18.5861
G1 X205.670 Y119.980 E18.6250
G1 X205.529 Y120.903 E18.7055
G1 X205.442 Y121.333 E18.7434
G1 X205.213 Y122.231 E18.8235
G1 X205.086 Y122.645 E18.8608
G1 X204.774 Y123.513 E18.9405
G1 X204.609 Y123.911 E18.9776
G1 X204.216 Y124.744 E19.0572
G1 X204.013 Y125.126 E19.0946
G1 X203.538 Y125.924 E19.1747
G1 X203.296 Y126.290 E19.2126
G1 X202.741 Y127.043 E19.2934
G1 X202.457 Y127.392 E19.3322
G1 X201.822 Y128.096 E19.4140
G1 X201.497 Y128.420 E19.4537
G1 X200.794 Y129.055 E19.5354
G1 X200.444 Y129.340 E19.5744
