; G-Code generated by Simplify3D(R) Version 4.1.2
; Jun 11, 2020 at 12:11:24 AM
; Settings Summary
;   processName,Process1
;   applyToModels,essl-adapter-male
;   profileName,HBot (modified)
;   profileVersion,2019-10-26 23:38:43
;   baseProfile,Default
;   printMaterial,PETG - SUNLU
;   printQuality,Medium
;   printExtruders,
;   extruderName,Extruder 1
;   extruderToolheadNumber,0
;   extruderDiameter,0.4
;   extruderAutoWidth,1
;   extruderWidth,0.48
;   extrusionMultiplier,0.98
;   extruderUseRetract,1
;   extruderRetractionDistance,4
;   extruderExtraRestartDistance,0
;   extruderRetractionZLift,0
;   extruderRetractionSpeed,3600
;   extruderUseCoasting,1
;   extruderCoastingDistance,0.2
;   extruderUseWipe,1
;   extruderWipeDistance,5
;   primaryExtruder,0
;   layerHeight,0.2
;   topSolidLayers,4
;   bottomSolidLayers,4
;   perimeterOutlines,4
;   printPerimetersInsideOut,1
;   startPointOption,3
;   startPointOriginX,200
;   startPointOriginY,100
;   sequentialIslands,0
;   spiralVaseMode,0
;   firstLayerHeightPercentage,100
;   firstLayerWidthPercentage,100
;   firstLayerUnderspeed,0.5
;   useRaft,0
;   raftExtruder,0
;   raftTopLayers,3
;   raftBaseLayers,2
;   raftOffset,3
;   raftSeparationDistance,0.18
;   raftTopInfill,100
;   aboveRaftSpeedMultiplier,0.3
;   useSkirt,1
;   skirtExtruder,0
;   skirtLayers,1
;   skirtOutlines,4
;   skirtOffset,10
;   usePrimePillar,0
;   primePillarExtruder,999
;   primePillarWidth,12
;   primePillarLocation,7
;   primePillarSpeedMultiplier,1
;   useOozeShield,0
;   oozeShieldExtruder,999
;   oozeShieldOffset,0.9
;   oozeShieldOutlines,2
;   oozeShieldSidewallShape,0
;   oozeShieldSidewallAngle,30
;   oozeShieldSpeedMultiplier,1.5
;   infillExtruder,0
;   internalInfillPattern,Rectilinear
;   externalInfillPattern,Rectilinear
;   infillPercentage,20
;   outlineOverlapPercentage,25
;   infillExtrusionWidthPercentage,100
;   minInfillLength,5
;   infillLayerInterval,1
;   internalInfillAngles,45,-45
;   overlapInternalInfillAngles,0
;   externalInfillAngles,45,-45
;   generateSupport,1
;   supportExtruder,0
;   supportInfillPercentage,30
;   supportExtraInflation,0
;   supportBaseLayers,1
;   denseSupportExtruder,0
;   denseSupportLayers,0
;   denseSupportInfillPercentage,70
;   supportLayerInterval,1
;   supportHorizontalPartOffset,0.3
;   supportUpperSeparationLayers,1
;   supportLowerSeparationLayers,1
;   supportType,0
;   supportGridSpacing,4
;   maxOverhangAngle,25
;   supportAngles,0
;   temperatureName,Extruder 1,Heated Bed
;   temperatureNumber,0,1
;   temperatureSetpointCount,2,1
;   temperatureSetpointLayers,1,2,1
;   temperatureSetpointTemperatures,235,225,75
;   temperatureStabilizeAtStartup,1,1
;   temperatureHeatedBed,0,1
;   fanLayers,1,5,10
;   fanSpeeds,0,5,20
;   blipFanToFullPower,1
;   adjustSpeedForCooling,1
;   minSpeedLayerTime,15
;   minCoolingSpeedSlowdown,20
;   increaseFanForCooling,0
;   minFanLayerTime,45
;   maxCoolingFanSpeed,35
;   increaseFanForBridging,1
;   bridgingFanSpeed,85
;   use5D,1
;   relativeEdistances,0
;   allowEaxisZeroing,1
;   independentExtruderAxes,0
;   includeM10123,0
;   stickySupport,1
;   applyToolheadOffsets,0
;   gcodeXoffset,0
;   gcodeYoffset,0
;   gcodeZoffset,0
;   overrideMachineDefinition,1
;   machineTypeOverride,0
;   strokeXoverride,200
;   strokeYoverride,200
;   strokeZoverride,150
;   originOffsetXoverride,0
;   originOffsetYoverride,0
;   originOffsetZoverride,0
;   homeXdirOverride,-1
;   homeYdirOverride,-1
;   homeZdirOverride,-1
;   flipXoverride,1
;   flipYoverride,-1
;   flipZoverride,1
;   toolheadOffsets,0,0|0,0|0,0|0,0|0,0|0,0
;   overrideFirmwareConfiguration,1
;   firmwareTypeOverride,RepRap (Marlin/Repetier/Sprinter)
;   GPXconfigOverride,r2
;   baudRateOverride,115200
;   overridePrinterModels,0
;   printerModelsOverride
;   startingGcode,G28 ; home all axes,G32 ; run bed.g -- probe bed and enable compensation
;   layerChangeGcode,
;   retractionGcode,
;   toolChangeGcode,
;   endingGcode,M0 ; call stop.g
;   exportFileFormat,gcode
;   celebration,0
;   celebrationSong,Random Song
;   postProcessing,
;   defaultSpeed,3600
;   outlineUnderspeed,0.5
;   solidInfillUnderspeed,0.8
;   supportUnderspeed,0.8
;   rapidXYspeed,18000
;   rapidZspeed,1200
;   minBridgingArea,50
;   bridgingExtraInflation,0
;   bridgingExtrusionMultiplier,0.96
;   bridgingSpeedMultiplier,1
;   useFixedBridgingAngle,0
;   fixedBridgingAngle,0
;   applyBridgingToPerimeters,0
;   filamentDiameters,1.75|1.75|1.75|1.75|1.75|1.75
;   filamentPricesPerKg,46|46|46|46|46|46
;   filamentDensities,1.25|1.25|1.25|1.25|1.25|1.25
;   useMinPrintHeight,0
;   minPrintHeight,20
;   useMaxPrintHeight,0
;   maxPrintHeight,15
;   useDiaphragm,0
;   diaphragmLayerInterval,20
;   robustSlicing,1
;   mergeAllIntoSolid,0
;   onlyRetractWhenCrossingOutline,1
;   retractBetweenLayers,0
;   useRetractionMinTravel,1
;   retractionMinTravel,3
;   retractWhileWiping,1
;   onlyWipeOutlines,1
;   avoidCrossingOutline,1
;   maxMovementDetourFactor,5
;   toolChangeRetractionDistance,12
;   toolChangeExtraRestartDistance,-0.5
;   toolChangeRetractionSpeed,600
;   externalThinWallType,0
;   internalThinWallType,2
;   thinWallAllowedOverlapPercentage,10
;   singleExtrusionMinLength,1
;   singleExtrusionMinPrintingWidthPercentage,50
;   singleExtrusionMaxPrintingWidthPercentage,150
;   singleExtrusionEndpointExtension,0.2
;   horizontalSizeCompensation,-0.1
G90
M82
M106 S0
M140 S75
M190 S75
M104 S235 T0
M109 S235 T0
G28 ; home all axes
G32 ; run bed.g -- probe bed and enable compensation
; process Process1
; layer 1, Z = 0.200
T0
G92 E0.0000
G1 E-4.0000 F3600
; feature skirt
; tool H0.200 W0.480
G1 Z0.200 F1200
G1 X134.180 Y93.338 F18000
G1 E0.0000 F3600
G92 E0.0000
G1 X131.900 Y95.618 E0.1261 F1800
G1 X131.900 Y116.058 E0.9256
G1 X130.900 Y117.058 E0.9809
G1 X130.900 Y119.058 E1.0592
G1 X129.900 Y120.058 E1.1145
G1 X129.900 Y121.058 E1.1536
G1 X128.900 Y122.058 E1.2089
G1 X128.900 Y123.058 E1.2480
G1 X127.900 Y124.058 E1.3033
G1 X127.900 Y125.058 E1.3424
G1 X121.058 Y131.900 E1.7209
G1 X109.942 Y131.900 E2.1557
G1 X109.514 Y131.472 E2.1794
G1 X108.739 Y132.238 E2.2220
G1 X101.841 Y132.155 E2.4918
G1 X100.217 Y131.905 E2.5561
G1 X99.977 Y131.833 E2.5659
G1 X99.575 Y131.946 E2.5822
G1 X98.032 Y132.164 E2.6432
G1 X91.223 Y132.215 E2.9095
G1 X90.480 Y131.478 E2.9504
G1 X90.058 Y131.900 E2.9738
G1 X78.942 Y131.900 E3.4086
G1 X72.100 Y125.058 E3.7871
G1 X72.100 Y124.058 E3.8262
G1 X71.100 Y123.058 E3.8815
G1 X71.100 Y122.058 E3.9206
G1 X70.100 Y121.058 E3.9759
G1 X70.100 Y120.058 E4.0150
G1 X69.100 Y119.058 E4.0704
G1 X69.100 Y117.058 E4.1486
G1 X68.100 Y116.058 E4.2039
G1 X68.100 Y109.058 E4.4777
G1 X67.100 Y108.058 E4.5330
G1 X67.100 Y94.618 E5.0587
G1 X65.820 Y93.338 E5.1295
G1 X65.820 Y74.662 E5.8600
G1 X72.662 Y67.820 E6.2385
G1 X127.338 Y67.820 E8.3771
G1 X134.180 Y74.662 E8.7555
G1 X134.180 Y93.338 E9.4860
G1 X133.700 Y93.139 F18000
G92 E0.0000
G1 X131.420 Y95.419 E0.1261 F1800
G1 X131.420 Y115.859 E0.9256
G1 X130.420 Y116.859 E0.9809
G1 X130.420 Y118.859 E1.0592
G1 X129.420 Y119.859 E1.1145
G1 X129.420 Y120.859 E1.1536
G1 X128.420 Y121.859 E1.2089
G1 X128.420 Y122.859 E1.2480
G1 X127.420 Y123.859 E1.3033
G1 X127.420 Y124.859 E1.3424
G1 X120.859 Y131.420 E1.7054
G1 X110.141 Y131.420 E2.1246
G1 X109.516 Y130.795 E2.1592
G1 X108.544 Y131.755 E2.2126
G1 X101.881 Y131.675 E2.4732
G1 X100.323 Y131.436 E2.5349
G1 X99.982 Y131.333 E2.5488
G1 X99.476 Y131.475 E2.5694
G1 X97.996 Y131.685 E2.6279
G1 X91.420 Y131.734 E2.8851
G1 X90.479 Y130.800 E2.9369
G1 X89.859 Y131.420 E2.9712
G1 X79.141 Y131.420 E3.3904
G1 X72.580 Y124.859 E3.7534
G1 X72.580 Y123.859 E3.7925
G1 X71.580 Y122.859 E3.8478
G1 X71.580 Y121.859 E3.8869
G1 X70.580 Y120.859 E3.9422
G1 X70.580 Y119.859 E3.9813
G1 X69.580 Y118.859 E4.0366
G1 X69.580 Y116.859 E4.1149
G1 X68.580 Y115.859 E4.1702
G1 X68.580 Y108.859 E4.4440
G1 X67.580 Y107.859 E4.4993
G1 X67.580 Y94.419 E5.0250
G1 X66.300 Y93.139 E5.0958
G1 X66.300 Y74.861 E5.8107
G1 X72.861 Y68.300 E6.1737
G1 X127.139 Y68.300 E8.2967
G1 X133.700 Y74.861 E8.6596
G1 X133.700 Y93.139 E9.3745
G1 X133.220 Y92.940 F18000
G92 E0.0000
G1 X130.940 Y95.220 E0.1261 F1800
G1 X130.940 Y115.660 E0.9256
G1 X129.940 Y116.660 E0.9809
G1 X129.940 Y118.660 E1.0592
G1 X128.940 Y119.660 E1.1145
G1 X128.940 Y120.660 E1.1536
G1 X127.940 Y121.660 E1.2089
G1 X127.940 Y122.660 E1.2480
G1 X126.940 Y123.660 E1.3033
G1 X126.940 Y124.660 E1.3424
G1 X120.660 Y130.940 E1.6898
G1 X110.340 Y130.940 E2.0935
G1 X109.518 Y130.118 E2.1389
G1 X108.349 Y131.273 E2.2032
G1 X101.920 Y131.196 E2.4547
G1 X100.429 Y130.967 E2.5137
G1 X99.986 Y130.833 E2.5318
G1 X99.377 Y131.004 E2.5565
G1 X97.960 Y131.205 E2.6125
G1 X91.616 Y131.252 E2.8607
G1 X90.478 Y130.122 E2.9234
G1 X89.660 Y130.940 E2.9686
G1 X79.340 Y130.940 E3.3723
G1 X73.060 Y124.660 E3.7197
G1 X73.060 Y123.660 E3.7588
G1 X72.060 Y122.660 E3.8141
G1 X72.060 Y121.660 E3.8532
G1 X71.060 Y120.660 E3.9085
G1 X71.060 Y119.660 E3.9476
G1 X70.060 Y118.660 E4.0029
G1 X70.060 Y116.660 E4.0812
G1 X69.060 Y115.660 E4.1365
G1 X69.060 Y108.660 E4.4103
G1 X68.060 Y107.660 E4.4656
G1 X68.060 Y94.220 E4.9913
G1 X66.780 Y92.940 E5.0621
G1 X66.780 Y75.060 E5.7615
G1 X73.060 Y68.780 E6.1088
G1 X126.940 Y68.780 E8.2163
G1 X133.220 Y75.060 E8.5637
G1 X133.220 Y92.940 E9.2631
G1 X132.740 Y92.742 F18000
G92 E0.0000
G1 X130.460 Y95.022 E0.1261 F1800
G1 X130.460 Y115.462 E0.9256
G1 X129.460 Y116.462 E0.9809
G1 X129.460 Y118.462 E1.0592
G1 X128.460 Y119.462 E1.1145
G1 X128.460 Y120.462 E1.1536
G1 X127.460 Y121.462 E1.2089
G1 X127.460 Y122.462 E1.2480
G1 X126.460 Y123.462 E1.3033
G1 X126.460 Y124.462 E1.3424
G1 X120.462 Y130.460 E1.6742
G1 X110.538 Y130.460 E2.0624
G1 X109.520 Y129.441 E2.1187
G1 X108.154 Y130.791 E2.1938
G1 X101.960 Y130.716 E2.4361
G1 X100.536 Y130.497 E2.4925
G1 X99.991 Y130.333 E2.5147
G1 X99.278 Y130.533 E2.5437
G1 X97.925 Y130.725 E2.5972
G1 X91.812 Y130.771 E2.8362
G1 X90.477 Y129.445 E2.9099
G1 X89.462 Y130.460 E2.9660
G1 X79.538 Y130.460 E3.3541
G1 X73.540 Y124.462 E3.6859
G1 X73.540 Y123.462 E3.7251
G1 X72.540 Y122.462 E3.7804
G1 X72.540 Y121.462 E3.8195
G1 X71.540 Y120.462 E3.8748
G1 X71.540 Y119.462 E3.9139
G1 X70.540 Y118.462 E3.9692
G1 X70.540 Y116.462 E4.0475
G1 X69.540 Y115.462 E4.1028
G1 X69.540 Y108.462 E4.3766
G1 X68.540 Y107.462 E4.4319
G1 X68.540 Y94.022 E4.9576
G1 X67.260 Y92.742 E5.0284
G1 X67.260 Y75.258 E5.7122
G1 X73.258 Y69.260 E6.0440
G1 X126.742 Y69.260 E8.1360
G1 X132.740 Y75.258 E8.4678
G1 X132.740 Y92.742 E9.1516
G92 E0.0000
G1 E-4.0000 F3600
; feature inner perimeter
G1 X122.260 Y88.260 F18000
G1 X122.260 Y87.535
G1 X120.820 Y86.820
G1 E0.0000 F3600
G92 E0.0000
G1 X79.180 Y86.820 E1.6287 F1350
G1 X79.180 Y81.180 E1.8493
G1 X120.820 Y81.180 E3.4780
G1 X120.820 Y86.620 E3.6908
G1 X120.820 Y86.820 F1350
G1 X121.300 Y87.300 F18000
G92 E0.0000
G1 X78.700 Y87.300 E1.6663 F1350
G1 X78.700 Y80.700 E1.9244
G1 X121.300 Y80.700 E3.5907
G1 X121.300 Y87.100 E3.8410
G1 X121.300 Y87.300 F1350
G1 X121.780 Y87.780 F18000
G92 E0.0000
G1 X103.280 Y87.780 E0.7236 F1350
G1 X103.280 Y119.780 E1.9753
G1 X103.029 Y119.780 E1.9851
G1 X102.915 Y119.772 E1.9895
G1 X102.711 Y119.722 E1.9978
G1 X102.675 Y119.706 E1.9993
G1 X102.495 Y119.592 E2.0076
G1 X102.454 Y119.555 E2.0098
G1 X102.380 Y119.469 E2.0142
G1 X102.343 Y119.416 E2.0168
G1 X102.266 Y119.254 E2.0238
G1 X102.239 Y119.162 E2.0275
G1 X102.229 Y119.106 E2.0297
G1 X102.220 Y87.780 E3.2550
G1 X97.780 Y87.780 E3.4287
G1 X97.780 Y118.971 E4.6487
G1 X97.772 Y119.085 E4.6531
G1 X97.722 Y119.289 E4.6614
G1 X97.706 Y119.325 E4.6629
G1 X97.592 Y119.505 E4.6712
G1 X97.555 Y119.546 E4.6734
G1 X97.486 Y119.606 E4.6770
G1 X97.325 Y119.703 E4.6843
G1 X97.145 Y119.764 E4.6918
G1 X97.103 Y119.771 E4.6934
G1 X96.720 Y119.774 E4.7084
G1 X96.720 Y87.780 E5.9598
G1 X78.220 Y87.780 E6.6834
G1 X78.220 Y80.220 E6.9791
G1 X121.780 Y80.220 E8.6829
G1 X121.780 Y87.580 E8.9708
G1 X121.780 Y87.780 F1350
; feature outer perimeter
G1 X122.260 Y88.260 F18000
G92 E0.0000
G1 X103.760 Y88.260 E0.7236 F900
G1 X103.760 Y120.260 E1.9753
G1 X103.012 Y120.260 E2.0045
G1 X102.841 Y120.248 E2.0112
G1 X102.559 Y120.179 E2.0226
G1 X102.450 Y120.132 E2.0272
G1 X102.204 Y119.976 E2.0386
G1 X102.112 Y119.893 E2.0435
G1 X101.999 Y119.763 E2.0502
G1 X101.926 Y119.656 E2.0552
G1 X101.816 Y119.427 E2.0652
G1 X101.770 Y119.269 E2.0716
G1 X101.749 Y119.146 E2.0765
G1 X101.740 Y88.260 E3.2846
G1 X98.260 Y88.260 E3.4207
G1 X98.260 Y118.988 E4.6226
G1 X98.248 Y119.159 E4.6293
G1 X98.179 Y119.441 E4.6407
G1 X98.132 Y119.550 E4.6453
G1 X97.976 Y119.796 E4.6567
G1 X97.892 Y119.888 E4.6615
G1 X97.770 Y119.995 E4.6679
G1 X97.529 Y120.141 E4.6789
G1 X97.262 Y120.231 E4.6899
G1 X97.144 Y120.251 E4.6946
G1 X96.240 Y120.257 E4.7300
G1 X96.240 Y88.260 E5.9815
G1 X77.740 Y88.260 E6.7051
G1 X77.740 Y79.740 E7.0384
G1 X122.260 Y79.740 E8.7797
G1 X122.260 Y88.060 E9.1052
G1 X122.260 Y88.260 F900
G1 X117.260 Y88.260 F900
; feature gap fill
G1 X102.599 Y87.665 F18000
G92 E0.0000
G1 X102.920 Y87.986 E0.0178 F1800
G1 X102.920 Y88.665 E0.0443
G1 X102.580 Y88.325 E0.0631
G1 X102.580 Y89.004 E0.0897
G1 X102.920 Y89.344 E0.1085
G1 X102.920 Y90.022 E0.1350
G1 X102.580 Y89.683 E0.1538
G1 X102.581 Y90.362 E0.1804
G1 X102.920 Y90.701 E0.1992
G1 X102.920 Y91.380 E0.2257
G1 X102.581 Y91.041 E0.2445
G1 X102.581 Y91.720 E0.2710
G1 X102.920 Y92.059 E0.2898
G1 X102.920 Y92.738 E0.3163
G1 X102.581 Y92.399 E0.3351
G1 X102.581 Y93.078 E0.3617
G1 X102.920 Y93.416 E0.3804
G1 X102.920 Y94.095 E0.4069
G1 X102.582 Y93.757 E0.4257
G1 X102.582 Y94.436 E0.4522
G1 X102.920 Y94.774 E0.4709
G1 X102.920 Y95.453 E0.4975
G1 X102.582 Y95.115 E0.5162
G1 X102.582 Y95.794 E0.5427
G1 X102.920 Y96.132 E0.5614
G1 X102.920 Y96.811 E0.5880
G1 X102.582 Y96.473 E0.6066
G1 X102.583 Y97.152 E0.6332
G1 X102.920 Y97.489 E0.6519
G1 X102.920 Y98.168 E0.6784
G1 X102.583 Y97.831 E0.6971
G1 X102.583 Y98.510 E0.7236
G1 X102.920 Y98.847 E0.7423
G1 X102.920 Y99.526 E0.7688
G1 X102.583 Y99.189 E0.7874
G1 X102.583 Y99.868 E0.8140
G1 X102.920 Y100.205 E0.8326
G1 X102.920 Y100.884 E0.8592
G1 X102.584 Y100.547 E0.8778
G1 X102.584 Y101.226 E0.9043
G1 X102.920 Y101.562 E0.9229
G1 X102.920 Y102.241 E0.9495
G1 X102.584 Y101.905 E0.9681
G1 X102.584 Y102.584 E0.9946
G1 X102.920 Y102.920 E1.0132
G1 X102.920 Y103.599 E1.0397
G1 X102.585 Y103.263 E1.0583
G1 X102.585 Y103.942 E1.0848
G1 X102.920 Y104.278 E1.1034
G1 X102.920 Y104.956 E1.1299
G1 X102.585 Y104.621 E1.1485
G1 X102.585 Y105.300 E1.1750
G1 X102.920 Y105.635 E1.1936
G1 X102.920 Y106.314 E1.2201
G1 X102.585 Y105.979 E1.2386
G1 X102.586 Y106.659 E1.2652
G1 X102.920 Y106.993 E1.2837
G1 X102.920 Y107.672 E1.3102
G1 X102.586 Y107.338 E1.3287
G1 X102.586 Y108.017 E1.3553
G1 X102.920 Y108.351 E1.3738
G1 X102.920 Y109.029 E1.4003
G1 X102.586 Y108.696 E1.4188
G1 X102.586 Y109.375 E1.4453
G1 X102.920 Y109.708 E1.4638
G1 X102.920 Y110.387 E1.4903
G1 X102.587 Y110.054 E1.5088
G1 X102.587 Y110.733 E1.5353
G1 X102.920 Y111.066 E1.5538
G1 X102.920 Y111.745 E1.5803
G1 X102.587 Y111.412 E1.5987
G1 X102.587 Y112.091 E1.6253
G1 X102.920 Y112.424 E1.6437
G1 X102.920 Y113.102 E1.6702
G1 X102.587 Y112.770 E1.6886
G1 X102.588 Y113.449 E1.7152
G1 X102.920 Y113.781 E1.7336
G1 X102.920 Y114.460 E1.7601
G1 X102.588 Y114.128 E1.7785
G1 X102.588 Y114.807 E1.8051
G1 X102.920 Y115.139 E1.8234
G1 X102.920 Y115.818 E1.8500
G1 X102.588 Y115.486 E1.8683
G1 X102.589 Y116.165 E1.8949
G1 X102.920 Y116.496 E1.9132
G1 X102.920 Y117.175 E1.9398
G1 X102.589 Y116.844 E1.9581
G1 X102.589 Y117.523 E1.9846
G1 X102.920 Y117.854 E2.0030
G1 X102.920 Y118.533 E2.0295
G1 X102.589 Y118.202 E2.0478
G1 X102.589 Y118.881 E2.0744
G1 X102.779 Y119.070 E2.0848
G1 X102.920 Y119.212 F1800
G92 E0.0000
G1 E-4.0000 F3600
G1 X97.394 Y119.116 F18000
G1 E0.0000 F3600
G92 E0.0000
G1 X97.080 Y118.802 E0.0173 F1800
G1 X97.080 Y118.123 E0.0439
G1 X97.420 Y118.463 E0.0627
G1 X97.420 Y117.785 E0.0893
G1 X97.080 Y117.445 E0.1081
G1 X97.080 Y116.766 E0.1346
G1 X97.420 Y117.106 E0.1534
G1 X97.420 Y116.427 E0.1800
