; G-Code generated by Simplify3D(R) Version 4.1.2
; Jun 11, 2020 at 4:30:39 PM
; Settings Summary
;   processName,Process1
;   applyToModels,essl-mount-mid-v2
;   profileName,HBot (modified)
;   profileVersion,2019-10-26 23:38:43
;   baseProfile,Default
;   printMaterial,PETG - SUNLU
;   printQuality,Medium
;   printExtruders,
;   extruderName,Extruder 1
;   extruderToolheadNumber,0
;   extruderDiameter,0.4
;   extruderAutoWidth,1
;   extruderWidth,0.48
;   extrusionMultiplier,0.98
;   extruderUseRetract,1
;   extruderRetractionDistance,4
;   extruderExtraRestartDistance,0
;   extruderRetractionZLift,0
;   extruderRetractionSpeed,3600
;   extruderUseCoasting,1
;   extruderCoastingDistance,0.2
;   extruderUseWipe,1
;   extruderWipeDistance,5
;   primaryExtruder,0
;   layerHeight,0.2
;   topSolidLayers,4
;   bottomSolidLayers,4
;   perimeterOutlines,4
;   printPerimetersInsideOut,1
;   startPointOption,3
;   startPointOriginX,200
;   startPointOriginY,100
;   sequentialIslands,0
;   spiralVaseMode,0
;   firstLayerHeightPercentage,100
;   firstLayerWidthPercentage,100
;   firstLayerUnderspeed,0.5
;   useRaft,0
;   raftExtruder,0
;   raftTopLayers,3
;   raftBaseLayers,2
;   raftOffset,3
;   raftSeparationDistance,0.18
;   raftTopInfill,100
;   aboveRaftSpeedMultiplier,0.3
;   useSkirt,1
;   skirtExtruder,0
;   skirtLayers,1
;   skirtOutlines,4
;   skirtOffset,10
;   usePrimePillar,0
;   primePillarExtruder,999
;   primePillarWidth,12
;   primePillarLocation,7
;   primePillarSpeedMultiplier,1
;   useOozeShield,0
;   oozeShieldExtruder,999
;   oozeShieldOffset,0.9
;   oozeShieldOutlines,2
;   oozeShieldSidewallShape,0
;   oozeShieldSidewallAngle,30
;   oozeShieldSpeedMultiplier,1.5
;   infillExtruder,0
;   internalInfillPattern,Rectilinear
;   externalInfillPattern,Rectilinear
;   infillPercentage,20
;   outlineOverlapPercentage,25
;   infillExtrusionWidthPercentage,100
;   minInfillLength,5
;   infillLayerInterval,1
;   internalInfillAngles,45,-45
;   overlapInternalInfillAngles,0
;   externalInfillAngles,45,-45
;   generateSupport,0
;   supportExtruder,0
;   supportInfillPercentage,30
;   supportExtraInflation,0
;   supportBaseLayers,1
;   denseSupportExtruder,0
;   denseSupportLayers,0
;   denseSupportInfillPercentage,70
;   supportLayerInterval,1
;   supportHorizontalPartOffset,0.3
;   supportUpperSeparationLayers,1
;   supportLowerSeparationLayers,1
;   supportType,0
;   supportGridSpacing,4
;   maxOverhangAngle,25
;   supportAngles,0
;   temperatureName,Extruder 1,Heated Bed
;   temperatureNumber,0,1
;   temperatureSetpointCount,2,1
;   temperatureSetpointLayers,1,2,1
;   temperatureSetpointTemperatures,235,225,75
;   temperatureStabilizeAtStartup,1,1
;   temperatureHeatedBed,0,1
;   fanLayers,1,5,10
;   fanSpeeds,0,5,20
;   blipFanToFullPower,1
;   adjustSpeedForCooling,1
;   minSpeedLayerTime,15
;   minCoolingSpeedSlowdown,20
;   increaseFanForCooling,0
;   minFanLayerTime,45
;   maxCoolingFanSpeed,35
;   increaseFanForBridging,1
;   bridgingFanSpeed,85
;   use5D,1
;   relativeEdistances,0
;   allowEaxisZeroing,1
;   independentExtruderAxes,0
;   includeM10123,0
;   stickySupport,1
;   applyToolheadOffsets,0
;   gcodeXoffset,0
;   gcodeYoffset,0
;   gcodeZoffset,0
;   overrideMachineDefinition,1
;   machineTypeOverride,0
;   strokeXoverride,200
;   strokeYoverride,200
;   strokeZoverride,150
;   originOffsetXoverride,0
;   originOffsetYoverride,0
;   originOffsetZoverride,0
;   homeXdirOverride,-1
;   homeYdirOverride,-1
;   homeZdirOverride,-1
;   flipXoverride,1
;   flipYoverride,-1
;   flipZoverride,1
;   toolheadOffsets,0,0|0,0|0,0|0,0|0,0|0,0
;   overrideFirmwareConfiguration,1
;   firmwareTypeOverride,RepRap (Marlin/Repetier/Sprinter)
;   GPXconfigOverride,r2
;   baudRateOverride,115200
;   overridePrinterModels,0
;   printerModelsOverride
;   startingGcode,G28 ; home all axes,G32 ; run bed.g -- probe bed and enable compensation
;   layerChangeGcode,
;   retractionGcode,
;   toolChangeGcode,
;   endingGcode,M0 ; call stop.g
;   exportFileFormat,gcode
;   celebration,0
;   celebrationSong,Random Song
;   postProcessing,
;   defaultSpeed,3600
;   outlineUnderspeed,0.5
;   solidInfillUnderspeed,0.8
;   supportUnderspeed,0.8
;   rapidXYspeed,18000
;   rapidZspeed,1200
;   minBridgingArea,50
;   bridgingExtraInflation,0
;   bridgingExtrusionMultiplier,0.96
;   bridgingSpeedMultiplier,1
;   useFixedBridgingAngle,0
;   fixedBridgingAngle,0
;   applyBridgingToPerimeters,0
;   filamentDiameters,1.75|1.75|1.75|1.75|1.75|1.75
;   filamentPricesPerKg,46|46|46|46|46|46
;   filamentDensities,1.25|1.25|1.25|1.25|1.25|1.25
;   useMinPrintHeight,0
;   minPrintHeight,20
;   useMaxPrintHeight,0
;   maxPrintHeight,15
;   useDiaphragm,0
;   diaphragmLayerInterval,20
;   robustSlicing,1
;   mergeAllIntoSolid,0
;   onlyRetractWhenCrossingOutline,1
;   retractBetweenLayers,0
;   useRetractionMinTravel,1
;   retractionMinTravel,3
;   retractWhileWiping,1
;   onlyWipeOutlines,1
;   avoidCrossingOutline,1
;   maxMovementDetourFactor,5
;   toolChangeRetractionDistance,12
;   toolChangeExtraRestartDistance,-0.5
;   toolChangeRetractionSpeed,600
;   externalThinWallType,0
;   internalThinWallType,2
;   thinWallAllowedOverlapPercentage,10
;   singleExtrusionMinLength,1
;   singleExtrusionMinPrintingWidthPercentage,50
;   singleExtrusionMaxPrintingWidthPercentage,150
;   singleExtrusionEndpointExtension,0.2
;   horizontalSizeCompensation,-0.1
G90
M82
M106 S0
M140 S75
M190 S75
M104 S235 T0
M109 S235 T0
G28 ; home all axes
G32 ; run bed.g -- probe bed and enable compensation
; process Process1
; layer 1, Z = 0.200
T0
G92 E0.0000
G1 E-4.0000 F3600
; feature skirt
; tool H0.200 W0.480
G1 Z0.200 F1200
G1 X151.995 Y96.073 F18000
G1 E0.0000 F3600
G92 E0.0000
G1 X151.993 Y110.886 E0.5794 F1800
G1 X151.616 Y112.957 E0.6617
G1 X150.725 Y115.328 E0.7608
G1 X149.455 Y117.341 E0.8539
G1 X147.649 Y119.220 E0.9558
G1 X145.520 Y120.636 E1.0558
G1 X143.037 Y121.596 E1.1600
G1 X140.912 Y121.993 E1.2445
G1 X87.088 Y121.993 E3.3498
G1 X84.963 Y121.596 E3.4343
G1 X82.480 Y120.636 E3.5385
G1 X80.352 Y119.220 E3.6384
G1 X78.545 Y117.342 E3.7404
G1 X78.060 Y116.572 E3.7760
G1 X61.803 Y116.570 E4.4118
G1 X60.972 Y116.510 E4.4444
G1 X59.596 Y116.313 E4.4988
G1 X58.781 Y116.135 E4.5314
G1 X57.446 Y115.743 E4.5858
G1 X56.665 Y115.452 E4.6185
G1 X55.305 Y114.831 E4.6769
G1 X54.398 Y114.315 E4.7177
G1 X52.771 Y113.185 E4.7952
G1 X51.824 Y112.364 E4.8442
G1 X50.474 Y110.914 E4.9217
G1 X49.834 Y110.090 E4.9625
G1 X49.026 Y108.833 E5.0210
G1 X48.626 Y108.100 E5.0536
G1 X48.048 Y106.835 E5.1080
G1 X47.756 Y106.053 E5.1407
G1 X47.365 Y104.719 E5.1951
G1 X47.187 Y103.903 E5.2277
G1 X46.990 Y102.530 E5.2820
G1 X46.931 Y101.705 E5.3143
G1 X46.920 Y92.200 E5.6861
G1 X46.953 Y91.569 E5.7108
G1 X47.132 Y89.905 E5.7763
G1 X47.335 Y88.882 E5.8171
G1 X47.756 Y87.447 E5.8756
G1 X48.048 Y86.665 E5.9082
G1 X48.626 Y85.400 E5.9627
G1 X49.026 Y84.667 E5.9953
G1 X49.778 Y83.497 E6.0497
G1 X50.277 Y82.830 E6.0823
G1 X51.188 Y81.778 E6.1367
G1 X51.779 Y81.188 E6.1694
G1 X52.830 Y80.277 E6.2238
G1 X53.497 Y79.777 E6.2564
G1 X54.667 Y79.026 E6.3108
G1 X55.400 Y78.626 E6.3434
G1 X56.665 Y78.048 E6.3978
G1 X57.446 Y77.757 E6.4304
G1 X58.881 Y77.335 E6.4889
G1 X59.905 Y77.132 E6.5298
G1 X61.567 Y76.953 E6.5951
G1 X62.191 Y76.920 E6.6196
G1 X113.302 Y76.930 E8.6187
G1 X114.339 Y77.023 E8.6595
G1 X116.289 Y77.375 E8.7370
G1 X117.490 Y77.728 E8.7859
G1 X119.417 Y78.526 E8.8675
G1 X120.516 Y79.126 E8.9165
G1 X122.229 Y80.315 E8.9981
G1 X123.176 Y81.135 E9.0471
G1 X124.597 Y82.662 E9.1286
G1 X125.348 Y83.665 E9.1776
G1 X126.412 Y85.458 E9.2592
G1 X126.932 Y86.597 E9.3082
G1 X127.542 Y88.430 E9.3837
G1 X140.686 Y88.432 E9.8978
G1 X141.964 Y88.574 E9.9481
G1 X146.867 Y89.671 E10.1447
G1 X151.995 Y96.073 E10.4655
G1 X151.515 Y96.242 F18000
G92 E0.0000
G1 X151.513 Y110.843 E0.5711 F1800
G1 X151.152 Y112.828 E0.6500
G1 X150.293 Y115.113 E0.7455
G1 X149.075 Y117.044 E0.8348
G1 X147.339 Y118.849 E0.9327
G1 X145.298 Y120.207 E1.0286
G1 X142.905 Y121.133 E1.1290
G1 X140.868 Y121.513 E1.2101
G1 X87.132 Y121.513 E3.3119
G1 X85.095 Y121.133 E3.3929
G1 X82.702 Y120.207 E3.4933
G1 X80.661 Y118.849 E3.5892
G1 X78.925 Y117.044 E3.6871
G1 X78.325 Y116.092 E3.7311
G1 X61.821 Y116.090 E4.3767
G1 X61.023 Y116.033 E4.4079
G1 X59.681 Y115.840 E4.4610
G1 X58.900 Y115.670 E4.4923
G1 X57.598 Y115.288 E4.5453
G1 X56.849 Y115.008 E4.5766
G1 X55.524 Y114.403 E4.6336
G1 X54.654 Y113.908 E4.6727
G1 X53.065 Y112.805 E4.7484
G1 X52.158 Y112.019 E4.7953
G1 X50.840 Y110.603 E4.8710
G1 X50.226 Y109.813 E4.9101
G1 X49.439 Y108.588 E4.9671
G1 X49.055 Y107.885 E4.9984
G1 X48.492 Y106.651 E5.0514
G1 X48.212 Y105.902 E5.0827
G1 X47.830 Y104.600 E5.1358
G1 X47.660 Y103.818 E5.1671
G1 X47.468 Y102.479 E5.2200
G1 X47.411 Y101.688 E5.2510
G1 X47.400 Y92.212 E5.6217
G1 X47.432 Y91.607 E5.6454
G1 X47.607 Y89.978 E5.7095
G1 X47.802 Y88.996 E5.7486
G1 X48.212 Y87.598 E5.8056
G1 X48.492 Y86.849 E5.8369
G1 X49.055 Y85.615 E5.8900
G1 X49.439 Y84.912 E5.9213
G1 X50.172 Y83.771 E5.9743
G1 X50.651 Y83.131 E6.0056
G1 X51.540 Y82.106 E6.0587
G1 X52.106 Y81.540 E6.0900
G1 X53.131 Y80.651 E6.1430
G1 X53.771 Y80.172 E6.1743
G1 X54.912 Y79.439 E6.2274
G1 X55.615 Y79.055 E6.2587
G1 X56.848 Y78.492 E6.3117
G1 X57.598 Y78.212 E6.3430
G1 X58.996 Y77.802 E6.4000
G1 X59.978 Y77.607 E6.4392
G1 X61.605 Y77.432 E6.5032
G1 X62.204 Y77.400 E6.5266
G1 X113.280 Y77.410 E8.5244
G1 X114.275 Y77.499 E8.5635
G1 X116.178 Y77.843 E8.6391
G1 X117.330 Y78.181 E8.6861
G1 X119.210 Y78.959 E8.7657
G1 X120.263 Y79.535 E8.8126
G1 X121.935 Y80.695 E8.8922
G1 X122.842 Y81.481 E8.9392
G1 X124.228 Y82.970 E9.0187
G1 X124.948 Y83.932 E9.0657
G1 X125.986 Y85.681 E9.1453
G1 X126.485 Y86.773 E9.1922
G1 X127.096 Y88.608 E9.2679
G1 X127.167 Y88.910 E9.2800
G1 X140.660 Y88.912 E9.8078
G1 X141.885 Y89.048 E9.8560
G1 X146.598 Y90.102 E10.0449
G1 X151.515 Y96.242 E10.3525
G1 X151.035 Y96.410 F18000
G92 E0.0000
G1 X151.033 Y110.799 E0.5628 F1800
G1 X150.687 Y112.700 E0.6384
G1 X149.861 Y114.898 E0.7302
G1 X148.695 Y116.746 E0.8157
G1 X147.030 Y118.479 E0.9097
G1 X145.076 Y119.778 E1.0015
G1 X142.773 Y120.669 E1.0980
G1 X140.823 Y121.033 E1.1756
G1 X87.177 Y121.033 E3.2739
G1 X85.227 Y120.669 E3.3515
G1 X82.924 Y119.778 E3.4481
G1 X80.971 Y118.479 E3.5399
G1 X79.305 Y116.747 E3.6339
G1 X78.590 Y115.612 E3.6863
G1 X61.838 Y115.610 E4.3416
G1 X61.075 Y115.555 E4.3715
G1 X59.766 Y115.367 E4.4232
G1 X59.018 Y115.204 E4.4531
G1 X57.750 Y114.832 E4.5048
G1 X57.032 Y114.564 E4.5348
G1 X55.742 Y113.975 E4.5902
G1 X54.910 Y113.502 E4.6277
G1 X53.360 Y112.425 E4.7015
G1 X52.492 Y111.673 E4.7465
G1 X51.206 Y110.291 E4.8203
G1 X50.618 Y109.535 E4.8577
G1 X49.852 Y108.342 E4.9132
G1 X49.485 Y107.670 E4.9431
G1 X48.936 Y106.468 E4.9949
G1 X48.668 Y105.750 E5.0248
G1 X48.295 Y104.481 E5.0765
G1 X48.133 Y103.733 E5.1065
G1 X47.945 Y102.427 E5.1581
G1 X47.891 Y101.670 E5.1878
G1 X47.880 Y92.224 E5.5572
G1 X47.910 Y91.646 E5.5799
G1 X48.082 Y90.050 E5.6427
G1 X48.268 Y89.111 E5.6801
G1 X48.668 Y87.750 E5.7356
G1 X48.936 Y87.032 E5.7656
G1 X49.485 Y85.830 E5.8173
G1 X49.852 Y85.157 E5.8472
G1 X50.567 Y84.045 E5.8990
G1 X51.025 Y83.432 E5.9289
G1 X51.891 Y82.433 E5.9806
G1 X52.433 Y81.891 E6.0106
G1 X53.432 Y81.025 E6.0623
G1 X54.045 Y80.567 E6.0922
G1 X55.157 Y79.852 E6.1440
G1 X55.830 Y79.485 E6.1739
G1 X57.032 Y78.936 E6.2256
G1 X57.750 Y78.668 E6.2556
G1 X59.111 Y78.268 E6.3111
G1 X60.051 Y78.082 E6.3485
G1 X61.643 Y77.911 E6.4112
G1 X62.217 Y77.880 E6.4337
G1 X113.259 Y77.890 E8.4301
G1 X114.211 Y77.975 E8.4675
G1 X116.068 Y78.310 E8.5413
G1 X117.170 Y78.634 E8.5862
G1 X119.002 Y79.393 E8.6638
G1 X120.011 Y79.944 E8.7087
G1 X121.640 Y81.075 E8.7863
G1 X122.508 Y81.827 E8.8313
G1 X123.860 Y83.279 E8.9088
G1 X124.548 Y84.199 E8.9538
G1 X125.560 Y85.904 E9.0313
G1 X126.037 Y86.949 E9.0763
G1 X126.633 Y88.740 E9.1501
G1 X126.787 Y89.390 E9.1762
G1 X140.633 Y89.392 E9.7178
G1 X141.806 Y89.522 E9.7640
G1 X146.329 Y90.534 E9.9452
G1 X151.035 Y96.410 E10.2397
G1 X150.555 Y96.579 F18000
G92 E0.0000
G1 X150.553 Y110.756 E0.5545 F1800
G1 X150.223 Y112.571 E0.6267
G1 X149.429 Y114.684 E0.7150
G1 X148.315 Y116.449 E0.7966
G1 X146.720 Y118.108 E0.8866
G1 X144.854 Y119.349 E0.9743
G1 X142.641 Y120.205 E1.0671
G1 X140.779 Y120.553 E1.1412
G1 X87.221 Y120.553 E3.2360
G1 X85.359 Y120.205 E3.3101
G1 X83.146 Y119.350 E3.4029
G1 X81.280 Y118.108 E3.4906
G1 X79.685 Y116.449 E3.5806
G1 X78.854 Y115.132 E3.6415
G1 X61.855 Y115.130 E4.3064
G1 X61.126 Y115.078 E4.3350
G1 X59.852 Y114.895 E4.3854
G1 X59.137 Y114.739 E4.4140
G1 X57.901 Y114.376 E4.4643
G1 X57.216 Y114.121 E4.4929
G1 X55.961 Y113.548 E4.5469
G1 X55.167 Y113.095 E4.5827
G1 X53.655 Y112.046 E4.6546
G1 X52.825 Y111.327 E4.6976
G1 X51.572 Y109.980 E4.7696
G1 X51.011 Y109.258 E4.8053
G1 X50.265 Y108.097 E4.8593
G1 X49.914 Y107.455 E4.8879
G1 X49.379 Y106.284 E4.9383
G1 X49.124 Y105.598 E4.9669
G1 X48.761 Y104.362 E5.0173
G1 X48.605 Y103.647 E5.0459
G1 X48.423 Y102.376 E5.0961
G1 X48.371 Y101.653 E5.1245
G1 X48.360 Y92.237 E5.4928
G1 X48.389 Y91.684 E5.5144
G1 X48.557 Y90.123 E5.5758
G1 X48.735 Y89.225 E5.6116
G1 X49.124 Y87.902 E5.6656
G1 X49.379 Y87.216 E5.6942
G1 X49.914 Y86.045 E5.7446
G1 X50.265 Y85.402 E5.7732
G1 X50.961 Y84.319 E5.8236
G1 X51.399 Y83.734 E5.8522
G1 X52.243 Y82.760 E5.9026
G1 X52.760 Y82.243 E5.9312
G1 X53.734 Y81.399 E5.9816
G1 X54.319 Y80.961 E6.0102
G1 X55.403 Y80.265 E6.0605
G1 X56.044 Y79.914 E6.0892
G1 X57.216 Y79.379 E6.1395
G1 X57.901 Y79.124 E6.1681
G1 X59.225 Y78.735 E6.2221
G1 X60.123 Y78.556 E6.2579
G1 X61.682 Y78.389 E6.3192
G1 X62.230 Y78.360 E6.3407
G1 X113.237 Y78.370 E8.3358
G1 X114.147 Y78.452 E8.3715
G1 X115.957 Y78.778 E8.4435
G1 X117.010 Y79.087 E8.4864
G1 X118.795 Y79.827 E8.5619
G1 X119.758 Y80.353 E8.6049
G1 X121.345 Y81.454 E8.6804
G1 X122.175 Y82.173 E8.7234
G1 X123.491 Y83.587 E8.7989
G1 X124.149 Y84.466 E8.8419
G1 X125.134 Y86.127 E8.9174
G1 X125.590 Y87.125 E8.9603
G1 X126.171 Y88.871 E9.0323
G1 X126.381 Y89.761 E9.0681
G1 X126.397 Y89.870 E9.0724
G1 X140.607 Y89.872 E9.6282
G1 X141.727 Y89.996 E9.6723
G1 X146.059 Y90.966 E9.8459
G1 X150.555 Y96.579 E10.1272
G92 E0.0000
G1 E-4.0000 F3600
; feature inner perimeter
G1 X140.074 Y100.363 F18000
G1 X140.074 Y101.152
G1 X138.634 Y101.780
G1 E0.0000 F3600
G92 E0.0000
G1 X138.633 Y105.135 E0.1312 F1350
G1 X138.277 Y105.198 E0.1454
G1 X137.985 Y104.396 E0.1787
G1 X137.447 Y103.756 E0.2114
G1 X136.723 Y103.338 E0.2442
G1 X136.056 Y103.220 E0.2707
G1 X62.532 Y103.220 E3.1465
G1 X62.342 Y103.213 E3.1539
G1 X62.184 Y103.196 E3.1601
G1 X62.028 Y103.168 E3.1663
G1 X61.875 Y103.129 E3.1725
G1 X61.725 Y103.079 E3.1787
G1 X61.578 Y103.018 E3.1849
G1 X61.437 Y102.947 E3.1911
G1 X61.300 Y102.867 E3.1973
G1 X61.170 Y102.776 E3.2035
G1 X61.047 Y102.677 E3.2097
G1 X60.931 Y102.569 E3.2159
G1 X60.823 Y102.453 E3.2221
G1 X60.724 Y102.330 E3.2283
G1 X60.633 Y102.200 E3.2345
G1 X60.552 Y102.063 E3.2407
G1 X60.482 Y101.922 E3.2468
G1 X60.421 Y101.775 E3.2530
G1 X60.371 Y101.625 E3.2592
G1 X60.332 Y101.472 E3.2654
G1 X60.304 Y101.316 E3.2716
G1 X60.290 Y101.188 E3.2767
G1 X60.280 Y92.531 E3.6153
G1 X60.287 Y92.342 E3.6227
G1 X60.304 Y92.184 E3.6289
G1 X60.332 Y92.028 E3.6351
G1 X60.371 Y91.875 E3.6413
G1 X60.421 Y91.724 E3.6475
G1 X60.482 Y91.578 E3.6536
G1 X60.553 Y91.437 E3.6598
G1 X60.633 Y91.300 E3.6660
G1 X60.724 Y91.170 E3.6722
G1 X60.823 Y91.047 E3.6784
G1 X60.931 Y90.931 E3.6846
G1 X61.047 Y90.823 E3.6908
G1 X61.170 Y90.724 E3.6970
G1 X61.300 Y90.633 E3.7032
G1 X61.437 Y90.553 E3.7094
G1 X61.578 Y90.482 E3.7156
G1 X61.724 Y90.421 E3.7218
G1 X61.875 Y90.371 E3.7280
G1 X62.028 Y90.332 E3.7342
G1 X62.184 Y90.304 E3.7404
G1 X62.342 Y90.287 E3.7466
G1 X62.532 Y90.280 E3.7540
G1 X112.468 Y90.280 E5.7072
G1 X112.658 Y90.287 E5.7147
G1 X112.816 Y90.304 E5.7209
G1 X112.972 Y90.332 E5.7271
G1 X113.125 Y90.371 E5.7333
G1 X113.275 Y90.421 E5.7394
G1 X113.422 Y90.482 E5.7456
G1 X113.563 Y90.553 E5.7518
G1 X113.700 Y90.633 E5.7580
G1 X113.830 Y90.724 E5.7642
G1 X113.953 Y90.823 E5.7704
