; G-Code generated by Simplify3D(R) Version 4.1.2
; Jun 10, 2020 at 10:58:56 PM
; Settings Summary
;   processName,Process1
;   applyToModels,essl-adapter-male
;   profileName,HBot (modified)
;   profileVersion,2019-10-26 23:38:43
;   baseProfile,Default
;   printMaterial,PETG - SUNLU
;   printQuality,Medium
;   printExtruders,
;   extruderName,Extruder 1
;   extruderToolheadNumber,0
;   extruderDiameter,0.4
;   extruderAutoWidth,1
;   extruderWidth,0.48
;   extrusionMultiplier,0.98
;   extruderUseRetract,1
;   extruderRetractionDistance,4
;   extruderExtraRestartDistance,0
;   extruderRetractionZLift,0
;   extruderRetractionSpeed,3600
;   extruderUseCoasting,1
;   extruderCoastingDistance,0.2
;   extruderUseWipe,1
;   extruderWipeDistance,5
;   primaryExtruder,0
;   layerHeight,0.2
;   topSolidLayers,4
;   bottomSolidLayers,4
;   perimeterOutlines,4
;   printPerimetersInsideOut,1
;   startPointOption,3
;   startPointOriginX,200
;   startPointOriginY,100
;   sequentialIslands,0
;   spiralVaseMode,0
;   firstLayerHeightPercentage,100
;   firstLayerWidthPercentage,100
;   firstLayerUnderspeed,0.5
;   useRaft,0
;   raftExtruder,0
;   raftTopLayers,3
;   raftBaseLayers,2
;   raftOffset,3
;   raftSeparationDistance,0.18
;   raftTopInfill,100
;   aboveRaftSpeedMultiplier,0.3
;   useSkirt,1
;   skirtExtruder,0
;   skirtLayers,1
;   skirtOutlines,5
;   skirtOffset,10
;   usePrimePillar,0
;   primePillarExtruder,999
;   primePillarWidth,12
;   primePillarLocation,7
;   primePillarSpeedMultiplier,1
;   useOozeShield,0
;   oozeShieldExtruder,999
;   oozeShieldOffset,0.9
;   oozeShieldOutlines,2
;   oozeShieldSidewallShape,0
;   oozeShieldSidewallAngle,30
;   oozeShieldSpeedMultiplier,1.5
;   infillExtruder,0
;   internalInfillPattern,Rectilinear
;   externalInfillPattern,Rectilinear
;   infillPercentage,20
;   outlineOverlapPercentage,25
;   infillExtrusionWidthPercentage,100
;   minInfillLength,5
;   infillLayerInterval,1
;   internalInfillAngles,45,-45
;   overlapInternalInfillAngles,0
;   externalInfillAngles,45,-45
;   generateSupport,1
;   supportExtruder,0
;   supportInfillPercentage,30
;   supportExtraInflation,0
;   supportBaseLayers,1
;   denseSupportExtruder,0
;   denseSupportLayers,0
;   denseSupportInfillPercentage,70
;   supportLayerInterval,1
;   supportHorizontalPartOffset,0.3
;   supportUpperSeparationLayers,1
;   supportLowerSeparationLayers,1
;   supportType,0
;   supportGridSpacing,4
;   maxOverhangAngle,25
;   supportAngles,0
;   temperatureName,Extruder 1,Heated Bed
;   temperatureNumber,0,1
;   temperatureSetpointCount,2,1
;   temperatureSetpointLayers,1,2,1
;   temperatureSetpointTemperatures,235,225,75
;   temperatureStabilizeAtStartup,1,1
;   temperatureHeatedBed,0,1
;   fanLayers,1,5,10
;   fanSpeeds,0,5,20
;   blipFanToFullPower,1
;   adjustSpeedForCooling,1
;   minSpeedLayerTime,15
;   minCoolingSpeedSlowdown,20
;   increaseFanForCooling,0
;   minFanLayerTime,45
;   maxCoolingFanSpeed,35
;   increaseFanForBridging,1
;   bridgingFanSpeed,85
;   use5D,1
;   relativeEdistances,0
;   allowEaxisZeroing,1
;   independentExtruderAxes,0
;   includeM10123,0
;   stickySupport,1
;   applyToolheadOffsets,0
;   gcodeXoffset,0
;   gcodeYoffset,0
;   gcodeZoffset,0
;   overrideMachineDefinition,1
;   machineTypeOverride,0
;   strokeXoverride,200
;   strokeYoverride,200
;   strokeZoverride,150
;   originOffsetXoverride,0
;   originOffsetYoverride,0
;   originOffsetZoverride,0
;   homeXdirOverride,-1
;   homeYdirOverride,-1
;   homeZdirOverride,-1
;   flipXoverride,1
;   flipYoverride,-1
;   flipZoverride,1
;   toolheadOffsets,0,0|0,0|0,0|0,0|0,0|0,0
;   overrideFirmwareConfiguration,1
;   firmwareTypeOverride,RepRap (Marlin/Repetier/Sprinter)
;   GPXconfigOverride,r2
;   baudRateOverride,115200
;   overridePrinterModels,0
;   printerModelsOverride
;   startingGcode,G28 ; home all axes,G32 ; run bed.g -- probe bed and enable compensation
;   layerChangeGcode,
;   retractionGcode,
;   toolChangeGcode,
;   endingGcode,M0 ; call stop.g
;   exportFileFormat,gcode
;   celebration,0
;   celebrationSong,Random Song
;   postProcessing,
;   defaultSpeed,3600
;   outlineUnderspeed,0.5
;   solidInfillUnderspeed,0.8
;   supportUnderspeed,0.8
;   rapidXYspeed,18000
;   rapidZspeed,1200
;   minBridgingArea,50
;   bridgingExtraInflation,0
;   bridgingExtrusionMultiplier,0.96
;   bridgingSpeedMultiplier,1
;   useFixedBridgingAngle,0
;   fixedBridgingAngle,0
;   applyBridgingToPerimeters,0
;   filamentDiameters,1.75|1.75|1.75|1.75|1.75|1.75
;   filamentPricesPerKg,46|46|46|46|46|46
;   filamentDensities,1.25|1.25|1.25|1.25|1.25|1.25
;   useMinPrintHeight,0
;   minPrintHeight,20
;   useMaxPrintHeight,0
;   maxPrintHeight,15
;   useDiaphragm,0
;   diaphragmLayerInterval,20
;   robustSlicing,1
;   mergeAllIntoSolid,0
;   onlyRetractWhenCrossingOutline,1
;   retractBetweenLayers,0
;   useRetractionMinTravel,1
;   retractionMinTravel,3
;   retractWhileWiping,1
;   onlyWipeOutlines,1
;   avoidCrossingOutline,1
;   maxMovementDetourFactor,5
;   toolChangeRetractionDistance,12
;   toolChangeExtraRestartDistance,-0.5
;   toolChangeRetractionSpeed,600
;   externalThinWallType,0
;   internalThinWallType,2
;   thinWallAllowedOverlapPercentage,10
;   singleExtrusionMinLength,1
;   singleExtrusionMinPrintingWidthPercentage,50
;   singleExtrusionMaxPrintingWidthPercentage,150
;   singleExtrusionEndpointExtension,0.2
;   horizontalSizeCompensation,-0.1
G90
M82
M106 S0
M140 S75
M190 S75
M104 S235 T0
M109 S235 T0
G28 ; home all axes
G32 ; run bed.g -- probe bed and enable compensation
; process Process1
; layer 1, Z = 0.200
T0
G92 E0.0000
G1 E-4.0000 F3600
; feature skirt
; tool H0.200 W0.480
G1 Z0.200 F1200
G1 X135.380 Y113.257 F18000
G1 E0.0000 F3600
G92 E0.0000
G1 X134.380 Y114.257 E0.0553 F1800
G1 X134.380 Y116.257 E0.1335
G1 X133.380 Y117.257 E0.1889
G1 X133.380 Y118.257 E0.2280
G1 X132.380 Y119.257 E0.2833
G1 X132.380 Y120.257 E0.3224
G1 X131.380 Y121.257 E0.3777
G1 X131.380 Y122.257 E0.4168
G1 X121.257 Y132.380 E0.9768
G1 X110.100 Y132.380 E1.4132
G1 X109.388 Y133.088 E1.4525
G1 X102.165 Y133.047 E1.7350
G1 X101.010 Y132.930 E1.7804
G1 X99.985 Y132.726 E1.8213
G1 X99.444 Y132.862 E1.8431
G1 X97.990 Y133.046 E1.9004
G1 X90.612 Y133.088 E2.1890
G1 X89.900 Y132.380 E2.2283
G1 X78.743 Y132.380 E2.6647
G1 X68.620 Y122.257 E3.2246
G1 X68.620 Y121.257 E3.2637
G1 X67.620 Y120.257 E3.3191
G1 X67.620 Y119.257 E3.3582
G1 X66.620 Y118.257 E3.4135
G1 X66.620 Y117.257 E3.4526
G1 X65.620 Y116.257 E3.5079
G1 X65.620 Y114.254 E3.5863
G1 X64.615 Y113.248 E3.6419
G1 X64.652 Y76.614 E5.0748
G1 X64.940 Y76.614 E5.0860
G1 X64.940 Y74.063 E5.1858
G1 X72.063 Y66.940 E5.5798
G1 X127.937 Y66.940 E7.7653
G1 X135.060 Y74.063 E8.1593
G1 X135.060 Y76.899 E8.2702
G1 X135.380 Y76.906 E8.2827
G1 X135.380 Y113.257 E9.7045
G1 X134.900 Y113.058 F18000
G92 E0.0000
G1 X133.900 Y114.058 E0.0553 F1800
G1 X133.900 Y116.058 E0.1335
G1 X132.900 Y117.058 E0.1889
G1 X132.900 Y118.058 E0.2280
G1 X131.900 Y119.058 E0.2833
G1 X131.900 Y120.058 E0.3224
G1 X130.900 Y121.058 E0.3777
G1 X130.900 Y122.058 E0.4168
G1 X121.058 Y131.900 E0.9612
G1 X109.942 Y131.900 E1.3960
G1 X109.922 Y131.880 E1.3971
G1 X109.191 Y132.607 E1.4375
G1 X102.190 Y132.567 E1.7113
G1 X101.082 Y132.455 E1.7549
G1 X99.972 Y132.234 E1.7991
G1 X99.355 Y132.389 E1.8240
G1 X97.959 Y132.566 E1.8791
G1 X90.809 Y132.607 E2.1587
G1 X90.078 Y131.880 E2.1990
G1 X90.058 Y131.900 E2.2002
G1 X78.942 Y131.900 E2.6349
G1 X69.100 Y122.058 E3.1794
G1 X69.100 Y121.058 E3.2185
G1 X68.100 Y120.058 E3.2738
G1 X68.100 Y119.058 E3.3129
G1 X67.100 Y118.058 E3.3682
G1 X67.100 Y117.058 E3.4073
G1 X66.100 Y116.058 E3.4626
G1 X66.100 Y114.056 E3.5410
G1 X65.095 Y113.049 E3.5966
G1 X65.132 Y77.094 E5.0030
G1 X65.420 Y77.094 E5.0142
G1 X65.420 Y74.262 E5.1250
G1 X72.262 Y67.420 E5.5035
G1 X127.738 Y67.420 E7.6733
G1 X134.580 Y74.262 E8.0518
G1 X134.580 Y77.367 E8.1733
G1 X134.900 Y77.375 E8.1858
G1 X134.900 Y113.058 E9.5815
G1 X134.420 Y112.859 F18000
G92 E0.0000
G1 X133.420 Y113.859 E0.0553 F1800
G1 X133.420 Y115.859 E0.1335
G1 X132.420 Y116.859 E0.1889
G1 X132.420 Y117.859 E0.2280
G1 X131.420 Y118.859 E0.2833
G1 X131.420 Y119.859 E0.3224
G1 X130.420 Y120.859 E0.3777
G1 X130.420 Y121.859 E0.4168
G1 X120.859 Y131.420 E0.9457
G1 X110.141 Y131.420 E1.3649
G1 X109.923 Y131.202 E1.3770
G1 X108.994 Y132.126 E1.4282
G1 X102.216 Y132.087 E1.6933
G1 X101.153 Y131.979 E1.7351
G1 X99.960 Y131.742 E1.7827
G1 X99.266 Y131.917 E1.8107
G1 X97.927 Y132.086 E1.8635
G1 X91.006 Y132.126 E2.1342
G1 X90.077 Y131.202 E2.1854
G1 X89.859 Y131.420 E2.1975
G1 X79.141 Y131.420 E2.6167
G1 X69.580 Y121.859 E3.1456
G1 X69.580 Y120.859 E3.1847
G1 X68.580 Y119.859 E3.2400
G1 X68.580 Y118.859 E3.2791
G1 X67.580 Y117.859 E3.3344
G1 X67.580 Y116.859 E3.3736
G1 X66.580 Y115.859 E3.4289
G1 X66.580 Y113.857 E3.5072
G1 X65.575 Y112.851 E3.5628
G1 X65.612 Y77.574 E4.9426
G1 X65.900 Y77.574 E4.9539
G1 X65.900 Y74.461 E5.0757
G1 X72.461 Y67.900 E5.4386
G1 X127.539 Y67.900 E7.5929
G1 X134.100 Y74.461 E7.9558
G1 X134.100 Y77.836 E8.0879
G1 X134.420 Y77.844 E8.1004
G1 X134.420 Y112.859 E9.4700
G1 X133.940 Y112.660 F18000
G92 E0.0000
G1 X132.940 Y113.660 E0.0553 F1800
G1 X132.940 Y115.660 E0.1335
G1 X131.940 Y116.660 E0.1889
G1 X131.940 Y117.660 E0.2280
G1 X130.940 Y118.660 E0.2833
G1 X130.940 Y119.660 E0.3224
G1 X129.940 Y120.660 E0.3777
G1 X129.940 Y121.660 E0.4168
G1 X120.660 Y130.940 E0.9301
G1 X110.340 Y130.940 E1.3338
G1 X109.924 Y130.524 E1.3568
G1 X108.797 Y131.645 E1.4190
G1 X102.242 Y131.607 E1.6754
G1 X101.224 Y131.504 E1.7154
G1 X99.948 Y131.250 E1.7663
G1 X99.177 Y131.444 E1.7974
G1 X97.895 Y131.607 E1.8479
G1 X91.203 Y131.645 E2.1097
G1 X90.076 Y130.524 E2.1718
G1 X89.660 Y130.940 E2.1948
G1 X79.340 Y130.940 E2.5985
G1 X70.060 Y121.660 E3.1118
G1 X70.060 Y120.660 E3.1509
G1 X69.060 Y119.660 E3.2062
G1 X69.060 Y118.660 E3.2454
G1 X68.060 Y117.660 E3.3007
G1 X68.060 Y116.660 E3.3398
G1 X67.060 Y115.660 E3.3951
G1 X67.060 Y113.658 E3.4734
G1 X66.055 Y112.653 E3.5290
G1 X66.091 Y78.054 E4.8823
G1 X66.380 Y78.055 E4.8936
G1 X66.380 Y74.660 E5.0264
G1 X72.660 Y68.380 E5.3737
G1 X127.340 Y68.380 E7.5125
G1 X133.620 Y74.660 E7.8599
G1 X133.620 Y78.305 E8.0024
G1 X133.940 Y78.312 E8.0150
G1 X133.940 Y112.660 E9.3585
G1 X133.460 Y112.462 F18000
G92 E0.0000
G1 X132.460 Y113.462 E0.0553 F1800
G1 X132.460 Y115.462 E0.1335
G1 X131.460 Y116.462 E0.1889
G1 X131.460 Y117.462 E0.2280
G1 X130.460 Y118.462 E0.2833
G1 X130.460 Y119.462 E0.3224
G1 X129.460 Y120.462 E0.3777
G1 X129.460 Y121.462 E0.4168
G1 X120.462 Y130.460 E0.9146
G1 X110.538 Y130.460 E1.3027
G1 X109.925 Y129.846 E1.3367
G1 X108.600 Y131.163 E1.4097
G1 X102.267 Y131.127 E1.6574
G1 X101.295 Y131.029 E1.6956
G1 X99.957 Y130.763 E1.7490
G1 X99.940 Y130.757 E1.7497
G1 X99.088 Y130.972 E1.7841
G1 X97.864 Y131.127 E1.8323
G1 X91.400 Y131.163 E2.0852
G1 X90.075 Y129.846 E2.1582
G1 X89.462 Y130.460 E2.1922
G1 X79.538 Y130.460 E2.5803
G1 X70.540 Y121.462 E3.0781
G1 X70.540 Y120.462 E3.1172
G1 X69.540 Y119.462 E3.1725
G1 X69.540 Y118.462 E3.2116
G1 X68.540 Y117.462 E3.2669
G1 X68.540 Y116.462 E3.3060
G1 X67.540 Y115.462 E3.3614
G1 X67.540 Y113.459 E3.4397
G1 X66.536 Y112.454 E3.4952
G1 X66.571 Y78.535 E4.8220
G1 X66.860 Y78.535 E4.8333
G1 X66.860 Y74.858 E4.9771
G1 X72.858 Y68.860 E5.3089
G1 X127.142 Y68.860 E7.4321
G1 X133.140 Y74.858 E7.7639
G1 X133.140 Y78.773 E7.9171
G1 X133.460 Y78.781 E7.9296
G1 X133.460 Y112.462 E9.2470
G92 E0.0000
G1 E-4.0000 F3600
; feature inner perimeter
G1 X122.660 Y88.660 F18000
G1 X121.918 Y88.660
G1 X121.220 Y87.220
G1 E0.0000 F3600
G92 E0.0000
G1 X78.780 Y87.220 E1.6600 F1350
G1 X78.780 Y80.780 E1.9119
G1 X121.220 Y80.780 E3.5719
G1 X121.220 Y87.020 E3.8160
G1 X121.220 Y87.220 F1350
G1 X121.700 Y87.700 F18000
G92 E0.0000
G1 X103.200 Y87.700 E0.7236 F1350
G1 X103.200 Y119.693 E1.9750
G1 X102.936 Y119.691 E1.9853
G1 X102.799 Y119.664 E1.9908
G1 X102.673 Y119.612 E1.9961
G1 X102.560 Y119.536 E2.0014
G1 X102.439 Y119.416 E2.0081
G1 X102.343 Y119.235 E2.0161
G1 X102.310 Y119.068 E2.0228
G1 X102.300 Y87.700 E3.2497
G1 X97.700 Y87.700 E3.4296
G1 X97.700 Y118.936 E4.6513
G1 X97.680 Y119.135 E4.6592
G1 X97.641 Y119.265 E4.6645
G1 X97.561 Y119.416 E4.6712
G1 X97.416 Y119.561 E4.6792
G1 X97.265 Y119.641 E4.6858
G1 X97.101 Y119.691 E4.6926
G1 X96.800 Y119.693 E4.7043
G1 X96.800 Y87.700 E5.9557
G1 X78.300 Y87.700 E6.6793
G1 X78.300 Y80.300 E6.9687
G1 X121.700 Y80.300 E8.6663
G1 X121.700 Y87.500 E8.9479
G1 X121.700 Y87.700 F1350
G1 X122.180 Y88.180 F18000
G92 E0.0000
G1 X103.680 Y88.180 E0.7236 F1350
G1 X103.680 Y120.175 E1.9751
G1 X102.887 Y120.171 E2.0061
G1 X102.659 Y120.125 E2.0152
G1 X102.446 Y120.037 E2.0242
G1 X102.254 Y119.909 E2.0332
G1 X102.077 Y119.732 E2.0430
G1 X102.032 Y119.671 E2.0460
G1 X101.904 Y119.432 E2.0566
G1 X101.879 Y119.361 E2.0595
G1 X101.830 Y119.115 E2.0694
G1 X101.820 Y88.180 E3.2793
G1 X98.180 Y88.180 E3.4217
G1 X98.180 Y118.960 E4.6256
G1 X98.153 Y119.229 E4.6362
G1 X98.087 Y119.450 E4.6452
G1 X97.968 Y119.671 E4.6551
G1 X97.923 Y119.732 E4.6580
G1 X97.732 Y119.923 E4.6686
G1 X97.671 Y119.968 E4.6715
G1 X97.450 Y120.087 E4.6814
G1 X97.210 Y120.159 E4.6912
G1 X97.133 Y120.171 E4.6942
G1 X96.320 Y120.175 E4.7260
G1 X96.320 Y88.180 E5.9775
G1 X77.820 Y88.180 E6.7011
G1 X77.820 Y79.820 E7.0281
G1 X122.180 Y79.820 E8.7632
G1 X122.180 Y87.980 E9.0823
G1 X122.180 Y88.180 F1350
; feature outer perimeter
G1 X122.660 Y88.660 F18000
G92 E0.0000
G1 X104.160 Y88.660 E0.7236 F900
G1 X104.160 Y120.658 E1.9752
G1 X102.838 Y120.651 E2.0269
G1 X102.519 Y120.587 E2.0396
G1 X102.218 Y120.463 E2.0523
G1 X101.948 Y120.282 E2.0651
G1 X101.712 Y120.046 E2.0781
G1 X101.625 Y119.929 E2.0838
G1 X101.464 Y119.627 E2.0972
G1 X101.415 Y119.490 E2.1029
G1 X101.350 Y119.162 E2.1160
G1 X101.340 Y88.660 E3.3090
G1 X98.660 Y88.660 E3.4138
G1 X98.660 Y118.983 E4.5999
G1 X98.626 Y119.324 E4.6133
G1 X98.532 Y119.635 E4.6260
G1 X98.375 Y119.929 E4.6390
G1 X98.288 Y120.046 E4.6448
G1 X98.046 Y120.288 E4.6581
G1 X97.929 Y120.375 E4.6638
G1 X97.635 Y120.532 E4.6769
G1 X97.316 Y120.629 E4.6899
G1 X97.170 Y120.651 E4.6957
G1 X95.840 Y120.658 E4.7477
G1 X95.840 Y88.660 E5.9993
G1 X77.340 Y88.660 E6.7229
G1 X77.340 Y79.340 E7.0874
G1 X122.660 Y79.340 E8.8601
G1 X122.660 Y88.460 E9.2168
G1 X122.660 Y88.660 F900
G1 X117.660 Y88.660 F900
; feature gap fill
G1 X102.660 Y87.725 F18000
G92 E0.0000
G1 X102.840 Y87.906 E0.0100 F1800
G1 X102.840 Y88.585 E0.0365
G1 X102.660 Y88.405 E0.0465
G1 X102.660 Y89.084 E0.0731
G1 X102.840 Y89.264 E0.0830
G1 X102.840 Y89.942 E0.1096
G1 X102.660 Y89.763 E0.1195
G1 X102.660 Y90.442 E0.1461
G1 X102.840 Y90.621 E0.1560
G1 X102.840 Y91.300 E0.1826
G1 X102.661 Y91.121 E0.1925
G1 X102.661 Y91.800 E0.2190
G1 X102.840 Y91.979 E0.2289
G1 X102.840 Y92.658 E0.2555
G1 X102.661 Y92.479 E0.2654
G1 X102.661 Y93.158 E0.2919
G1 X102.840 Y93.336 E0.3018
G1 X102.840 Y94.015 E0.3284
G1 X102.662 Y93.837 E0.3383
G1 X102.662 Y94.516 E0.3648
G1 X102.840 Y94.694 E0.3747
G1 X102.840 Y95.373 E0.4012
G1 X102.662 Y95.195 E0.4111
G1 X102.662 Y95.874 E0.4376
G1 X102.840 Y96.052 E0.4475
G1 X102.840 Y96.731 E0.4740
G1 X102.662 Y96.553 E0.4838
G1 X102.663 Y97.232 E0.5104
G1 X102.840 Y97.409 E0.5202
G1 X102.840 Y98.088 E0.5468
G1 X102.663 Y97.911 E0.5566
G1 X102.663 Y98.590 E0.5831
G1 X102.840 Y98.767 E0.5929
G1 X102.840 Y99.446 E0.6195
G1 X102.663 Y99.269 E0.6292
G1 X102.663 Y99.948 E0.6558
G1 X102.840 Y100.125 E0.6656
G1 X102.840 Y100.804 E0.6921
G1 X102.664 Y100.627 E0.7019
G1 X102.664 Y101.306 E0.7284
G1 X102.840 Y101.482 E0.7382
G1 X102.840 Y102.161 E0.7647
G1 X102.664 Y101.985 E0.7744
G1 X102.664 Y102.664 E0.8010
G1 X102.840 Y102.840 E0.8107
G1 X102.840 Y103.519 E0.8373
G1 X102.665 Y103.343 E0.8470
G1 X102.665 Y104.022 E0.8735
G1 X102.840 Y104.198 E0.8832
G1 X102.840 Y104.876 E0.9098
G1 X102.665 Y104.701 E0.9195
G1 X102.665 Y105.380 E0.9460
G1 X102.840 Y105.555 E0.9557
G1 X102.840 Y106.234 E0.9822
G1 X102.665 Y106.060 E0.9919
G1 X102.666 Y106.739 E1.0185
G1 X102.840 Y106.913 E1.0281
G1 X102.840 Y107.592 E1.0547
