; G-Code generated by Simplify3D(R) Version 4.1.2
; Apr 17, 2020 at 4:19:51 AM
; Settings Summary
;   processName,Process1
;   applyToModels,haken,haken(2),haken(3),haken(4)
;   profileName,HBot (modified)
;   profileVersion,2019-10-26 23:38:43
;   baseProfile,Default
;   printMaterial,PLA
;   printQuality,Medium
;   printExtruders,
;   extruderName,Extruder 1
;   extruderToolheadNumber,0
;   extruderDiameter,0.4
;   extruderAutoWidth,1
;   extruderWidth,0.48
;   extrusionMultiplier,0.94
;   extruderUseRetract,1
;   extruderRetractionDistance,3
;   extruderExtraRestartDistance,0
;   extruderRetractionZLift,0
;   extruderRetractionSpeed,3600
;   extruderUseCoasting,1
;   extruderCoastingDistance,0.2
;   extruderUseWipe,1
;   extruderWipeDistance,5
;   primaryExtruder,0
;   layerHeight,0.2
;   topSolidLayers,3
;   bottomSolidLayers,3
;   perimeterOutlines,3
;   printPerimetersInsideOut,1
;   startPointOption,3
;   startPointOriginX,200
;   startPointOriginY,100
;   sequentialIslands,0
;   spiralVaseMode,0
;   firstLayerHeightPercentage,100
;   firstLayerWidthPercentage,150
;   firstLayerUnderspeed,0.5
;   useRaft,0
;   raftExtruder,0
;   raftTopLayers,3
;   raftBaseLayers,2
;   raftOffset,3
;   raftSeparationDistance,0.18
;   raftTopInfill,100
;   aboveRaftSpeedMultiplier,0.3
;   useSkirt,1
;   skirtExtruder,0
;   skirtLayers,1
;   skirtOutlines,5
;   skirtOffset,0
;   usePrimePillar,0
;   primePillarExtruder,999
;   primePillarWidth,12
;   primePillarLocation,7
;   primePillarSpeedMultiplier,1
;   useOozeShield,0
;   oozeShieldExtruder,999
;   oozeShieldOffset,2
;   oozeShieldOutlines,1
;   oozeShieldSidewallShape,1
;   oozeShieldSidewallAngle,30
;   oozeShieldSpeedMultiplier,1
;   infillExtruder,0
;   internalInfillPattern,Rectilinear
;   externalInfillPattern,Rectilinear
;   infillPercentage,20
;   outlineOverlapPercentage,25
;   infillExtrusionWidthPercentage,150
;   minInfillLength,5
;   infillLayerInterval,1
;   internalInfillAngles,45,-45
;   overlapInternalInfillAngles,0
;   externalInfillAngles,45,-45
;   generateSupport,0
;   supportExtruder,0
;   supportInfillPercentage,30
;   supportExtraInflation,0
;   supportBaseLayers,1
;   denseSupportExtruder,0
;   denseSupportLayers,0
;   denseSupportInfillPercentage,70
;   supportLayerInterval,1
;   supportHorizontalPartOffset,0.3
;   supportUpperSeparationLayers,1
;   supportLowerSeparationLayers,1
;   supportType,0
;   supportGridSpacing,4
;   maxOverhangAngle,25
;   supportAngles,0
;   temperatureName,Extruder 1,Heated Bed
;   temperatureNumber,0,1
;   temperatureSetpointCount,2,1
;   temperatureSetpointLayers,1,2,1
;   temperatureSetpointTemperatures,217,208,65
;   temperatureStabilizeAtStartup,1,1
;   temperatureHeatedBed,0,1
;   fanLayers,1,2,4
;   fanSpeeds,0,20,30
;   blipFanToFullPower,1
;   adjustSpeedForCooling,1
;   minSpeedLayerTime,15
;   minCoolingSpeedSlowdown,20
;   increaseFanForCooling,0
;   minFanLayerTime,45
;   maxCoolingFanSpeed,40
;   increaseFanForBridging,1
;   bridgingFanSpeed,80
;   use5D,1
;   relativeEdistances,0
;   allowEaxisZeroing,1
;   independentExtruderAxes,0
;   includeM10123,0
;   stickySupport,1
;   applyToolheadOffsets,0
;   gcodeXoffset,0
;   gcodeYoffset,0
;   gcodeZoffset,0
;   overrideMachineDefinition,1
;   machineTypeOverride,0
;   strokeXoverride,200
;   strokeYoverride,200
;   strokeZoverride,150
;   originOffsetXoverride,0
;   originOffsetYoverride,0
;   originOffsetZoverride,0
;   homeXdirOverride,-1
;   homeYdirOverride,-1
;   homeZdirOverride,-1
;   flipXoverride,1
;   flipYoverride,-1
;   flipZoverride,1
;   toolheadOffsets,0,0|0,0|0,0|0,0|0,0|0,0
;   overrideFirmwareConfiguration,1
;   firmwareTypeOverride,RepRap (Marlin/Repetier/Sprinter)
;   GPXconfigOverride,r2
;   baudRateOverride,115200
;   overridePrinterModels,0
;   printerModelsOverride
;   startingGcode,G28 ; home all axes,G32 ; run bed.g -- probe bed and enable compensation
;   layerChangeGcode,
;   retractionGcode,
;   toolChangeGcode,
;   endingGcode,M0 ; call stop.g
;   exportFileFormat,gcode
;   celebration,0
;   celebrationSong,Random Song
;   postProcessing,
;   defaultSpeed,3600
;   outlineUnderspeed,0.5
;   solidInfillUnderspeed,0.8
;   supportUnderspeed,0.8
;   rapidXYspeed,18000
;   rapidZspeed,1200
;   minBridgingArea,50
;   bridgingExtraInflation,0
;   bridgingExtrusionMultiplier,0.96
;   bridgingSpeedMultiplier,1
;   useFixedBridgingAngle,0
;   fixedBridgingAngle,0
;   applyBridgingToPerimeters,0
;   filamentDiameters,1.75|1.75|1.75|1.75|1.75|1.75
;   filamentPricesPerKg,46|46|46|46|46|46
;   filamentDensities,1.25|1.25|1.25|1.25|1.25|1.25
;   useMinPrintHeight,0
;   minPrintHeight,0
;   useMaxPrintHeight,0
;   maxPrintHeight,0
;   useDiaphragm,0
;   diaphragmLayerInterval,20
;   robustSlicing,1
;   mergeAllIntoSolid,0
;   onlyRetractWhenCrossingOutline,1
;   retractBetweenLayers,0
;   useRetractionMinTravel,1
;   retractionMinTravel,3
;   retractWhileWiping,1
;   onlyWipeOutlines,1
;   avoidCrossingOutline,1
;   maxMovementDetourFactor,5
;   toolChangeRetractionDistance,12
;   toolChangeExtraRestartDistance,-0.5
;   toolChangeRetractionSpeed,600
;   externalThinWallType,1
;   internalThinWallType,1
;   thinWallAllowedOverlapPercentage,10
;   singleExtrusionMinLength,1
;   singleExtrusionMinPrintingWidthPercentage,50
;   singleExtrusionMaxPrintingWidthPercentage,200
;   singleExtrusionEndpointExtension,0.2
;   horizontalSizeCompensation,-0.1
G90
M82
M106 S0
M140 S65
M190 S65
M104 S217 T0
M109 S217 T0
G28 ; home all axes
G32 ; run bed.g -- probe bed and enable compensation
; process Process1
; layer 1, Z = 0.200
T0
G92 E0.0000
G1 E-3.0000 F3600
; feature skirt
; tool H0.200 W0.720
G1 Z0.200 F1200
G1 X99.912 Y91.845 F18000
G1 E0.0000 F3600
G92 E0.0000
G1 X99.860 Y92.236 E0.0222 F1800
G1 X99.810 Y92.459 E0.0351
G1 X99.626 Y93.028 E0.0687
G1 X99.498 Y93.305 E0.0859
G1 X99.164 Y93.846 E0.1217
G1 X98.973 Y94.084 E0.1388
G1 X98.492 Y94.556 E0.1768
G1 X98.182 Y94.779 E0.1982
G1 X97.402 Y95.179 E0.2476
G1 X97.040 Y95.300 E0.2691
G1 X96.413 Y95.408 E0.3049
G1 X96.185 Y95.427 E0.3177
G1 X95.791 Y95.423 E0.3399
G1 X95.563 Y95.400 E0.3528
G1 X94.939 Y95.279 E0.3886
G1 X94.580 Y95.151 E0.4101
G1 X93.840 Y94.753 E0.4573
G1 X93.586 Y94.574 E0.4748
G1 X92.843 Y93.896 E0.5314
G1 X92.695 Y93.782 E0.5419
G1 X92.238 Y93.486 E0.5726
G1 X91.753 Y93.242 E0.6031
G1 X91.581 Y93.173 E0.6136
G1 X91.028 Y93.002 E0.6461
G1 X90.814 Y92.954 E0.6585
G1 X90.596 Y92.919 E0.6709
G1 X90.055 Y92.875 E0.7015
G1 X89.546 Y92.891 E0.7301
G1 X89.042 Y92.962 E0.7587
G1 X88.515 Y93.096 E0.7893
G1 X88.340 Y93.157 E0.7998
G1 X87.811 Y93.390 E0.8323
G1 X87.648 Y93.478 E0.8427
G1 X87.193 Y93.776 E0.8733
G1 X86.801 Y94.101 E0.9020
G1 X86.422 Y94.491 E0.9326
G1 X86.305 Y94.634 E0.9430
G1 X85.976 Y95.109 E0.9755
G1 X85.883 Y95.270 E0.9860
G1 X85.637 Y95.793 E1.0185
G1 X85.560 Y95.999 E1.0309
G1 X85.494 Y96.209 E1.0433
G1 X85.382 Y96.712 E1.0723
G1 X85.216 Y98.597 E1.1787
G1 X83.771 Y99.920 E1.2890
G1 X79.013 Y99.920 E1.5568
G1 X77.524 Y98.360 E1.6782
G1 X77.616 Y96.380 E1.7897
G1 X77.623 Y96.294 E1.7946
G1 X77.685 Y95.757 E1.8250
G1 X77.698 Y95.671 E1.8299
G1 X77.884 Y94.675 E1.8869
G1 X77.911 Y94.562 E1.8935
G1 X78.192 Y93.574 E1.9513
G1 X78.229 Y93.463 E1.9578
G1 X78.599 Y92.507 E2.0155
G1 X78.646 Y92.401 E2.0221
G1 X79.104 Y91.482 E2.0798
G1 X79.160 Y91.380 E2.0864
G1 X79.701 Y90.507 E2.1441
G1 X79.766 Y90.411 E2.1507
G1 X80.385 Y89.592 E2.2085
G1 X80.460 Y89.503 E2.2150
G1 X81.151 Y88.744 E2.2728
G1 X81.233 Y88.662 E2.2793
G1 X81.992 Y87.971 E2.3371
G1 X82.081 Y87.896 E2.3436
G1 X82.900 Y87.278 E2.4014
G1 X82.996 Y87.212 E2.4080
G1 X83.869 Y86.671 E2.4657
G1 X83.971 Y86.615 E2.4723
G1 X84.889 Y86.158 E2.5300
G1 X84.996 Y86.111 E2.5366
G1 X85.952 Y85.740 E2.5943
G1 X86.063 Y85.703 E2.6009
G1 X87.050 Y85.422 E2.6586
G1 X87.163 Y85.395 E2.6652
G1 X88.159 Y85.209 E2.7221
G1 X88.245 Y85.196 E2.7271
G1 X88.783 Y85.134 E2.7575
G1 X88.870 Y85.127 E2.7624
G1 X89.878 Y85.080 E2.8192
G1 X89.992 Y85.080 E2.8256
G1 X90.995 Y85.124 E2.8821
G1 X91.133 Y85.138 E2.8900
G1 X92.579 Y85.364 E2.9723
G1 X92.742 Y85.400 E2.9817
G1 X94.145 Y85.815 E3.0641
G1 X94.277 Y85.861 E3.0719
G1 X95.200 Y86.249 E3.1283
G1 X95.300 Y86.297 E3.1345
G1 X96.186 Y86.765 E3.1909
G1 X96.305 Y86.836 E3.1987
G1 X97.516 Y87.659 E3.2811
G1 X97.648 Y87.762 E3.2905
G1 X98.746 Y88.743 E3.3734
G1 X98.858 Y88.857 E3.3824
G1 X99.095 Y89.129 E3.4027
G1 X99.229 Y89.315 E3.4156
G1 X99.533 Y89.830 E3.4492
G1 X99.656 Y90.109 E3.4664
G1 X99.839 Y90.718 E3.5022
G1 X99.891 Y91.019 E3.5193
G1 X99.921 Y91.617 E3.5530
G1 X99.912 Y91.845 E3.5659
G1 X99.194 Y91.783 F18000
G92 E0.0000
G1 X99.151 Y92.110 E0.0185 F1800
G1 X99.115 Y92.269 E0.0277
G1 X98.954 Y92.766 E0.0571
G1 X98.863 Y92.963 E0.0693
G1 X98.574 Y93.430 E0.1002
G1 X98.438 Y93.600 E0.1125
G1 X98.027 Y94.004 E0.1449
G1 X97.806 Y94.163 E0.1603
G1 X97.122 Y94.513 E0.2035
G1 X96.864 Y94.600 E0.2188
G1 X96.322 Y94.693 E0.2497
G1 X96.160 Y94.706 E0.2589
G1 X95.830 Y94.703 E0.2774
G1 X95.668 Y94.687 E0.2866
G1 X95.129 Y94.582 E0.3175
G1 X94.873 Y94.491 E0.3328
G1 X94.219 Y94.140 E0.3746
G1 X94.038 Y94.012 E0.3871
G1 X93.306 Y93.344 E0.4428
G1 X93.111 Y93.194 E0.4567
G1 X92.597 Y92.860 E0.4912
G1 X92.049 Y92.585 E0.5257
G1 X91.822 Y92.494 E0.5394
G1 X91.213 Y92.305 E0.5753
G1 X90.950 Y92.247 E0.5905
G1 X90.684 Y92.203 E0.6057
G1 X90.073 Y92.154 E0.6402
G1 X89.484 Y92.172 E0.6733
G1 X88.902 Y92.254 E0.7064
G1 X88.308 Y92.406 E0.7409
G1 X88.077 Y92.486 E0.7547
G1 X87.493 Y92.743 E0.7905
G1 X87.278 Y92.860 E0.8043
G1 X86.766 Y93.196 E0.8388
G1 X86.312 Y93.571 E0.8719
G1 X85.885 Y94.011 E0.9064
G1 X85.730 Y94.200 E0.9202
G1 X85.367 Y94.724 E0.9561
G1 X85.245 Y94.936 E0.9699
G1 X84.973 Y95.513 E1.0058
G1 X84.878 Y95.766 E1.0209
G1 X84.798 Y96.023 E1.0361
G1 X84.669 Y96.601 E1.0694
G1 X84.523 Y98.255 E1.1628
G1 X83.491 Y99.200 E1.2416
G1 X79.321 Y99.200 E1.4763
G1 X78.257 Y98.086 E1.5630
G1 X78.334 Y96.426 E1.6565
G1 X78.339 Y96.364 E1.6600
G1 X78.399 Y95.852 E1.6890
G1 X78.408 Y95.790 E1.6925
G1 X78.589 Y94.823 E1.7479
G1 X78.608 Y94.743 E1.7526
G1 X78.880 Y93.787 E1.8085
G1 X78.906 Y93.708 E1.8131
G1 X79.265 Y92.782 E1.8690
G1 X79.298 Y92.706 E1.8737
G1 X79.741 Y91.818 E1.9296
G1 X79.781 Y91.745 E1.9342
G1 X80.304 Y90.901 E1.9901
G1 X80.351 Y90.832 E1.9948
G1 X80.950 Y90.039 E2.0507
G1 X81.003 Y89.975 E2.0554
G1 X81.672 Y89.242 E2.1113
G1 X81.730 Y89.183 E2.1159
G1 X82.464 Y88.514 E2.1718
G1 X82.528 Y88.461 E2.1765
G1 X83.321 Y87.862 E2.2324
G1 X83.389 Y87.815 E2.2371
G1 X84.234 Y87.292 E2.2930
G1 X84.306 Y87.252 E2.2977
G1 X85.195 Y86.809 E2.3535
G1 X85.271 Y86.776 E2.3582
G1 X86.197 Y86.417 E2.4141
G1 X86.276 Y86.391 E2.4188
G1 X87.231 Y86.119 E2.4746
G1 X87.312 Y86.100 E2.4793
G1 X88.278 Y85.919 E2.5346
G1 X88.340 Y85.910 E2.5382
G1 X88.853 Y85.850 E2.5672
G1 X88.915 Y85.845 E2.5707
G1 X89.895 Y85.800 E2.6259
G1 X89.976 Y85.800 E2.6305
G1 X90.943 Y85.843 E2.6850
G1 X91.042 Y85.853 E2.6906
G1 X92.445 Y86.071 E2.7704
G1 X92.561 Y86.098 E2.7771
G1 X93.922 Y86.500 E2.8570
G1 X94.016 Y86.533 E2.8626
G1 X94.906 Y86.907 E2.9170
G1 X94.978 Y86.941 E2.9214
G1 X95.832 Y87.392 E2.9758
G1 X95.917 Y87.443 E2.9814
G1 X97.092 Y88.241 E3.0613
G1 X97.186 Y88.315 E3.0680
G1 X98.250 Y89.265 E3.1483
G1 X98.330 Y89.346 E3.1547
G1 X98.530 Y89.577 E3.1719
G1 X98.626 Y89.709 E3.1811
G1 X98.891 Y90.159 E3.2105
G1 X98.979 Y90.358 E3.2227
G1 X99.137 Y90.884 E3.2536
G1 X99.174 Y91.099 E3.2659
G1 X99.200 Y91.620 E3.2953
G1 X99.194 Y91.783 E3.3045
G1 X98.475 Y91.722 F18000
G92 E0.0000
G1 X98.441 Y91.983 E0.0149 F1800
G1 X98.419 Y92.079 E0.0204
G1 X98.283 Y92.503 E0.0454
G1 X98.228 Y92.622 E0.0528
G1 X97.985 Y93.015 E0.0788
G1 X97.903 Y93.117 E0.0862
G1 X97.562 Y93.452 E0.1131
G1 X97.429 Y93.547 E0.1223
G1 X96.842 Y93.848 E0.1594
G1 X96.687 Y93.899 E0.1686
G1 X96.232 Y93.978 E0.1946
G1 X96.134 Y93.986 E0.2001
G1 X95.870 Y93.983 E0.2149
G1 X95.773 Y93.974 E0.2205
G1 X95.319 Y93.886 E0.2465
G1 X95.165 Y93.831 E0.2556
G1 X94.599 Y93.527 E0.2918
G1 X94.491 Y93.450 E0.2993
G1 X93.769 Y92.792 E0.3542
G1 X93.528 Y92.606 E0.3714
G1 X92.955 Y92.234 E0.4098
G1 X92.346 Y91.928 E0.4482
G1 X92.063 Y91.815 E0.4653
G1 X91.397 Y91.609 E0.5046
G1 X91.086 Y91.540 E0.5225
G1 X90.771 Y91.488 E0.5405
G1 X90.091 Y91.433 E0.5789
G1 X89.423 Y91.454 E0.6164
G1 X88.762 Y91.547 E0.6540
G1 X88.101 Y91.716 E0.6924
G1 X87.814 Y91.815 E0.7095
G1 X87.176 Y92.096 E0.7488
G1 X86.908 Y92.242 E0.7659
G1 X86.338 Y92.616 E0.8043
G1 X85.823 Y93.041 E0.8419
G1 X85.348 Y93.531 E0.8803
G1 X85.155 Y93.765 E0.8974
G1 X84.758 Y94.339 E0.9366
G1 X84.606 Y94.603 E0.9538
G1 X84.309 Y95.233 E0.9930
G1 X84.197 Y95.532 E1.0110
G1 X84.102 Y95.837 E1.0289
G1 X83.956 Y96.491 E1.0666
G1 X83.831 Y97.913 E1.1470
G1 X83.211 Y98.480 E1.1942
G1 X79.629 Y98.480 E1.3958
G1 X78.991 Y97.811 E1.4478
G1 X79.053 Y96.472 E1.5233
G1 X79.056 Y96.435 E1.5254
G1 X79.113 Y95.947 E1.5531
G1 X79.118 Y95.910 E1.5552
G1 X79.293 Y94.972 E1.6088
G1 X79.305 Y94.923 E1.6117
G1 X79.568 Y94.000 E1.6657
G1 X79.583 Y93.953 E1.6685
G1 X79.930 Y93.058 E1.7225
G1 X79.950 Y93.012 E1.7253
G1 X80.378 Y92.153 E1.7793
G1 X80.402 Y92.110 E1.7821
G1 X80.907 Y91.294 E1.8361
G1 X80.936 Y91.253 E1.8389
G1 X81.514 Y90.487 E1.8929
G1 X81.546 Y90.448 E1.8958
G1 X82.192 Y89.739 E1.9498
G1 X82.228 Y89.704 E1.9526
G1 X82.937 Y89.057 E2.0066
G1 X82.975 Y89.025 E2.0094
G1 X83.741 Y88.447 E2.0634
G1 X83.783 Y88.419 E2.0662
G1 X84.599 Y87.913 E2.1202
G1 X84.642 Y87.889 E2.1230
G1 X85.501 Y87.461 E2.1770
G1 X85.547 Y87.441 E2.1798
G1 X86.442 Y87.095 E2.2339
G1 X86.489 Y87.079 E2.2367
G1 X87.412 Y86.816 E2.2907
G1 X87.461 Y86.805 E2.2935
G1 X88.398 Y86.629 E2.3471
G1 X88.435 Y86.624 E2.3493
G1 X88.924 Y86.567 E2.3769
G1 X88.961 Y86.564 E2.3790
G1 X89.912 Y86.520 E2.4326
G1 X89.961 Y86.520 E2.4354
G1 X90.891 Y86.561 E2.4878
G1 X90.951 Y86.567 E2.4911
G1 X92.310 Y86.779 E2.5686
G1 X92.380 Y86.795 E2.5726
G1 X93.699 Y87.184 E2.6500
G1 X93.756 Y87.205 E2.6534
G1 X94.613 Y87.565 E2.7057
G1 X94.656 Y87.585 E2.7084
G1 X95.478 Y88.019 E2.7607
G1 X95.529 Y88.050 E2.7640
G1 X96.668 Y88.824 E2.8415
G1 X96.724 Y88.868 E2.8456
G1 X97.753 Y89.787 E2.9232
G1 X97.801 Y89.835 E2.9270
G1 X97.965 Y90.024 E2.9411
G1 X98.022 Y90.104 E2.9466
G1 X98.249 Y90.488 E2.9717
G1 X98.302 Y90.607 E2.9791
G1 X98.435 Y91.050 E3.0051
G1 X98.457 Y91.178 E3.0124
G1 X98.479 Y91.624 E3.0375
G1 X98.475 Y91.722 E3.0430
G1 X97.757 Y91.660 F18000
G92 E0.0000
G1 X97.731 Y91.857 E0.0112 F1800
G1 X97.724 Y91.889 E0.0130
G1 X97.611 Y92.241 E0.0338
G1 X97.593 Y92.280 E0.0363
G1 X97.395 Y92.599 E0.0574
G1 X97.368 Y92.633 E0.0598
G1 X97.096 Y92.899 E0.0812
G1 X97.052 Y92.931 E0.0843
G1 X96.563 Y93.182 E0.1153
G1 X96.511 Y93.199 E0.1183
G1 X96.141 Y93.263 E0.1394
G1 X96.109 Y93.266 E0.1413
G1 X95.910 Y93.264 E0.1524
G1 X95.878 Y93.260 E0.1543
G1 X95.510 Y93.189 E0.1754
G1 X95.458 Y93.171 E0.1784
G1 X94.979 Y92.913 E0.2091
G1 X94.943 Y92.888 E0.2115
G1 X94.233 Y92.240 E0.2656
G1 X93.945 Y92.018 E0.2861
G1 X93.314 Y91.609 E0.3284
G1 X92.642 Y91.272 E0.3707
G1 X92.305 Y91.136 E0.3912
G1 X91.582 Y90.912 E0.4338
G1 X91.222 Y90.832 E0.4545
G1 X90.858 Y90.773 E0.4753
G1 X90.109 Y90.713 E0.5176
G1 X89.362 Y90.735 E0.5596
G1 X88.623 Y90.839 E0.6016
G1 X87.894 Y91.025 E0.6440
G1 X87.550 Y91.144 E0.6644
G1 X86.858 Y91.449 E0.7070
G1 X86.538 Y91.623 E0.7275
G1 X85.910 Y92.035 E0.7698
G1 X85.334 Y92.511 E0.8118
G1 X84.810 Y93.050 E0.8541
G1 X84.579 Y93.331 E0.8746
G1 X84.149 Y93.954 E0.9172
G1 X83.967 Y94.269 E0.9376
G1 X83.645 Y94.953 E0.9802
G1 X83.516 Y95.299 E1.0010
G1 X83.406 Y95.651 E1.0217
G1 X83.242 Y96.380 E1.0638
G1 X83.138 Y97.571 E1.1311
G1 X82.931 Y97.760 E1.1468
G1 X79.937 Y97.760 E1.3153
G1 X79.724 Y97.537 E1.3327
G1 X79.772 Y96.518 E1.3901
G1 X79.773 Y96.506 E1.3908
G1 X79.826 Y96.042 E1.4171
G1 X79.828 Y96.029 E1.4178
G1 X79.998 Y95.120 E1.4698
G1 X80.002 Y95.104 E1.4707
G1 X80.255 Y94.213 E1.5229
G1 X80.261 Y94.197 E1.5238
G1 X80.595 Y93.333 E1.5760
G1 X80.602 Y93.318 E1.5769
G1 X81.015 Y92.489 E1.6290
G1 X81.023 Y92.475 E1.6300
G1 X81.511 Y91.687 E1.6821
