; G-Code generated by Simplify3D(R) Version 4.1.2
; Apr 7, 2020 at 10:00:22 PM
; Settings Summary
;   processName,Process1
;   applyToModels,test-aussen-v5
;   profileName,HBot (modified)
;   profileVersion,2019-10-26 23:38:43
;   baseProfile,Default
;   printMaterial,PLA
;   printQuality,Medium
;   printExtruders,
;   extruderName,Extruder 1
;   extruderToolheadNumber,0
;   extruderDiameter,0.4
;   extruderAutoWidth,1
;   extruderWidth,0.48
;   extrusionMultiplier,0.94
;   extruderUseRetract,1
;   extruderRetractionDistance,3
;   extruderExtraRestartDistance,0
;   extruderRetractionZLift,0
;   extruderRetractionSpeed,3600
;   extruderUseCoasting,1
;   extruderCoastingDistance,0.2
;   extruderUseWipe,1
;   extruderWipeDistance,5
;   primaryExtruder,0
;   layerHeight,0.2
;   topSolidLayers,3
;   bottomSolidLayers,3
;   perimeterOutlines,3
;   printPerimetersInsideOut,1
;   startPointOption,3
;   startPointOriginX,200
;   startPointOriginY,100
;   sequentialIslands,0
;   spiralVaseMode,0
;   firstLayerHeightPercentage,100
;   firstLayerWidthPercentage,150
;   firstLayerUnderspeed,0.5
;   useRaft,0
;   raftExtruder,0
;   raftTopLayers,3
;   raftBaseLayers,2
;   raftOffset,3
;   raftSeparationDistance,0.18
;   raftTopInfill,100
;   aboveRaftSpeedMultiplier,0.3
;   useSkirt,1
;   skirtExtruder,0
;   skirtLayers,1
;   skirtOutlines,3
;   skirtOffset,5
;   usePrimePillar,0
;   primePillarExtruder,999
;   primePillarWidth,12
;   primePillarLocation,7
;   primePillarSpeedMultiplier,1
;   useOozeShield,0
;   oozeShieldExtruder,999
;   oozeShieldOffset,2
;   oozeShieldOutlines,1
;   oozeShieldSidewallShape,1
;   oozeShieldSidewallAngle,30
;   oozeShieldSpeedMultiplier,1
;   infillExtruder,0
;   internalInfillPattern,Rectilinear
;   externalInfillPattern,Rectilinear
;   infillPercentage,20
;   outlineOverlapPercentage,25
;   infillExtrusionWidthPercentage,150
;   minInfillLength,5
;   infillLayerInterval,1
;   internalInfillAngles,45,-45
;   overlapInternalInfillAngles,0
;   externalInfillAngles,45,-45
;   generateSupport,0
;   supportExtruder,0
;   supportInfillPercentage,30
;   supportExtraInflation,0
;   supportBaseLayers,1
;   denseSupportExtruder,0
;   denseSupportLayers,0
;   denseSupportInfillPercentage,70
;   supportLayerInterval,1
;   supportHorizontalPartOffset,0.3
;   supportUpperSeparationLayers,1
;   supportLowerSeparationLayers,1
;   supportType,0
;   supportGridSpacing,4
;   maxOverhangAngle,25
;   supportAngles,0
;   temperatureName,Extruder 1,Heated Bed
;   temperatureNumber,0,1
;   temperatureSetpointCount,2,1
;   temperatureSetpointLayers,1,2,1
;   temperatureSetpointTemperatures,217,208,55
;   temperatureStabilizeAtStartup,1,1
;   temperatureHeatedBed,0,1
;   fanLayers,1,2,4
;   fanSpeeds,0,20,30
;   blipFanToFullPower,1
;   adjustSpeedForCooling,1
;   minSpeedLayerTime,15
;   minCoolingSpeedSlowdown,20
;   increaseFanForCooling,0
;   minFanLayerTime,45
;   maxCoolingFanSpeed,40
;   increaseFanForBridging,1
;   bridgingFanSpeed,80
;   use5D,1
;   relativeEdistances,0
;   allowEaxisZeroing,1
;   independentExtruderAxes,0
;   includeM10123,0
;   stickySupport,1
;   applyToolheadOffsets,0
;   gcodeXoffset,0
;   gcodeYoffset,0
;   gcodeZoffset,0
;   overrideMachineDefinition,1
;   machineTypeOverride,0
;   strokeXoverride,200
;   strokeYoverride,200
;   strokeZoverride,150
;   originOffsetXoverride,0
;   originOffsetYoverride,0
;   originOffsetZoverride,0
;   homeXdirOverride,-1
;   homeYdirOverride,-1
;   homeZdirOverride,-1
;   flipXoverride,1
;   flipYoverride,-1
;   flipZoverride,1
;   toolheadOffsets,0,0|0,0|0,0|0,0|0,0|0,0
;   overrideFirmwareConfiguration,1
;   firmwareTypeOverride,RepRap (Marlin/Repetier/Sprinter)
;   GPXconfigOverride,r2
;   baudRateOverride,115200
;   overridePrinterModels,0
;   printerModelsOverride
;   startingGcode,G28 ; home all axes,G32 ; run bed.g -- probe bed and enable compensation
;   layerChangeGcode,
;   retractionGcode,
;   toolChangeGcode,
;   endingGcode,M0 ; call stop.g
;   exportFileFormat,gcode
;   celebration,0
;   celebrationSong,Random Song
;   postProcessing,
;   defaultSpeed,3600
;   outlineUnderspeed,0.5
;   solidInfillUnderspeed,0.8
;   supportUnderspeed,0.8
;   rapidXYspeed,18000
;   rapidZspeed,1200
;   minBridgingArea,50
;   bridgingExtraInflation,0
;   bridgingExtrusionMultiplier,0.96
;   bridgingSpeedMultiplier,1
;   useFixedBridgingAngle,0
;   fixedBridgingAngle,0
;   applyBridgingToPerimeters,0
;   filamentDiameters,1.75|1.75|1.75|1.75|1.75|1.75
;   filamentPricesPerKg,46|46|46|46|46|46
;   filamentDensities,1.25|1.25|1.25|1.25|1.25|1.25
;   useMinPrintHeight,0
;   minPrintHeight,0
;   useMaxPrintHeight,0
;   maxPrintHeight,0
;   useDiaphragm,0
;   diaphragmLayerInterval,20
;   robustSlicing,1
;   mergeAllIntoSolid,0
;   onlyRetractWhenCrossingOutline,1
;   retractBetweenLayers,0
;   useRetractionMinTravel,1
;   retractionMinTravel,3
;   retractWhileWiping,1
;   onlyWipeOutlines,1
;   avoidCrossingOutline,1
;   maxMovementDetourFactor,30
;   toolChangeRetractionDistance,12
;   toolChangeExtraRestartDistance,-0.5
;   toolChangeRetractionSpeed,600
;   externalThinWallType,1
;   internalThinWallType,1
;   thinWallAllowedOverlapPercentage,10
;   singleExtrusionMinLength,1
;   singleExtrusionMinPrintingWidthPercentage,50
;   singleExtrusionMaxPrintingWidthPercentage,200
;   singleExtrusionEndpointExtension,0.2
;   horizontalSizeCompensation,-0.1
G90
M82
M106 S0
M140 S55
M190 S55
M104 S217 T0
M109 S217 T0
G28 ; home all axes
G32 ; run bed.g -- probe bed and enable compensation
; process Process1
; layer 1, Z = 0.200
T0
G92 E0.0000
G1 E-3.0000 F3600
; feature skirt
; tool H0.200 W0.720
G1 Z0.200 F1200
G1 X131.700 Y91.283 F18000
G1 E0.0000 F3600
G92 E0.0000
G1 X131.700 Y108.717 E0.9811 F1800
G1 X127.716 Y112.701 E1.2982
G1 X79.460 Y112.690 E4.0138
G1 X79.067 Y112.667 E4.0360
G1 X77.998 Y112.543 E4.0966
G1 X77.609 Y112.474 E4.1188
G1 X76.560 Y112.227 E4.1794
G1 X76.183 Y112.114 E4.2016
G1 X75.170 Y111.747 E4.2622
G1 X74.807 Y111.592 E4.2844
G1 X73.844 Y111.110 E4.3450
G1 X73.502 Y110.914 E4.3672
G1 X72.601 Y110.324 E4.4279
G1 X72.284 Y110.089 E4.4500
G1 X71.456 Y109.398 E4.5107
G1 X71.169 Y109.129 E4.5329
G1 X70.428 Y108.349 E4.5934
G1 X70.176 Y108.051 E4.6153
G1 X69.001 Y106.489 E4.7254
G1 X68.300 Y104.391 E4.8499
G1 X68.300 Y95.609 E5.3441
G1 X69.001 Y93.511 E5.4685
G1 X70.176 Y91.949 E5.5786
G1 X70.428 Y91.651 E5.6005
G1 X71.203 Y90.835 E5.6638
G1 X71.567 Y90.504 E5.6915
G1 X72.798 Y89.535 E5.7797
G1 X73.293 Y89.211 E5.8130
G1 X74.673 Y88.471 E5.9011
G1 X75.123 Y88.270 E5.9289
G1 X76.183 Y87.886 E5.9923
G1 X76.560 Y87.773 E6.0145
G1 X77.610 Y87.525 E6.0752
G1 X78.001 Y87.457 E6.0975
G1 X79.075 Y87.332 E6.1583
G1 X79.466 Y87.310 E6.1803
G1 X127.716 Y87.299 E8.8957
G1 X131.700 Y91.283 E9.2127
G1 X130.980 Y91.581 F18000
G92 E0.0000
G1 X130.980 Y108.419 E0.9476 F1800
G1 X127.417 Y111.981 E1.2311
G1 X79.481 Y111.970 E3.9287
G1 X79.130 Y111.950 E3.9485
G1 X78.102 Y111.830 E4.0068
G1 X77.754 Y111.769 E4.0266
G1 X76.746 Y111.531 E4.0849
G1 X76.408 Y111.430 E4.1048
G1 X75.435 Y111.077 E4.1630
G1 X75.111 Y110.938 E4.1829
G1 X74.184 Y110.475 E4.2412
G1 X73.879 Y110.300 E4.2610
G1 X73.012 Y109.733 E4.3193
G1 X72.729 Y109.523 E4.3391
G1 X71.933 Y108.859 E4.3974
G1 X71.676 Y108.618 E4.4173
G1 X70.964 Y107.868 E4.4754
G1 X70.739 Y107.602 E4.4951
G1 X69.647 Y106.149 E4.5973
G1 X69.020 Y104.274 E4.7086
G1 X69.020 Y95.726 E5.1897
G1 X69.647 Y93.851 E5.3010
G1 X70.739 Y92.398 E5.4032
G1 X70.964 Y92.132 E5.4229
G1 X71.707 Y91.350 E5.4835
G1 X72.032 Y91.053 E5.5083
G1 X73.219 Y90.121 E5.5932
G1 X73.661 Y89.831 E5.6230
G1 X74.991 Y89.117 E5.7079
G1 X75.393 Y88.938 E5.7327
G1 X76.408 Y88.570 E5.7935
G1 X76.746 Y88.469 E5.8133
G1 X77.755 Y88.231 E5.8717
G1 X78.105 Y88.170 E5.8916
G1 X79.137 Y88.050 E5.9501
G1 X79.486 Y88.030 E5.9698
G1 X127.417 Y88.019 E8.6672
G1 X130.980 Y91.581 E8.9507
G1 X130.260 Y91.879 F18000
G92 E0.0000
G1 X130.260 Y108.121 E0.9140 F1800
G1 X127.119 Y111.260 E1.1639
G1 X79.502 Y111.250 E3.8436
G1 X79.192 Y111.232 E3.8611
G1 X78.205 Y111.117 E3.9170
G1 X77.899 Y111.063 E3.9345
G1 X76.932 Y110.835 E3.9904
G1 X76.634 Y110.746 E4.0079
G1 X75.700 Y110.408 E4.0639
G1 X75.414 Y110.285 E4.0813
G1 X74.525 Y109.840 E4.1373
G1 X74.256 Y109.686 E4.1548
G1 X73.424 Y109.141 E4.2107
G1 X73.174 Y108.957 E4.2282
G1 X72.411 Y108.320 E4.2841
G1 X72.184 Y108.107 E4.3016
G1 X71.501 Y107.387 E4.3575
G1 X71.302 Y107.153 E4.3748
G1 X70.292 Y105.810 E4.4693
G1 X69.740 Y104.157 E4.5674
G1 X69.740 Y95.843 E5.0353
G1 X70.292 Y94.190 E5.1334
G1 X71.302 Y92.847 E5.2279
G1 X71.501 Y92.613 E5.2452
G1 X72.211 Y91.865 E5.3032
G1 X72.498 Y91.603 E5.3251
G1 X73.639 Y90.706 E5.4068
G1 X74.029 Y90.451 E5.4330
G1 X75.308 Y89.764 E5.5147
G1 X75.663 Y89.606 E5.5366
G1 X76.634 Y89.254 E5.5947
G1 X76.932 Y89.165 E5.6122
G1 X77.900 Y88.936 E5.6682
G1 X78.208 Y88.882 E5.6858
G1 X79.200 Y88.768 E5.7420
G1 X79.507 Y88.750 E5.7593
G1 X127.119 Y88.740 E8.4387
G1 X130.260 Y91.879 E8.6886
G92 E0.0000
G1 E-3.0000 F3600
; feature inner perimeter
G1 X124.540 Y94.460 F18000
G1 X124.540 Y95.092
G1 X123.100 Y95.900
G1 E0.0000 F3600
G92 E0.0000
G1 X123.100 Y104.100 E0.4614 F1350
G1 X80.028 Y104.100 E2.8854
G1 X79.762 Y104.092 E2.9003
G1 X79.526 Y104.072 E2.9137
G1 X79.291 Y104.037 E2.9270
G1 X79.058 Y103.990 E2.9404
G1 X78.829 Y103.928 E2.9538
G1 X78.603 Y103.854 E2.9671
G1 X78.382 Y103.767 E2.9805
G1 X78.167 Y103.667 E2.9939
G1 X77.958 Y103.554 E3.0072
G1 X77.755 Y103.430 E3.0206
G1 X77.560 Y103.294 E3.0340
G1 X77.374 Y103.147 E3.0473
G1 X77.196 Y102.990 E3.0607
G1 X77.027 Y102.823 E3.0741
G1 X76.900 Y102.680 E3.0848
G1 X76.900 Y101.386 E3.1576
G1 X77.388 Y101.262 E3.1860
G1 X77.556 Y101.570 E3.2058
G1 X77.805 Y101.902 E3.2291
G1 X78.098 Y102.195 E3.2524
G1 X78.430 Y102.444 E3.2757
G1 X78.789 Y102.640 E3.2988
G1 X79.179 Y102.787 E3.3223
G1 X79.587 Y102.875 E3.3457
G1 X80.000 Y102.905 E3.3690
G1 X80.413 Y102.875 E3.3924
G1 X80.818 Y102.787 E3.4157
G1 X81.207 Y102.642 E3.4390
G1 X81.570 Y102.444 E3.4623
G1 X81.902 Y102.195 E3.4856
G1 X82.195 Y101.902 E3.5090
G1 X82.444 Y101.570 E3.5323
G1 X82.642 Y101.207 E3.5556
G1 X82.787 Y100.818 E3.5789
G1 X82.875 Y100.414 E3.6023
G1 X82.905 Y100.000 E3.6256
G1 X82.875 Y99.586 E3.6489
G1 X82.787 Y99.182 E3.6722
G1 X82.642 Y98.793 E3.6956
G1 X82.444 Y98.430 E3.7189
G1 X82.195 Y98.098 E3.7422
G1 X81.902 Y97.805 E3.7655
G1 X81.570 Y97.556 E3.7889
G1 X81.207 Y97.358 E3.8122
G1 X80.818 Y97.213 E3.8355
G1 X80.413 Y97.125 E3.8588
G1 X80.000 Y97.095 E3.8822
G1 X79.587 Y97.125 E3.9055
G1 X79.182 Y97.213 E3.9288
G1 X78.793 Y97.358 E3.9521
G1 X78.430 Y97.556 E3.9755
G1 X78.098 Y97.805 E3.9988
G1 X77.805 Y98.098 E4.0221
G1 X77.556 Y98.430 E4.0454
G1 X77.388 Y98.738 E4.0652
G1 X76.900 Y98.614 E4.0935
G1 X76.900 Y97.320 E4.1664
G1 X77.027 Y97.177 E4.1771
G1 X77.196 Y97.010 E4.1905
G1 X77.374 Y96.853 E4.2038
G1 X77.560 Y96.706 E4.2172
G1 X77.755 Y96.570 E4.2306
G1 X77.958 Y96.446 E4.2440
G1 X78.167 Y96.333 E4.2573
G1 X78.382 Y96.233 E4.2707
G1 X78.603 Y96.146 E4.2841
G1 X78.829 Y96.072 E4.2974
G1 X79.058 Y96.010 E4.3108
G1 X79.291 Y95.963 E4.3242
G1 X79.525 Y95.928 E4.3375
G1 X79.740 Y95.910 E4.3496
G1 X122.900 Y95.900 E6.7785
G1 X123.100 Y95.900 F1350
G1 X123.820 Y95.180 F18000
G92 E0.0000
G1 X123.820 Y104.820 E0.5425 F1350
G1 X80.017 Y104.820 E3.0075
G1 X79.721 Y104.811 E3.0242
G1 X79.443 Y104.787 E3.0399
G1 X79.166 Y104.747 E3.0556
G1 X78.893 Y104.691 E3.0714
G1 X78.623 Y104.619 E3.0871
G1 X78.358 Y104.531 E3.1028
G1 X78.098 Y104.428 E3.1185
G1 X77.845 Y104.311 E3.1342
G1 X77.599 Y104.179 E3.1499
G1 X77.361 Y104.033 E3.1657
G1 X77.132 Y103.873 E3.1814
G1 X76.912 Y103.700 E3.1971
G1 X76.703 Y103.515 E3.2128
G1 X76.505 Y103.319 E3.2285
G1 X76.319 Y103.111 E3.2442
G1 X76.180 Y102.936 E3.2568
G1 X76.180 Y97.064 E3.5873
G1 X76.319 Y96.889 E3.5998
G1 X76.505 Y96.681 E3.6155
G1 X76.703 Y96.485 E3.6312
G1 X76.912 Y96.300 E3.6469
G1 X77.132 Y96.127 E3.6627
G1 X77.361 Y95.967 E3.6784
G1 X77.599 Y95.821 E3.6941
G1 X77.845 Y95.689 E3.7098
G1 X78.098 Y95.572 E3.7255
G1 X78.358 Y95.469 E3.7412
G1 X78.623 Y95.381 E3.7569
G1 X78.893 Y95.309 E3.7727
G1 X79.166 Y95.253 E3.7884
G1 X79.442 Y95.213 E3.8041
G1 X79.709 Y95.190 E3.8191
G1 X123.620 Y95.180 E6.2903
G1 X123.820 Y95.180 F1350
; feature outer perimeter
G1 X124.540 Y94.460 F18000
G92 E0.0000
G1 X124.540 Y105.540 E0.6235 F900
G1 X80.007 Y105.540 E3.1297
G1 X79.679 Y105.531 E3.1481
G1 X79.359 Y105.503 E3.1662
G1 X79.042 Y105.456 E3.1843
G1 X78.727 Y105.392 E3.2023
G1 X78.417 Y105.309 E3.2204
G1 X78.112 Y105.208 E3.2385
G1 X77.814 Y105.090 E3.2565
G1 X77.523 Y104.955 E3.2746
G1 X77.240 Y104.803 E3.2926
G1 X76.966 Y104.635 E3.3107
G1 X76.703 Y104.452 E3.3288
G1 X76.451 Y104.253 E3.3468
G1 X76.210 Y104.041 E3.3649
G1 X75.983 Y103.815 E3.3830
G1 X75.769 Y103.576 E3.4010
G1 X75.569 Y103.324 E3.4191
G1 X75.460 Y103.171 E3.4297
G1 X75.460 Y96.829 E3.7865
G1 X75.569 Y96.676 E3.7971
G1 X75.769 Y96.424 E3.8152
G1 X75.983 Y96.185 E3.8333
G1 X76.210 Y95.959 E3.8513
G1 X76.451 Y95.747 E3.8694
G1 X76.703 Y95.548 E3.8875
G1 X76.966 Y95.365 E3.9055
G1 X77.240 Y95.197 E3.9236
G1 X77.523 Y95.045 E3.9416
G1 X77.814 Y94.910 E3.9597
G1 X78.112 Y94.792 E3.9778
G1 X78.417 Y94.691 E3.9958
G1 X78.727 Y94.608 E4.0139
G1 X79.042 Y94.544 E4.0320
G1 X79.359 Y94.497 E4.0500
G1 X79.678 Y94.470 E4.0680
G1 X124.340 Y94.460 E6.5814
G1 X124.540 Y94.460 F900
G1 X124.540 Y99.460 F900
; feature inner perimeter
G1 X82.183 Y100.000 F18000
G92 E0.0000
G1 X82.161 Y99.689 E0.0175 F1350
G1 X82.095 Y99.385 E0.0351
G1 X81.986 Y99.093 E0.0526
G1 X81.836 Y98.820 E0.0701
G1 X81.650 Y98.570 E0.0876
G1 X81.430 Y98.350 E0.1052
G1 X81.180 Y98.163 E0.1227
G1 X80.907 Y98.014 E0.1402
G1 X80.615 Y97.905 E0.1578
G1 X80.311 Y97.839 E0.1753
G1 X80.000 Y97.817 E0.1928
G1 X79.689 Y97.839 E0.2103
G1 X79.385 Y97.905 E0.2279
G1 X79.093 Y98.014 E0.2454
G1 X78.820 Y98.163 E0.2629
G1 X78.570 Y98.350 E0.2805
G1 X78.350 Y98.570 E0.2980
G1 X78.164 Y98.820 E0.3155
G1 X78.014 Y99.093 E0.3330
G1 X77.905 Y99.385 E0.3506
G1 X77.839 Y99.689 E0.3681
G1 X77.817 Y100.000 E0.3856
G1 X77.839 Y100.311 E0.4032
G1 X77.905 Y100.615 E0.4207
G1 X78.014 Y100.907 E0.4382
G1 X78.164 Y101.180 E0.4557
G1 X78.350 Y101.430 E0.4733
G1 X78.570 Y101.650 E0.4908
G1 X78.820 Y101.836 E0.5083
G1 X79.090 Y101.984 E0.5256
G1 X79.384 Y102.094 E0.5433
G1 X79.689 Y102.161 E0.5609
G1 X80.000 Y102.183 E0.5784
G1 X80.311 Y102.161 E0.5960
G1 X80.615 Y102.095 E0.6135
G1 X80.907 Y101.986 E0.6310
G1 X81.180 Y101.836 E0.6485
G1 X81.430 Y101.650 E0.6661
G1 X81.650 Y101.430 E0.6836
G1 X81.836 Y101.180 E0.7011
G1 X81.986 Y100.907 E0.7187
G1 X82.095 Y100.615 E0.7362
G1 X82.161 Y100.311 E0.7537
G1 X82.169 Y100.199 E0.7600
G1 X82.183 Y100.000 F1350
; feature outer perimeter
G1 X81.461 Y100.000 F18000
G92 E0.0000
G1 X81.446 Y99.792 E0.0117 F900
G1 X81.402 Y99.588 E0.0235
G1 X81.329 Y99.393 E0.0352
G1 X81.229 Y99.210 E0.0469
G1 X81.104 Y99.043 E0.0587
G1 X80.957 Y98.896 E0.0704
G1 X80.790 Y98.771 E0.0821
G1 X80.607 Y98.671 E0.0939
G1 X80.412 Y98.598 E0.1056
G1 X80.208 Y98.554 E0.1173
G1 X80.000 Y98.539 E0.1291
G1 X79.792 Y98.554 E0.1408
G1 X79.588 Y98.598 E0.1525
G1 X79.393 Y98.671 E0.1643
G1 X79.210 Y98.771 E0.1760
G1 X79.043 Y98.896 E0.1877
G1 X78.896 Y99.043 E0.1995
G1 X78.771 Y99.210 E0.2112
G1 X78.671 Y99.393 E0.2229
G1 X78.598 Y99.588 E0.2346
G1 X78.554 Y99.792 E0.2464
G1 X78.539 Y100.000 E0.2581
G1 X78.554 Y100.208 E0.2698
G1 X78.598 Y100.412 E0.2816
G1 X78.671 Y100.607 E0.2933
G1 X78.771 Y100.790 E0.3050
G1 X78.896 Y100.957 E0.3168
G1 X79.043 Y101.104 E0.3285
G1 X79.210 Y101.229 E0.3402
G1 X79.390 Y101.328 E0.3518
G1 X79.588 Y101.402 E0.3637
G1 X79.792 Y101.446 E0.3754
G1 X80.000 Y101.461 E0.3872
G1 X80.208 Y101.446 E0.3989
G1 X80.412 Y101.402 E0.4106
G1 X80.607 Y101.329 E0.4224
G1 X80.790 Y101.229 E0.4341
G1 X80.957 Y101.104 E0.4458
G1 X81.104 Y100.957 E0.4576
G1 X81.229 Y100.790 E0.4693
G1 X81.329 Y100.607 E0.4810
G1 X81.402 Y100.412 E0.4928
G1 X81.446 Y100.208 E0.5045
G1 X81.447 Y100.199 E0.5050
G1 X81.461 Y100.000 F900
G1 X81.446 Y99.792 F900
