; G-Code generated by Simplify3D(R) Version 4.1.2
; Apr 7, 2020 at 8:43:24 PM
; Settings Summary
;   processName,Process1
;   applyToModels,test-aussen-v4
;   profileName,HBot (modified)
;   profileVersion,2019-10-26 23:38:43
;   baseProfile,Default
;   printMaterial,PLA
;   printQuality,Medium
;   printExtruders,
;   extruderName,Extruder 1
;   extruderToolheadNumber,0
;   extruderDiameter,0.4
;   extruderAutoWidth,1
;   extruderWidth,0.48
;   extrusionMultiplier,0.94
;   extruderUseRetract,1
;   extruderRetractionDistance,3
;   extruderExtraRestartDistance,0
;   extruderRetractionZLift,0
;   extruderRetractionSpeed,3600
;   extruderUseCoasting,1
;   extruderCoastingDistance,0.2
;   extruderUseWipe,1
;   extruderWipeDistance,5
;   primaryExtruder,0
;   layerHeight,0.2
;   topSolidLayers,3
;   bottomSolidLayers,3
;   perimeterOutlines,3
;   printPerimetersInsideOut,1
;   startPointOption,3
;   startPointOriginX,200
;   startPointOriginY,100
;   sequentialIslands,0
;   spiralVaseMode,0
;   firstLayerHeightPercentage,100
;   firstLayerWidthPercentage,150
;   firstLayerUnderspeed,0.5
;   useRaft,0
;   raftExtruder,0
;   raftTopLayers,3
;   raftBaseLayers,2
;   raftOffset,3
;   raftSeparationDistance,0.18
;   raftTopInfill,100
;   aboveRaftSpeedMultiplier,0.3
;   useSkirt,1
;   skirtExtruder,0
;   skirtLayers,1
;   skirtOutlines,3
;   skirtOffset,5
;   usePrimePillar,0
;   primePillarExtruder,999
;   primePillarWidth,12
;   primePillarLocation,7
;   primePillarSpeedMultiplier,1
;   useOozeShield,0
;   oozeShieldExtruder,999
;   oozeShieldOffset,2
;   oozeShieldOutlines,1
;   oozeShieldSidewallShape,1
;   oozeShieldSidewallAngle,30
;   oozeShieldSpeedMultiplier,1
;   infillExtruder,0
;   internalInfillPattern,Rectilinear
;   externalInfillPattern,Rectilinear
;   infillPercentage,20
;   outlineOverlapPercentage,25
;   infillExtrusionWidthPercentage,150
;   minInfillLength,5
;   infillLayerInterval,1
;   internalInfillAngles,45,-45
;   overlapInternalInfillAngles,0
;   externalInfillAngles,45,-45
;   generateSupport,0
;   supportExtruder,0
;   supportInfillPercentage,30
;   supportExtraInflation,0
;   supportBaseLayers,1
;   denseSupportExtruder,0
;   denseSupportLayers,0
;   denseSupportInfillPercentage,70
;   supportLayerInterval,1
;   supportHorizontalPartOffset,0.3
;   supportUpperSeparationLayers,1
;   supportLowerSeparationLayers,1
;   supportType,0
;   supportGridSpacing,4
;   maxOverhangAngle,25
;   supportAngles,0
;   temperatureName,Extruder 1,Heated Bed
;   temperatureNumber,0,1
;   temperatureSetpointCount,2,1
;   temperatureSetpointLayers,1,2,1
;   temperatureSetpointTemperatures,217,208,55
;   temperatureStabilizeAtStartup,1,1
;   temperatureHeatedBed,0,1
;   fanLayers,1,2,4
;   fanSpeeds,0,20,30
;   blipFanToFullPower,1
;   adjustSpeedForCooling,1
;   minSpeedLayerTime,15
;   minCoolingSpeedSlowdown,20
;   increaseFanForCooling,0
;   minFanLayerTime,45
;   maxCoolingFanSpeed,40
;   increaseFanForBridging,1
;   bridgingFanSpeed,80
;   use5D,1
;   relativeEdistances,0
;   allowEaxisZeroing,1
;   independentExtruderAxes,0
;   includeM10123,0
;   stickySupport,1
;   applyToolheadOffsets,0
;   gcodeXoffset,0
;   gcodeYoffset,0
;   gcodeZoffset,0
;   overrideMachineDefinition,1
;   machineTypeOverride,0
;   strokeXoverride,200
;   strokeYoverride,200
;   strokeZoverride,150
;   originOffsetXoverride,0
;   originOffsetYoverride,0
;   originOffsetZoverride,0
;   homeXdirOverride,-1
;   homeYdirOverride,-1
;   homeZdirOverride,-1
;   flipXoverride,1
;   flipYoverride,-1
;   flipZoverride,1
;   toolheadOffsets,0,0|0,0|0,0|0,0|0,0|0,0
;   overrideFirmwareConfiguration,1
;   firmwareTypeOverride,RepRap (Marlin/Repetier/Sprinter)
;   GPXconfigOverride,r2
;   baudRateOverride,115200
;   overridePrinterModels,0
;   printerModelsOverride
;   startingGcode,G28 ; home all axes,G32 ; run bed.g -- probe bed and enable compensation
;   layerChangeGcode,
;   retractionGcode,
;   toolChangeGcode,
;   endingGcode,M0 ; call stop.g
;   exportFileFormat,gcode
;   celebration,0
;   celebrationSong,Random Song
;   postProcessing,
;   defaultSpeed,3600
;   outlineUnderspeed,0.5
;   solidInfillUnderspeed,0.8
;   supportUnderspeed,0.8
;   rapidXYspeed,18000
;   rapidZspeed,1200
;   minBridgingArea,50
;   bridgingExtraInflation,0
;   bridgingExtrusionMultiplier,0.96
;   bridgingSpeedMultiplier,1
;   useFixedBridgingAngle,0
;   fixedBridgingAngle,0
;   applyBridgingToPerimeters,0
;   filamentDiameters,1.75|1.75|1.75|1.75|1.75|1.75
;   filamentPricesPerKg,46|46|46|46|46|46
;   filamentDensities,1.25|1.25|1.25|1.25|1.25|1.25
;   useMinPrintHeight,0
;   minPrintHeight,0
;   useMaxPrintHeight,0
;   maxPrintHeight,0
;   useDiaphragm,0
;   diaphragmLayerInterval,20
;   robustSlicing,1
;   mergeAllIntoSolid,0
;   onlyRetractWhenCrossingOutline,1
;   retractBetweenLayers,0
;   useRetractionMinTravel,1
;   retractionMinTravel,3
;   retractWhileWiping,1
;   onlyWipeOutlines,1
;   avoidCrossingOutline,1
;   maxMovementDetourFactor,3
;   toolChangeRetractionDistance,12
;   toolChangeExtraRestartDistance,-0.5
;   toolChangeRetractionSpeed,600
;   externalThinWallType,1
;   internalThinWallType,1
;   thinWallAllowedOverlapPercentage,10
;   singleExtrusionMinLength,1
;   singleExtrusionMinPrintingWidthPercentage,50
;   singleExtrusionMaxPrintingWidthPercentage,200
;   singleExtrusionEndpointExtension,0.2
;   horizontalSizeCompensation,-0.1
G90
M82
M106 S0
M140 S55
M190 S55
M104 S217 T0
M109 S217 T0
G28 ; home all axes
G32 ; run bed.g -- probe bed and enable compensation
; process Process1
; layer 1, Z = 0.200
T0
G92 E0.0000
G1 E-3.0000 F3600
; feature skirt
; tool H0.200 W0.720
G1 Z0.200 F1200
G1 X131.700 Y91.283 F18000
G1 E0.0000 F3600
G92 E0.0000
G1 X131.700 Y108.717 E0.9811 F1800
G1 X127.717 Y112.700 E1.2981
G1 X72.283 Y112.700 E4.4177
G1 X68.300 Y108.717 E4.7347
G1 X68.300 Y91.283 E5.7158
G1 X72.283 Y87.300 E6.0328
G1 X127.717 Y87.300 E9.1524
G1 X131.700 Y91.283 E9.4694
G1 X130.980 Y91.582 F18000
G92 E0.0000
G1 X130.980 Y108.418 E0.9475 F1800
G1 X127.418 Y111.980 E1.2310
G1 X72.582 Y111.980 E4.3170
G1 X69.020 Y108.418 E4.6004
G1 X69.020 Y91.582 E5.5479
G1 X72.582 Y88.020 E5.8314
G1 X127.418 Y88.020 E8.9174
G1 X130.980 Y91.582 E9.2009
G1 X130.260 Y91.880 F18000
G92 E0.0000
G1 X130.260 Y108.120 E0.9139 F1800
G1 X127.120 Y111.260 E1.1638
G1 X72.880 Y111.260 E4.2163
G1 X69.740 Y108.120 E4.4662
G1 X69.740 Y91.880 E5.3801
G1 X72.880 Y88.740 E5.6300
G1 X127.120 Y88.740 E8.6824
G1 X130.260 Y91.880 E8.9323
G92 E0.0000
G1 E-3.0000 F3600
; feature inner perimeter
G1 X124.540 Y94.460 F18000
G1 X124.540 Y101.642
G1 X123.100 Y104.100
G1 E0.0000 F3600
G92 E0.0000
G1 X76.900 Y104.100 E2.6000 F1350
G1 X76.900 Y101.386 E2.7527
G1 X77.388 Y101.262 E2.7810
G1 X77.556 Y101.570 E2.8008
G1 X77.805 Y101.902 E2.8241
G1 X78.098 Y102.195 E2.8474
G1 X78.430 Y102.444 E2.8708
G1 X78.793 Y102.642 E2.8941
G1 X79.182 Y102.787 E2.9174
G1 X79.587 Y102.875 E2.9407
G1 X80.000 Y102.905 E2.9641
G1 X80.413 Y102.875 E2.9874
G1 X80.818 Y102.787 E3.0107
G1 X81.207 Y102.642 E3.0340
G1 X81.570 Y102.444 E3.0574
G1 X81.902 Y102.195 E3.0807
G1 X82.195 Y101.902 E3.1040
G1 X82.444 Y101.570 E3.1273
G1 X82.642 Y101.207 E3.1507
G1 X82.787 Y100.818 E3.1740
G1 X82.875 Y100.414 E3.1973
G1 X82.905 Y100.000 E3.2206
G1 X82.875 Y99.586 E3.2440
G1 X82.787 Y99.182 E3.2673
G1 X82.642 Y98.793 E3.2906
G1 X82.444 Y98.430 E3.3139
G1 X82.195 Y98.098 E3.3372
G1 X81.902 Y97.805 E3.3606
G1 X81.570 Y97.556 E3.3839
G1 X81.207 Y97.358 E3.4072
G1 X80.818 Y97.213 E3.4305
G1 X80.347 Y97.110 E3.4577
G1 X79.657 Y97.110 E3.4965
G1 X79.183 Y97.212 E3.5238
G1 X78.793 Y97.358 E3.5472
G1 X78.430 Y97.556 E3.5705
G1 X78.098 Y97.805 E3.5939
G1 X77.805 Y98.098 E3.6172
G1 X77.556 Y98.430 E3.6405
G1 X77.388 Y98.738 E3.6603
G1 X76.900 Y98.614 E3.6886
G1 X76.900 Y95.900 E3.8414
G1 X123.100 Y95.900 E6.4413
G1 X123.100 Y103.900 E6.8915
G1 X123.100 Y104.100 F1350
G1 X123.820 Y104.820 F18000
G92 E0.0000
G1 X76.180 Y104.820 E2.6810 F1350
G1 X76.180 Y95.180 E3.2235
G1 X123.820 Y95.180 E5.9045
G1 X123.820 Y104.620 E6.4357
G1 X123.820 Y104.820 F1350
; feature outer perimeter
G1 X124.540 Y105.540 F18000
G92 E0.0000
G1 X75.460 Y105.540 E2.7620 F900
G1 X75.460 Y94.460 E3.3856
G1 X124.540 Y94.460 E6.1476
G1 X124.540 Y105.340 E6.7599
G1 X124.540 Y105.540 F900
G1 X119.540 Y105.540 F900
; feature inner perimeter
G1 X82.161 Y100.311 F18000
G92 E0.0000
G1 X82.183 Y100.000 E0.0175 F1350
G1 X82.161 Y99.689 E0.0351
G1 X82.095 Y99.385 E0.0526
G1 X81.986 Y99.093 E0.0701
G1 X81.836 Y98.820 E0.0876
G1 X81.650 Y98.570 E0.1052
G1 X81.430 Y98.350 E0.1227
G1 X81.180 Y98.163 E0.1402
G1 X80.907 Y98.014 E0.1578
G1 X80.615 Y97.905 E0.1753
G1 X80.269 Y97.830 E0.1952
G1 X79.734 Y97.830 E0.2253
G1 X79.386 Y97.905 E0.2454
G1 X79.093 Y98.014 E0.2629
G1 X78.820 Y98.163 E0.2805
G1 X78.570 Y98.350 E0.2980
G1 X78.350 Y98.570 E0.3155
G1 X78.164 Y98.820 E0.3331
G1 X78.014 Y99.093 E0.3506
G1 X77.905 Y99.385 E0.3681
G1 X77.839 Y99.689 E0.3856
G1 X77.817 Y100.000 E0.4032
G1 X77.839 Y100.311 E0.4207
G1 X77.905 Y100.615 E0.4382
G1 X78.014 Y100.907 E0.4558
G1 X78.164 Y101.180 E0.4733
G1 X78.350 Y101.430 E0.4908
G1 X78.570 Y101.650 E0.5083
G1 X78.820 Y101.836 E0.5259
G1 X79.093 Y101.986 E0.5434
G1 X79.385 Y102.095 E0.5609
G1 X79.689 Y102.161 E0.5785
G1 X80.000 Y102.183 E0.5960
G1 X80.311 Y102.161 E0.6135
G1 X80.615 Y102.095 E0.6310
G1 X80.907 Y101.986 E0.6486
G1 X81.180 Y101.836 E0.6661
G1 X81.430 Y101.650 E0.6836
G1 X81.650 Y101.430 E0.7012
G1 X81.836 Y101.180 E0.7187
G1 X81.986 Y100.907 E0.7362
G1 X82.095 Y100.615 E0.7537
G1 X82.118 Y100.506 E0.7600
G1 X82.161 Y100.311 F1350
; feature outer perimeter
G1 X81.446 Y100.208 F18000
G92 E0.0000
G1 X81.461 Y100.000 E0.0117 F900
G1 X81.446 Y99.792 E0.0235
G1 X81.402 Y99.588 E0.0352
G1 X81.329 Y99.393 E0.0469
G1 X81.229 Y99.210 E0.0587
G1 X81.104 Y99.043 E0.0704
G1 X80.957 Y98.896 E0.0821
G1 X80.790 Y98.771 E0.0939
G1 X80.607 Y98.671 E0.1056
G1 X80.412 Y98.598 E0.1173
G1 X80.192 Y98.550 E0.1300
G1 X79.811 Y98.550 E0.1514
G1 X79.589 Y98.598 E0.1642
G1 X79.393 Y98.671 E0.1760
G1 X79.210 Y98.771 E0.1877
G1 X79.043 Y98.896 E0.1994
G1 X78.896 Y99.043 E0.2112
G1 X78.771 Y99.210 E0.2229
G1 X78.671 Y99.393 E0.2346
G1 X78.598 Y99.588 E0.2464
G1 X78.554 Y99.792 E0.2581
G1 X78.539 Y100.000 E0.2698
G1 X78.554 Y100.208 E0.2816
G1 X78.598 Y100.412 E0.2933
G1 X78.671 Y100.607 E0.3050
G1 X78.771 Y100.790 E0.3168
G1 X78.896 Y100.957 E0.3285
G1 X79.043 Y101.104 E0.3402
G1 X79.210 Y101.229 E0.3520
G1 X79.393 Y101.329 E0.3637
G1 X79.588 Y101.402 E0.3754
G1 X79.792 Y101.446 E0.3872
G1 X80.000 Y101.461 E0.3989
G1 X80.208 Y101.446 E0.4106
G1 X80.412 Y101.402 E0.4223
G1 X80.607 Y101.329 E0.4341
G1 X80.790 Y101.229 E0.4458
G1 X80.957 Y101.104 E0.4575
G1 X81.104 Y100.957 E0.4693
G1 X81.229 Y100.790 E0.4810
G1 X81.329 Y100.607 E0.4927
G1 X81.402 Y100.412 E0.5045
G1 X81.404 Y100.403 E0.5049
G1 X81.446 Y100.208 F900
G1 X81.461 Y100.000 F900
G1 X81.446 Y99.792
G1 X81.402 Y99.588
G1 X81.329 Y99.393
G1 X81.229 Y99.210
G1 X81.104 Y99.043
G1 X80.957 Y98.896
G1 X80.790 Y98.771
G1 X80.607 Y98.671
G1 X80.412 Y98.598
G1 X80.192 Y98.550
G1 X79.811 Y98.550
G1 X79.589 Y98.598
G1 X79.393 Y98.671
G1 X79.210 Y98.771
G1 X79.043 Y98.896
G1 X78.896 Y99.043
G1 X78.771 Y99.210
G1 X78.671 Y99.393
G1 X78.598 Y99.588
G1 X78.554 Y99.792
G1 X78.539 Y100.000
G1 X78.553 Y100.205
; feature internal single extrusion
; tool H0.200 W0.942
G1 X77.022 Y100.630 F18000
G92 E0.0000
; tool H0.200 W0.947
G1 X77.013 Y100.429 E0.0148 F900
; tool H0.200 W0.942
G1 X77.008 Y100.305 E0.0240
; tool H0.200 W0.933
G1 X77.005 Y100.214 E0.0306
; tool H0.200 W0.927
G1 X77.002 Y100.123 E0.0372
; tool H0.200 W0.920
G1 X76.998 Y100.000 E0.0461
G1 X77.002 Y99.877 E0.0550
; tool H0.200 W0.930
G1 X77.008 Y99.695 E0.0682
; tool H0.200 W0.942
G1 X77.013 Y99.570 E0.0774
G1 X77.022 Y99.370 F900
; feature solid layer
; tool H0.200 W0.720
G1 X77.918 Y97.265 F18000
G92 E0.0000
G1 X77.440 Y96.786 E0.0381 F1440
G1 X77.440 Y96.440 E0.0575
G1 X78.112 Y96.440 E0.0954
G1 X78.548 Y96.876 E0.1301
G1 X78.568 Y96.865 E0.1314
G1 X79.031 Y96.693 E0.1592
G1 X79.320 Y96.630 E0.1758
G1 X79.130 Y96.440 E0.1910
G1 X80.148 Y96.440 E0.2483
G1 X80.278 Y96.570 E0.2586
G1 X80.405 Y96.570 E0.2658
G1 X80.971 Y96.693 E0.2983
G1 X81.432 Y96.865 E0.3260
G1 X81.784 Y97.058 E0.3486
G1 X81.167 Y96.440 E0.3978
G1 X82.185 Y96.440 E0.4551
G1 X89.305 Y103.560 E1.0217
G1 X90.323 Y103.560 E1.0790
G1 X83.203 Y96.440 E1.6457
G1 X84.221 Y96.440 E1.7030
G1 X91.341 Y103.560 E2.2697
G1 X92.359 Y103.560 E2.3270
G1 X85.239 Y96.440 E2.8936
G1 X86.258 Y96.440 E2.9509
G1 X93.378 Y103.560 E3.5176
G1 X94.396 Y103.560 E3.5749
G1 X87.276 Y96.440 E4.1415
G1 X88.294 Y96.440 E4.1988
G1 X95.414 Y103.560 E4.7655
G1 X96.432 Y103.560 E4.8228
G1 X89.312 Y96.440 E5.3894
G1 X90.331 Y96.440 E5.4468
G1 X97.451 Y103.560 E6.0134
G1 X98.469 Y103.560 E6.0707
G1 X91.349 Y96.440 E6.6374
G1 X92.367 Y96.440 E6.6947
G1 X99.487 Y103.560 E7.2613
G1 X100.505 Y103.560 E7.3186
G1 X93.385 Y96.440 E7.8853
G1 X94.404 Y96.440 E7.9426
G1 X101.524 Y103.560 E8.5092
G1 X102.542 Y103.560 E8.5665
G1 X95.422 Y96.440 E9.1332
G1 X96.440 Y96.440 E9.1905
G1 X103.560 Y103.560 E9.7572
G1 X104.578 Y103.560 E9.8145
G1 X97.458 Y96.440 E10.3811
G1 X98.476 Y96.440 E10.4384
G1 X105.596 Y103.560 E11.0051
G1 X106.615 Y103.560 E11.0624
G1 X99.495 Y96.440 E11.6290
G1 X100.513 Y96.440 E11.6863
G1 X107.633 Y103.560 E12.2530
G1 X108.651 Y103.560 E12.3103
G1 X101.531 Y96.440 E12.8769
G1 X102.549 Y96.440 E12.9342
G1 X109.669 Y103.560 E13.5009
G1 X110.688 Y103.560 E13.5582
G1 X103.568 Y96.440 E14.1249
G1 X104.586 Y96.440 E14.1822
G1 X111.706 Y103.560 E14.7488
G1 X112.724 Y103.560 E14.8061
G1 X105.604 Y96.440 E15.3728
G1 X106.622 Y96.440 E15.4301
G1 X113.742 Y103.560 E15.9967
G1 X114.761 Y103.560 E16.0540
G1 X107.641 Y96.440 E16.6207
G1 X108.659 Y96.440 E16.6780
G1 X115.779 Y103.560 E17.2447
G1 X116.797 Y103.560 E17.3020
G1 X109.677 Y96.440 E17.8686
G1 X110.695 Y96.440 E17.9259
G1 X117.815 Y103.560 E18.4926
G1 X118.834 Y103.560 E18.5499
G1 X111.714 Y96.440 E19.1165
G1 X112.732 Y96.440 E19.1738
G1 X119.852 Y103.560 E19.7405
G1 X120.870 Y103.560 E19.7978
G1 X113.750 Y96.440 E20.3644
G1 X114.768 Y96.440 E20.4217
G1 X121.888 Y103.560 E20.9884
G1 X122.560 Y103.560 E21.0262
G1 X122.560 Y103.214 E21.0457
G1 X115.786 Y96.440 E21.5848
G1 X116.805 Y96.440 E21.6421
G1 X122.560 Y102.195 E22.1001
G1 X122.560 Y101.177 E22.1574
G1 X117.823 Y96.440 E22.5344
G1 X118.841 Y96.440 E22.5917
G1 X122.560 Y100.159 E22.8877
G1 X122.560 Y99.141 E22.9450
G1 X119.859 Y96.440 E23.1599
G1 X120.878 Y96.440 E23.2173
G1 X122.560 Y98.122 E23.3511
G1 X122.560 Y97.104 E23.4084
G1 X122.037 Y96.581 E23.4500
G1 X121.896 Y96.440 F1440
G1 X82.942 Y98.216 F18000
G92 E0.0000
G1 X88.287 Y103.560 E0.4253 F1440
G1 X87.268 Y103.560 E0.4826
G1 X83.426 Y99.718 E0.7884
G1 X83.446 Y100.000 E0.8043
G1 X83.411 Y100.491 E0.8320
G1 X83.370 Y100.680 E0.8429
G1 X86.250 Y103.560 E1.0721
G1 X85.232 Y103.560 E1.1295
G1 X83.124 Y101.452 E1.2972
G1 X82.899 Y101.863 E1.3236
G1 X82.735 Y102.082 E1.3390
G1 X84.214 Y103.560 E1.4566
G1 X83.195 Y103.560 E1.5139
G1 X82.247 Y102.612 E1.5894
G1 X81.863 Y102.899 E1.6164
G1 X81.639 Y103.022 E1.6308
G1 X82.177 Y103.560 E1.6736
G1 X81.159 Y103.560 E1.7309
G1 X80.917 Y103.318 E1.7501
G1 X80.490 Y103.411 E1.7747
G1 X80.025 Y103.444 E1.8010
G1 X80.141 Y103.560 E1.8102
G1 X79.122 Y103.560 E1.8675
G1 X78.774 Y103.211 E1.8952
G1 X78.568 Y103.135 E1.9075
G1 X78.137 Y102.899 E1.9352
G1 X77.743 Y102.605 E1.9629
G1 X77.440 Y102.301 E1.9870
G1 X77.440 Y102.896 E2.0205
G1 X77.963 Y103.419 E2.0621
G1 X78.104 Y103.560 F1440
; layer 2, Z = 0.400
M106 S255
G4 P500
M106 S51
M104 S208 T0
; feature inner perimeter
; tool H0.200 W0.480
G1 Z0.400 F1200
G1 X123.700 Y104.700 F18000
G92 E0.0000
G1 X76.300 Y104.700 E1.7783 F2700
G1 X76.300 Y95.300 E2.1310
G1 X123.700 Y95.300 E3.9093
G1 X123.700 Y104.500 E4.2545
G1 X123.700 Y104.700 F2700
G1 X124.180 Y105.180 F18000
G92 E0.0000
G1 X75.820 Y105.180 E1.8143 F2700
G1 X75.820 Y94.820 E2.2030
G1 X124.180 Y94.820 E4.0174
