; G-Code generated by Simplify3D(R) Version 4.1.2
; Apr 7, 2020 at 10:52:00 PM
; Settings Summary
;   processName,Process1
;   applyToModels,test-kurve-v3
;   profileName,HBot (modified)
;   profileVersion,2019-10-26 23:38:43
;   baseProfile,Default
;   printMaterial,PLA
;   printQuality,Medium
;   printExtruders,
;   extruderName,Extruder 1
;   extruderToolheadNumber,0
;   extruderDiameter,0.4
;   extruderAutoWidth,1
;   extruderWidth,0.48
;   extrusionMultiplier,0.94
;   extruderUseRetract,1
;   extruderRetractionDistance,3
;   extruderExtraRestartDistance,0
;   extruderRetractionZLift,0
;   extruderRetractionSpeed,3600
;   extruderUseCoasting,1
;   extruderCoastingDistance,0.2
;   extruderUseWipe,1
;   extruderWipeDistance,5
;   primaryExtruder,0
;   layerHeight,0.2
;   topSolidLayers,3
;   bottomSolidLayers,3
;   perimeterOutlines,3
;   printPerimetersInsideOut,1
;   startPointOption,3
;   startPointOriginX,200
;   startPointOriginY,100
;   sequentialIslands,0
;   spiralVaseMode,0
;   firstLayerHeightPercentage,100
;   firstLayerWidthPercentage,150
;   firstLayerUnderspeed,0.5
;   useRaft,0
;   raftExtruder,0
;   raftTopLayers,3
;   raftBaseLayers,2
;   raftOffset,3
;   raftSeparationDistance,0.18
;   raftTopInfill,100
;   aboveRaftSpeedMultiplier,0.3
;   useSkirt,1
;   skirtExtruder,0
;   skirtLayers,1
;   skirtOutlines,5
;   skirtOffset,0
;   usePrimePillar,0
;   primePillarExtruder,999
;   primePillarWidth,12
;   primePillarLocation,7
;   primePillarSpeedMultiplier,1
;   useOozeShield,0
;   oozeShieldExtruder,999
;   oozeShieldOffset,2
;   oozeShieldOutlines,1
;   oozeShieldSidewallShape,1
;   oozeShieldSidewallAngle,30
;   oozeShieldSpeedMultiplier,1
;   infillExtruder,0
;   internalInfillPattern,Rectilinear
;   externalInfillPattern,Rectilinear
;   infillPercentage,20
;   outlineOverlapPercentage,25
;   infillExtrusionWidthPercentage,150
;   minInfillLength,5
;   infillLayerInterval,1
;   internalInfillAngles,45,-45
;   overlapInternalInfillAngles,0
;   externalInfillAngles,45,-45
;   generateSupport,0
;   supportExtruder,0
;   supportInfillPercentage,30
;   supportExtraInflation,0
;   supportBaseLayers,1
;   denseSupportExtruder,0
;   denseSupportLayers,0
;   denseSupportInfillPercentage,70
;   supportLayerInterval,1
;   supportHorizontalPartOffset,0.3
;   supportUpperSeparationLayers,1
;   supportLowerSeparationLayers,1
;   supportType,0
;   supportGridSpacing,4
;   maxOverhangAngle,25
;   supportAngles,0
;   temperatureName,Extruder 1,Heated Bed
;   temperatureNumber,0,1
;   temperatureSetpointCount,2,1
;   temperatureSetpointLayers,1,2,1
;   temperatureSetpointTemperatures,217,208,65
;   temperatureStabilizeAtStartup,1,1
;   temperatureHeatedBed,0,1
;   fanLayers,1,2,4
;   fanSpeeds,0,20,30
;   blipFanToFullPower,1
;   adjustSpeedForCooling,1
;   minSpeedLayerTime,15
;   minCoolingSpeedSlowdown,20
;   increaseFanForCooling,0
;   minFanLayerTime,45
;   maxCoolingFanSpeed,40
;   increaseFanForBridging,1
;   bridgingFanSpeed,80
;   use5D,1
;   relativeEdistances,0
;   allowEaxisZeroing,1
;   independentExtruderAxes,0
;   includeM10123,0
;   stickySupport,1
;   applyToolheadOffsets,0
;   gcodeXoffset,0
;   gcodeYoffset,0
;   gcodeZoffset,0
;   overrideMachineDefinition,1
;   machineTypeOverride,0
;   strokeXoverride,200
;   strokeYoverride,200
;   strokeZoverride,150
;   originOffsetXoverride,0
;   originOffsetYoverride,0
;   originOffsetZoverride,0
;   homeXdirOverride,-1
;   homeYdirOverride,-1
;   homeZdirOverride,-1
;   flipXoverride,1
;   flipYoverride,-1
;   flipZoverride,1
;   toolheadOffsets,0,0|0,0|0,0|0,0|0,0|0,0
;   overrideFirmwareConfiguration,1
;   firmwareTypeOverride,RepRap (Marlin/Repetier/Sprinter)
;   GPXconfigOverride,r2
;   baudRateOverride,115200
;   overridePrinterModels,0
;   printerModelsOverride
;   startingGcode,G28 ; home all axes,G32 ; run bed.g -- probe bed and enable compensation
;   layerChangeGcode,
;   retractionGcode,
;   toolChangeGcode,
;   endingGcode,M0 ; call stop.g
;   exportFileFormat,gcode
;   celebration,0
;   celebrationSong,Random Song
;   postProcessing,
;   defaultSpeed,3600
;   outlineUnderspeed,0.5
;   solidInfillUnderspeed,0.8
;   supportUnderspeed,0.8
;   rapidXYspeed,18000
;   rapidZspeed,1200
;   minBridgingArea,50
;   bridgingExtraInflation,0
;   bridgingExtrusionMultiplier,0.96
;   bridgingSpeedMultiplier,1
;   useFixedBridgingAngle,0
;   fixedBridgingAngle,0
;   applyBridgingToPerimeters,0
;   filamentDiameters,1.75|1.75|1.75|1.75|1.75|1.75
;   filamentPricesPerKg,46|46|46|46|46|46
;   filamentDensities,1.25|1.25|1.25|1.25|1.25|1.25
;   useMinPrintHeight,0
;   minPrintHeight,0
;   useMaxPrintHeight,0
;   maxPrintHeight,0
;   useDiaphragm,0
;   diaphragmLayerInterval,20
;   robustSlicing,1
;   mergeAllIntoSolid,0
;   onlyRetractWhenCrossingOutline,1
;   retractBetweenLayers,0
;   useRetractionMinTravel,1
;   retractionMinTravel,3
;   retractWhileWiping,1
;   onlyWipeOutlines,1
;   avoidCrossingOutline,1
;   maxMovementDetourFactor,30
;   toolChangeRetractionDistance,12
;   toolChangeExtraRestartDistance,-0.5
;   toolChangeRetractionSpeed,600
;   externalThinWallType,1
;   internalThinWallType,1
;   thinWallAllowedOverlapPercentage,10
;   singleExtrusionMinLength,1
;   singleExtrusionMinPrintingWidthPercentage,50
;   singleExtrusionMaxPrintingWidthPercentage,200
;   singleExtrusionEndpointExtension,0.2
;   horizontalSizeCompensation,-0.1
G90
M82
M106 S0
M140 S65
M190 S65
M104 S217 T0
M109 S217 T0
G28 ; home all axes
G32 ; run bed.g -- probe bed and enable compensation
; process Process1
; layer 1, Z = 0.200
T0
G92 E0.0000
G1 E-3.0000 F3600
; feature skirt
; tool H0.200 W0.720
G1 Z0.200 F1200
G1 X128.140 Y92.758 F18000
G1 E0.0000 F3600
G92 E0.0000
G1 X128.140 Y107.242 E0.8151 F1800
G1 X126.242 Y109.140 E0.9662
G1 X79.564 Y109.130 E3.5930
G1 X79.377 Y109.119 E3.6036
G1 X78.511 Y109.018 E3.6526
G1 X78.326 Y108.986 E3.6632
G1 X77.479 Y108.786 E3.7122
G1 X77.299 Y108.732 E3.7228
G1 X76.479 Y108.435 E3.7718
G1 X76.307 Y108.361 E3.7824
G1 X75.528 Y107.972 E3.8314
G1 X75.365 Y107.878 E3.8419
G1 X74.636 Y107.401 E3.8910
G1 X74.485 Y107.290 E3.9015
G1 X73.816 Y106.731 E3.9506
G1 X73.679 Y106.602 E3.9612
G1 X73.080 Y105.971 E4.0101
G1 X72.960 Y105.830 E4.0206
G1 X72.194 Y104.811 E4.0923
G1 X71.860 Y103.812 E4.1516
G1 X71.860 Y96.188 E4.5806
G1 X72.194 Y95.189 E4.6399
G1 X72.960 Y94.170 E4.7116
G1 X73.080 Y94.029 E4.7221
G1 X73.695 Y93.380 E4.7724
G1 X73.869 Y93.222 E4.7856
G1 X74.858 Y92.444 E4.8565
G1 X75.053 Y92.313 E4.8697
G1 X75.829 Y91.867 E4.9200
G1 X75.997 Y91.783 E4.9306
G1 X76.798 Y91.439 E4.9797
G1 X76.974 Y91.375 E4.9902
G1 X77.787 Y91.133 E5.0380
G1 X77.925 Y91.098 E5.0460
G1 X78.426 Y90.996 E5.0747
G1 X78.610 Y90.969 E5.0852
G1 X79.791 Y90.866 E5.1519
G1 X79.931 Y90.860 E5.1598
G1 X126.242 Y90.860 E7.7660
G1 X128.140 Y92.758 E7.9171
G1 X127.420 Y93.056 F18000
G92 E0.0000
G1 X127.420 Y106.944 E0.7816 F1800
G1 X125.943 Y108.420 E0.8991
G1 X79.585 Y108.410 E3.5079
G1 X79.439 Y108.402 E3.5161
G1 X78.615 Y108.306 E3.5628
G1 X78.472 Y108.280 E3.5710
G1 X77.664 Y108.090 E3.6177
G1 X77.524 Y108.048 E3.6259
G1 X76.744 Y107.765 E3.6726
G1 X76.610 Y107.708 E3.6808
G1 X75.869 Y107.337 E3.7275
G1 X75.742 Y107.264 E3.7357
G1 X75.048 Y106.810 E3.7824
G1 X74.931 Y106.723 E3.7906
G1 X74.293 Y106.192 E3.8373
G1 X74.187 Y106.092 E3.8455
G1 X73.616 Y105.491 E3.8922
G1 X73.523 Y105.380 E3.9003
G1 X72.840 Y104.472 E3.9643
G1 X72.580 Y103.695 E4.0104
G1 X72.580 Y96.305 E4.4262
G1 X72.840 Y95.528 E4.4724
G1 X73.523 Y94.620 E4.5363
G1 X73.616 Y94.509 E4.5444
G1 X74.199 Y93.895 E4.5921
G1 X74.335 Y93.772 E4.6024
G1 X75.283 Y93.026 E4.6703
G1 X75.434 Y92.924 E4.6806
G1 X76.170 Y92.501 E4.7283
G1 X76.300 Y92.436 E4.7365
G1 X77.063 Y92.109 E4.7832
G1 X77.200 Y92.059 E4.7914
G1 X77.978 Y91.827 E4.8371
G1 X78.085 Y91.800 E4.8434
G1 X78.550 Y91.705 E4.8700
G1 X78.693 Y91.684 E4.8782
G1 X79.838 Y91.585 E4.9428
G1 X79.947 Y91.580 E4.9490
G1 X125.944 Y91.580 E7.5375
G1 X127.420 Y93.056 E7.6550
G1 X126.700 Y93.354 F18000
G92 E0.0000
G1 X126.700 Y106.646 E0.7480 F1800
G1 X125.645 Y107.700 E0.8319
G1 X79.606 Y107.690 E3.4228
G1 X79.502 Y107.684 E3.4287
G1 X78.719 Y107.593 E3.4730
G1 X78.617 Y107.575 E3.4789
G1 X77.850 Y107.394 E3.5232
G1 X77.750 Y107.364 E3.5291
G1 X77.009 Y107.096 E3.5734
G1 X76.914 Y107.055 E3.5793
G1 X76.209 Y106.702 E3.6236
G1 X76.119 Y106.650 E3.6295
G1 X75.460 Y106.219 E3.6738
G1 X75.376 Y106.157 E3.6797
G1 X74.771 Y105.652 E3.7240
G1 X74.695 Y105.581 E3.7299
G1 X74.153 Y105.010 E3.7742
G1 X74.086 Y104.931 E3.7800
G1 X73.486 Y104.133 E3.8362
G1 X73.300 Y103.578 E3.8692
G1 X73.300 Y96.422 E4.2718
G1 X73.486 Y95.867 E4.3048
G1 X74.086 Y95.069 E4.3610
G1 X74.153 Y94.990 E4.3668
G1 X74.704 Y94.410 E4.4118
G1 X74.800 Y94.322 E4.4192
G1 X75.708 Y93.608 E4.4842
G1 X75.816 Y93.535 E4.4915
G1 X76.510 Y93.136 E4.5366
G1 X76.604 Y93.089 E4.5425
G1 X77.328 Y92.778 E4.5868
G1 X77.426 Y92.743 E4.5927
G1 X78.168 Y92.522 E4.6363
G1 X78.245 Y92.502 E4.6407
G1 X78.674 Y92.415 E4.6654
G1 X78.776 Y92.400 E4.6712
G1 X79.884 Y92.303 E4.7338
G1 X79.962 Y92.300 E4.7382
G1 X125.646 Y92.300 E7.3091
G1 X126.700 Y93.354 E7.3930
G1 X125.980 Y93.653 F18000
G92 E0.0000
G1 X125.980 Y106.347 E0.7144 F1800
G1 X125.347 Y106.980 E0.7648
G1 X79.627 Y106.970 E3.3377
G1 X79.564 Y106.966 E3.3413
G1 X78.824 Y106.880 E3.3832
G1 X78.762 Y106.869 E3.3868
G1 X78.036 Y106.698 E3.4287
G1 X77.976 Y106.680 E3.4323
G1 X77.274 Y106.426 E3.4742
G1 X77.217 Y106.401 E3.4778
G1 X76.550 Y106.068 E3.5197
G1 X76.496 Y106.037 E3.5233
G1 X75.871 Y105.628 E3.5652
G1 X75.821 Y105.591 E3.5688
G1 X75.248 Y105.113 E3.6108
G1 X75.202 Y105.070 E3.6143
G1 X74.689 Y104.529 E3.6562
G1 X74.649 Y104.482 E3.6597
G1 X74.131 Y103.794 E3.7082
G1 X74.020 Y103.461 E3.7280
G1 X74.020 Y96.539 E4.1174
G1 X74.131 Y96.206 E4.1372
G1 X74.649 Y95.518 E4.1857
G1 X74.689 Y95.471 E4.1892
G1 X75.208 Y94.924 E4.2316
G1 X75.266 Y94.872 E4.2360
G1 X76.132 Y94.190 E4.2980
G1 X76.197 Y94.146 E4.3024
G1 X76.851 Y93.771 E4.3449
G1 X76.907 Y93.743 E4.3484
G1 X77.592 Y93.448 E4.3904
G1 X77.651 Y93.427 E4.3939
G1 X78.359 Y93.216 E4.4354
G1 X78.405 Y93.205 E4.4381
G1 X78.798 Y93.124 E4.4607
G1 X78.859 Y93.115 E4.4642
G1 X79.931 Y93.022 E4.5247
G1 X79.978 Y93.020 E4.5274
G1 X125.347 Y93.020 E7.0806
G1 X125.980 Y93.653 E7.1309
G1 X125.260 Y93.951 F18000
G92 E0.0000
G1 X125.260 Y106.049 E0.6808 F1800
G1 X125.049 Y106.260 E0.6976
G1 X79.648 Y106.250 E3.2526
G1 X79.627 Y106.249 E3.2538
G1 X78.928 Y106.167 E3.2934
G1 X78.907 Y106.164 E3.2946
G1 X78.221 Y106.002 E3.3343
G1 X78.201 Y105.996 E3.3354
G1 X77.539 Y105.756 E3.3751
G1 X77.520 Y105.748 E3.3762
G1 X76.890 Y105.433 E3.4159
G1 X76.872 Y105.423 E3.4170
G1 X76.283 Y105.037 E3.4567
G1 X76.266 Y105.025 E3.4578
G1 X75.725 Y104.573 E3.4975
G1 X75.710 Y104.559 E3.4987
G1 X75.225 Y104.048 E3.5383
G1 X75.212 Y104.033 E3.5394
G1 X74.777 Y103.454 E3.5802
G1 X74.740 Y103.343 E3.5867
G1 X74.740 Y96.657 E3.9631
G1 X74.777 Y96.545 E3.9696
G1 X75.212 Y95.967 E4.0104
G1 X75.225 Y95.952 E4.0115
G1 X75.712 Y95.439 E4.0513
G1 X75.731 Y95.422 E4.0528
G1 X76.557 Y94.772 E4.1119
G1 X76.579 Y94.758 E4.1133
G1 X77.191 Y94.405 E4.1531
G1 X77.210 Y94.396 E4.1543
G1 X77.857 Y94.118 E4.1939
G1 X77.877 Y94.111 E4.1951
G1 X78.549 Y93.911 E4.2346
G1 X78.565 Y93.907 E4.2355
G1 X78.922 Y93.834 E4.2560
G1 X78.942 Y93.831 E4.2572
G1 X79.978 Y93.741 E4.3157
G1 X79.994 Y93.740 E4.3166
G1 X125.049 Y93.740 E6.8521
G1 X125.260 Y93.951 E6.8689
G92 E0.0000
G1 E-3.0000 F3600
; feature inner perimeter
G1 X124.540 Y94.460 F18000
G1 X124.540 Y97.334
G1 X123.100 Y104.100
G1 E0.0000 F3600
G92 E0.0000
G1 X91.832 Y104.100 E1.7597 F1350
G1 X91.781 Y103.508 E1.7931
G1 X93.125 Y103.274 E1.8699
G1 X94.359 Y103.131 E1.9398
G1 X95.612 Y103.059 E2.0105
G1 X96.299 Y103.049 E2.0491
G1 X96.629 Y103.026 E2.0677
G1 X97.031 Y102.943 E2.0908
G1 X97.417 Y102.806 E2.1139
G1 X97.781 Y102.617 E2.1370
G1 X98.116 Y102.381 E2.1600
G1 X98.416 Y102.101 E2.1831
G1 X98.674 Y101.783 E2.2062
G1 X98.888 Y101.432 E2.2293
G1 X99.051 Y101.056 E2.2523
G1 X99.162 Y100.661 E2.2754
G1 X99.217 Y100.255 E2.2985
G1 X99.217 Y99.845 E2.3216
G1 X99.162 Y99.439 E2.3446
G1 X99.051 Y99.044 E2.3677
G1 X98.888 Y98.668 E2.3908
G1 X98.674 Y98.317 E2.4139
G1 X98.416 Y97.999 E2.4370
G1 X98.116 Y97.719 E2.4600
G1 X97.781 Y97.483 E2.4831
G1 X97.417 Y97.294 E2.5062
G1 X97.031 Y97.157 E2.5293
G1 X96.629 Y97.074 E2.5523
G1 X96.271 Y97.049 E2.5725
G1 X95.426 Y97.061 E2.6201
G1 X94.633 Y97.095 E2.6647
G1 X93.842 Y97.152 E2.7094
G1 X93.052 Y97.232 E2.7540
G1 X92.266 Y97.334 E2.7987
G1 X91.482 Y97.459 E2.8434
G1 X90.702 Y97.607 E2.8880
G1 X89.927 Y97.777 E2.9327
G1 X89.157 Y97.969 E2.9773
G1 X88.393 Y98.183 E3.0220
G1 X87.635 Y98.419 E3.0666
G1 X86.884 Y98.676 E3.1113
G1 X86.142 Y98.955 E3.1560
G1 X85.407 Y99.256 E3.2006
G1 X84.895 Y99.482 E3.2321
G1 X84.752 Y98.797 E3.2715
G1 X84.636 Y98.408 E3.2943
G1 X84.489 Y98.031 E3.3171
G1 X84.311 Y97.667 E3.3399
G1 X84.103 Y97.319 E3.3627
G1 X83.868 Y96.989 E3.3855
G1 X83.606 Y96.680 E3.4083
G1 X82.826 Y95.900 E3.4704
G1 X123.100 Y95.900 E5.7369
G1 X123.100 Y103.900 E6.1871
G1 X123.100 Y104.100 F1350
G1 X123.820 Y104.820 F18000
G92 E0.0000
G1 X87.160 Y104.820 E2.0631 F1350
G1 X87.049 Y104.311 E2.0924
G1 X87.475 Y104.114 E2.1189
G1 X88.678 Y103.643 E2.1916
G1 X89.269 Y103.440 E2.2267
G1 X90.508 Y103.074 E2.2994
G1 X91.757 Y102.781 E2.3716
G1 X93.022 Y102.561 E2.4439
G1 X94.297 Y102.413 E2.5161
G1 X95.586 Y102.339 E2.5888
G1 X96.269 Y102.329 E2.6272
G1 X96.531 Y102.311 E2.6420
G1 X96.836 Y102.248 E2.6595
G1 X97.129 Y102.144 E2.6770
G1 X97.406 Y102.000 E2.6946
G1 X97.661 Y101.821 E2.7121
G1 X97.888 Y101.608 E2.7296
G1 X98.085 Y101.366 E2.7472
G1 X98.247 Y101.100 E2.7647
G1 X98.371 Y100.814 E2.7822
G1 X98.455 Y100.514 E2.7998
G1 X98.497 Y100.206 E2.8173
G1 X98.497 Y99.894 E2.8348
G1 X98.455 Y99.586 E2.8524
G1 X98.371 Y99.286 E2.8699
G1 X98.247 Y99.000 E2.8874
G1 X98.085 Y98.734 E2.9050
G1 X97.888 Y98.492 E2.9225
G1 X97.661 Y98.279 E2.9400
G1 X97.406 Y98.100 E2.9576
G1 X97.129 Y97.956 E2.9751
G1 X96.836 Y97.852 E2.9926
G1 X96.531 Y97.788 E3.0102
G1 X96.252 Y97.769 E3.0259
G1 X95.447 Y97.781 E3.0712
G1 X94.675 Y97.814 E3.1147
G1 X93.904 Y97.870 E3.1582
G1 X93.135 Y97.947 E3.2017
G1 X92.369 Y98.047 E3.2452
G1 X91.605 Y98.169 E3.2887
G1 X90.846 Y98.312 E3.3322
G1 X90.091 Y98.478 E3.3757
G1 X89.341 Y98.665 E3.4192
G1 X88.597 Y98.873 E3.4626
G1 X87.859 Y99.103 E3.5061
G1 X87.128 Y99.354 E3.5496
G1 X86.404 Y99.626 E3.5931
G1 X85.689 Y99.918 E3.6366
G1 X84.982 Y100.231 E3.6801
G1 X84.155 Y100.626 E3.7317
G1 X84.181 Y100.000 E3.7670
G1 X84.167 Y99.655 E3.7864
G1 X84.124 Y99.312 E3.8059
G1 X84.053 Y98.974 E3.8253
G1 X83.954 Y98.642 E3.8448
G1 X83.829 Y98.321 E3.8642
G1 X83.677 Y98.010 E3.8837
G1 X83.500 Y97.713 E3.9031
G1 X83.299 Y97.432 E3.9226
G1 X83.076 Y97.168 E3.9420
G1 X82.832 Y96.924 E3.9615
G1 X82.568 Y96.701 E3.9809
G1 X82.287 Y96.500 E4.0003
G1 X81.990 Y96.323 E4.0198
G1 X81.679 Y96.171 E4.0392
G1 X81.358 Y96.046 E4.0587
G1 X81.026 Y95.947 E4.0781
G1 X80.688 Y95.876 E4.0976
G1 X80.345 Y95.833 E4.1170
G1 X79.894 Y95.815 E4.1424
G1 X79.907 Y95.180 E4.1782
G1 X123.820 Y95.180 E6.6494
G1 X123.820 Y104.620 E7.1806
G1 X123.820 Y104.820 F1350
G1 X84.492 Y104.820 F18000
G1 X84.232 Y104.973
G1 X84.060 Y105.062
G1 X83.859 Y105.133
G1 X83.651 Y105.177
G1 X83.438 Y105.191
G1 X83.226 Y105.176
G1 X83.017 Y105.133
G1 X82.816 Y105.062
G1 X82.627 Y104.964
G1 X82.453 Y104.841
G1 X82.431 Y104.820
G1 X81.407 Y104.820
G92 E0.0000
G1 X79.907 Y104.820 E0.0844 F1350
G1 X79.894 Y104.185 E0.1201
G1 X80.345 Y104.167 E0.1455
G1 X80.688 Y104.124 E0.1650
G1 X81.183 Y104.020 E0.1934
G1 X81.353 Y104.627 E0.2289
G1 X81.407 Y104.820 F1350
; feature outer perimeter
G1 X82.151 Y104.515 F18000
G92 E0.0000
G1 X82.297 Y104.695 E0.0130 F900
G1 X82.453 Y104.841 E0.0250
G1 X82.803 Y105.088 E0.0492
G1 X82.660 Y105.540 E0.0759
G1 X80.007 Y105.540 E0.2252
G1 X79.679 Y105.531 E0.2436
G1 X79.359 Y105.503 E0.2617
G1 X79.042 Y105.456 E0.2797
G1 X78.727 Y105.392 E0.2978
G1 X78.417 Y105.309 E0.3159
