; G-Code generated by Simplify3D(R) Version 4.1.2
; Apr 17, 2020 at 5:55:18 AM
; Settings Summary
;   processName,Process1
;   applyToModels,vorne-v2,vorne-v2(2)
;   profileName,HBot (modified)
;   profileVersion,2019-10-26 23:38:43
;   baseProfile,Default
;   printMaterial,PLA
;   printQuality,Medium
;   printExtruders,
;   extruderName,Extruder 1
;   extruderToolheadNumber,0
;   extruderDiameter,0.4
;   extruderAutoWidth,1
;   extruderWidth,0.48
;   extrusionMultiplier,0.94
;   extruderUseRetract,1
;   extruderRetractionDistance,3
;   extruderExtraRestartDistance,0
;   extruderRetractionZLift,0
;   extruderRetractionSpeed,3600
;   extruderUseCoasting,1
;   extruderCoastingDistance,0.2
;   extruderUseWipe,1
;   extruderWipeDistance,5
;   primaryExtruder,0
;   layerHeight,0.2
;   topSolidLayers,3
;   bottomSolidLayers,3
;   perimeterOutlines,3
;   printPerimetersInsideOut,1
;   startPointOption,3
;   startPointOriginX,200
;   startPointOriginY,100
;   sequentialIslands,0
;   spiralVaseMode,0
;   firstLayerHeightPercentage,100
;   firstLayerWidthPercentage,150
;   firstLayerUnderspeed,0.5
;   useRaft,0
;   raftExtruder,0
;   raftTopLayers,3
;   raftBaseLayers,2
;   raftOffset,3
;   raftSeparationDistance,0.18
;   raftTopInfill,100
;   aboveRaftSpeedMultiplier,0.3
;   useSkirt,1
;   skirtExtruder,0
;   skirtLayers,1
;   skirtOutlines,5
;   skirtOffset,0
;   usePrimePillar,0
;   primePillarExtruder,999
;   primePillarWidth,12
;   primePillarLocation,7
;   primePillarSpeedMultiplier,1
;   useOozeShield,0
;   oozeShieldExtruder,999
;   oozeShieldOffset,2
;   oozeShieldOutlines,1
;   oozeShieldSidewallShape,1
;   oozeShieldSidewallAngle,30
;   oozeShieldSpeedMultiplier,1
;   infillExtruder,0
;   internalInfillPattern,Rectilinear
;   externalInfillPattern,Rectilinear
;   infillPercentage,20
;   outlineOverlapPercentage,25
;   infillExtrusionWidthPercentage,150
;   minInfillLength,5
;   infillLayerInterval,1
;   internalInfillAngles,45,-45
;   overlapInternalInfillAngles,0
;   externalInfillAngles,45,-45
;   generateSupport,0
;   supportExtruder,0
;   supportInfillPercentage,30
;   supportExtraInflation,0
;   supportBaseLayers,1
;   denseSupportExtruder,0
;   denseSupportLayers,0
;   denseSupportInfillPercentage,70
;   supportLayerInterval,1
;   supportHorizontalPartOffset,0.3
;   supportUpperSeparationLayers,1
;   supportLowerSeparationLayers,1
;   supportType,0
;   supportGridSpacing,4
;   maxOverhangAngle,25
;   supportAngles,0
;   temperatureName,Extruder 1,Heated Bed
;   temperatureNumber,0,1
;   temperatureSetpointCount,2,1
;   temperatureSetpointLayers,1,2,1
;   temperatureSetpointTemperatures,217,208,65
;   temperatureStabilizeAtStartup,1,1
;   temperatureHeatedBed,0,1
;   fanLayers,1,2,4
;   fanSpeeds,0,20,30
;   blipFanToFullPower,1
;   adjustSpeedForCooling,1
;   minSpeedLayerTime,15
;   minCoolingSpeedSlowdown,20
;   increaseFanForCooling,0
;   minFanLayerTime,45
;   maxCoolingFanSpeed,40
;   increaseFanForBridging,1
;   bridgingFanSpeed,80
;   use5D,1
;   relativeEdistances,0
;   allowEaxisZeroing,1
;   independentExtruderAxes,0
;   includeM10123,0
;   stickySupport,1
;   applyToolheadOffsets,0
;   gcodeXoffset,0
;   gcodeYoffset,0
;   gcodeZoffset,0
;   overrideMachineDefinition,1
;   machineTypeOverride,0
;   strokeXoverride,200
;   strokeYoverride,200
;   strokeZoverride,150
;   originOffsetXoverride,0
;   originOffsetYoverride,0
;   originOffsetZoverride,0
;   homeXdirOverride,-1
;   homeYdirOverride,-1
;   homeZdirOverride,-1
;   flipXoverride,1
;   flipYoverride,-1
;   flipZoverride,1
;   toolheadOffsets,0,0|0,0|0,0|0,0|0,0|0,0
;   overrideFirmwareConfiguration,1
;   firmwareTypeOverride,RepRap (Marlin/Repetier/Sprinter)
;   GPXconfigOverride,r2
;   baudRateOverride,115200
;   overridePrinterModels,0
;   printerModelsOverride
;   startingGcode,G28 ; home all axes,G32 ; run bed.g -- probe bed and enable compensation
;   layerChangeGcode,
;   retractionGcode,
;   toolChangeGcode,
;   endingGcode,M0 ; call stop.g
;   exportFileFormat,gcode
;   celebration,0
;   celebrationSong,Random Song
;   postProcessing,
;   defaultSpeed,3600
;   outlineUnderspeed,0.5
;   solidInfillUnderspeed,0.8
;   supportUnderspeed,0.8
;   rapidXYspeed,18000
;   rapidZspeed,1200
;   minBridgingArea,50
;   bridgingExtraInflation,0
;   bridgingExtrusionMultiplier,0.96
;   bridgingSpeedMultiplier,1
;   useFixedBridgingAngle,0
;   fixedBridgingAngle,0
;   applyBridgingToPerimeters,0
;   filamentDiameters,1.75|1.75|1.75|1.75|1.75|1.75
;   filamentPricesPerKg,46|46|46|46|46|46
;   filamentDensities,1.25|1.25|1.25|1.25|1.25|1.25
;   useMinPrintHeight,0
;   minPrintHeight,0
;   useMaxPrintHeight,0
;   maxPrintHeight,0
;   useDiaphragm,0
;   diaphragmLayerInterval,20
;   robustSlicing,1
;   mergeAllIntoSolid,0
;   onlyRetractWhenCrossingOutline,1
;   retractBetweenLayers,0
;   useRetractionMinTravel,1
;   retractionMinTravel,3
;   retractWhileWiping,1
;   onlyWipeOutlines,1
;   avoidCrossingOutline,1
;   maxMovementDetourFactor,50
;   toolChangeRetractionDistance,12
;   toolChangeExtraRestartDistance,-0.5
;   toolChangeRetractionSpeed,600
;   externalThinWallType,1
;   internalThinWallType,1
;   thinWallAllowedOverlapPercentage,10
;   singleExtrusionMinLength,1
;   singleExtrusionMinPrintingWidthPercentage,50
;   singleExtrusionMaxPrintingWidthPercentage,200
;   singleExtrusionEndpointExtension,0.2
;   horizontalSizeCompensation,-0.1
G90
M82
M106 S0
M140 S65
M190 S65
M104 S217 T0
M109 S217 T0
G28 ; home all axes
G32 ; run bed.g -- probe bed and enable compensation
; process Process1
; layer 1, Z = 0.200
T0
G92 E0.0000
G1 E-3.0000 F3600
; feature skirt
; tool H0.200 W0.720
G1 Z0.200 F1200
G1 X117.640 Y136.819 F18000
G1 E0.0000 F3600
G92 E0.0000
G1 X117.637 Y136.912 E0.0053 F1800
G1 X117.590 Y137.737 E0.0518
G1 X117.568 Y137.923 E0.0623
G1 X117.417 Y138.781 E0.1113
G1 X117.374 Y138.964 E0.1219
G1 X117.118 Y139.822 E0.1723
G1 X117.035 Y140.042 E0.1855
G1 X116.505 Y141.184 E0.2564
G1 X116.391 Y141.389 E0.2696
G1 X115.901 Y142.137 E0.3199
G1 X115.789 Y142.288 E0.3305
G1 X115.231 Y142.957 E0.3795
G1 X115.103 Y143.094 E0.3901
G1 X114.472 Y143.693 E0.4390
G1 X114.330 Y143.813 E0.4495
G1 X113.311 Y144.579 E0.5212
G1 X112.312 Y144.913 E0.5805
G1 X104.688 Y144.913 E1.0096
G1 X103.689 Y144.579 E1.0689
G1 X102.670 Y143.813 E1.1406
G1 X102.528 Y143.693 E1.1511
G1 X101.897 Y143.094 E1.2000
G1 X101.769 Y142.957 E1.2106
G1 X101.210 Y142.288 E1.2596
G1 X101.099 Y142.137 E1.2702
G1 X100.622 Y141.409 E1.3192
G1 X100.528 Y141.246 E1.3298
G1 X100.139 Y140.466 E1.3788
G1 X100.065 Y140.294 E1.3894
G1 X100.000 Y140.116 E1.4000
G1 X99.505 Y141.184 E1.4662
G1 X99.391 Y141.389 E1.4794
G1 X98.901 Y142.137 E1.5297
G1 X98.789 Y142.288 E1.5403
G1 X98.231 Y142.957 E1.5894
G1 X98.103 Y143.094 E1.5999
G1 X97.472 Y143.693 E1.6489
G1 X97.330 Y143.813 E1.6594
G1 X96.311 Y144.579 E1.7311
G1 X95.312 Y144.913 E1.7904
G1 X87.688 Y144.913 E2.2194
G1 X86.689 Y144.579 E2.2787
G1 X85.670 Y143.813 E2.3504
G1 X85.528 Y143.693 E2.3609
G1 X84.897 Y143.094 E2.4099
G1 X84.769 Y142.957 E2.4204
G1 X84.210 Y142.288 E2.4695
G1 X84.099 Y142.137 E2.4800
G1 X83.622 Y141.409 E2.5290
G1 X83.528 Y141.246 E2.5396
G1 X83.139 Y140.466 E2.5887
G1 X83.065 Y140.294 E2.5992
G1 X82.768 Y139.475 E2.6482
G1 X82.714 Y139.295 E2.6588
G1 X82.514 Y138.447 E2.7078
G1 X82.482 Y138.262 E2.7184
G1 X82.381 Y137.397 E2.7674
G1 X82.370 Y137.210 E2.7780
G1 X82.360 Y62.185 E7.0001
G1 X82.363 Y62.094 E7.0052
G1 X82.408 Y61.291 E7.0505
G1 X82.428 Y61.110 E7.0607
G1 X82.569 Y60.281 E7.1080
G1 X82.609 Y60.104 E7.1182
G1 X82.844 Y59.292 E7.1658
G1 X82.904 Y59.120 E7.1761
G1 X83.236 Y58.318 E7.2249
G1 X83.338 Y58.114 E7.2377
G1 X83.957 Y57.066 E7.3063
G1 X84.086 Y56.878 E7.3191
G1 X85.005 Y55.728 E7.4019
G1 X86.337 Y55.087 E7.4851
G1 X96.663 Y55.087 E8.0663
G1 X97.995 Y55.728 E8.1494
G1 X98.913 Y56.878 E8.2323
G1 X99.042 Y57.065 E8.2451
G1 X99.674 Y58.134 E8.3149
G1 X99.792 Y58.380 E8.3303
G1 X100.000 Y58.924 E8.3630
G1 X100.208 Y58.380 E8.3958
G1 X100.326 Y58.134 E8.4112
G1 X100.958 Y57.065 E8.4810
G1 X101.087 Y56.878 E8.4938
G1 X102.005 Y55.728 E8.5767
G1 X103.337 Y55.087 E8.6598
G1 X113.663 Y55.087 E9.2410
G1 X114.995 Y55.728 E9.3242
G1 X115.899 Y56.860 E9.4057
G1 X116.005 Y57.009 E9.4160
G1 X116.467 Y57.744 E9.4648
G1 X116.574 Y57.944 E9.4776
G1 X117.081 Y59.078 E9.5475
G1 X117.171 Y59.335 E9.5628
G1 X117.488 Y60.560 E9.6340
G1 X117.534 Y60.829 E9.6494
G1 X117.634 Y62.025 E9.7169
G1 X117.640 Y62.161 E9.7246
G1 X117.640 Y136.819 E13.9261
G92 E0.0000
G1 E-3.0000 F3600
G1 X114.040 Y136.767 F18000
G1 X114.039 Y136.816
G1 X111.959 Y136.815
G1 X111.949 Y137.059
G1 X111.913 Y137.343
G1 X111.855 Y137.623
G1 X111.773 Y137.897
G1 X111.669 Y138.164
G1 X111.543 Y138.420
G1 X111.397 Y138.666
G1 X111.231 Y138.899
G1 X111.046 Y139.117
G1 X110.844 Y139.319
G1 X110.625 Y139.504
G1 X110.393 Y139.670
G1 X110.147 Y139.817
G1 X109.890 Y139.942
G1 X109.624 Y140.046
G1 X109.349 Y140.128
G1 X109.070 Y140.187
G1 X108.786 Y140.222
G1 X108.500 Y140.234
G1 X108.214 Y140.222
G1 X107.930 Y140.187
G1 X107.651 Y140.128
G1 X107.376 Y140.046
G1 X107.110 Y139.942
G1 X106.853 Y139.817
G1 X106.607 Y139.670
G1 X106.375 Y139.504
G1 X106.156 Y139.319
G1 X105.954 Y139.117
G1 X105.769 Y138.899
G1 X105.603 Y138.666
G1 X105.457 Y138.420
G1 X105.327 Y138.155
G1 X105.147 Y137.632
G1 X105.087 Y137.343
G1 X105.051 Y137.059
G1 X105.041 Y136.811
G1 X102.961 Y136.810
G1 X102.960 Y136.767
G1 X99.920 Y136.808
G1 E0.0000 F3600
G92 E0.0000
G1 X99.918 Y136.881 E0.0041 F1800
G1 X99.872 Y137.674 E0.0488
G1 X99.855 Y137.819 E0.0570
G1 X99.712 Y138.636 E0.1037
G1 X99.678 Y138.779 E0.1119
G1 X99.436 Y139.592 E0.1597
G1 X99.371 Y139.762 E0.1700
G1 X98.863 Y140.857 E0.2379
G1 X98.774 Y141.017 E0.2482
G1 X98.310 Y141.726 E0.2958
G1 X98.223 Y141.843 E0.3040
G1 X97.692 Y142.480 E0.3507
G1 X97.592 Y142.587 E0.3590
G1 X96.991 Y143.157 E0.4056
G1 X96.881 Y143.250 E0.4137
G1 X95.972 Y143.934 E0.4777
G1 X95.195 Y144.193 E0.5238
G1 X87.805 Y144.193 E0.9397
G1 X87.028 Y143.934 E0.9858
G1 X86.119 Y143.250 E1.0498
G1 X86.009 Y143.157 E1.0579
G1 X85.408 Y142.587 E1.1045
G1 X85.308 Y142.480 E1.1128
G1 X84.777 Y141.843 E1.1594
G1 X84.690 Y141.726 E1.1677
G1 X84.236 Y141.032 E1.2143
G1 X84.163 Y140.905 E1.2225
G1 X83.792 Y140.163 E1.2692
G1 X83.734 Y140.029 E1.2775
G1 X83.452 Y139.249 E1.3241
G1 X83.410 Y139.109 E1.3323
G1 X83.220 Y138.302 E1.3790
G1 X83.194 Y138.158 E1.3873
G1 X83.098 Y137.334 E1.4339
G1 X83.090 Y137.189 E1.4421
G1 X83.080 Y62.195 E5.6625
G1 X83.082 Y62.124 E5.6665
G1 X83.125 Y61.352 E5.7100
G1 X83.141 Y61.211 E5.7180
G1 X83.275 Y60.422 E5.7630
G1 X83.307 Y60.284 E5.7710
G1 X83.530 Y59.511 E5.8163
G1 X83.577 Y59.377 E5.8242
G1 X83.892 Y58.617 E5.8705
G1 X83.971 Y58.459 E5.8805
G1 X84.565 Y57.453 E5.9462
G1 X84.665 Y57.308 E5.9561
G1 X85.465 Y56.305 E6.0283
G1 X86.501 Y55.806 E6.0931
G1 X96.499 Y55.806 E6.6557
G1 X97.535 Y56.305 E6.7204
G1 X98.335 Y57.308 E6.7926
G1 X98.435 Y57.453 E6.8025
G1 X99.038 Y58.474 E6.8692
G1 X99.130 Y58.665 E6.8812
G1 X99.561 Y59.792 E6.9490
G1 X99.620 Y59.996 E6.9610
G1 X99.851 Y61.160 E7.0278
G1 X99.874 Y61.335 E7.0377
G1 X99.918 Y62.124 E7.0822
G1 X99.920 Y62.194 E7.0862
G1 X99.920 Y136.808 E11.2852
G1 X99.200 Y136.798 F18000
G92 E0.0000
G1 X99.198 Y136.850 E0.0029 F1800
G1 X99.154 Y137.612 E0.0459
G1 X99.142 Y137.716 E0.0518
G1 X99.006 Y138.491 E0.0961
G1 X98.982 Y138.593 E0.1020
G1 X98.753 Y139.361 E0.1470
G1 X98.707 Y139.483 E0.1544
G1 X98.221 Y140.530 E0.2194
G1 X98.157 Y140.644 E0.2267
G1 X97.719 Y141.314 E0.2718
G1 X97.657 Y141.398 E0.2776
G1 X97.152 Y142.003 E0.3220
G1 X97.081 Y142.079 E0.3278
G1 X96.510 Y142.621 E0.3721
G1 X96.431 Y142.687 E0.3779
G1 X95.633 Y143.288 E0.4342
G1 X95.078 Y143.473 E0.4671
G1 X87.922 Y143.473 E0.8698
G1 X87.367 Y143.288 E0.9027
G1 X86.569 Y142.687 E0.9589
G1 X86.490 Y142.621 E0.9648
G1 X85.919 Y142.079 E1.0090
G1 X85.848 Y142.003 E1.0149
G1 X85.343 Y141.398 E1.0593
G1 X85.281 Y141.314 E1.0651
G1 X84.850 Y140.655 E1.1094
G1 X84.798 Y140.565 E1.1153
G1 X84.445 Y139.860 E1.1597
G1 X84.404 Y139.764 E1.1655
G1 X84.136 Y139.023 E1.2099
G1 X84.106 Y138.923 E1.2157
G1 X83.925 Y138.157 E1.2601
G1 X83.907 Y138.054 E1.2659
G1 X83.816 Y137.272 E1.3102
G1 X83.810 Y137.168 E1.3161
G1 X83.800 Y62.204 E5.5348
G1 X83.801 Y62.154 E5.5376
G1 X83.843 Y61.413 E5.5794
G1 X83.854 Y61.312 E5.5851
G1 X83.982 Y60.563 E5.6279
G1 X84.004 Y60.464 E5.6335
G1 X84.216 Y59.730 E5.6766
G1 X84.250 Y59.634 E5.6823
G1 X84.547 Y58.916 E5.7260
G1 X84.604 Y58.803 E5.7331
G1 X85.172 Y57.841 E5.7960
G1 X85.243 Y57.737 E5.8031
G1 X85.925 Y56.883 E5.8646
G1 X86.665 Y56.526 E5.9108
G1 X96.335 Y56.526 E6.4550
G1 X97.075 Y56.883 E6.5012
G1 X97.757 Y57.737 E6.5627
G1 X97.828 Y57.841 E6.5698
G1 X98.403 Y58.814 E6.6334
G1 X98.469 Y58.950 E6.6419
G1 X98.877 Y60.020 E6.7064
G1 X98.920 Y60.166 E6.7149
G1 X99.140 Y61.276 E6.7786
G1 X99.156 Y61.401 E6.7857
G1 X99.199 Y62.154 E6.8281
G1 X99.200 Y62.204 E6.8310
G1 X99.200 Y136.798 E11.0288
G1 X98.480 Y136.788 F18000
G92 E0.0000
G1 X98.479 Y136.819 E0.0018 F1800
G1 X98.437 Y137.549 E0.0429
G1 X98.430 Y137.612 E0.0465
G1 X98.300 Y138.346 E0.0884
G1 X98.286 Y138.407 E0.0920
G1 X98.071 Y139.130 E0.1344
G1 X98.043 Y139.203 E0.1388
G1 X97.579 Y140.203 E0.2009
G1 X97.541 Y140.272 E0.2053
G1 X97.128 Y140.902 E0.2477
G1 X97.091 Y140.953 E0.2512
G1 X96.613 Y141.525 E0.2932
G1 X96.570 Y141.571 E0.2967
G1 X96.029 Y142.084 E0.3387
G1 X95.982 Y142.125 E0.3422
G1 X95.294 Y142.642 E0.3906
G1 X94.961 Y142.753 E0.4104
G1 X88.039 Y142.753 E0.7999
G1 X87.706 Y142.642 E0.8197
G1 X87.018 Y142.125 E0.8681
G1 X86.971 Y142.084 E0.8716
G1 X86.430 Y141.571 E0.9136
G1 X86.387 Y141.525 E0.9171
G1 X85.909 Y140.953 E0.9591
G1 X85.872 Y140.902 E0.9626
G1 X85.464 Y140.278 E1.0046
G1 X85.432 Y140.224 E1.0081
G1 X85.099 Y139.557 E1.0501
G1 X85.074 Y139.499 E1.0536
G1 X84.820 Y138.798 E1.0956
G1 X84.802 Y138.738 E1.0991
G1 X84.631 Y138.012 E1.1411
G1 X84.620 Y137.950 E1.1446
G1 X84.534 Y137.209 E1.1866
G1 X84.530 Y137.147 E1.1901
G1 X84.520 Y62.214 E5.4070
G1 X84.521 Y62.184 E5.4087
G1 X84.561 Y61.473 E5.4488
G1 X84.568 Y61.413 E5.4522
G1 X84.688 Y60.703 E5.4927
G1 X84.702 Y60.644 E5.4961
G1 X84.902 Y59.948 E5.5369
G1 X84.922 Y59.891 E5.5403
G1 X85.203 Y59.215 E5.5815
G1 X85.236 Y59.147 E5.5857
G1 X85.779 Y58.229 E5.6457
G1 X85.822 Y58.167 E5.6500
G1 X86.386 Y57.460 E5.7009
G1 X86.830 Y57.246 E5.7286
G1 X96.170 Y57.246 E6.2543
G1 X96.614 Y57.460 E6.2820
G1 X97.178 Y58.166 E6.3329
G1 X97.221 Y58.229 E6.3371
G1 X97.767 Y59.154 E6.3976
G1 X97.807 Y59.236 E6.4027
G1 X98.194 Y60.249 E6.4637
G1 X98.219 Y60.336 E6.4689
G1 X98.429 Y61.391 E6.5294
G1 X98.439 Y61.466 E6.5336
G1 X98.479 Y62.184 E6.5741
G1 X98.480 Y62.214 E6.5758
G1 X98.480 Y136.788 E10.7725
G1 X97.760 Y136.777 F18000
G92 E0.0000
G1 X97.760 Y136.788 E0.0006 F1800
G1 X97.719 Y137.487 E0.0400
G1 X97.717 Y137.508 E0.0412
G1 X97.595 Y138.201 E0.0808
G1 X97.590 Y138.222 E0.0820
G1 X97.388 Y138.899 E0.1218
G1 X97.379 Y138.924 E0.1232
G1 X96.937 Y139.876 E0.1824
G1 X96.924 Y139.899 E0.1838
G1 X96.537 Y140.491 E0.2236
G1 X96.525 Y140.507 E0.2248
G1 X96.073 Y141.048 E0.2644
G1 X96.059 Y141.063 E0.2656
G1 X95.548 Y141.548 E0.3052
G1 X95.533 Y141.562 E0.3064
G1 X94.954 Y141.996 E0.3471
G1 X94.843 Y142.033 E0.3537
G1 X88.157 Y142.033 E0.7300
G1 X88.046 Y141.996 E0.7366
G1 X87.467 Y141.562 E0.7773
G1 X87.452 Y141.548 E0.7784
G1 X86.941 Y141.063 E0.8181
G1 X86.927 Y141.048 E0.8193
G1 X86.475 Y140.507 E0.8589
G1 X86.463 Y140.491 E0.8601
G1 X86.077 Y139.901 E0.8997
G1 X86.067 Y139.883 E0.9009
G1 X85.752 Y139.253 E0.9405
G1 X85.744 Y139.234 E0.9417
G1 X85.504 Y138.572 E0.9813
G1 X85.498 Y138.552 E0.9825
G1 X85.336 Y137.867 E1.0221
G1 X85.333 Y137.846 E1.0233
G1 X85.251 Y137.147 E1.0629
G1 X85.250 Y137.126 E1.0641
G1 X85.240 Y62.224 E5.2793
G1 X85.240 Y62.214 E5.2798
G1 X85.278 Y61.534 E5.3182
G1 X85.281 Y61.514 E5.3193
G1 X85.395 Y60.844 E5.3575
G1 X85.399 Y60.824 E5.3587
G1 X85.588 Y60.167 E5.3972
G1 X85.595 Y60.148 E5.3983
G1 X85.858 Y59.514 E5.4369
G1 X85.869 Y59.492 E5.4383
