; G-Code generated by Simplify3D(R) Version 4.1.2
; Apr 3, 2022 at 8:46:50 PM
; Settings Summary
;   processName,Process1
;   applyToModels,Bistable_Switch
;   profileName,HSBot (modified)
;   profileVersion,2019-11-09 11:59:44
;   baseProfile,Default
;   printMaterial,PETG - Eryone
;   printQuality,Medium
;   printExtruders,
;   extruderName,Extruder 1,Extruder - Lite
;   extruderToolheadNumber,0,1
;   extruderDiameter,0.4,0.4
;   extruderAutoWidth,1,1
;   extruderWidth,0.48,0.48
;   extrusionMultiplier,0.98,0.93
;   extruderUseRetract,0,0
;   extruderRetractionDistance,4,1
;   extruderExtraRestartDistance,0,0
;   extruderRetractionZLift,0,0
;   extruderRetractionSpeed,3600,1800
;   extruderUseCoasting,1,0
;   extruderCoastingDistance,0.2,0.2
;   extruderUseWipe,0,0
;   extruderWipeDistance,1,5
;   primaryExtruder,0
;   layerHeight,0.2
;   topSolidLayers,3
;   bottomSolidLayers,3
;   perimeterOutlines,3
;   printPerimetersInsideOut,0
;   startPointOption,2
;   startPointOriginX,0
;   startPointOriginY,0
;   sequentialIslands,0
;   spiralVaseMode,0
;   firstLayerHeightPercentage,100
;   firstLayerWidthPercentage,150
;   firstLayerUnderspeed,0.5
;   useRaft,0
;   raftExtruder,0
;   raftTopLayers,3
;   raftBaseLayers,2
;   raftOffset,3
;   raftSeparationDistance,0.18
;   raftTopInfill,100
;   aboveRaftSpeedMultiplier,0.3
;   useSkirt,1
;   skirtExtruder,0
;   skirtLayers,1
;   skirtOutlines,4
;   skirtOffset,5
;   usePrimePillar,0
;   primePillarExtruder,999
;   primePillarWidth,12
;   primePillarLocation,7
;   primePillarSpeedMultiplier,1
;   useOozeShield,0
;   oozeShieldExtruder,999
;   oozeShieldOffset,2
;   oozeShieldOutlines,1
;   oozeShieldSidewallShape,1
;   oozeShieldSidewallAngle,30
;   oozeShieldSpeedMultiplier,1
;   infillExtruder,0
;   internalInfillPattern,Fast Honeycomb
;   externalInfillPattern,Rectilinear
;   infillPercentage,15
;   outlineOverlapPercentage,15
;   infillExtrusionWidthPercentage,100
;   minInfillLength,5
;   infillLayerInterval,1
;   internalInfillAngles,0
;   overlapInternalInfillAngles,0
;   externalInfillAngles,45,-45
;   generateSupport,0
;   supportExtruder,0
;   supportInfillPercentage,30
;   supportExtraInflation,0
;   supportBaseLayers,1
;   denseSupportExtruder,0
;   denseSupportLayers,0
;   denseSupportInfillPercentage,70
;   supportLayerInterval,1
;   supportHorizontalPartOffset,0.3
;   supportUpperSeparationLayers,1
;   supportLowerSeparationLayers,1
;   supportType,0
;   supportGridSpacing,2
;   maxOverhangAngle,45
;   supportAngles,0
;   temperatureName,Extruder 1,Bed
;   temperatureNumber,0,0
;   temperatureSetpointCount,1,1
;   temperatureSetpointLayers,1,1
;   temperatureSetpointTemperatures,225,85
;   temperatureStabilizeAtStartup,1,1
;   temperatureHeatedBed,0,1
;   fanLayers,1,2,3
;   fanSpeeds,0,15,15
;   blipFanToFullPower,1
;   adjustSpeedForCooling,1
;   minSpeedLayerTime,15
;   minCoolingSpeedSlowdown,20
;   increaseFanForCooling,1
;   minFanLayerTime,45
;   maxCoolingFanSpeed,40
;   increaseFanForBridging,1
;   bridgingFanSpeed,80
;   use5D,1
;   relativeEdistances,0
;   allowEaxisZeroing,1
;   independentExtruderAxes,0
;   includeM10123,0
;   stickySupport,1
;   applyToolheadOffsets,0
;   gcodeXoffset,0
;   gcodeYoffset,0
;   gcodeZoffset,0
;   overrideMachineDefinition,1
;   machineTypeOverride,0
;   strokeXoverride,210
;   strokeYoverride,210
;   strokeZoverride,150
;   originOffsetXoverride,0
;   originOffsetYoverride,0
;   originOffsetZoverride,0
;   homeXdirOverride,-1
;   homeYdirOverride,-1
;   homeZdirOverride,-1
;   flipXoverride,1
;   flipYoverride,-1
;   flipZoverride,1
;   toolheadOffsets,0,0|0,0|0,0|0,0|0,0|0,0
;   overrideFirmwareConfiguration,0
;   firmwareTypeOverride,RepRap (Marlin/Repetier/Sprinter)
;   GPXconfigOverride,r2
;   baudRateOverride,115200
;   overridePrinterModels,0
;   printerModelsOverride
;   startingGcode,G28 ; home all axes,G32 ; run bed.g -- probe bed and enable compensation
;   layerChangeGcode,
;   retractionGcode,
;   toolChangeGcode,
;   endingGcode,M0 ; call stop.g
;   exportFileFormat,gcode
;   celebration,0
;   celebrationSong,Random Song
;   postProcessing,
;   defaultSpeed,4800
;   outlineUnderspeed,0.5
;   solidInfillUnderspeed,0.8
;   supportUnderspeed,0.8
;   rapidXYspeed,18000
;   rapidZspeed,1200
;   minBridgingArea,50
;   bridgingExtraInflation,0
;   bridgingExtrusionMultiplier,0.96
;   bridgingSpeedMultiplier,1
;   useFixedBridgingAngle,0
;   fixedBridgingAngle,0
;   applyBridgingToPerimeters,0
;   filamentDiameters,1.75|1.75|1.75|1.75|1.75|1.75
;   filamentPricesPerKg,25|46|46|46|46|46
;   filamentDensities,1.25|1.25|1.25|1.25|1.25|1.25
;   useMinPrintHeight,0
;   minPrintHeight,0
;   useMaxPrintHeight,0
;   maxPrintHeight,0
;   useDiaphragm,1
;   diaphragmLayerInterval,20
;   robustSlicing,1
;   mergeAllIntoSolid,0
;   onlyRetractWhenCrossingOutline,1
;   retractBetweenLayers,0
;   useRetractionMinTravel,1
;   retractionMinTravel,5
;   retractWhileWiping,1
;   onlyWipeOutlines,1
;   avoidCrossingOutline,1
;   maxMovementDetourFactor,5
;   toolChangeRetractionDistance,12
;   toolChangeExtraRestartDistance,0
;   toolChangeRetractionSpeed,600
;   externalThinWallType,0
;   internalThinWallType,1
;   thinWallAllowedOverlapPercentage,10
;   singleExtrusionMinLength,0.1
;   singleExtrusionMinPrintingWidthPercentage,50
;   singleExtrusionMaxPrintingWidthPercentage,200
;   singleExtrusionEndpointExtension,0.2
;   horizontalSizeCompensation,0
G90
M82
M106 S0
M140 S85
M190 S85
G10 S225 R{225-50} P0
M116 P0
G28 ; home all axes
G32 ; run bed.g -- probe bed and enable compensation
; process Process1
; layer 1, Z = 0.200
T0
; feature skirt
; tool H0.200 W0.720
G1 Z0.200 F1200
G1 X57.094 Y72.472 F18000
G92 E0.0000
G1 X146.668 Y72.472 E5.2554 F2400
G1 X151.073 Y76.877 E5.6209
G1 X151.073 Y93.701 E6.6079
G1 X161.208 Y92.648 E7.2057
G1 X166.063 Y96.640 E7.5745
G1 X167.499 Y112.393 E8.5026
G1 X163.510 Y117.180 E8.8682
G1 X107.046 Y122.310 E12.1946
G1 X51.969 Y138.095 E15.5561
G1 X46.521 Y135.074 E15.9216
G1 X42.186 Y119.949 E16.8447
G1 X45.207 Y114.500 E17.2103
G1 X68.517 Y107.820 E18.6329
G1 X64.731 Y106.359 E18.8709
G1 X63.046 Y104.460 E19.0199
G1 X57.090 Y104.455 E19.3694
G1 X52.689 Y100.050 E19.7347
G1 X52.689 Y76.877 E21.0942
G1 X57.094 Y72.472 E21.4598
G1 X57.393 Y73.192 F18000
G92 E0.0000
G1 X146.370 Y73.192 E5.2204 F2400
G1 X150.353 Y77.176 E5.5509
G1 X150.353 Y94.500 E6.5673
G1 X160.983 Y93.395 E7.1943
G1 X165.373 Y97.005 E7.5278
G1 X166.755 Y112.161 E8.4207
G1 X163.148 Y116.490 E8.7513
G1 X106.913 Y121.600 E12.0642
G1 X52.057 Y137.320 E15.4122
G1 X47.131 Y134.589 E15.7427
G1 X42.960 Y120.037 E16.6309
G1 X45.692 Y115.110 E16.9614
G1 X70.778 Y107.921 E18.4924
G1 X65.154 Y105.751 E18.8461
G1 X63.370 Y103.740 E19.0038
G1 X57.389 Y103.735 E19.3547
G1 X53.409 Y99.752 E19.6851
G1 X53.409 Y77.176 E21.0096
G1 X57.393 Y73.192 E21.3402
G1 X57.691 Y73.912 F18000
G92 E0.0000
G1 X146.071 Y73.912 E5.1854 F2400
G1 X149.633 Y77.474 E5.4809
G1 X149.633 Y94.450 E6.4769
G1 X148.804 Y95.385 E6.5502
G1 X160.758 Y94.143 E7.2554
G1 X164.683 Y97.370 E7.5535
G1 X166.010 Y111.929 E8.4113
G1 X162.786 Y115.800 E8.7068
G1 X106.780 Y120.889 E12.0063
G1 X52.146 Y136.546 E15.3408
G1 X47.741 Y134.104 E15.6363
G1 X43.735 Y120.125 E16.4894
G1 X46.177 Y115.720 E16.7849
G1 X73.039 Y108.022 E18.4244
G1 X65.576 Y105.142 E18.8937
G1 X63.694 Y103.020 E19.0602
G1 X57.687 Y103.015 E19.4126
G1 X54.129 Y99.454 E19.7079
G1 X54.129 Y77.474 E20.9975
G1 X57.691 Y73.912 E21.2930
G1 X57.989 Y74.632 F18000
G92 E0.0000
G1 X145.773 Y74.632 E5.1504 F2400
G1 X148.913 Y77.772 E5.4109
G1 X148.913 Y94.176 E6.3733
G1 X147.036 Y96.293 E6.5393
G1 X160.533 Y94.890 E7.3354
G1 X163.994 Y97.735 E7.5983
G1 X165.266 Y111.698 E8.4209
G1 X162.423 Y115.110 E8.6814
G1 X106.647 Y120.178 E11.9674
G1 X52.234 Y135.772 E15.2883
G1 X48.351 Y133.619 E15.5489
G1 X44.509 Y120.213 E16.3670
G1 X46.662 Y116.330 E16.6275
G1 X75.301 Y108.123 E18.3754
G1 X65.999 Y104.533 E18.9604
G1 X64.270 Y102.584 E19.1132
G1 X64.198 Y102.301 E19.1304
G1 X57.986 Y102.295 E19.4949
G1 X54.849 Y99.156 E19.7552
G1 X54.849 Y77.772 E21.0099
G1 X57.989 Y74.632 E21.2704
; feature outer perimeter
G1 X60.569 Y80.352 F18000
G92 E0.0000
G1 X143.193 Y80.352 E4.8476 F1200
G1 X143.193 Y91.823 E5.5206
G1 X114.240 Y95.309 E7.2316
G1 X110.044 Y98.124 E7.5280
G1 X108.109 Y97.299 E7.6514
G1 X107.656 Y97.190 E7.6787
G1 X107.192 Y97.161 E7.7060
G1 X106.729 Y97.211 E7.7334
G1 X106.281 Y97.340 E7.7607
G1 X106.274 Y97.343 E7.7612
G1 X106.370 Y97.245 E7.7693
G1 X106.644 Y96.853 E7.7973
G1 X106.850 Y96.422 E7.8253
G1 X106.981 Y95.963 E7.8534
G1 X107.041 Y95.437 E7.8844
G1 X106.633 Y94.256 E7.9577
G1 X107.380 Y93.753 E8.0106
G1 X107.604 Y93.574 E8.0273
G1 X107.805 Y93.351 E8.0450
G1 X107.968 Y93.097 E8.0626
G1 X108.087 Y92.821 E8.0803
G1 X108.160 Y92.530 E8.0979
G1 X108.184 Y92.245 E8.1147
G1 X108.191 Y90.164 E8.2368
G1 X108.163 Y89.771 E8.2599
G1 X108.070 Y89.373 E8.2839
G1 X107.915 Y88.995 E8.3078
G1 X107.703 Y88.646 E8.3318
G1 X107.439 Y88.334 E8.3558
G1 X107.129 Y88.068 E8.3797
G1 X106.781 Y87.854 E8.4037
G1 X106.403 Y87.697 E8.4277
G1 X106.002 Y87.601 E8.4519
G1 X105.613 Y87.570 E8.4748
G1 X82.565 Y87.572 E9.8271
G1 X66.804 Y92.006 E10.7876
G1 X66.435 Y92.228 E10.8129
G1 X66.120 Y92.493 E10.8371
G1 X65.850 Y92.805 E10.8613
G1 X65.634 Y93.155 E10.8854
G1 X65.476 Y93.535 E10.9096
G1 X65.376 Y93.949 E10.9345
G1 X65.376 Y94.401 E10.9610
G1 X65.409 Y94.810 E10.9851
G1 X65.512 Y95.222 E11.0101
G1 X65.682 Y95.613 E11.0350
G1 X65.913 Y95.970 E11.0600
G1 X66.199 Y96.285 E11.0849
G1 X66.532 Y96.548 E11.1099
G1 X66.594 Y96.582 E11.1140
G1 X60.569 Y96.578 E11.4675
G1 X60.569 Y80.552 E12.4077
G1 X60.569 Y80.352 F1200
; feature inner perimeter
G1 X61.289 Y81.072 F18000
G92 E0.0000
G1 X116.408 Y81.072 E3.2339 F1800
G1 X116.509 Y81.598 E3.2653
G1 X116.066 Y81.775 E3.2933
G1 X115.574 Y82.077 E3.3271
G1 X115.172 Y82.420 E3.3581
G1 X114.899 Y82.724 E3.3821
G1 X114.635 Y83.116 E3.4098
G1 X114.422 Y83.572 E3.4394
G1 X114.258 Y84.124 E3.4731
G1 X114.125 Y85.047 E3.5279
G1 X114.102 Y85.751 E3.5691
G1 X114.102 Y91.232 E3.8908
G1 X117.334 Y91.232 E4.0804
G1 X117.346 Y85.497 E4.4170
G1 X117.413 Y84.917 E4.4512
G1 X117.500 Y84.607 E4.4701
G1 X117.700 Y84.543 E4.4824
G1 X117.955 Y84.502 E4.4975
G1 X118.180 Y84.492 E4.5108
G1 X118.274 Y84.496 E4.5163
G1 X118.451 Y84.520 E4.5267
G1 X118.581 Y84.558 E4.5347
G1 X118.713 Y84.623 E4.5433
G1 X118.777 Y84.744 E4.5513
G1 X118.808 Y84.844 E4.5575
G1 X118.846 Y85.043 E4.5694
G1 X118.875 Y85.359 E4.5880
G1 X118.889 Y85.834 E4.6159
G1 X118.889 Y91.232 E4.9326
G1 X123.777 Y91.232 E5.2195
G1 X125.379 Y88.705 E5.3950
G1 X126.983 Y91.232 E5.5706
G1 X130.867 Y91.232 E5.7985
G1 X130.771 Y91.089 E5.8086
G1 X131.567 Y91.207 E5.8558
G1 X132.136 Y91.232 E5.8893
G1 X136.093 Y91.232 E6.1214
G1 X136.093 Y81.072 E6.7175
G1 X142.473 Y81.072 E7.0918
G1 X142.473 Y91.184 E7.6851
G1 X113.983 Y94.615 E9.3688
G1 X109.967 Y97.308 E9.6524
G1 X108.335 Y96.612 E9.7565
G1 X107.595 Y96.435 E9.8012
G1 X107.690 Y96.103 E9.8214
G1 X107.774 Y95.356 E9.8655
G1 X107.494 Y94.544 E9.9159
G1 X107.807 Y94.333 E9.9381
G1 X108.099 Y94.100 E9.9600
G1 X108.379 Y93.789 E9.9846
G1 X108.605 Y93.437 E10.0091
G1 X108.771 Y93.053 E10.0336
G1 X108.873 Y92.647 E10.0582
G1 X108.904 Y92.276 E10.0800
G1 X108.911 Y90.139 E10.2054
G1 X108.877 Y89.662 E10.2335
G1 X108.758 Y89.154 E10.2641
G1 X108.560 Y88.670 E10.2948
G1 X108.289 Y88.224 E10.3254
G1 X107.951 Y87.825 E10.3561
G1 X107.555 Y87.485 E10.3867
G1 X107.110 Y87.211 E10.4174
G1 X106.627 Y87.010 E10.4481
G1 X106.115 Y86.887 E10.4789
G1 X105.642 Y86.850 E10.5068
G1 X82.465 Y86.852 E11.8666
G1 X66.517 Y91.339 E12.8386
G1 X66.015 Y91.640 E12.8729
G1 X65.612 Y91.979 E12.9038
G1 X65.268 Y92.377 E12.9347
G1 X64.991 Y92.825 E12.9656
G1 X64.789 Y93.311 E12.9965
G1 X64.656 Y93.863 E13.0298
G1 X64.656 Y94.430 E13.0630
G1 X64.696 Y94.927 E13.0923
G1 X64.930 Y95.861 E13.1488
G1 X61.289 Y95.858 E13.3624
G1 X61.289 Y81.272 E14.2182
G1 X61.289 Y81.072 F1800
G1 X119.752 Y81.569 F18000
G92 E0.0000
G1 X119.871 Y81.072 E0.0300 F1800
G1 X123.763 Y81.072 E0.2583
G1 X123.763 Y85.434 E0.5141
G1 X122.583 Y87.201 E0.6388
G1 X122.123 Y87.061 E0.6670
G1 X122.123 Y85.754 E0.7437
G1 X122.109 Y85.215 E0.7753
G1 X121.993 Y84.244 E0.8327
G1 X121.810 Y83.576 E0.8733
G1 X121.564 Y83.051 E0.9074
G1 X121.268 Y82.625 E0.9378
G1 X120.926 Y82.271 E0.9666
G1 X120.473 Y81.936 E0.9997
G1 X119.930 Y81.660 E1.0354
G1 X119.752 Y81.569 F1800
G1 X126.997 Y81.072 F18000
G92 E0.0000
G1 X130.545 Y81.072 E0.2082 F1800
G1 X130.620 Y81.635 E0.2415
G1 X130.306 Y81.720 E0.2606
G1 X129.805 Y81.948 E0.2928
G1 X129.536 Y82.117 E0.3115
G1 X129.217 Y82.381 E0.3358
G1 X128.926 Y82.713 E0.3617
G1 X128.633 Y83.183 E0.3942
G1 X128.430 Y83.661 E0.4246
G1 X128.305 Y84.165 E0.4551
G1 X128.266 Y84.820 E0.4936
G1 X128.316 Y85.294 E0.5216
G1 X128.430 Y85.721 E0.5475
G1 X128.607 Y86.126 E0.5735
G1 X128.976 Y86.677 E0.6123
G1 X128.515 Y87.708 E0.6786
G1 X126.997 Y85.434 E0.8390
G1 X126.997 Y81.272 E1.0832
G1 X126.997 Y81.072 F1800
G1 X127.717 Y81.792 F18000
G92 E0.0000
G1 X128.652 Y81.792 E0.0548 F1800
G1 X128.187 Y82.537 E0.1063
G1 X127.717 Y82.403 E0.1350
G1 X127.717 Y81.992 E0.1591
G1 X127.717 Y81.792 F1800
G1 X123.043 Y81.792 F18000
G92 E0.0000
G1 X123.043 Y83.315 E0.0893 F1800
G1 X122.535 Y83.428 E0.1198
G1 X122.190 Y82.690 E0.1676
G1 X121.566 Y81.792 E0.2318
G1 X122.843 Y81.792 E0.3066
G1 X123.043 Y81.792 F1800
G1 X114.658 Y81.792 F18000
G92 E0.0000
G1 X114.007 Y82.760 E0.0684 F1800
G1 X113.747 Y83.316 E0.1044
G1 X113.553 Y83.969 E0.1444
G1 X113.407 Y84.984 E0.2046
G1 X113.382 Y85.739 E0.2489
G1 X113.382 Y91.952 E0.6134
G1 X124.174 Y91.952 E1.2466
G1 X125.379 Y90.050 E1.3788
G1 X126.834 Y92.342 E1.5381
G1 X113.725 Y93.921 E2.3127
G1 X109.890 Y96.493 E2.5836
G1 X108.440 Y95.875 E2.6761
G1 X108.508 Y95.276 E2.7115
G1 X108.351 Y94.820 E2.7398
G1 X108.595 Y94.625 E2.7581
G1 X108.953 Y94.228 E2.7895
G1 X109.243 Y93.777 E2.8209
G1 X109.456 Y93.285 E2.8524
G1 X109.586 Y92.765 E2.8838
G1 X109.624 Y92.307 E2.9108
G1 X109.632 Y90.114 E3.0394
G1 X109.591 Y89.553 E3.0724
G1 X109.446 Y88.934 E3.1097
G1 X109.205 Y88.345 E3.1471
G1 X108.875 Y87.801 E3.1844
G1 X108.463 Y87.316 E3.2217
G1 X107.981 Y86.901 E3.2591
G1 X107.439 Y86.568 E3.2964
G1 X106.850 Y86.323 E3.3338
G1 X106.228 Y86.174 E3.3713
G1 X105.670 Y86.130 E3.4042
G1 X82.366 Y86.132 E4.7714
G1 X66.229 Y90.672 E5.7550
G1 X65.595 Y91.052 E5.7983
G1 X65.105 Y91.465 E5.8359
G1 X64.686 Y91.950 E5.8735
G1 X64.349 Y92.495 E5.9111
G1 X64.102 Y93.087 E5.9488
G1 X63.937 Y93.778 E5.9904
G1 X63.936 Y94.458 E6.0304
G1 X63.991 Y95.140 E6.0705
G1 X62.009 Y95.139 E6.1868
G1 X62.009 Y81.792 E6.9698
G1 X114.458 Y81.792 E10.0470
G1 X114.658 Y81.792 F1800
G1 X136.813 Y81.792 F18000
G92 E0.0000
G1 X141.753 Y81.792 E0.2898 F1800
G1 X141.753 Y90.546 E0.8034
G1 X136.813 Y91.141 E1.0953
G1 X136.813 Y81.992 E1.6321
G1 X136.813 Y81.792 F1800
; feature outer perimeter
G1 X143.193 Y87.390 F18000
G1 X143.193 Y91.823
G1 X158.534 Y100.848
G92 E0.0000
G1 X159.336 Y109.647 E0.5183 F1200
G1 X105.591 Y114.530 E3.6846
G1 X53.138 Y129.562 E6.8859
G1 X50.718 Y121.118 E7.4013
G1 X91.529 Y109.422 E9.8921
G1 X91.922 Y109.273 E9.9167
G1 X92.297 Y109.053 E9.9422
G1 X92.630 Y108.773 E9.9678
G1 X92.911 Y108.442 E9.9933
G1 X93.133 Y108.068 E10.0188
G1 X93.290 Y107.662 E10.0443
G1 X93.377 Y107.236 E10.0698
G1 X93.391 Y106.801 E10.0953
G1 X93.332 Y106.370 E10.1209
G1 X93.199 Y105.946 E10.1469
G1 X91.489 Y102.963 E10.3486
G1 X91.067 Y102.601 E10.3813
G1 X90.623 Y102.324 E10.4120
G1 X90.143 Y102.118 E10.4426
G1 X90.011 Y102.084 E10.4506
G1 X90.109 Y102.063 E10.4565
G1 X90.509 Y101.907 E10.4817
G1 X90.879 Y101.688 E10.5069
G1 X91.209 Y101.413 E10.5321
G1 X91.504 Y101.073 E10.5585
G1 X92.423 Y99.148 E10.6836
G1 X101.699 Y97.475 E11.2366
G1 X102.543 Y97.784 E11.2894
G1 X102.900 Y97.996 E11.3137
G1 X103.346 Y98.167 E11.3418
G1 X103.814 Y98.263 E11.3698
G1 X104.291 Y98.280 E11.3978
G1 X104.765 Y98.219 E11.4258
G1 X105.222 Y98.079 E11.4539
G1 X105.228 Y98.076 E11.4542
