; G-Code generated by Simplify3D(R) Version 4.1.2
; Apr 3, 2022 at 8:46:05 PM
; Settings Summary
;   processName,Process1
;   applyToModels,Thinner_walls
;   profileName,HSBot (modified)
;   profileVersion,2019-11-09 11:59:44
;   baseProfile,Default
;   printMaterial,PETG - Eryone
;   printQuality,Medium
;   printExtruders,
;   extruderName,Extruder 1,Extruder - Lite
;   extruderToolheadNumber,0,1
;   extruderDiameter,0.4,0.4
;   extruderAutoWidth,1,1
;   extruderWidth,0.48,0.48
;   extrusionMultiplier,0.98,0.93
;   extruderUseRetract,0,0
;   extruderRetractionDistance,4,1
;   extruderExtraRestartDistance,0,0
;   extruderRetractionZLift,0,0
;   extruderRetractionSpeed,3600,1800
;   extruderUseCoasting,1,0
;   extruderCoastingDistance,0.2,0.2
;   extruderUseWipe,0,0
;   extruderWipeDistance,1,5
;   primaryExtruder,0
;   layerHeight,0.2
;   topSolidLayers,3
;   bottomSolidLayers,3
;   perimeterOutlines,3
;   printPerimetersInsideOut,0
;   startPointOption,2
;   startPointOriginX,0
;   startPointOriginY,0
;   sequentialIslands,0
;   spiralVaseMode,0
;   firstLayerHeightPercentage,100
;   firstLayerWidthPercentage,150
;   firstLayerUnderspeed,0.5
;   useRaft,0
;   raftExtruder,0
;   raftTopLayers,3
;   raftBaseLayers,2
;   raftOffset,3
;   raftSeparationDistance,0.18
;   raftTopInfill,100
;   aboveRaftSpeedMultiplier,0.3
;   useSkirt,1
;   skirtExtruder,0
;   skirtLayers,1
;   skirtOutlines,4
;   skirtOffset,5
;   usePrimePillar,0
;   primePillarExtruder,999
;   primePillarWidth,12
;   primePillarLocation,7
;   primePillarSpeedMultiplier,1
;   useOozeShield,0
;   oozeShieldExtruder,999
;   oozeShieldOffset,2
;   oozeShieldOutlines,1
;   oozeShieldSidewallShape,1
;   oozeShieldSidewallAngle,30
;   oozeShieldSpeedMultiplier,1
;   infillExtruder,0
;   internalInfillPattern,Fast Honeycomb
;   externalInfillPattern,Rectilinear
;   infillPercentage,15
;   outlineOverlapPercentage,15
;   infillExtrusionWidthPercentage,100
;   minInfillLength,5
;   infillLayerInterval,1
;   internalInfillAngles,0
;   overlapInternalInfillAngles,0
;   externalInfillAngles,45,-45
;   generateSupport,0
;   supportExtruder,0
;   supportInfillPercentage,30
;   supportExtraInflation,0
;   supportBaseLayers,1
;   denseSupportExtruder,0
;   denseSupportLayers,0
;   denseSupportInfillPercentage,70
;   supportLayerInterval,1
;   supportHorizontalPartOffset,0.3
;   supportUpperSeparationLayers,1
;   supportLowerSeparationLayers,1
;   supportType,0
;   supportGridSpacing,2
;   maxOverhangAngle,45
;   supportAngles,0
;   temperatureName,Extruder 1,Bed
;   temperatureNumber,0,0
;   temperatureSetpointCount,1,1
;   temperatureSetpointLayers,1,1
;   temperatureSetpointTemperatures,225,85
;   temperatureStabilizeAtStartup,1,1
;   temperatureHeatedBed,0,1
;   fanLayers,1,2,3
;   fanSpeeds,0,15,15
;   blipFanToFullPower,1
;   adjustSpeedForCooling,1
;   minSpeedLayerTime,15
;   minCoolingSpeedSlowdown,20
;   increaseFanForCooling,1
;   minFanLayerTime,45
;   maxCoolingFanSpeed,40
;   increaseFanForBridging,1
;   bridgingFanSpeed,80
;   use5D,1
;   relativeEdistances,0
;   allowEaxisZeroing,1
;   independentExtruderAxes,0
;   includeM10123,0
;   stickySupport,1
;   applyToolheadOffsets,0
;   gcodeXoffset,0
;   gcodeYoffset,0
;   gcodeZoffset,0
;   overrideMachineDefinition,1
;   machineTypeOverride,0
;   strokeXoverride,210
;   strokeYoverride,210
;   strokeZoverride,150
;   originOffsetXoverride,0
;   originOffsetYoverride,0
;   originOffsetZoverride,0
;   homeXdirOverride,-1
;   homeYdirOverride,-1
;   homeZdirOverride,-1
;   flipXoverride,1
;   flipYoverride,-1
;   flipZoverride,1
;   toolheadOffsets,0,0|0,0|0,0|0,0|0,0|0,0
;   overrideFirmwareConfiguration,0
;   firmwareTypeOverride,RepRap (Marlin/Repetier/Sprinter)
;   GPXconfigOverride,r2
;   baudRateOverride,115200
;   overridePrinterModels,0
;   printerModelsOverride
;   startingGcode,G28 ; home all axes,G32 ; run bed.g -- probe bed and enable compensation
;   layerChangeGcode,
;   retractionGcode,
;   toolChangeGcode,
;   endingGcode,M0 ; call stop.g
;   exportFileFormat,gcode
;   celebration,0
;   celebrationSong,Random Song
;   postProcessing,
;   defaultSpeed,4800
;   outlineUnderspeed,0.5
;   solidInfillUnderspeed,0.8
;   supportUnderspeed,0.8
;   rapidXYspeed,18000
;   rapidZspeed,1200
;   minBridgingArea,50
;   bridgingExtraInflation,0
;   bridgingExtrusionMultiplier,0.96
;   bridgingSpeedMultiplier,1
;   useFixedBridgingAngle,0
;   fixedBridgingAngle,0
;   applyBridgingToPerimeters,0
;   filamentDiameters,1.75|1.75|1.75|1.75|1.75|1.75
;   filamentPricesPerKg,25|46|46|46|46|46
;   filamentDensities,1.25|1.25|1.25|1.25|1.25|1.25
;   useMinPrintHeight,0
;   minPrintHeight,0
;   useMaxPrintHeight,0
;   maxPrintHeight,0
;   useDiaphragm,1
;   diaphragmLayerInterval,20
;   robustSlicing,1
;   mergeAllIntoSolid,0
;   onlyRetractWhenCrossingOutline,1
;   retractBetweenLayers,0
;   useRetractionMinTravel,1
;   retractionMinTravel,5
;   retractWhileWiping,1
;   onlyWipeOutlines,1
;   avoidCrossingOutline,1
;   maxMovementDetourFactor,5
;   toolChangeRetractionDistance,12
;   toolChangeExtraRestartDistance,0
;   toolChangeRetractionSpeed,600
;   externalThinWallType,0
;   internalThinWallType,1
;   thinWallAllowedOverlapPercentage,10
;   singleExtrusionMinLength,0.1
;   singleExtrusionMinPrintingWidthPercentage,50
;   singleExtrusionMaxPrintingWidthPercentage,200
;   singleExtrusionEndpointExtension,0.2
;   horizontalSizeCompensation,0
G90
M82
M106 S0
M140 S85
M190 S85
G10 S225 R{225-50} P0
M116 P0
G28 ; home all axes
G32 ; run bed.g -- probe bed and enable compensation
; process Process1
; layer 1, Z = 0.200
T0
; feature skirt
; tool H0.200 W0.720
G1 Z0.200 F1200
G1 X49.808 Y61.377 F18000
G92 E0.0000
G1 X160.192 Y61.377 E6.4763 F2400
G1 X164.597 Y65.782 E6.8418
G1 X164.597 Y144.218 E11.4437
G1 X160.192 Y148.623 E11.8092
G1 X49.808 Y148.623 E18.2856
G1 X45.403 Y144.218 E18.6511
G1 X45.403 Y65.782 E23.2530
G1 X49.808 Y61.377 E23.6185
G1 X50.106 Y62.097 F18000
G92 E0.0000
G1 X159.894 Y62.097 E6.4413 F2400
G1 X163.877 Y66.080 E6.7718
G1 X163.877 Y143.920 E11.3388
G1 X159.894 Y147.903 E11.6693
G1 X50.106 Y147.903 E18.1106
G1 X46.123 Y143.920 E18.4411
G1 X46.123 Y66.080 E23.0080
G1 X50.106 Y62.097 E23.3385
G1 X50.405 Y62.817 F18000
G92 E0.0000
G1 X159.595 Y62.817 E6.4063 F2400
G1 X163.157 Y66.378 E6.7018
G1 X163.157 Y143.622 E11.2338
G1 X159.595 Y147.183 E11.5293
G1 X50.405 Y147.183 E17.9356
G1 X46.843 Y143.622 E18.2311
G1 X46.843 Y66.378 E22.7631
G1 X50.405 Y62.817 E23.0586
G1 X50.703 Y63.537 F18000
G92 E0.0000
G1 X159.297 Y63.537 E6.3713 F2400
G1 X162.437 Y66.677 E6.6318
G1 X162.437 Y143.323 E11.1288
G1 X159.297 Y146.463 E11.3893
G1 X50.703 Y146.463 E17.7606
G1 X47.563 Y143.323 E18.0212
G1 X47.563 Y66.677 E22.5181
G1 X50.703 Y63.537 E22.7786
; feature outer perimeter
G1 X53.283 Y69.257 F18000
G92 E0.0000
G1 X156.717 Y69.257 E6.0686 F1200
G1 X156.717 Y140.743 E10.2627
G1 X53.283 Y140.743 E16.3313
G1 X53.283 Y69.457 E20.5137
G1 X53.283 Y69.257 F1200
; feature inner perimeter
G1 X54.003 Y69.977 F18000
G92 E0.0000
G1 X155.997 Y69.977 E5.9841 F1800
G1 X155.997 Y140.023 E10.0938
G1 X54.003 Y140.023 E16.0778
G1 X54.003 Y70.177 E20.1758
G1 X54.003 Y69.977 F1800
G1 X54.723 Y70.697 F18000
G92 E0.0000
G1 X155.277 Y70.697 E5.8996 F1800
G1 X155.277 Y139.303 E9.9248
G1 X54.723 Y139.303 E15.8244
G1 X54.723 Y70.897 E19.8379
G1 X54.723 Y70.697 F1800
; feature outer perimeter
G1 X65.122 Y79.545 F18000
G1 X65.122 Y82.289
G1 X73.579 Y86.927
G1 X73.656 Y86.807
G92 E0.0000
G1 X73.750 Y86.700 E0.0084 F1200
G1 X73.860 Y86.609 E0.0167
G1 X73.983 Y86.537 E0.0251
G1 X74.116 Y86.485 E0.0335
G1 X74.255 Y86.454 E0.0418
G1 X74.398 Y86.445 E0.0502
G1 X74.554 Y86.460 E0.0594
G1 X87.781 Y88.792 E0.8475
G1 X87.933 Y88.832 E0.8567
G1 X88.064 Y88.889 E0.8650
G1 X88.184 Y88.965 E0.8734
G1 X88.291 Y89.060 E0.8818
G1 X88.382 Y89.170 E0.8901
G1 X88.454 Y89.293 E0.8985
G1 X88.506 Y89.425 E0.9069
G1 X88.537 Y89.565 E0.9152
G1 X88.546 Y89.707 E0.9236
G1 X88.531 Y89.863 E0.9328
G1 X88.420 Y90.493 E0.9703
G1 X88.418 Y90.706 E0.9828
G1 X88.543 Y90.992 E1.0011
G1 X88.647 Y91.087 E1.0094
G1 X88.516 Y91.132 E1.0175
G1 X88.300 Y91.367 E1.0362
G1 X88.231 Y91.563 E1.0484
G1 X88.109 Y92.258 E1.0898
G1 X88.069 Y92.410 E1.0990
G1 X88.013 Y92.540 E1.1073
G1 X87.936 Y92.661 E1.1157
G1 X87.841 Y92.767 E1.1241
G1 X87.731 Y92.858 E1.1325
G1 X87.609 Y92.931 E1.1408
G1 X87.476 Y92.983 E1.1492
G1 X87.337 Y93.014 E1.1576
G1 X87.194 Y93.022 E1.1659
G1 X87.038 Y93.007 E1.1751
G1 X73.811 Y90.675 E1.9632
G1 X73.659 Y90.636 E1.9724
G1 X73.528 Y90.579 E1.9807
G1 X73.408 Y90.502 E1.9891
G1 X73.301 Y90.408 E1.9975
G1 X73.210 Y90.298 E2.0058
G1 X73.138 Y90.175 E2.0142
G1 X73.085 Y90.042 E2.0226
G1 X73.055 Y89.903 E2.0309
G1 X73.046 Y89.760 E2.0393
G1 X73.061 Y89.604 E2.0485
G1 X73.172 Y88.975 E2.0860
G1 X73.173 Y88.761 E2.0985
G1 X73.048 Y88.475 E2.1169
G1 X72.945 Y88.381 E2.1251
G1 X73.076 Y88.335 E2.1332
G1 X73.292 Y88.100 E2.1519
G1 X73.361 Y87.905 E2.1641
G1 X73.483 Y87.210 E2.2055
G1 X73.522 Y87.058 E2.2147
G1 X73.556 Y86.980 E2.2197
G1 X73.579 Y86.927 F1200
G1 X73.656 Y86.807
; feature inner perimeter
G1 X74.228 Y87.134 F18000
G92 E0.0000
G1 X87.857 Y89.537 E0.8120 F1800
G1 X87.700 Y90.427 E0.8650
G1 X87.697 Y90.911 E0.8934
G1 X87.532 Y91.380 E0.9226
G1 X87.364 Y92.334 E0.9794
G1 X73.734 Y89.930 E1.7914
G1 X73.891 Y89.040 E1.8444
G1 X73.895 Y88.557 E1.8728
G1 X74.059 Y88.088 E1.9020
G1 X74.193 Y87.331 E1.9471
G1 X74.228 Y87.134 F1800
G1 X74.812 Y87.968 F18000
G92 E0.0000
G1 X86.983 Y90.114 E0.7251 F1800
G1 X86.978 Y90.786 E0.7645
G1 X86.834 Y91.197 E0.7901
G1 X86.780 Y91.500 E0.8081
G1 X74.609 Y89.354 E1.5332
G1 X74.614 Y88.682 E1.5726
G1 X74.758 Y88.270 E1.5982
G1 X74.777 Y88.165 E1.6045
G1 X74.812 Y87.968 F1800
; feature outer perimeter
G1 X78.838 Y87.215 F18000
G1 X87.781 Y88.792
G1 X87.933 Y88.832
G1 X88.064 Y88.889
G1 X88.184 Y88.965
G1 X88.291 Y89.060
G1 X93.077 Y85.568
G1 X92.899 Y85.276
G1 X92.768 Y84.960
G1 X92.688 Y84.628
G92 E0.0000
G1 X92.660 Y84.273 E0.0209 F1200
G1 X92.660 Y82.107 E0.1480
G1 X117.340 Y82.107 E1.5960
G1 X117.340 Y84.273 E1.7230
G1 X117.312 Y84.628 E1.7439
G1 X117.232 Y84.960 E1.7640
G1 X117.101 Y85.276 E1.7840
G1 X116.923 Y85.568 E1.8041
G1 X116.701 Y85.828 E1.8242
G1 X116.441 Y86.050 E1.8442
G1 X116.149 Y86.228 E1.8643
G1 X115.833 Y86.359 E1.8844
G1 X115.501 Y86.439 E1.9044
G1 X115.146 Y86.467 E1.9253
G1 X110.990 Y86.467 E2.1691
G1 X110.990 Y91.271 E2.4510
G1 X111.057 Y91.538 E2.4672
G1 X111.203 Y91.728 E2.4812
G1 X111.312 Y91.800 E2.4888
G1 X111.139 Y91.932 E2.5016
G1 X111.023 Y92.145 E2.5158
G1 X110.990 Y92.339 E2.5274
G1 X110.990 Y116.511 E3.9456
G1 X111.061 Y116.793 E3.9626
G1 X111.277 Y117.031 E3.9815
G1 X111.289 Y117.036 E3.9822
G1 X111.063 Y117.278 E4.0016
G1 X110.990 Y117.564 E4.0190
G1 X110.990 Y122.413 E4.3035
G1 X115.146 Y122.413 E4.5473
G1 X115.501 Y122.441 E4.5682
G1 X115.833 Y122.521 E4.5882
G1 X116.149 Y122.652 E4.6083
G1 X116.441 Y122.830 E4.6284
G1 X116.701 Y123.053 E4.6484
G1 X116.923 Y123.312 E4.6685
G1 X117.101 Y123.604 E4.6885
G1 X117.232 Y123.920 E4.7086
G1 X117.312 Y124.252 E4.7287
G1 X117.340 Y124.607 E4.7496
G1 X117.340 Y126.773 E4.8766
G1 X92.660 Y126.773 E6.3246
G1 X92.660 Y124.607 E6.4517
G1 X92.688 Y124.252 E6.4726
G1 X92.768 Y123.920 E6.4926
G1 X92.899 Y123.604 E6.5127
G1 X93.077 Y123.312 E6.5328
G1 X93.299 Y123.053 E6.5528
G1 X93.559 Y122.830 E6.5729
G1 X93.851 Y122.652 E6.5929
G1 X94.167 Y122.521 E6.6130
G1 X94.499 Y122.441 E6.6331
G1 X94.854 Y122.413 E6.6540
G1 X99.010 Y122.413 E6.8978
G1 X99.010 Y117.564 E7.1823
G1 X98.937 Y117.278 E7.1996
G1 X98.702 Y117.027 E7.2198
G1 X98.865 Y116.898 E7.2320
G1 X98.978 Y116.687 E7.2460
G1 X99.010 Y116.496 E7.2574
G1 X99.010 Y92.339 E8.6747
G1 X98.975 Y92.130 E8.6872
G1 X98.803 Y91.871 E8.7054
G1 X98.687 Y91.796 E8.7135
G1 X98.801 Y91.732 E8.7212
G1 X98.976 Y91.462 E8.7401
G1 X99.010 Y91.256 E8.7523
G1 X99.010 Y86.467 E9.0333
G1 X94.854 Y86.467 E9.2772
G1 X94.499 Y86.439 E9.2981
G1 X94.167 Y86.359 E9.3181
G1 X93.851 Y86.228 E9.3382
G1 X93.559 Y86.050 E9.3582
G1 X93.299 Y85.828 E9.3783
G1 X93.077 Y85.568 E9.3984
G1 X92.899 Y85.276 E9.4184
G1 X92.768 Y84.960 E9.4385
G1 X92.735 Y84.822 E9.4468
G1 X92.688 Y84.628 F1200
; feature inner perimeter
G1 X93.401 Y84.515 F18000
G92 E0.0000
G1 X93.380 Y84.245 E0.0159 F1800
G1 X93.380 Y82.827 E0.0991
G1 X116.620 Y82.827 E1.4626
G1 X116.620 Y84.245 E1.5458
G1 X116.599 Y84.515 E1.5617
G1 X116.545 Y84.737 E1.5751
G1 X116.458 Y84.948 E1.5885
G1 X116.338 Y85.143 E1.6019
G1 X116.190 Y85.317 E1.6153
G1 X116.016 Y85.465 E1.6287
G1 X115.821 Y85.585 E1.6421
G1 X115.610 Y85.672 E1.6555
G1 X115.388 Y85.726 E1.6690
G1 X115.118 Y85.747 E1.6849
G1 X110.270 Y85.747 E1.9693
G1 X110.270 Y91.360 E2.2986
G1 X110.384 Y91.813 E2.3260
G1 X110.333 Y91.906 E2.3322
G1 X110.270 Y92.279 E2.3544
G1 X110.270 Y116.600 E3.7814
G1 X110.381 Y117.041 E3.8080
G1 X110.270 Y117.474 E3.8342
G1 X110.270 Y123.133 E4.1663
G1 X115.118 Y123.133 E4.4507
G1 X115.388 Y123.154 E4.4666
G1 X115.610 Y123.208 E4.4800
G1 X115.821 Y123.295 E4.4934
G1 X116.016 Y123.415 E4.5068
G1 X116.190 Y123.563 E4.5202
G1 X116.338 Y123.737 E4.5337
G1 X116.458 Y123.932 E4.5471
G1 X116.545 Y124.143 E4.5605
G1 X116.599 Y124.365 E4.5739
G1 X116.620 Y124.636 E4.5898
G1 X116.620 Y126.053 E4.6730
G1 X102.301 Y126.053 E5.5131
G1 X102.170 Y125.577 E5.5421
G1 X104.060 Y124.453 E5.6711
G1 X104.319 Y124.282 E5.6893
G1 X104.779 Y124.658 E5.7242
G1 X105.116 Y124.858 E5.7472
G1 X105.500 Y125.013 E5.7715
G1 X105.914 Y125.110 E5.7964
G1 X106.357 Y125.142 E5.8225
G1 X106.667 Y125.127 E5.8407
G1 X107.081 Y125.061 E5.8653
G1 X107.533 Y124.912 E5.8932
G1 X107.959 Y124.688 E5.9214
G1 X108.281 Y124.446 E5.9451
G1 X108.541 Y124.181 E5.9668
G1 X108.753 Y123.883 E5.9883
G1 X108.922 Y123.543 E6.0106
G1 X109.060 Y123.085 E6.0387
G1 X109.148 Y122.430 E6.0774
G1 X109.163 Y121.947 E6.1058
G1 X109.163 Y115.666 E6.4743
G1 X107.008 Y114.980 E6.6070
G1 X107.009 Y114.506 E6.6348
G1 X109.163 Y113.824 E6.7674
G1 X109.163 Y110.606 E6.9562
G1 X108.392 Y110.606 E7.0014
G1 X108.898 Y109.736 E7.0604
G1 X109.090 Y109.237 E7.0917
G1 X109.207 Y108.686 E7.1248
G1 X109.245 Y108.121 E7.1580
G1 X109.239 Y107.869 E7.1728
G1 X109.161 Y107.229 E7.2106
G1 X108.979 Y106.600 E7.2491
G1 X108.727 Y106.063 E7.2839
G1 X108.419 Y105.598 E7.3166
G1 X108.047 Y105.191 E7.3489
G1 X107.562 Y104.809 E7.3851
G1 X107.025 Y104.511 E7.4212
G1 X106.411 Y104.284 E7.4596
G1 X105.697 Y104.137 E7.5024
G1 X104.942 Y104.090 E7.5468
G1 X103.975 Y104.173 E7.6037
G1 X103.211 Y104.367 E7.6500
G1 X102.500 Y104.668 E7.6953
G1 X101.906 Y105.056 E7.7369
G1 X101.490 Y105.446 E7.7703
G1 X101.155 Y105.883 E7.8026
G1 X100.905 Y106.345 E7.8334
G1 X100.722 Y106.867 E7.8659
G1 X100.605 Y107.483 E7.9027
G1 X100.570 Y108.112 E7.9396
G1 X100.591 Y108.548 E7.9653
G1 X100.702 Y109.171 E8.0024
G1 X100.881 Y109.682 E8.0342
G1 X101.385 Y110.606 E8.0959
G1 X100.653 Y110.606 E8.1389
G1 X100.653 Y121.151 E8.7576
G1 X102.724 Y121.151 E8.8791
G1 X102.860 Y121.617 E8.9076
G1 X102.508 Y121.842 E8.9321
G1 X100.653 Y122.937 E9.0585
G1 X100.653 Y126.053 E9.2413
G1 X93.380 Y126.053 E9.6680
G1 X93.380 Y124.636 E9.7512
G1 X93.401 Y124.365 E9.7671
G1 X93.455 Y124.143 E9.7805
G1 X93.542 Y123.932 E9.7939
G1 X93.662 Y123.737 E9.8073
G1 X93.810 Y123.563 E9.8207
G1 X93.984 Y123.415 E9.8341
G1 X94.179 Y123.295 E9.8475
G1 X94.390 Y123.208 E9.8610
G1 X94.612 Y123.154 E9.8744
G1 X94.882 Y123.133 E9.8903
G1 X99.730 Y123.133 E10.1747
G1 X99.730 Y117.474 E10.5067
G1 X99.615 Y117.024 E10.5340
G1 X99.669 Y116.923 E10.5407
G1 X99.730 Y116.555 E10.5626
G1 X99.730 Y92.279 E11.9869
G1 X99.650 Y91.801 E12.0153
G1 X99.730 Y91.315 E12.0442
G1 X99.730 Y85.747 E12.3709
G1 X94.882 Y85.747 E12.6553
G1 X94.612 Y85.726 E12.6712
G1 X94.390 Y85.672 E12.6846
G1 X94.179 Y85.585 E12.6980
G1 X93.984 Y85.465 E12.7115
G1 X93.810 Y85.317 E12.7249
G1 X93.662 Y85.143 E12.7383
G1 X93.542 Y84.948 E12.7517
G1 X93.455 Y84.737 E12.7651
G1 X93.448 Y84.709 E12.7668
G1 X93.401 Y84.515 F1800
G1 X94.263 Y86.382 F18000
G1 X94.499 Y86.439
