; G-Code generated by Simplify3D(R) Version 4.1.2
; Apr 3, 2022 at 8:36:07 PM
; Settings Summary
;   processName,Process1
;   applyToModels,keychain_gripper_v29
;   profileName,HSBot
;   profileVersion,2019-11-09 11:59:44
;   baseProfile,Default
;   printMaterial,PETG - Eryone
;   printQuality,Medium
;   printExtruders,
;   extruderName,Extruder 1,Extruder - Lite
;   extruderToolheadNumber,0,1
;   extruderDiameter,0.4,0.4
;   extruderAutoWidth,1,1
;   extruderWidth,0.48,0.48
;   extrusionMultiplier,0.98,0.93
;   extruderUseRetract,0,0
;   extruderRetractionDistance,4,1
;   extruderExtraRestartDistance,0,0
;   extruderRetractionZLift,0,0
;   extruderRetractionSpeed,3600,1800
;   extruderUseCoasting,1,0
;   extruderCoastingDistance,0.2,0.2
;   extruderUseWipe,0,0
;   extruderWipeDistance,1,5
;   primaryExtruder,0
;   layerHeight,0.2
;   topSolidLayers,3
;   bottomSolidLayers,3
;   perimeterOutlines,3
;   printPerimetersInsideOut,0
;   startPointOption,2
;   startPointOriginX,0
;   startPointOriginY,0
;   sequentialIslands,0
;   spiralVaseMode,0
;   firstLayerHeightPercentage,100
;   firstLayerWidthPercentage,150
;   firstLayerUnderspeed,0.5
;   useRaft,0
;   raftExtruder,0
;   raftTopLayers,3
;   raftBaseLayers,2
;   raftOffset,3
;   raftSeparationDistance,0.18
;   raftTopInfill,100
;   aboveRaftSpeedMultiplier,0.3
;   useSkirt,1
;   skirtExtruder,0
;   skirtLayers,1
;   skirtOutlines,4
;   skirtOffset,5
;   usePrimePillar,0
;   primePillarExtruder,999
;   primePillarWidth,12
;   primePillarLocation,7
;   primePillarSpeedMultiplier,1
;   useOozeShield,0
;   oozeShieldExtruder,999
;   oozeShieldOffset,2
;   oozeShieldOutlines,1
;   oozeShieldSidewallShape,1
;   oozeShieldSidewallAngle,30
;   oozeShieldSpeedMultiplier,1
;   infillExtruder,0
;   internalInfillPattern,Fast Honeycomb
;   externalInfillPattern,Rectilinear
;   infillPercentage,15
;   outlineOverlapPercentage,15
;   infillExtrusionWidthPercentage,100
;   minInfillLength,5
;   infillLayerInterval,1
;   internalInfillAngles,0
;   overlapInternalInfillAngles,0
;   externalInfillAngles,45,-45
;   generateSupport,0
;   supportExtruder,0
;   supportInfillPercentage,30
;   supportExtraInflation,0
;   supportBaseLayers,1
;   denseSupportExtruder,0
;   denseSupportLayers,0
;   denseSupportInfillPercentage,70
;   supportLayerInterval,1
;   supportHorizontalPartOffset,0.3
;   supportUpperSeparationLayers,1
;   supportLowerSeparationLayers,1
;   supportType,0
;   supportGridSpacing,2
;   maxOverhangAngle,45
;   supportAngles,0
;   temperatureName,Extruder 1,Bed
;   temperatureNumber,0,0
;   temperatureSetpointCount,1,1
;   temperatureSetpointLayers,1,1
;   temperatureSetpointTemperatures,225,85
;   temperatureStabilizeAtStartup,1,1
;   temperatureHeatedBed,0,1
;   fanLayers,1,2,3
;   fanSpeeds,0,15,15
;   blipFanToFullPower,1
;   adjustSpeedForCooling,1
;   minSpeedLayerTime,15
;   minCoolingSpeedSlowdown,20
;   increaseFanForCooling,1
;   minFanLayerTime,45
;   maxCoolingFanSpeed,40
;   increaseFanForBridging,1
;   bridgingFanSpeed,80
;   use5D,1
;   relativeEdistances,0
;   allowEaxisZeroing,1
;   independentExtruderAxes,0
;   includeM10123,0
;   stickySupport,1
;   applyToolheadOffsets,0
;   gcodeXoffset,0
;   gcodeYoffset,0
;   gcodeZoffset,0
;   overrideMachineDefinition,1
;   machineTypeOverride,0
;   strokeXoverride,210
;   strokeYoverride,210
;   strokeZoverride,150
;   originOffsetXoverride,0
;   originOffsetYoverride,0
;   originOffsetZoverride,0
;   homeXdirOverride,-1
;   homeYdirOverride,-1
;   homeZdirOverride,-1
;   flipXoverride,1
;   flipYoverride,-1
;   flipZoverride,1
;   toolheadOffsets,0,0|0,0|0,0|0,0|0,0|0,0
;   overrideFirmwareConfiguration,0
;   firmwareTypeOverride,RepRap (Marlin/Repetier/Sprinter)
;   GPXconfigOverride,r2
;   baudRateOverride,115200
;   overridePrinterModels,0
;   printerModelsOverride
;   startingGcode,G28 ; home all axes,G32 ; run bed.g -- probe bed and enable compensation
;   layerChangeGcode,
;   retractionGcode,
;   toolChangeGcode,
;   endingGcode,M0 ; call stop.g
;   exportFileFormat,gcode
;   celebration,0
;   celebrationSong,Random Song
;   postProcessing,
;   defaultSpeed,4800
;   outlineUnderspeed,0.5
;   solidInfillUnderspeed,0.8
;   supportUnderspeed,0.8
;   rapidXYspeed,18000
;   rapidZspeed,1200
;   minBridgingArea,50
;   bridgingExtraInflation,0
;   bridgingExtrusionMultiplier,0.96
;   bridgingSpeedMultiplier,1
;   useFixedBridgingAngle,0
;   fixedBridgingAngle,0
;   applyBridgingToPerimeters,0
;   filamentDiameters,1.75|1.75|1.75|1.75|1.75|1.75
;   filamentPricesPerKg,25|46|46|46|46|46
;   filamentDensities,1.25|1.25|1.25|1.25|1.25|1.25
;   useMinPrintHeight,0
;   minPrintHeight,0
;   useMaxPrintHeight,0
;   maxPrintHeight,0
;   useDiaphragm,1
;   diaphragmLayerInterval,20
;   robustSlicing,1
;   mergeAllIntoSolid,0
;   onlyRetractWhenCrossingOutline,1
;   retractBetweenLayers,0
;   useRetractionMinTravel,1
;   retractionMinTravel,5
;   retractWhileWiping,1
;   onlyWipeOutlines,1
;   avoidCrossingOutline,1
;   maxMovementDetourFactor,5
;   toolChangeRetractionDistance,12
;   toolChangeExtraRestartDistance,0
;   toolChangeRetractionSpeed,600
;   externalThinWallType,0
;   internalThinWallType,1
;   thinWallAllowedOverlapPercentage,10
;   singleExtrusionMinLength,0.1
;   singleExtrusionMinPrintingWidthPercentage,50
;   singleExtrusionMaxPrintingWidthPercentage,200
;   singleExtrusionEndpointExtension,0.2
;   horizontalSizeCompensation,0
G90
M82
M106 S255
G4 P500
M106 S40
M140 S85
M190 S85
G10 S225 R{225-50} P0
M116 P0
G28 ; home all axes
G32 ; run bed.g -- probe bed and enable compensation
; process Process1
; layer 1, Z = 0.200
T0
; feature skirt
; tool H0.200 W0.720
G1 Z0.200 F1200
G1 X86.166 Y83.799 F18000
G92 E0.0000
G1 X86.579 Y83.416 E0.0330 F2400
G1 X87.782 Y82.457 E0.1233
G1 X88.126 Y82.212 E0.1480
G1 X88.867 Y81.747 E0.1994
G1 X89.111 Y81.606 E0.2159
G1 X89.884 Y81.197 E0.2672
G1 X90.268 Y81.021 E0.2920
G1 X91.700 Y80.459 E0.3823
G1 X92.238 Y80.293 E0.4153
G1 X93.806 Y79.935 E0.5097
G1 X94.363 Y79.851 E0.5427
G1 X95.827 Y79.742 E0.6288
G1 X96.108 Y79.731 E0.6453
G1 X114.389 Y79.731 E1.7179
G1 X114.671 Y79.742 E1.7344
G1 X116.135 Y79.851 E1.8206
G1 X116.691 Y79.935 E1.8536
G1 X118.260 Y80.293 E1.9480
G1 X118.797 Y80.459 E1.9810
G1 X120.295 Y81.047 E2.0754
G1 X120.802 Y81.291 E2.1084
G1 X122.196 Y82.096 E2.2028
G1 X122.661 Y82.413 E2.2358
G1 X123.919 Y83.416 E2.3302
G1 X124.331 Y83.799 E2.3633
G1 X125.425 Y84.978 E2.4577
G1 X125.776 Y85.418 E2.4907
G1 X126.683 Y86.748 E2.5851
G1 X126.964 Y87.235 E2.6181
G1 X127.662 Y88.685 E2.7125
G1 X127.868 Y89.208 E2.7455
G1 X128.321 Y90.679 E2.8358
G1 X128.423 Y91.088 E2.8605
G1 X128.599 Y92.017 E2.9160
G1 X128.654 Y92.436 E2.9408
G1 X128.758 Y93.831 E3.0229
G1 X128.769 Y94.116 E3.0396
G1 X128.749 Y116.076 E4.3280
G1 X128.707 Y116.634 E4.3609
G1 X128.467 Y118.223 E4.4552
G1 X128.342 Y118.772 E4.4882
G1 X127.868 Y120.310 E4.5826
G1 X127.662 Y120.834 E4.6156
G1 X126.995 Y122.220 E4.7059
G1 X126.791 Y122.589 E4.7306
G1 X126.325 Y123.330 E4.7820
G1 X126.167 Y123.562 E4.7985
G1 X125.647 Y124.266 E4.8498
G1 X125.378 Y124.591 E4.8746
G1 X124.379 Y125.668 E4.9607
G1 X124.075 Y125.960 E4.9855
G1 X123.358 Y126.577 E5.0409
G1 X123.024 Y126.834 E5.0657
G1 X121.752 Y127.701 E5.1560
G1 X121.265 Y127.982 E5.1890
G1 X119.879 Y128.650 E5.2793
G1 X119.489 Y128.811 E5.3040
G1 X118.663 Y129.100 E5.3554
G1 X118.394 Y129.183 E5.3719
G1 X117.549 Y129.410 E5.4232
G1 X117.136 Y129.496 E5.4480
G1 X115.616 Y129.725 E5.5381
G1 X115.059 Y129.767 E5.5709
G1 X95.498 Y129.786 E6.7186
G1 X95.467 Y129.797 E6.7205
G1 X94.730 Y129.995 E6.7653
G1 X93.394 Y130.212 E6.8447
G1 X92.837 Y130.261 E6.8775
G1 X92.025 Y130.270 E6.9251
G1 X91.653 Y130.257 E6.9470
G1 X90.844 Y130.186 E6.9946
G1 X90.292 Y130.097 E7.0274
G1 X89.076 Y129.805 E7.1008
G1 X88.544 Y129.635 E7.1336
G1 X87.746 Y129.313 E7.1840
G1 X87.324 Y129.111 E7.2115
G1 X86.274 Y128.526 E7.2820
G1 X85.727 Y128.155 E7.3208
G1 X84.808 Y127.406 E7.3904
G1 X84.409 Y127.030 E7.4225
G1 X83.843 Y126.411 E7.4718
G1 X83.504 Y125.981 E7.5039
G1 X82.913 Y125.110 E7.5656
G1 X82.709 Y124.772 E7.5888
G1 X82.317 Y124.037 E7.6377
G1 X82.087 Y123.517 E7.6710
G1 X81.632 Y122.229 E7.7511
G1 X81.453 Y121.493 E7.7956
G1 X81.251 Y120.046 E7.8813
G1 X81.222 Y119.289 E7.9258
G1 X81.308 Y117.926 E8.0059
G1 X81.386 Y117.363 E8.0392
G1 X81.584 Y116.455 E8.0938
G1 X81.730 Y115.969 E8.1236
G1 X81.749 Y93.512 E9.4411
G1 X81.772 Y93.094 E9.4657
G1 X81.878 Y92.156 E9.5210
G1 X81.949 Y91.740 E9.5458
G1 X82.291 Y90.240 E9.6361
G1 X82.457 Y89.702 E9.6691
G1 X83.045 Y88.205 E9.7635
G1 X83.289 Y87.698 E9.7965
G1 X84.058 Y86.365 E9.8868
G1 X84.289 Y86.012 E9.9115
G1 X84.851 Y85.252 E9.9670
G1 X85.120 Y84.927 E9.9918
G1 X86.166 Y83.799 E10.0820
G1 X86.676 Y84.308 F18000
G92 E0.0000
G1 X87.049 Y83.962 E0.0299 F2400
G1 X88.215 Y83.032 E0.1174
G1 X88.526 Y82.811 E0.1397
G1 X89.239 Y82.364 E0.1891
G1 X89.459 Y82.236 E0.2040
G1 X90.203 Y81.843 E0.2534
G1 X90.550 Y81.684 E0.2758
G1 X91.938 Y81.139 E0.3633
G1 X92.424 Y80.989 E0.3932
G1 X93.940 Y80.643 E0.4844
G1 X94.444 Y80.567 E0.5142
G1 X95.867 Y80.461 E0.5980
G1 X96.122 Y80.451 E0.6129
G1 X114.376 Y80.451 E1.6839
G1 X114.630 Y80.461 E1.6989
G1 X116.054 Y80.567 E1.7826
G1 X116.557 Y80.643 E1.8125
G1 X118.073 Y80.989 E1.9037
G1 X118.559 Y81.139 E1.9336
G1 X120.007 Y81.707 E2.0248
G1 X120.466 Y81.928 E2.0547
G1 X121.812 Y82.706 E2.1459
G1 X122.233 Y82.992 E2.1758
G1 X123.449 Y83.962 E2.2670
G1 X123.822 Y84.308 E2.2969
G1 X124.879 Y85.448 E2.3881
G1 X125.197 Y85.846 E2.4180
G1 X126.073 Y87.131 E2.5092
G1 X126.327 Y87.572 E2.5391
G1 X127.002 Y88.973 E2.6303
G1 X127.188 Y89.446 E2.6602
G1 X127.627 Y90.872 E2.7477
G1 X127.719 Y91.242 E2.7701
G1 X127.887 Y92.131 E2.8232
G1 X127.937 Y92.509 E2.8455
G1 X128.039 Y93.871 E2.9257
G1 X128.049 Y94.129 E2.9408
G1 X128.029 Y116.049 E4.2269
G1 X127.991 Y116.553 E4.2565
G1 X127.759 Y118.090 E4.3477
G1 X127.646 Y118.586 E4.3775
G1 X127.188 Y120.072 E4.4688
G1 X127.002 Y120.545 E4.4986
G1 X126.355 Y121.889 E4.5861
G1 X126.170 Y122.223 E4.6085
G1 X125.722 Y122.936 E4.6579
G1 X125.579 Y123.146 E4.6728
G1 X125.080 Y123.823 E4.7222
G1 X124.836 Y124.117 E4.7446
G1 X123.865 Y125.163 E4.8283
G1 X123.590 Y125.428 E4.8507
G1 X122.904 Y126.018 E4.9038
G1 X122.601 Y126.251 E4.9262
G1 X121.369 Y127.091 E5.0137
G1 X120.928 Y127.345 E5.0436
G1 X119.585 Y127.992 E5.1311
G1 X119.232 Y128.138 E5.1535
G1 X118.438 Y128.416 E5.2028
G1 X118.195 Y128.491 E5.2178
G1 X117.382 Y128.709 E5.2671
G1 X117.009 Y128.787 E5.2895
G1 X115.535 Y129.009 E5.3769
G1 X115.031 Y129.047 E5.4066
G1 X95.365 Y129.066 E6.5604
G1 X95.245 Y129.112 E6.5680
G1 X94.578 Y129.291 E6.6085
G1 X93.305 Y129.497 E6.6841
G1 X92.802 Y129.541 E6.7138
G1 X92.034 Y129.550 E6.7588
G1 X91.698 Y129.538 E6.7786
G1 X90.933 Y129.471 E6.8236
G1 X90.434 Y129.390 E6.8533
G1 X89.270 Y129.111 E6.9235
G1 X88.788 Y128.957 E6.9532
G1 X88.037 Y128.654 E7.0007
G1 X87.655 Y128.471 E7.0255
G1 X86.652 Y127.913 E7.0929
G1 X86.157 Y127.577 E7.1280
G1 X85.283 Y126.864 E7.1942
G1 X84.923 Y126.524 E7.2232
G1 X84.392 Y125.944 E7.2694
G1 X84.085 Y125.555 E7.2984
G1 X83.520 Y124.721 E7.3575
G1 X83.335 Y124.416 E7.3784
G1 X82.964 Y123.722 E7.4246
G1 X82.757 Y123.252 E7.4548
G1 X82.323 Y122.024 E7.5312
G1 X82.161 Y121.358 E7.5714
G1 X81.969 Y119.983 E7.6529
G1 X81.943 Y119.298 E7.6930
G1 X82.025 Y117.998 E7.7695
G1 X82.096 Y117.490 E7.7996
G1 X82.281 Y116.635 E7.8509
G1 X82.434 Y116.128 E7.8820
G1 X82.450 Y116.087 E7.8846
G1 X82.468 Y93.533 E9.2078
G1 X82.490 Y93.155 E9.2300
G1 X82.591 Y92.257 E9.2831
G1 X82.655 Y91.881 E9.3054
G1 X82.987 Y90.427 E9.3929
G1 X83.137 Y89.940 E9.4228
G1 X83.705 Y88.493 E9.5140
G1 X83.926 Y88.034 E9.5439
G1 X84.671 Y86.743 E9.6314
G1 X84.880 Y86.424 E9.6538
G1 X85.418 Y85.695 E9.7069
G1 X85.661 Y85.401 E9.7293
G1 X86.676 Y84.308 E9.8168
G1 X87.185 Y84.818 F18000
G92 E0.0000
G1 X87.519 Y84.508 E0.0267 F2400
G1 X88.648 Y83.608 E0.1114
G1 X88.926 Y83.410 E0.1314
G1 X89.610 Y82.980 E0.1788
G1 X89.807 Y82.867 E0.1922
G1 X90.521 Y82.489 E0.2396
G1 X90.832 Y82.347 E0.2596
G1 X92.176 Y81.819 E0.3443
G1 X92.611 Y81.685 E0.3710
G1 X94.074 Y81.351 E0.4591
G1 X94.524 Y81.283 E0.4858
G1 X95.908 Y81.180 E0.5672
G1 X96.135 Y81.171 E0.5805
G1 X114.362 Y81.171 E1.6500
G1 X114.590 Y81.180 E1.6633
G1 X115.973 Y81.283 E1.7447
G1 X116.423 Y81.351 E1.7714
G1 X117.887 Y81.685 E1.8595
G1 X118.322 Y81.819 E1.8862
G1 X119.719 Y82.368 E1.9743
G1 X120.129 Y82.565 E2.0009
G1 X121.429 Y83.316 E2.0890
G1 X121.805 Y83.572 E2.1157
G1 X122.979 Y84.508 E2.2038
G1 X123.312 Y84.818 E2.2305
G1 X124.333 Y85.918 E2.3186
G1 X124.617 Y86.274 E2.3453
G1 X125.463 Y87.514 E2.4333
G1 X125.690 Y87.908 E2.4600
G1 X126.341 Y89.261 E2.5481
G1 X126.508 Y89.684 E2.5748
G1 X126.933 Y91.064 E2.6596
G1 X127.016 Y91.396 E2.6796
G1 X127.176 Y92.245 E2.7303
G1 X127.221 Y92.583 E2.7503
G1 X127.320 Y93.912 E2.8285
G1 X127.329 Y94.142 E2.8420
G1 X127.309 Y116.022 E4.1257
G1 X127.275 Y116.473 E4.1522
G1 X127.051 Y117.956 E4.2402
G1 X126.950 Y118.399 E4.2669
G1 X126.508 Y119.834 E4.3550
G1 X126.341 Y120.257 E4.3817
G1 X125.715 Y121.559 E4.4664
G1 X125.550 Y121.857 E4.4864
G1 X125.120 Y122.541 E4.5338
G1 X124.992 Y122.729 E4.5472
G1 X124.512 Y123.379 E4.5946
G1 X124.295 Y123.642 E4.6146
G1 X123.351 Y124.659 E4.6960
G1 X123.105 Y124.895 E4.7160
G1 X122.450 Y125.459 E4.7667
G1 X122.179 Y125.667 E4.7867
G1 X120.986 Y126.481 E4.8715
G1 X120.592 Y126.708 E4.8982
G1 X119.290 Y127.335 E4.9829
G1 X118.975 Y127.465 E5.0029
G1 X118.213 Y127.732 E5.0503
G1 X117.996 Y127.799 E5.0637
G1 X117.215 Y128.008 E5.1111
G1 X116.881 Y128.078 E5.1311
G1 X115.455 Y128.293 E5.2157
G1 X115.004 Y128.327 E5.2423
G1 X95.232 Y128.346 E6.4023
G1 X95.023 Y128.426 E6.4154
G1 X94.427 Y128.586 E6.4516
G1 X93.216 Y128.782 E6.5236
G1 X92.766 Y128.821 E6.5501
G1 X92.043 Y128.830 E6.5925
G1 X91.742 Y128.819 E6.6102
G1 X91.022 Y128.756 E6.6526
G1 X90.576 Y128.684 E6.6791
G1 X89.463 Y128.417 E6.7462
G1 X89.033 Y128.280 E6.7727
G1 X88.327 Y127.995 E6.8174
G1 X87.986 Y127.831 E6.8396
G1 X87.030 Y127.299 E6.9038
G1 X86.588 Y126.999 E6.9351
G1 X85.758 Y126.323 E6.9979
G1 X85.436 Y126.019 E7.0239
G1 X84.941 Y125.477 E7.0670
G1 X84.666 Y125.130 E7.0930
G1 X84.126 Y124.333 E7.1494
G1 X83.962 Y124.060 E7.1681
G1 X83.612 Y123.407 E7.2116
G1 X83.427 Y122.986 E7.2386
G1 X83.014 Y121.818 E7.3113
G1 X82.869 Y121.223 E7.3472
G1 X82.687 Y119.919 E7.4244
G1 X82.664 Y119.307 E7.4603
G1 X82.742 Y118.071 E7.5330
G1 X82.805 Y117.616 E7.5600
G1 X82.979 Y116.816 E7.6080
G1 X83.115 Y116.362 E7.6358
G1 X83.169 Y116.222 E7.6447
G1 X83.188 Y93.554 E8.9746
G1 X83.208 Y93.216 E8.9945
G1 X83.304 Y92.358 E9.0451
G1 X83.361 Y92.021 E9.0651
G1 X83.683 Y90.613 E9.1499
G1 X83.817 Y90.178 E9.1766
G1 X84.365 Y88.781 E9.2647
G1 X84.563 Y88.371 E9.2913
G1 X85.285 Y87.120 E9.3761
G1 X85.472 Y86.835 E9.3961
G1 X85.985 Y86.139 E9.4468
G1 X86.203 Y85.876 E9.4669
G1 X87.185 Y84.818 E9.5516
G1 X87.695 Y85.327 F18000
G92 E0.0000
G1 X87.989 Y85.054 E0.0235 F2400
G1 X89.081 Y84.183 E0.1055
G1 X89.326 Y84.009 E0.1232
G1 X89.982 Y83.597 E0.1686
G1 X90.156 Y83.497 E0.1803
G1 X90.840 Y83.135 E0.2258
G1 X91.113 Y83.010 E0.2434
G1 X92.414 Y82.499 E0.3254
G1 X92.797 Y82.381 E0.3489
G1 X94.208 Y82.059 E0.4338
G1 X94.605 Y81.999 E0.4574
G1 X95.948 Y81.899 E0.5364
G1 X96.148 Y81.891 E0.5481
G1 X114.349 Y81.891 E1.6160
G1 X114.549 Y81.899 E1.6277
G1 X115.893 Y81.999 E1.7068
G1 X116.289 Y82.059 E1.7303
G1 X117.700 Y82.381 E1.8152
G1 X118.084 Y82.499 E1.8388
G1 X119.431 Y83.028 E1.9237
G1 X119.792 Y83.202 E1.9472
G1 X121.046 Y83.926 E2.0321
G1 X121.377 Y84.152 E2.0557
G1 X122.509 Y85.054 E2.1406
G1 X122.803 Y85.327 E2.1641
G1 X123.787 Y86.388 E2.2490
G1 X124.037 Y86.702 E2.2726
G1 X124.853 Y87.898 E2.3575
G1 X125.053 Y88.245 E2.3810
G1 X125.681 Y89.549 E2.4659
G1 X125.828 Y89.922 E2.4895
G1 X126.239 Y91.257 E2.5714
G1 X126.312 Y91.549 E2.5891
G1 X126.465 Y92.359 E2.6374
G1 X126.504 Y92.657 E2.6551
G1 X126.601 Y93.952 E2.7312
G1 X126.609 Y94.155 E2.7432
G1 X126.589 Y115.994 E4.0245
G1 X126.559 Y116.392 E4.0479
