; G-Code generated by Simplify3D(R) Version 4.1.2
; Jan 31, 2020 at 10:44:26 AM
; Settings Summary
;   processName,Process1
;   applyToModels,mockup-back
;   profileName,HBot (modified)
;   profileVersion,2019-10-26 23:38:43
;   baseProfile,Default
;   printMaterial,PLA
;   printQuality,Medium
;   printExtruders,
;   extruderName,Extruder 1
;   extruderToolheadNumber,0
;   extruderDiameter,0.4
;   extruderAutoWidth,1
;   extruderWidth,0.48
;   extrusionMultiplier,0.94
;   extruderUseRetract,1
;   extruderRetractionDistance,3
;   extruderExtraRestartDistance,0
;   extruderRetractionZLift,0
;   extruderRetractionSpeed,3600
;   extruderUseCoasting,1
;   extruderCoastingDistance,0.2
;   extruderUseWipe,1
;   extruderWipeDistance,5
;   primaryExtruder,0
;   layerHeight,0.2
;   topSolidLayers,3
;   bottomSolidLayers,3
;   perimeterOutlines,4
;   printPerimetersInsideOut,1
;   startPointOption,2
;   startPointOriginX,0
;   startPointOriginY,0
;   sequentialIslands,0
;   spiralVaseMode,0
;   firstLayerHeightPercentage,100
;   firstLayerWidthPercentage,150
;   firstLayerUnderspeed,0.5
;   useRaft,0
;   raftExtruder,0
;   raftTopLayers,3
;   raftBaseLayers,2
;   raftOffset,3
;   raftSeparationDistance,0.18
;   raftTopInfill,100
;   aboveRaftSpeedMultiplier,0.3
;   useSkirt,1
;   skirtExtruder,0
;   skirtLayers,1
;   skirtOutlines,3
;   skirtOffset,4
;   usePrimePillar,0
;   primePillarExtruder,999
;   primePillarWidth,12
;   primePillarLocation,7
;   primePillarSpeedMultiplier,1
;   useOozeShield,0
;   oozeShieldExtruder,999
;   oozeShieldOffset,2
;   oozeShieldOutlines,1
;   oozeShieldSidewallShape,1
;   oozeShieldSidewallAngle,30
;   oozeShieldSpeedMultiplier,1
;   infillExtruder,0
;   internalInfillPattern,Rectilinear
;   externalInfillPattern,Rectilinear
;   infillPercentage,20
;   outlineOverlapPercentage,25
;   infillExtrusionWidthPercentage,150
;   minInfillLength,5
;   infillLayerInterval,1
;   internalInfillAngles,45,-45
;   overlapInternalInfillAngles,0
;   externalInfillAngles,45,-45
;   generateSupport,0
;   supportExtruder,0
;   supportInfillPercentage,30
;   supportExtraInflation,0
;   supportBaseLayers,1
;   denseSupportExtruder,0
;   denseSupportLayers,0
;   denseSupportInfillPercentage,70
;   supportLayerInterval,1
;   supportHorizontalPartOffset,0.3
;   supportUpperSeparationLayers,1
;   supportLowerSeparationLayers,1
;   supportType,0
;   supportGridSpacing,4
;   maxOverhangAngle,45
;   supportAngles,0
;   temperatureName,Extruder 1,Heated Bed
;   temperatureNumber,0,1
;   temperatureSetpointCount,2,1
;   temperatureSetpointLayers,1,2,1
;   temperatureSetpointTemperatures,217,210,55
;   temperatureStabilizeAtStartup,1,1
;   temperatureHeatedBed,0,1
;   fanLayers,1,3,5
;   fanSpeeds,0,15,20
;   blipFanToFullPower,1
;   adjustSpeedForCooling,1
;   minSpeedLayerTime,15
;   minCoolingSpeedSlowdown,20
;   increaseFanForCooling,0
;   minFanLayerTime,45
;   maxCoolingFanSpeed,40
;   increaseFanForBridging,0
;   bridgingFanSpeed,80
;   use5D,1
;   relativeEdistances,0
;   allowEaxisZeroing,1
;   independentExtruderAxes,0
;   includeM10123,0
;   stickySupport,1
;   applyToolheadOffsets,0
;   gcodeXoffset,0
;   gcodeYoffset,0
;   gcodeZoffset,0
;   overrideMachineDefinition,1
;   machineTypeOverride,0
;   strokeXoverride,200
;   strokeYoverride,200
;   strokeZoverride,150
;   originOffsetXoverride,0
;   originOffsetYoverride,0
;   originOffsetZoverride,0
;   homeXdirOverride,-1
;   homeYdirOverride,-1
;   homeZdirOverride,-1
;   flipXoverride,1
;   flipYoverride,-1
;   flipZoverride,1
;   toolheadOffsets,0,0|0,0|0,0|0,0|0,0|0,0
;   overrideFirmwareConfiguration,1
;   firmwareTypeOverride,RepRap (Marlin/Repetier/Sprinter)
;   GPXconfigOverride,r2
;   baudRateOverride,115200
;   overridePrinterModels,0
;   printerModelsOverride
;   startingGcode,G28 ; home all axes,G32 ; run bed.g -- probe bed and enable compensation
;   layerChangeGcode,
;   retractionGcode,
;   toolChangeGcode,
;   endingGcode,M0 ; call stop.g
;   exportFileFormat,gcode
;   celebration,0
;   celebrationSong,Random Song
;   postProcessing,
;   defaultSpeed,3600
;   outlineUnderspeed,0.5
;   solidInfillUnderspeed,0.8
;   supportUnderspeed,0.8
;   rapidXYspeed,18000
;   rapidZspeed,1200
;   minBridgingArea,50
;   bridgingExtraInflation,0
;   bridgingExtrusionMultiplier,0.96
;   bridgingSpeedMultiplier,1
;   useFixedBridgingAngle,0
;   fixedBridgingAngle,0
;   applyBridgingToPerimeters,0
;   filamentDiameters,1.75|1.75|1.75|1.75|1.75|1.75
;   filamentPricesPerKg,46|46|46|46|46|46
;   filamentDensities,1.25|1.25|1.25|1.25|1.25|1.25
;   useMinPrintHeight,0
;   minPrintHeight,0
;   useMaxPrintHeight,0
;   maxPrintHeight,0
;   useDiaphragm,0
;   diaphragmLayerInterval,20
;   robustSlicing,1
;   mergeAllIntoSolid,0
;   onlyRetractWhenCrossingOutline,1
;   retractBetweenLayers,0
;   useRetractionMinTravel,1
;   retractionMinTravel,3
;   retractWhileWiping,1
;   onlyWipeOutlines,1
;   avoidCrossingOutline,1
;   maxMovementDetourFactor,3
;   toolChangeRetractionDistance,12
;   toolChangeExtraRestartDistance,-0.5
;   toolChangeRetractionSpeed,600
;   externalThinWallType,1
;   internalThinWallType,1
;   thinWallAllowedOverlapPercentage,10
;   singleExtrusionMinLength,1
;   singleExtrusionMinPrintingWidthPercentage,50
;   singleExtrusionMaxPrintingWidthPercentage,200
;   singleExtrusionEndpointExtension,0.2
;   horizontalSizeCompensation,-0.1
G90
M82
M106 S0
M140 S55
M190 S55
M104 S217 T0
M109 S217 T0
G28 ; home all axes
G32 ; run bed.g -- probe bed and enable compensation
; process Process1
; layer 1, Z = 0.200
T0
G92 E0.0000
G1 E-3.0000 F3600
; feature skirt
; tool H0.200 W0.720
G1 Z0.200 F1200
G1 X51.308 Y17.385 F18000
G1 E0.0000 F3600
G92 E0.0000
G1 X54.705 Y13.988 E0.2704 F1800
G1 X145.295 Y13.988 E5.3684
G1 X148.692 Y17.385 E5.6388
G1 X148.691 Y165.519 E13.9752
G1 X148.676 Y165.814 E13.9919
G1 X148.497 Y167.557 E14.0905
G1 X148.466 Y167.777 E14.1030
G1 X148.291 Y168.750 E14.1586
G1 X148.247 Y168.953 E14.1703
G1 X148.004 Y169.904 E14.2255
G1 X147.946 Y170.102 E14.2372
G1 X147.636 Y171.034 E14.2924
G1 X147.563 Y171.228 E14.3041
G1 X147.188 Y172.135 E14.3593
G1 X147.102 Y172.323 E14.3710
G1 X146.662 Y173.201 E14.4262
G1 X146.563 Y173.382 E14.4378
G1 X146.062 Y174.227 E14.4931
G1 X145.950 Y174.401 E14.5047
G1 X145.391 Y175.207 E14.5600
G1 X145.267 Y175.373 E14.5716
G1 X144.651 Y176.137 E14.6269
G1 X144.515 Y176.294 E14.6385
G1 X143.846 Y177.012 E14.6938
G1 X143.700 Y177.159 E14.7054
G1 X142.981 Y177.827 E14.7606
G1 X142.825 Y177.963 E14.7723
G1 X142.060 Y178.579 E14.8276
G1 X141.895 Y178.703 E14.8392
G1 X141.089 Y179.263 E14.8944
G1 X140.914 Y179.375 E14.9061
G1 X140.070 Y179.876 E14.9613
G1 X139.888 Y179.975 E14.9730
G1 X139.011 Y180.414 E15.0282
G1 X138.822 Y180.500 E15.0399
G1 X137.915 Y180.876 E15.0951
G1 X137.721 Y180.948 E15.1068
G1 X136.790 Y181.258 E15.1620
G1 X136.591 Y181.317 E15.1737
G1 X135.640 Y181.559 E15.2289
G1 X135.438 Y181.603 E15.2405
G1 X134.460 Y181.780 E15.2965
G1 X134.231 Y181.812 E15.3095
G1 X132.424 Y181.991 E15.4117
G1 X132.138 Y182.005 E15.4278
G1 X67.793 Y182.003 E19.0489
G1 X67.498 Y181.988 E19.0655
G1 X65.755 Y181.810 E19.1641
G1 X65.535 Y181.779 E19.1766
G1 X64.562 Y181.603 E19.2322
G1 X64.359 Y181.559 E19.2439
G1 X63.409 Y181.317 E19.2991
G1 X63.210 Y181.258 E19.3108
G1 X62.279 Y180.948 E19.3660
G1 X62.085 Y180.876 E19.3777
G1 X61.178 Y180.500 E19.4329
G1 X60.989 Y180.414 E19.4446
G1 X60.112 Y179.975 E19.4998
G1 X59.930 Y179.876 E19.5115
G1 X59.086 Y179.375 E19.5667
G1 X58.911 Y179.263 E19.5784
G1 X58.105 Y178.703 E19.6336
G1 X57.940 Y178.579 E19.6452
G1 X57.175 Y177.963 E19.7005
G1 X57.019 Y177.827 E19.7121
G1 X56.300 Y177.159 E19.7674
G1 X56.154 Y177.012 E19.7790
G1 X55.485 Y176.294 E19.8343
G1 X55.349 Y176.137 E19.8459
G1 X54.733 Y175.373 E19.9012
G1 X54.609 Y175.207 E19.9128
G1 X54.050 Y174.401 E19.9681
G1 X53.938 Y174.227 E19.9797
G1 X53.437 Y173.382 E20.0350
G1 X53.338 Y173.201 E20.0466
G1 X52.898 Y172.323 E20.1018
G1 X52.812 Y172.135 E20.1135
G1 X52.437 Y171.228 E20.1687
G1 X52.364 Y171.034 E20.1804
G1 X52.054 Y170.102 E20.2356
G1 X51.996 Y169.904 E20.2473
G1 X51.753 Y168.953 E20.3025
G1 X51.709 Y168.750 E20.3142
G1 X51.533 Y167.773 E20.3701
G1 X51.501 Y167.544 E20.3831
G1 X51.322 Y165.737 E20.4853
G1 X51.308 Y165.451 E20.5014
G1 X51.308 Y17.385 E28.8340
G1 X52.028 Y17.683 F18000
G92 E0.0000
G1 X55.004 Y14.707 E0.2368 F1800
G1 X144.996 Y14.707 E5.3013
G1 X147.972 Y17.683 E5.5381
G1 X147.971 Y165.501 E13.8567
G1 X147.958 Y165.759 E13.8713
G1 X147.783 Y167.470 E13.9681
G1 X147.755 Y167.663 E13.9790
G1 X147.585 Y168.610 E14.0332
G1 X147.546 Y168.787 E14.0434
G1 X147.310 Y169.713 E14.0972
G1 X147.259 Y169.887 E14.1074
G1 X146.957 Y170.794 E14.1612
G1 X146.893 Y170.964 E14.1714
G1 X146.527 Y171.848 E14.2252
G1 X146.452 Y172.012 E14.2354
G1 X146.024 Y172.867 E14.2892
G1 X145.937 Y173.026 E14.2994
G1 X145.450 Y173.848 E14.3532
G1 X145.352 Y174.001 E14.3634
G1 X144.807 Y174.786 E14.4172
G1 X144.698 Y174.931 E14.4274
G1 X144.098 Y175.675 E14.4812
G1 X143.979 Y175.813 E14.4914
G1 X143.328 Y176.512 E14.5452
G1 X143.200 Y176.640 E14.5554
G1 X142.500 Y177.292 E14.6092
G1 X142.363 Y177.410 E14.6194
G1 X141.619 Y178.010 E14.6732
G1 X141.473 Y178.119 E14.6834
G1 X140.688 Y178.664 E14.7372
G1 X140.536 Y178.762 E14.7474
G1 X139.714 Y179.250 E14.8012
G1 X139.554 Y179.337 E14.8114
G1 X138.700 Y179.765 E14.8652
G1 X138.535 Y179.840 E14.8754
G1 X137.652 Y180.206 E14.9292
G1 X137.482 Y180.269 E14.9394
G1 X136.575 Y180.571 E14.9932
G1 X136.401 Y180.622 E15.0034
G1 X135.475 Y180.859 E15.0572
G1 X135.298 Y180.897 E15.0674
G1 X134.347 Y181.069 E15.1217
G1 X134.146 Y181.097 E15.1331
G1 X132.371 Y181.272 E15.2335
G1 X132.120 Y181.285 E15.2476
G1 X67.812 Y181.283 E18.8667
G1 X67.553 Y181.270 E18.8812
G1 X65.842 Y181.095 E18.9780
G1 X65.649 Y181.068 E18.9890
G1 X64.702 Y180.897 E19.0432
G1 X64.525 Y180.859 E19.0534
G1 X63.599 Y180.622 E19.1072
G1 X63.425 Y180.571 E19.1174
G1 X62.518 Y180.269 E19.1711
G1 X62.348 Y180.206 E19.1813
G1 X61.465 Y179.840 E19.2351
G1 X61.300 Y179.765 E19.2453
G1 X60.446 Y179.337 E19.2991
G1 X60.286 Y179.250 E19.3093
G1 X59.464 Y178.762 E19.3631
G1 X59.312 Y178.664 E19.3734
G1 X58.526 Y178.119 E19.4271
G1 X58.381 Y178.010 E19.4373
G1 X57.637 Y177.411 E19.4911
G1 X57.500 Y177.292 E19.5013
G1 X56.800 Y176.640 E19.5551
G1 X56.672 Y176.512 E19.5653
G1 X56.021 Y175.813 E19.6191
G1 X55.902 Y175.675 E19.6293
G1 X55.302 Y174.931 E19.6831
G1 X55.193 Y174.786 E19.6933
G1 X54.648 Y174.001 E19.7471
G1 X54.550 Y173.848 E19.7573
G1 X54.063 Y173.026 E19.8111
G1 X53.976 Y172.867 E19.8213
G1 X53.548 Y172.012 E19.8751
G1 X53.473 Y171.847 E19.8853
G1 X53.107 Y170.964 E19.9391
G1 X53.043 Y170.794 E19.9493
G1 X52.741 Y169.887 E20.0031
G1 X52.690 Y169.713 E20.0133
G1 X52.454 Y168.787 E20.0671
G1 X52.415 Y168.610 E20.0773
G1 X52.244 Y167.659 E20.1317
G1 X52.216 Y167.458 E20.1431
G1 X52.040 Y165.683 E20.2435
G1 X52.028 Y165.433 E20.2576
G1 X52.028 Y17.683 E28.5724
G1 X52.748 Y17.982 F18000
G92 E0.0000
G1 X55.302 Y15.428 E0.2033 F1800
G1 X144.698 Y15.428 E5.2342
G1 X147.252 Y17.982 E5.4374
G1 X147.251 Y165.482 E13.7382
G1 X147.239 Y165.704 E13.7507
G1 X147.068 Y167.383 E13.8457
G1 X147.044 Y167.549 E13.8551
G1 X146.878 Y168.469 E13.9077
G1 X146.845 Y168.622 E13.9165
G1 X146.615 Y169.523 E13.9688
G1 X146.571 Y169.672 E13.9776
G1 X146.278 Y170.555 E14.0299
G1 X146.223 Y170.701 E14.0387
G1 X145.867 Y171.560 E14.0911
G1 X145.803 Y171.702 E14.0998
G1 X145.386 Y172.533 E14.1522
G1 X145.312 Y172.670 E14.1609
G1 X144.837 Y173.470 E14.2133
G1 X144.753 Y173.601 E14.2220
G1 X144.222 Y174.365 E14.2744
G1 X144.129 Y174.489 E14.2831
G1 X143.545 Y175.214 E14.3355
G1 X143.443 Y175.331 E14.3442
G1 X142.810 Y176.012 E14.3966
G1 X142.700 Y176.122 E14.4053
G1 X142.019 Y176.756 E14.4577
G1 X141.901 Y176.858 E14.4664
G1 X141.177 Y177.442 E14.5188
G1 X141.052 Y177.535 E14.5276
G1 X140.288 Y178.065 E14.5799
G1 X140.157 Y178.149 E14.5887
G1 X139.357 Y178.624 E14.6410
G1 X139.221 Y178.699 E14.6498
G1 X138.389 Y179.115 E14.7021
G1 X138.247 Y179.180 E14.7109
G1 X137.388 Y179.536 E14.7632
G1 X137.242 Y179.590 E14.7720
G1 X136.360 Y179.884 E14.8243
G1 X136.210 Y179.928 E14.8331
G1 X135.309 Y180.158 E14.8854
G1 X135.157 Y180.191 E14.8942
G1 X134.233 Y180.358 E14.9470
G1 X134.061 Y180.382 E14.9568
G1 X132.318 Y180.554 E15.0554
G1 X132.103 Y180.565 E15.0675
G1 X67.830 Y180.563 E18.6845
G1 X67.608 Y180.552 E18.6970
G1 X65.929 Y180.380 E18.7920
G1 X65.764 Y180.357 E18.8014
G1 X64.843 Y180.191 E18.8541
G1 X64.691 Y180.158 E18.8628
G1 X63.790 Y179.928 E18.9152
G1 X63.640 Y179.884 E18.9239
G1 X62.758 Y179.590 E18.9763
G1 X62.612 Y179.536 E18.9850
G1 X61.753 Y179.180 E19.0374
G1 X61.611 Y179.115 E19.0461
G1 X60.779 Y178.699 E19.0985
G1 X60.643 Y178.624 E19.1072
G1 X59.843 Y178.149 E19.1596
G1 X59.712 Y178.065 E19.1683
G1 X58.948 Y177.535 E19.2207
G1 X58.823 Y177.442 E19.2294
G1 X58.099 Y176.858 E19.2818
G1 X57.981 Y176.756 E19.2905
G1 X57.300 Y176.122 E19.3429
G1 X57.190 Y176.012 E19.3517
G1 X56.556 Y175.331 E19.4040
G1 X56.455 Y175.214 E19.4128
G1 X55.871 Y174.489 E19.4651
G1 X55.778 Y174.365 E19.4739
G1 X55.247 Y173.601 E19.5262
G1 X55.163 Y173.470 E19.5350
G1 X54.688 Y172.670 E19.5873
G1 X54.614 Y172.533 E19.5961
G1 X54.197 Y171.702 E19.6484
G1 X54.133 Y171.560 E19.6572
G1 X53.777 Y170.701 E19.7095
G1 X53.722 Y170.555 E19.7183
G1 X53.429 Y169.672 E19.7706
G1 X53.385 Y169.523 E19.7794
G1 X53.155 Y168.622 E19.8317
G1 X53.122 Y168.469 E19.8405
G1 X52.955 Y167.545 E19.8933
G1 X52.931 Y167.373 E19.9031
G1 X52.758 Y165.630 E20.0017
G1 X52.748 Y165.415 E20.0138
G1 X52.748 Y17.982 E28.3108
G92 E0.0000
G1 E-3.0000 F3600
; feature inner perimeter
G1 X57.468 Y20.148 F18000
G1 X57.468 Y20.949
G1 X59.628 Y22.308
G1 E0.0000 F3600
G92 E0.0000
G1 X140.372 Y22.308 E4.5440 F1350
G1 X140.371 Y165.243 E12.5878
G1 X140.242 Y166.504 E12.6592
G1 X140.137 Y167.083 E12.6923
G1 X139.990 Y167.658 E12.7257
G1 X139.803 Y168.223 E12.7592
G1 X139.575 Y168.772 E12.7926
G1 X139.309 Y169.304 E12.8261
G1 X139.006 Y169.815 E12.8595
G1 X138.667 Y170.303 E12.8930
G1 X138.294 Y170.766 E12.9265
G1 X137.889 Y171.201 E12.9599
G1 X137.454 Y171.606 E12.9934
G1 X136.990 Y171.979 E13.0268
G1 X136.502 Y172.318 E13.0603
G1 X135.991 Y172.622 E13.0937
G1 X135.460 Y172.888 E13.1272
G1 X134.910 Y173.115 E13.1606
G1 X134.346 Y173.303 E13.1941
G1 X133.770 Y173.450 E13.2276
G1 X133.196 Y173.554 E13.2604
G1 X131.870 Y173.685 E13.3353
G1 X68.070 Y173.683 E16.9258
G1 X66.808 Y173.554 E16.9972
G1 X66.230 Y173.450 E17.0302
G1 X65.654 Y173.303 E17.0637
G1 X65.090 Y173.115 E17.0972
G1 X64.540 Y172.888 E17.1306
G1 X64.009 Y172.622 E17.1641
G1 X63.498 Y172.318 E17.1975
G1 X63.009 Y171.979 E17.2310
G1 X62.546 Y171.606 E17.2644
G1 X62.111 Y171.201 E17.2979
G1 X61.706 Y170.766 E17.3313
G1 X61.333 Y170.303 E17.3648
G1 X60.994 Y169.815 E17.3983
G1 X60.691 Y169.303 E17.4317
G1 X60.425 Y168.772 E17.4651
G1 X60.197 Y168.223 E17.4986
G1 X60.010 Y167.658 E17.5321
G1 X59.863 Y167.083 E17.5655
G1 X59.759 Y166.509 E17.5983
G1 X59.628 Y165.183 E17.6733
G1 X59.628 Y22.508 E25.7025
G1 X59.628 Y22.308 F1350
G1 X58.908 Y21.587 F18000
G92 E0.0000
G1 X141.092 Y21.587 E4.6250 F1350
G1 X141.091 Y165.279 E12.7115
G1 X140.955 Y166.605 E12.7864
G1 X140.841 Y167.236 E12.8225
G1 X140.682 Y167.862 E12.8589
G1 X140.478 Y168.475 E12.8952
G1 X140.231 Y169.071 E12.9316
G1 X139.941 Y169.649 E12.9679
G1 X139.612 Y170.204 E13.0043
G1 X139.244 Y170.735 E13.0406
G1 X138.838 Y171.238 E13.0770
G1 X138.398 Y171.711 E13.1133
G1 X137.925 Y172.151 E13.1497
G1 X137.422 Y172.556 E13.1860
G1 X136.892 Y172.924 E13.2224
G1 X136.336 Y173.254 E13.2587
G1 X135.759 Y173.543 E13.2951
G1 X135.162 Y173.790 E13.3314
G1 X134.549 Y173.994 E13.3678
G1 X133.923 Y174.154 E13.4041
G1 X133.296 Y174.267 E13.4400
G1 X131.906 Y174.405 E13.5186
G1 X68.033 Y174.403 E17.1131
G1 X66.708 Y174.268 E17.1881
G1 X66.077 Y174.154 E17.2242
G1 X65.451 Y173.994 E17.2605
G1 X64.838 Y173.790 E17.2969
G1 X64.241 Y173.543 E17.3332
G1 X63.664 Y173.254 E17.3696
G1 X63.108 Y172.924 E17.4059
