; G-Code generated by Simplify3D(R) Version 4.1.2
; Feb 3, 2020 at 8:38:54 AM
; Settings Summary
;   processName,Process1
;   applyToModels,mockup
;   profileName,HBot (modified)
;   profileVersion,2019-10-26 23:38:43
;   baseProfile,Default
;   printMaterial,PLA
;   printQuality,Medium
;   printExtruders,
;   extruderName,Extruder 1
;   extruderToolheadNumber,0
;   extruderDiameter,0.4
;   extruderAutoWidth,1
;   extruderWidth,0.48
;   extrusionMultiplier,0.94
;   extruderUseRetract,1
;   extruderRetractionDistance,3
;   extruderExtraRestartDistance,0
;   extruderRetractionZLift,0
;   extruderRetractionSpeed,3600
;   extruderUseCoasting,1
;   extruderCoastingDistance,0.2
;   extruderUseWipe,1
;   extruderWipeDistance,5
;   primaryExtruder,0
;   layerHeight,0.2
;   topSolidLayers,3
;   bottomSolidLayers,3
;   perimeterOutlines,3
;   printPerimetersInsideOut,1
;   startPointOption,2
;   startPointOriginX,0
;   startPointOriginY,0
;   sequentialIslands,0
;   spiralVaseMode,0
;   firstLayerHeightPercentage,100
;   firstLayerWidthPercentage,150
;   firstLayerUnderspeed,0.5
;   useRaft,0
;   raftExtruder,0
;   raftTopLayers,3
;   raftBaseLayers,2
;   raftOffset,3
;   raftSeparationDistance,0.18
;   raftTopInfill,100
;   aboveRaftSpeedMultiplier,0.3
;   useSkirt,1
;   skirtExtruder,0
;   skirtLayers,1
;   skirtOutlines,3
;   skirtOffset,4
;   usePrimePillar,0
;   primePillarExtruder,999
;   primePillarWidth,12
;   primePillarLocation,7
;   primePillarSpeedMultiplier,1
;   useOozeShield,0
;   oozeShieldExtruder,999
;   oozeShieldOffset,2
;   oozeShieldOutlines,1
;   oozeShieldSidewallShape,1
;   oozeShieldSidewallAngle,30
;   oozeShieldSpeedMultiplier,1
;   infillExtruder,0
;   internalInfillPattern,Rectilinear
;   externalInfillPattern,Rectilinear
;   infillPercentage,20
;   outlineOverlapPercentage,25
;   infillExtrusionWidthPercentage,150
;   minInfillLength,5
;   infillLayerInterval,1
;   internalInfillAngles,45,-45
;   overlapInternalInfillAngles,0
;   externalInfillAngles,45,-45
;   generateSupport,1
;   supportExtruder,0
;   supportInfillPercentage,30
;   supportExtraInflation,0
;   supportBaseLayers,1
;   denseSupportExtruder,0
;   denseSupportLayers,0
;   denseSupportInfillPercentage,70
;   supportLayerInterval,1
;   supportHorizontalPartOffset,0.3
;   supportUpperSeparationLayers,1
;   supportLowerSeparationLayers,1
;   supportType,0
;   supportGridSpacing,4
;   maxOverhangAngle,25
;   supportAngles,0
;   temperatureName,Extruder 1,Heated Bed
;   temperatureNumber,0,1
;   temperatureSetpointCount,2,1
;   temperatureSetpointLayers,1,2,1
;   temperatureSetpointTemperatures,217,210,55
;   temperatureStabilizeAtStartup,1,1
;   temperatureHeatedBed,0,1
;   fanLayers,1,2,4
;   fanSpeeds,0,20,30
;   blipFanToFullPower,1
;   adjustSpeedForCooling,1
;   minSpeedLayerTime,15
;   minCoolingSpeedSlowdown,20
;   increaseFanForCooling,0
;   minFanLayerTime,45
;   maxCoolingFanSpeed,40
;   increaseFanForBridging,0
;   bridgingFanSpeed,80
;   use5D,1
;   relativeEdistances,0
;   allowEaxisZeroing,1
;   independentExtruderAxes,0
;   includeM10123,0
;   stickySupport,1
;   applyToolheadOffsets,0
;   gcodeXoffset,0
;   gcodeYoffset,0
;   gcodeZoffset,0
;   overrideMachineDefinition,1
;   machineTypeOverride,0
;   strokeXoverride,200
;   strokeYoverride,200
;   strokeZoverride,150
;   originOffsetXoverride,0
;   originOffsetYoverride,0
;   originOffsetZoverride,0
;   homeXdirOverride,-1
;   homeYdirOverride,-1
;   homeZdirOverride,-1
;   flipXoverride,1
;   flipYoverride,-1
;   flipZoverride,1
;   toolheadOffsets,0,0|0,0|0,0|0,0|0,0|0,0
;   overrideFirmwareConfiguration,1
;   firmwareTypeOverride,RepRap (Marlin/Repetier/Sprinter)
;   GPXconfigOverride,r2
;   baudRateOverride,115200
;   overridePrinterModels,0
;   printerModelsOverride
;   startingGcode,G28 ; home all axes,G32 ; run bed.g -- probe bed and enable compensation
;   layerChangeGcode,
;   retractionGcode,
;   toolChangeGcode,
;   endingGcode,M0 ; call stop.g
;   exportFileFormat,gcode
;   celebration,0
;   celebrationSong,Random Song
;   postProcessing,
;   defaultSpeed,3600
;   outlineUnderspeed,0.5
;   solidInfillUnderspeed,0.8
;   supportUnderspeed,0.8
;   rapidXYspeed,18000
;   rapidZspeed,1200
;   minBridgingArea,50
;   bridgingExtraInflation,0
;   bridgingExtrusionMultiplier,0.96
;   bridgingSpeedMultiplier,1
;   useFixedBridgingAngle,0
;   fixedBridgingAngle,0
;   applyBridgingToPerimeters,0
;   filamentDiameters,1.75|1.75|1.75|1.75|1.75|1.75
;   filamentPricesPerKg,46|46|46|46|46|46
;   filamentDensities,1.25|1.25|1.25|1.25|1.25|1.25
;   useMinPrintHeight,0
;   minPrintHeight,0
;   useMaxPrintHeight,0
;   maxPrintHeight,0
;   useDiaphragm,0
;   diaphragmLayerInterval,20
;   robustSlicing,1
;   mergeAllIntoSolid,0
;   onlyRetractWhenCrossingOutline,1
;   retractBetweenLayers,0
;   useRetractionMinTravel,1
;   retractionMinTravel,3
;   retractWhileWiping,1
;   onlyWipeOutlines,1
;   avoidCrossingOutline,1
;   maxMovementDetourFactor,3
;   toolChangeRetractionDistance,12
;   toolChangeExtraRestartDistance,-0.5
;   toolChangeRetractionSpeed,600
;   externalThinWallType,1
;   internalThinWallType,1
;   thinWallAllowedOverlapPercentage,10
;   singleExtrusionMinLength,1
;   singleExtrusionMinPrintingWidthPercentage,50
;   singleExtrusionMaxPrintingWidthPercentage,200
;   singleExtrusionEndpointExtension,0.2
;   horizontalSizeCompensation,-0.1
G90
M82
M106 S0
M140 S55
M190 S55
M104 S217 T0
M109 S217 T0
G28 ; home all axes
G32 ; run bed.g -- probe bed and enable compensation
; process Process1
; layer 1, Z = 0.200
T0
G92 E0.0000
G1 E-3.0000 F3600
; feature skirt
; tool H0.200 W0.720
G1 Z0.200 F1200
G1 X49.786 Y17.698 F18000
G1 E0.0000 F3600
G92 E0.0000
G1 X53.184 Y14.300 E0.2704 F1800
G1 X146.816 Y14.300 E5.5397
G1 X150.214 Y17.698 E5.8101
G1 X150.214 Y167.639 E14.2482
G1 X150.200 Y167.924 E14.2643
G1 X150.015 Y169.796 E14.3702
G1 X149.973 Y170.077 E14.3861
G1 X149.768 Y171.108 E14.4453
G1 X149.715 Y171.330 E14.4581
G1 X149.437 Y172.315 E14.5157
G1 X149.367 Y172.532 E14.5286
G1 X149.013 Y173.492 E14.5861
G1 X148.926 Y173.702 E14.5990
G1 X148.497 Y174.631 E14.6565
G1 X148.394 Y174.834 E14.6694
G1 X147.894 Y175.727 E14.7270
G1 X147.775 Y175.921 E14.7398
G1 X147.206 Y176.772 E14.7974
G1 X147.072 Y176.957 E14.8102
G1 X146.439 Y177.760 E14.8678
G1 X146.291 Y177.934 E14.8806
G1 X145.596 Y178.685 E14.9382
G1 X145.435 Y178.846 E14.9510
G1 X144.684 Y179.541 E15.0086
G1 X144.510 Y179.689 E15.0214
G1 X143.707 Y180.322 E15.0790
G1 X143.522 Y180.456 E15.0918
G1 X142.671 Y181.025 E15.1494
G1 X142.477 Y181.144 E15.1622
G1 X141.584 Y181.644 E15.2198
G1 X141.381 Y181.747 E15.2327
G1 X140.452 Y182.176 E15.2902
G1 X140.242 Y182.263 E15.3031
G1 X139.282 Y182.617 E15.3606
G1 X139.065 Y182.687 E15.3735
G1 X138.080 Y182.965 E15.4311
G1 X137.858 Y183.018 E15.4439
G1 X136.835 Y183.222 E15.5026
G1 X136.569 Y183.262 E15.5177
G1 X134.816 Y183.444 E15.6169
G1 X134.516 Y183.460 E15.6338
G1 X65.612 Y183.464 E19.5115
G1 X65.326 Y183.450 E19.5276
G1 X63.454 Y183.265 E19.6335
G1 X63.173 Y183.223 E19.6495
G1 X62.142 Y183.018 E19.7086
G1 X61.920 Y182.965 E19.7215
G1 X60.935 Y182.687 E19.7790
G1 X60.718 Y182.617 E19.7919
G1 X59.758 Y182.263 E19.8495
G1 X59.548 Y182.176 E19.8623
G1 X58.619 Y181.747 E19.9199
G1 X58.416 Y181.644 E19.9327
G1 X57.523 Y181.144 E19.9903
G1 X57.329 Y181.025 E20.0031
G1 X56.478 Y180.456 E20.0607
G1 X56.293 Y180.322 E20.0735
G1 X55.490 Y179.689 E20.1311
G1 X55.316 Y179.541 E20.1439
G1 X54.565 Y178.846 E20.2015
G1 X54.404 Y178.685 E20.2143
G1 X53.709 Y177.934 E20.2719
G1 X53.561 Y177.760 E20.2847
G1 X52.928 Y176.957 E20.3423
G1 X52.794 Y176.772 E20.3551
G1 X52.225 Y175.921 E20.4127
G1 X52.106 Y175.727 E20.4255
G1 X51.606 Y174.834 E20.4831
G1 X51.503 Y174.631 E20.4960
G1 X51.074 Y173.702 E20.5535
G1 X50.987 Y173.492 E20.5664
G1 X50.633 Y172.532 E20.6240
G1 X50.563 Y172.315 E20.6368
G1 X50.285 Y171.330 E20.6944
G1 X50.232 Y171.108 E20.7072
G1 X50.028 Y170.085 E20.7659
G1 X49.988 Y169.819 E20.7810
G1 X49.806 Y168.066 E20.8802
G1 X49.790 Y167.766 E20.8971
G1 X49.786 Y17.698 E29.3424
G1 X50.506 Y17.996 F18000
G92 E0.0000
G1 X53.482 Y15.020 E0.2368 F1800
G1 X146.518 Y15.020 E5.4726
G1 X149.494 Y17.996 E5.7094
G1 X149.494 Y167.621 E14.1297
G1 X149.482 Y167.871 E14.1438
G1 X149.300 Y169.708 E14.2477
G1 X149.264 Y169.954 E14.2617
G1 X149.065 Y170.954 E14.3191
G1 X149.018 Y171.148 E14.3303
G1 X148.748 Y172.106 E14.3863
G1 X148.687 Y172.296 E14.3975
G1 X148.342 Y173.229 E14.4535
G1 X148.266 Y173.413 E14.4648
G1 X147.849 Y174.317 E14.5208
G1 X147.759 Y174.495 E14.5320
G1 X147.272 Y175.363 E14.5880
G1 X147.168 Y175.533 E14.5992
G1 X146.615 Y176.361 E14.6552
G1 X146.498 Y176.522 E14.6665
G1 X145.882 Y177.304 E14.7224
G1 X145.752 Y177.455 E14.7337
G1 X145.077 Y178.186 E14.7897
G1 X144.936 Y178.327 E14.8009
G1 X144.205 Y179.002 E14.8569
G1 X144.053 Y179.132 E14.8681
G1 X143.272 Y179.748 E14.9241
G1 X143.111 Y179.865 E14.9353
G1 X142.283 Y180.418 E14.9914
G1 X142.113 Y180.522 E15.0026
G1 X141.245 Y181.009 E15.0586
G1 X141.067 Y181.099 E15.0698
G1 X140.163 Y181.516 E15.1258
G1 X139.979 Y181.592 E15.1370
G1 X139.046 Y181.937 E15.1930
G1 X138.856 Y181.998 E15.2043
G1 X137.898 Y182.268 E15.2603
G1 X137.704 Y182.315 E15.2715
G1 X136.711 Y182.513 E15.3285
G1 X136.478 Y182.548 E15.3417
G1 X134.760 Y182.726 E15.4389
G1 X134.498 Y182.740 E15.4537
G1 X65.629 Y182.744 E19.3294
G1 X65.379 Y182.732 E19.3434
G1 X63.542 Y182.550 E19.4473
G1 X63.296 Y182.514 E19.4613
G1 X62.296 Y182.315 E19.5187
G1 X62.102 Y182.268 E19.5300
G1 X61.144 Y181.998 E19.5860
G1 X60.954 Y181.937 E19.5972
G1 X60.021 Y181.592 E19.6532
G1 X59.836 Y181.516 E19.6644
G1 X58.933 Y181.099 E19.7204
G1 X58.755 Y181.009 E19.7316
G1 X57.887 Y180.522 E19.7876
G1 X57.717 Y180.418 E19.7989
G1 X56.889 Y179.865 E19.8549
G1 X56.728 Y179.748 E19.8661
G1 X55.947 Y179.132 E19.9221
G1 X55.795 Y179.002 E19.9333
G1 X55.064 Y178.327 E19.9893
G1 X54.923 Y178.186 E20.0006
G1 X54.248 Y177.455 E20.0566
G1 X54.118 Y177.303 E20.0678
G1 X53.502 Y176.522 E20.1238
G1 X53.385 Y176.361 E20.1350
G1 X52.832 Y175.533 E20.1910
G1 X52.728 Y175.363 E20.2022
G1 X52.241 Y174.495 E20.2582
G1 X52.151 Y174.317 E20.2695
G1 X51.734 Y173.414 E20.3255
G1 X51.658 Y173.229 E20.3367
G1 X51.313 Y172.296 E20.3927
G1 X51.252 Y172.106 E20.4039
G1 X50.982 Y171.148 E20.4599
G1 X50.935 Y170.954 E20.4711
G1 X50.737 Y169.961 E20.5281
G1 X50.702 Y169.728 E20.5414
G1 X50.524 Y168.010 E20.6386
G1 X50.510 Y167.747 E20.6534
G1 X50.506 Y17.996 E29.0808
G1 X51.226 Y18.294 F18000
G92 E0.0000
G1 X53.780 Y15.740 E0.2033 F1800
G1 X146.220 Y15.740 E5.4054
G1 X148.774 Y18.294 E5.6087
G1 X148.774 Y167.603 E14.0113
G1 X148.763 Y167.818 E14.0233
G1 X148.586 Y169.620 E14.1252
G1 X148.554 Y169.831 E14.1372
G1 X148.361 Y170.800 E14.1928
G1 X148.322 Y170.966 E14.2025
G1 X148.059 Y171.897 E14.2569
G1 X148.006 Y172.060 E14.2665
G1 X147.671 Y172.967 E14.3209
G1 X147.606 Y173.125 E14.3306
G1 X147.201 Y174.003 E14.3850
G1 X147.124 Y174.155 E14.3946
G1 X146.651 Y174.999 E14.4490
G1 X146.562 Y175.145 E14.4587
G1 X146.024 Y175.949 E14.5131
G1 X145.924 Y176.087 E14.5227
G1 X145.325 Y176.847 E14.5771
G1 X145.214 Y176.977 E14.5867
G1 X144.558 Y177.687 E14.6412
G1 X144.437 Y177.808 E14.6508
G1 X143.727 Y178.464 E14.7052
G1 X143.597 Y178.575 E14.7148
G1 X142.837 Y179.174 E14.7692
G1 X142.699 Y179.274 E14.7789
G1 X141.895 Y179.812 E14.8333
G1 X141.749 Y179.901 E14.8429
G1 X140.905 Y180.374 E14.8973
G1 X140.753 Y180.451 E14.9070
G1 X139.875 Y180.856 E14.9614
G1 X139.717 Y180.922 E14.9710
G1 X138.810 Y181.256 E15.0254
G1 X138.647 Y181.309 E15.0351
G1 X137.716 Y181.571 E15.0895
G1 X137.550 Y181.611 E15.0991
G1 X136.587 Y181.803 E15.1544
G1 X136.387 Y181.833 E15.1657
G1 X134.704 Y182.008 E15.2609
G1 X134.479 Y182.020 E15.2736
G1 X65.647 Y182.024 E19.1472
G1 X65.433 Y182.013 E19.1593
G1 X63.630 Y181.836 E19.2612
G1 X63.419 Y181.804 E19.2732
G1 X62.450 Y181.611 E19.3288
G1 X62.284 Y181.571 E19.3385
G1 X61.353 Y181.309 E19.3929
G1 X61.190 Y181.256 E19.4025
G1 X60.283 Y180.922 E19.4569
G1 X60.125 Y180.856 E19.4666
G1 X59.247 Y180.451 E19.5210
G1 X59.095 Y180.374 E19.5306
G1 X58.251 Y179.901 E19.5850
G1 X58.105 Y179.812 E19.5947
G1 X57.301 Y179.274 E19.6491
G1 X57.163 Y179.174 E19.6587
G1 X56.403 Y178.575 E19.7131
G1 X56.273 Y178.464 E19.7227
G1 X55.563 Y177.808 E19.7771
G1 X55.442 Y177.687 E19.7868
G1 X54.786 Y176.977 E19.8412
G1 X54.675 Y176.847 E19.8508
G1 X54.076 Y176.087 E19.9052
G1 X53.976 Y175.949 E19.9149
G1 X53.438 Y175.145 E19.9693
G1 X53.349 Y174.999 E19.9789
G1 X52.876 Y174.155 E20.0333
G1 X52.799 Y174.003 E20.0430
G1 X52.394 Y173.125 E20.0974
G1 X52.328 Y172.967 E20.1070
G1 X51.994 Y172.060 E20.1614
G1 X51.941 Y171.897 E20.1710
G1 X51.678 Y170.966 E20.2255
G1 X51.639 Y170.800 E20.2351
G1 X51.447 Y169.837 E20.2904
G1 X51.417 Y169.637 E20.3017
G1 X51.242 Y167.954 E20.3969
G1 X51.230 Y167.729 E20.4096
G1 X51.226 Y18.294 E28.8192
G92 E0.0000
G1 E-3.0000 F3600
; feature outer perimeter
G1 X55.946 Y20.460 F18000
G1 E0.0000 F3600
G92 E0.0000
G1 X144.054 Y20.460 E4.9584 F900
G1 X144.054 Y21.840 E5.0360
G1 X55.946 Y21.840 E9.9944
G1 X55.946 Y20.660 E10.0608
G1 X55.946 Y20.460 F900
G1 X60.946 Y20.460 F900
; feature inner perimeter
G1 X60.642 Y21.840 F18000
G1 X56.540 Y21.840
G1 X56.540 Y35.160
G1 X57.704 Y35.160
G1 X57.386 Y36.600
G92 E0.0000
G1 X93.100 Y36.600 E2.0098 F1350
G1 X93.100 Y39.731 E2.1860
G1 X93.114 Y40.151 E2.2097
G1 X93.158 Y40.601 E2.2351
G1 X93.232 Y41.046 E2.2605
G1 X93.334 Y41.486 E2.2859
G1 X93.465 Y41.918 E2.3113
G1 X93.624 Y42.341 E2.3368
G1 X93.811 Y42.752 E2.3622
G1 X94.023 Y43.150 E2.3876
G1 X94.262 Y43.534 E2.4130
G1 X94.525 Y43.901 E2.4384
G1 X94.812 Y44.250 E2.4638
G1 X95.120 Y44.580 E2.4892
G1 X95.450 Y44.888 E2.5146
G1 X95.799 Y45.175 E2.5401
G1 X96.166 Y45.438 E2.5655
G1 X96.549 Y45.676 E2.5909
G1 X96.948 Y45.889 E2.6163
G1 X97.359 Y46.076 E2.6417
G1 X97.782 Y46.235 E2.6671
G1 X98.214 Y46.366 E2.6925
G1 X98.654 Y46.468 E2.7180
G1 X99.099 Y46.542 E2.7434
G1 X99.549 Y46.586 E2.7688
G1 X100.000 Y46.601 E2.7942
G1 X100.451 Y46.586 E2.8196
G1 X100.901 Y46.542 E2.8450
G1 X101.346 Y46.468 E2.8704
G1 X101.786 Y46.366 E2.8959
G1 X102.218 Y46.235 E2.9213
G1 X102.641 Y46.076 E2.9467
G1 X103.052 Y45.889 E2.9721
G1 X103.451 Y45.676 E2.9975
G1 X103.834 Y45.438 E3.0229
G1 X104.201 Y45.175 E3.0483
G1 X104.550 Y44.888 E3.0738
G1 X104.880 Y44.580 E3.0992
G1 X105.188 Y44.250 E3.1246
G1 X105.475 Y43.901 E3.1500
G1 X105.738 Y43.534 E3.1754
G1 X105.977 Y43.150 E3.2008
G1 X106.189 Y42.752 E3.2262
G1 X106.376 Y42.341 E3.2517
G1 X106.535 Y41.918 E3.2771
G1 X106.666 Y41.486 E3.3025
G1 X106.768 Y41.046 E3.3279
G1 X106.842 Y40.601 E3.3533
G1 X106.886 Y40.151 E3.3787
G1 X106.900 Y39.731 E3.4024
G1 X106.900 Y36.600 E3.5786
G1 X142.614 Y36.600 E5.5884
G1 X142.614 Y167.425 E12.9508
G1 X142.559 Y168.116 E12.9898
G1 X142.478 Y168.803 E13.0287
G1 X142.350 Y169.445 E13.0655
G1 X142.173 Y170.074 E13.1023
G1 X142.083 Y170.317 E13.1169
G1 X141.946 Y170.688 E13.1391
G1 X141.673 Y171.282 E13.1760
G1 X141.353 Y171.853 E13.2128
G1 X140.989 Y172.397 E13.2496
G1 X140.585 Y172.910 E13.2864
G1 X140.141 Y173.391 E13.3232
G1 X139.660 Y173.834 E13.3600
G1 X139.146 Y174.240 E13.3968
G1 X138.603 Y174.603 E13.4336
G1 X138.032 Y174.923 E13.4704
G1 X137.797 Y175.031 E13.4850
G1 X137.438 Y175.196 E13.5072
G1 X136.824 Y175.423 E13.5441
G1 X136.195 Y175.600 E13.5809
G1 X135.553 Y175.728 E13.6177
G1 X134.894 Y175.806 E13.6550
G1 X134.539 Y175.823 E13.6750
G1 X134.252 Y175.860 E13.6913
G1 X65.825 Y175.864 E17.5421
G1 X65.134 Y175.809 E17.5812
G1 X64.447 Y175.728 E17.6201
G1 X63.805 Y175.600 E17.6569
G1 X63.176 Y175.423 E17.6937
G1 X62.562 Y175.196 E17.7305
G1 X61.968 Y174.923 E17.7673
G1 X61.397 Y174.603 E17.8041
G1 X61.182 Y174.459 E17.8187
G1 X60.854 Y174.240 E17.8409
G1 X60.340 Y173.835 E17.8778
G1 X59.859 Y173.391 E17.9146
G1 X59.415 Y172.910 E17.9514
G1 X59.011 Y172.397 E17.9882
G1 X58.867 Y172.181 E18.0028
G1 X58.647 Y171.853 E18.0250
G1 X58.327 Y171.282 E18.0618
G1 X58.054 Y170.688 E18.0986
G1 X57.827 Y170.074 E18.1354
