; G-Code generated by Simplify3D(R) Version 4.1.2
; Dec 28, 2021 at 7:00:04 PM
; Settings Summary
;   processName,Process1
;   applyToModels,belt-clamp
;   profileName,HSBot (modified)
;   profileVersion,2019-11-09 11:59:44
;   baseProfile,Default
;   printMaterial,PETG - Eryone
;   printQuality,Medium
;   printExtruders,
;   extruderName,Extruder 1,Extruder - Lite
;   extruderToolheadNumber,0,1
;   extruderDiameter,0.4,0.4
;   extruderAutoWidth,1,1
;   extruderWidth,0.48,0.48
;   extrusionMultiplier,1.03,0.93
;   extruderUseRetract,1,1
;   extruderRetractionDistance,3,1
;   extruderExtraRestartDistance,0,0
;   extruderRetractionZLift,0,0
;   extruderRetractionSpeed,3600,1800
;   extruderUseCoasting,1,0
;   extruderCoastingDistance,0.2,0.2
;   extruderUseWipe,1,0
;   extruderWipeDistance,5,5
;   primaryExtruder,0
;   layerHeight,0.2
;   topSolidLayers,4
;   bottomSolidLayers,4
;   perimeterOutlines,3
;   printPerimetersInsideOut,1
;   startPointOption,2
;   startPointOriginX,0
;   startPointOriginY,0
;   sequentialIslands,0
;   spiralVaseMode,0
;   firstLayerHeightPercentage,150
;   firstLayerWidthPercentage,150
;   firstLayerUnderspeed,0.3
;   useRaft,0
;   raftExtruder,0
;   raftTopLayers,3
;   raftBaseLayers,2
;   raftOffset,3
;   raftSeparationDistance,0.18
;   raftTopInfill,100
;   aboveRaftSpeedMultiplier,0.3
;   useSkirt,1
;   skirtExtruder,0
;   skirtLayers,1
;   skirtOutlines,10
;   skirtOffset,0
;   usePrimePillar,0
;   primePillarExtruder,999
;   primePillarWidth,12
;   primePillarLocation,7
;   primePillarSpeedMultiplier,1
;   useOozeShield,0
;   oozeShieldExtruder,999
;   oozeShieldOffset,2
;   oozeShieldOutlines,1
;   oozeShieldSidewallShape,1
;   oozeShieldSidewallAngle,30
;   oozeShieldSpeedMultiplier,1
;   infillExtruder,0
;   internalInfillPattern,Fast Honeycomb
;   externalInfillPattern,Rectilinear
;   infillPercentage,20
;   outlineOverlapPercentage,15
;   infillExtrusionWidthPercentage,150
;   minInfillLength,5
;   infillLayerInterval,1
;   internalInfillAngles,0
;   overlapInternalInfillAngles,0
;   externalInfillAngles,45,-45
;   generateSupport,0
;   supportExtruder,0
;   supportInfillPercentage,30
;   supportExtraInflation,0
;   supportBaseLayers,1
;   denseSupportExtruder,0
;   denseSupportLayers,0
;   denseSupportInfillPercentage,70
;   supportLayerInterval,1
;   supportHorizontalPartOffset,0.3
;   supportUpperSeparationLayers,1
;   supportLowerSeparationLayers,1
;   supportType,0
;   supportGridSpacing,4
;   maxOverhangAngle,45
;   supportAngles,0
;   temperatureName,Extruder 1,Bed
;   temperatureNumber,0,0
;   temperatureSetpointCount,1,1
;   temperatureSetpointLayers,1,1
;   temperatureSetpointTemperatures,225,85
;   temperatureStabilizeAtStartup,1,1
;   temperatureHeatedBed,0,1
;   fanLayers,1,2,3
;   fanSpeeds,0,15,25
;   blipFanToFullPower,1
;   adjustSpeedForCooling,1
;   minSpeedLayerTime,15
;   minCoolingSpeedSlowdown,20
;   increaseFanForCooling,0
;   minFanLayerTime,45
;   maxCoolingFanSpeed,40
;   increaseFanForBridging,0
;   bridgingFanSpeed,80
;   use5D,1
;   relativeEdistances,0
;   allowEaxisZeroing,1
;   independentExtruderAxes,0
;   includeM10123,0
;   stickySupport,1
;   applyToolheadOffsets,0
;   gcodeXoffset,0
;   gcodeYoffset,0
;   gcodeZoffset,0
;   overrideMachineDefinition,1
;   machineTypeOverride,0
;   strokeXoverride,200
;   strokeYoverride,200
;   strokeZoverride,150
;   originOffsetXoverride,0
;   originOffsetYoverride,0
;   originOffsetZoverride,0
;   homeXdirOverride,-1
;   homeYdirOverride,-1
;   homeZdirOverride,-1
;   flipXoverride,1
;   flipYoverride,-1
;   flipZoverride,1
;   toolheadOffsets,0,0|0,0|0,0|0,0|0,0|0,0
;   overrideFirmwareConfiguration,0
;   firmwareTypeOverride,RepRap (Marlin/Repetier/Sprinter)
;   GPXconfigOverride,r2
;   baudRateOverride,115200
;   overridePrinterModels,0
;   printerModelsOverride
;   startingGcode,G28 ; home all axes,G32 ; run bed.g -- probe bed and enable compensation
;   layerChangeGcode,
;   retractionGcode,
;   toolChangeGcode,
;   endingGcode,M0 ; call stop.g
;   exportFileFormat,gcode
;   celebration,0
;   celebrationSong,Random Song
;   postProcessing,
;   defaultSpeed,4800
;   outlineUnderspeed,0.5
;   solidInfillUnderspeed,0.8
;   supportUnderspeed,0.8
;   rapidXYspeed,18000
;   rapidZspeed,1200
;   minBridgingArea,50
;   bridgingExtraInflation,0
;   bridgingExtrusionMultiplier,0.96
;   bridgingSpeedMultiplier,1
;   useFixedBridgingAngle,0
;   fixedBridgingAngle,0
;   applyBridgingToPerimeters,0
;   filamentDiameters,1.75|1.75|1.75|1.75|1.75|1.75
;   filamentPricesPerKg,25|46|46|46|46|46
;   filamentDensities,1.25|1.25|1.25|1.25|1.25|1.25
;   useMinPrintHeight,0
;   minPrintHeight,0
;   useMaxPrintHeight,0
;   maxPrintHeight,0
;   useDiaphragm,1
;   diaphragmLayerInterval,20
;   robustSlicing,1
;   mergeAllIntoSolid,0
;   onlyRetractWhenCrossingOutline,1
;   retractBetweenLayers,0
;   useRetractionMinTravel,1
;   retractionMinTravel,3
;   retractWhileWiping,1
;   onlyWipeOutlines,0
;   avoidCrossingOutline,1
;   maxMovementDetourFactor,3
;   toolChangeRetractionDistance,12
;   toolChangeExtraRestartDistance,-0.5
;   toolChangeRetractionSpeed,600
;   externalThinWallType,1
;   internalThinWallType,1
;   thinWallAllowedOverlapPercentage,10
;   singleExtrusionMinLength,0.1
;   singleExtrusionMinPrintingWidthPercentage,50
;   singleExtrusionMaxPrintingWidthPercentage,200
;   singleExtrusionEndpointExtension,0.2
;   horizontalSizeCompensation,0
G90
M82
M106 S0
M140 S85
M190 S85
G10 S225 R{225-50} P0
M116 P0
G28 ; home all axes
G32 ; run bed.g -- probe bed and enable compensation
; process Process1
; layer 1, Z = 0.300
T0
G92 E0.0000
G1 E-3.0000 F3600
; feature skirt
; tool H0.300 W0.720
G1 Z0.300 F1200
G1 X89.667 Y90.760 F18000
G1 E0.0000 F3600
G92 E0.0000
G1 X110.333 Y90.760 E1.9116 F560
G1 X114.340 Y94.767 E2.4357
G1 X114.340 Y105.233 E3.4038
G1 X110.333 Y109.240 E3.9279
G1 X89.667 Y109.240 E5.8395
G1 X85.660 Y105.233 E6.3636
G1 X85.660 Y94.767 E7.3317
G1 X89.667 Y90.760 E7.8559
G1 X89.965 Y91.480 F18000
G92 E0.0000
G1 X110.035 Y91.480 E1.8564 F560
G1 X113.620 Y95.065 E2.3254
G1 X113.620 Y104.935 E3.2383
G1 X110.035 Y108.520 E3.7072
G1 X89.965 Y108.520 E5.5636
G1 X86.380 Y104.935 E6.0326
G1 X86.380 Y95.065 E6.9455
G1 X89.965 Y91.480 E7.4145
G1 X90.263 Y92.200 F18000
G92 E0.0000
G1 X109.737 Y92.200 E1.8012 F560
G1 X112.900 Y95.363 E2.2150
G1 X112.900 Y104.637 E3.0728
G1 X109.737 Y107.800 E3.4866
G1 X90.263 Y107.800 E5.2878
G1 X87.100 Y104.637 E5.7016
G1 X87.100 Y95.363 E6.5593
G1 X90.263 Y92.200 E6.9731
G1 X90.561 Y92.920 F18000
G92 E0.0000
G1 X109.439 Y92.920 E1.7461 F560
G1 X112.180 Y95.661 E2.1047
G1 X112.180 Y104.338 E2.9073
G1 X109.439 Y107.080 E3.2659
G1 X90.561 Y107.080 E5.0119
G1 X87.820 Y104.338 E5.3705
G1 X87.820 Y95.661 E6.1731
G1 X90.561 Y92.920 E6.5318
G1 X90.860 Y93.640 F18000
G92 E0.0000
G1 X109.140 Y93.640 E1.6909 F560
G1 X111.460 Y95.960 E1.9943
G1 X111.460 Y104.040 E2.7418
G1 X109.140 Y106.360 E3.0452
G1 X90.860 Y106.360 E4.7361
G1 X88.540 Y104.040 E5.0395
G1 X88.540 Y95.960 E5.7869
G1 X90.860 Y93.640 E6.0904
G1 X91.158 Y94.360 F18000
G92 E0.0000
G1 X108.842 Y94.360 E1.6357 F560
G1 X110.740 Y96.258 E1.8840
G1 X110.740 Y103.742 E2.5762
G1 X108.842 Y105.640 E2.8245
G1 X91.158 Y105.640 E4.4602
G1 X89.260 Y103.742 E4.7085
G1 X89.260 Y96.258 E5.4007
G1 X91.158 Y94.360 E5.6490
G1 X91.456 Y95.080 F18000
G92 E0.0000
G1 X108.544 Y95.080 E1.5805 F560
G1 X110.020 Y96.556 E1.7736
G1 X110.020 Y103.444 E2.4107
G1 X108.544 Y104.920 E2.6038
G1 X91.456 Y104.920 E4.1844
G1 X89.980 Y103.444 E4.3775
G1 X89.980 Y96.556 E5.0146
G1 X91.456 Y95.080 E5.2077
G1 X91.754 Y95.800 F18000
G92 E0.0000
G1 X108.246 Y95.800 E1.5254 F560
G1 X109.300 Y96.854 E1.6633
G1 X109.300 Y103.146 E2.2452
G1 X108.246 Y104.200 E2.3831
G1 X91.754 Y104.200 E3.9085
G1 X90.700 Y103.146 E4.0464
G1 X90.700 Y96.854 E4.6284
G1 X91.754 Y95.800 E4.7663
G1 X92.053 Y96.520 F18000
G92 E0.0000
G1 X107.947 Y96.520 E1.4702 F560
G1 X108.580 Y97.153 E1.5530
G1 X108.580 Y102.847 E2.0797
G1 X107.947 Y103.480 E2.1625
G1 X106.053 Y103.480 E2.3377
G1 X106.000 Y103.427 E2.3446
G1 X105.947 Y103.480 E2.3515
G1 X104.053 Y103.480 E2.5267
G1 X104.000 Y103.427 E2.5336
G1 X103.947 Y103.480 E2.5405
G1 X102.053 Y103.480 E2.7158
G1 X102.000 Y103.427 E2.7227
G1 X101.947 Y103.480 E2.7295
G1 X100.053 Y103.480 E2.9048
G1 X100.000 Y103.427 E2.9117
G1 X99.947 Y103.480 E2.9186
G1 X98.053 Y103.480 E3.0938
G1 X98.000 Y103.427 E3.1007
G1 X97.947 Y103.480 E3.1076
G1 X96.053 Y103.480 E3.2828
G1 X96.000 Y103.427 E3.2897
G1 X95.947 Y103.480 E3.2966
G1 X94.053 Y103.480 E3.4719
G1 X94.000 Y103.427 E3.4788
G1 X93.947 Y103.480 E3.4856
G1 X92.053 Y103.480 E3.6609
G1 X91.420 Y102.847 E3.7437
G1 X91.420 Y97.153 E4.2704
G1 X92.053 Y96.520 E4.3532
G1 X92.351 Y97.240 F18000
G92 E0.0000
G1 X107.649 Y97.240 E1.4150 F560
G1 X107.860 Y97.451 E1.4426
G1 X107.860 Y102.549 E1.9142
G1 X107.649 Y102.760 E1.9418
G1 X106.351 Y102.760 E2.0619
G1 X106.140 Y102.549 E2.0894
G1 X106.140 Y101.960 E2.1439
G1 X105.860 Y101.960 E2.1698
G1 X105.860 Y102.549 E2.2243
G1 X105.649 Y102.760 E2.2519
G1 X104.351 Y102.760 E2.3720
G1 X104.140 Y102.549 E2.3996
G1 X104.140 Y101.960 E2.4541
G1 X103.860 Y101.960 E2.4800
G1 X103.860 Y102.549 E2.5345
G1 X103.649 Y102.760 E2.5620
G1 X102.351 Y102.760 E2.6821
G1 X102.140 Y102.549 E2.7097
G1 X102.140 Y101.960 E2.7642
G1 X101.860 Y101.960 E2.7901
G1 X101.860 Y102.549 E2.8446
G1 X101.649 Y102.760 E2.8722
G1 X100.351 Y102.760 E2.9923
G1 X100.140 Y102.549 E3.0199
G1 X100.140 Y101.960 E3.0743
G1 X99.860 Y101.960 E3.1002
G1 X99.860 Y102.549 E3.1547
G1 X99.649 Y102.760 E3.1823
G1 X98.351 Y102.760 E3.3024
G1 X98.140 Y102.549 E3.3300
G1 X98.140 Y101.960 E3.3845
G1 X97.860 Y101.960 E3.4104
G1 X97.860 Y102.549 E3.4649
G1 X97.649 Y102.760 E3.4925
G1 X96.351 Y102.760 E3.6125
G1 X96.140 Y102.549 E3.6401
G1 X96.140 Y101.960 E3.6946
G1 X95.860 Y101.960 E3.7205
G1 X95.860 Y102.549 E3.7750
G1 X95.649 Y102.760 E3.8026
G1 X94.351 Y102.760 E3.9227
G1 X94.140 Y102.549 E3.9503
G1 X94.140 Y101.960 E4.0048
G1 X93.860 Y101.960 E4.0307
G1 X93.860 Y102.549 E4.0851
G1 X93.649 Y102.760 E4.1127
G1 X92.351 Y102.760 E4.2328
G1 X92.140 Y102.549 E4.2604
G1 X92.140 Y97.451 E4.7320
G1 X92.351 Y97.240 E4.7596
; feature inner perimeter
G1 X92.860 Y97.960 F18000
G1 X92.965 Y97.960
G1 X93.580 Y98.680
G92 E0.0000
G1 X106.420 Y98.680 E1.1877 F420
G1 X106.420 Y100.520 E1.3578
G1 X93.580 Y100.520 E2.5455
G1 X93.580 Y98.880 E2.6972
G1 X93.580 Y98.680 F420
G1 X98.580 Y98.680 F420
; feature outer perimeter
G1 X92.860 Y97.960 F18000
G92 E0.0000
G1 X107.140 Y97.960 E1.3208 F280
G1 X107.140 Y101.240 E1.6242
G1 X92.860 Y101.240 E2.9451
G1 X92.860 Y98.160 E3.2300
G1 X92.860 Y97.960 F280
G92 E0.0000
G1 X93.093 Y97.960 E-3.0000 F280
G1 X97.860 Y97.960 F280
; feature external single extrusion
; tool H0.300 W0.793
G1 X97.362 Y101.240 F18000
G1 X97.140 Y101.240
G1 X97.140 Y102.040
G1 X97.245 Y102.004
G1 E0.0000 F3600
G92 E0.0000
G1 X96.955 Y102.004 E0.0500 F280
G1 X96.755 Y102.004 F280
G1 X95.245 Y102.004 F18000
G92 E0.0000
G1 X94.955 Y102.004 E0.0500 F280
G1 X94.755 Y102.004 F280
G1 X93.245 Y102.004 F18000
G92 E0.0000
G1 X92.955 Y102.004 E0.0500 F280
G1 X92.755 Y102.004 F280
G92 E0.0000
G1 E-3.0000 F3600
G1 X93.140 Y102.004 F18000
G1 X93.140 Y101.240
G1 X94.860 Y101.240
G1 X94.860 Y102.004
G1 X95.140 Y102.004
G1 X95.140 Y101.240
G1 X96.860 Y101.240
G1 X96.860 Y102.004
G1 X97.140 Y102.004
G1 X97.140 Y101.240
G1 X98.860 Y101.240
G1 X98.860 Y102.040
G1 X98.755 Y102.004
G1 E0.0000 F3600
G92 E0.0000
G1 X98.955 Y102.004 E0.0204 F280
G1 X99.045 Y102.004 E0.0296
G1 X99.245 Y102.004 F280
G1 X100.755 Y102.004 F18000
G92 E0.0000
G1 X100.955 Y102.004 E0.0204 F280
G1 X101.045 Y102.004 E0.0296
G1 X101.245 Y102.004 F280
G1 X102.755 Y102.004 F18000
G92 E0.0000
G1 X102.955 Y102.004 E0.0204 F280
G1 X103.045 Y102.004 E0.0296
G1 X103.245 Y102.004 F280
G1 X104.755 Y102.004 F18000
G92 E0.0000
G1 X104.955 Y102.004 E0.0204 F280
G1 X105.045 Y102.004 E0.0296
G1 X105.245 Y102.004 F280
G1 X106.755 Y102.004 F18000
G92 E0.0000
G1 X106.955 Y102.004 E0.0204 F280
G1 X107.045 Y102.004 E0.0296
G1 X107.245 Y102.004 F280
; feature internal single extrusion
; tool H0.300 W0.960
G1 X107.140 Y102.040 F18000
G1 X107.140 Y101.841
G1 X106.860 Y101.409
G1 X106.860 Y101.240
G1 X106.750 Y101.240
G1 X105.687 Y99.600
G92 E0.0000
G1 X105.392 Y99.600 E0.0371 F280
G1 X105.297 Y99.600 E0.0491
G1 X105.201 Y99.600 E0.0610
G1 X105.106 Y99.600 E0.0730
G1 X105.010 Y99.600 E0.0850
G1 X104.915 Y99.600 E0.0970
G1 X104.819 Y99.600 E0.1090
G1 X104.724 Y99.600 E0.1209
G1 X104.629 Y99.600 E0.1329
G1 X104.533 Y99.600 E0.1449
G1 X104.438 Y99.600 E0.1569
G1 X104.342 Y99.600 E0.1689
G1 X104.247 Y99.600 E0.1809
G1 X104.151 Y99.600 E0.1928
G1 X104.056 Y99.600 E0.2048
G1 X103.960 Y99.600 E0.2168
G1 X103.865 Y99.600 E0.2288
G1 X103.770 Y99.600 E0.2408
G1 X103.674 Y99.600 E0.2527
G1 X103.579 Y99.600 E0.2647
G1 X103.483 Y99.600 E0.2767
G1 X103.388 Y99.600 E0.2887
G1 X103.292 Y99.600 E0.3007
G1 X103.197 Y99.600 E0.3126
G1 X103.102 Y99.600 E0.3246
G1 X103.006 Y99.600 E0.3366
G1 X102.911 Y99.600 E0.3486
G1 X102.815 Y99.600 E0.3606
G1 X102.720 Y99.600 E0.3725
G1 X102.624 Y99.600 E0.3845
G1 X102.529 Y99.600 E0.3965
G1 X102.434 Y99.600 E0.4085
G1 X102.338 Y99.600 E0.4205
G1 X102.243 Y99.600 E0.4324
G1 X102.147 Y99.600 E0.4444
G1 X102.052 Y99.600 E0.4564
G1 X101.956 Y99.600 E0.4684
G1 X101.861 Y99.600 E0.4804
G1 X101.766 Y99.600 E0.4923
G1 X101.670 Y99.600 E0.5043
G1 X101.575 Y99.600 E0.5163
G1 X101.479 Y99.600 E0.5283
G1 X101.384 Y99.600 E0.5403
G1 X101.288 Y99.600 E0.5522
G1 X101.193 Y99.600 E0.5642
G1 X101.097 Y99.600 E0.5762
G1 X101.002 Y99.600 E0.5882
G1 X100.907 Y99.600 E0.6002
G1 X100.811 Y99.600 E0.6121
G1 X100.716 Y99.600 E0.6241
G1 X100.620 Y99.600 E0.6361
G1 X100.525 Y99.600 E0.6481
G1 X100.429 Y99.600 E0.6601
G1 X100.334 Y99.600 E0.6720
G1 X100.239 Y99.600 E0.6840
G1 X100.143 Y99.600 E0.6960
G1 X100.048 Y99.600 E0.7080
G1 X99.952 Y99.600 E0.7200
G1 X99.857 Y99.600 E0.7319
G1 X99.761 Y99.600 E0.7439
G1 X99.666 Y99.600 E0.7559
G1 X99.571 Y99.600 E0.7679
G1 X99.475 Y99.600 E0.7799
G1 X99.380 Y99.600 E0.7918
G1 X99.284 Y99.600 E0.8038
G1 X99.189 Y99.600 E0.8158
G1 X99.093 Y99.600 E0.8278
G1 X98.998 Y99.600 E0.8398
G1 X98.903 Y99.600 E0.8517
G1 X98.807 Y99.600 E0.8637
G1 X98.712 Y99.600 E0.8757
G1 X98.616 Y99.600 E0.8877
G1 X98.521 Y99.600 E0.8997
G1 X98.425 Y99.600 E0.9116
G1 X98.330 Y99.600 E0.9236
G1 X98.234 Y99.600 E0.9356
G1 X98.139 Y99.600 E0.9476
G1 X98.044 Y99.600 E0.9596
G1 X97.948 Y99.600 E0.9715
G1 X97.853 Y99.600 E0.9835
G1 X97.757 Y99.600 E0.9955
G1 X97.662 Y99.600 E1.0075
G1 X97.566 Y99.600 E1.0195
G1 X97.471 Y99.600 E1.0314
G1 X97.376 Y99.600 E1.0434
G1 X97.280 Y99.600 E1.0554
G1 X97.185 Y99.600 E1.0674
G1 X97.089 Y99.600 E1.0794
G1 X96.994 Y99.600 E1.0914
G1 X96.898 Y99.600 E1.1033
G1 X96.803 Y99.600 E1.1153
G1 X96.708 Y99.600 E1.1273
G1 X96.612 Y99.600 E1.1393
G1 X96.517 Y99.600 E1.1513
G1 X96.421 Y99.600 E1.1632
G1 X96.326 Y99.600 E1.1752
G1 X96.230 Y99.600 E1.1872
G1 X96.135 Y99.600 E1.1992
G1 X96.040 Y99.600 E1.2112
G1 X95.944 Y99.600 E1.2231
G1 X95.849 Y99.600 E1.2351
G1 X95.753 Y99.600 E1.2471
G1 X95.658 Y99.600 E1.2591
G1 X95.562 Y99.600 E1.2711
G1 X95.467 Y99.600 E1.2830
G1 X95.371 Y99.600 E1.2950
G1 X95.276 Y99.600 E1.3070
G1 X95.181 Y99.600 E1.3190
G1 X95.085 Y99.600 E1.3310
G1 X94.990 Y99.600 E1.3429
G1 X94.894 Y99.600 E1.3549
G1 X94.799 Y99.600 E1.3669
G1 X94.703 Y99.600 E1.3789
G1 X94.608 Y99.600 E1.3909
G1 X94.513 Y99.600 E1.4028
G1 X94.313 Y99.600 F280
G1 X94.513 Y99.600 F280
G1 X94.608 Y99.600
G1 X94.703 Y99.600
G1 X94.799 Y99.600
G1 X94.894 Y99.600
G1 X94.990 Y99.600
G1 X95.085 Y99.600
G1 X95.181 Y99.600
G1 X95.276 Y99.600
G1 X95.371 Y99.600
G1 X95.467 Y99.600
G1 X95.562 Y99.600
G1 X95.658 Y99.600
G1 X95.753 Y99.600
G1 X95.849 Y99.600
G1 X95.944 Y99.600
G1 X96.040 Y99.600
G1 X96.135 Y99.600
G1 X96.230 Y99.600
G1 X96.326 Y99.600
G1 X96.421 Y99.600
G1 X96.517 Y99.600
G1 X96.612 Y99.600
G1 X96.708 Y99.600
G1 X96.803 Y99.600
G1 X96.898 Y99.600
G1 X96.994 Y99.600
