; G-Code generated by Simplify3D(R) Version 4.1.2
; Dec 30, 2021 at 7:48:07 PM
; Settings Summary
;   processName,Process1
;   applyToModels,door-servo-wire-mount
;   profileName,HSBot (modified)
;   profileVersion,2019-11-09 11:59:44
;   baseProfile,Default
;   printMaterial,PETG - Eryone
;   printQuality,Medium
;   printExtruders,
;   extruderName,Extruder 1,Extruder - Lite
;   extruderToolheadNumber,0,1
;   extruderDiameter,0.4,0.4
;   extruderAutoWidth,1,1
;   extruderWidth,0.48,0.48
;   extrusionMultiplier,1.03,0.93
;   extruderUseRetract,1,1
;   extruderRetractionDistance,3,1
;   extruderExtraRestartDistance,0,0
;   extruderRetractionZLift,0,0
;   extruderRetractionSpeed,3600,1800
;   extruderUseCoasting,1,0
;   extruderCoastingDistance,0.2,0.2
;   extruderUseWipe,1,0
;   extruderWipeDistance,5,5
;   primaryExtruder,0
;   layerHeight,0.2
;   topSolidLayers,4
;   bottomSolidLayers,4
;   perimeterOutlines,3
;   printPerimetersInsideOut,1
;   startPointOption,2
;   startPointOriginX,0
;   startPointOriginY,0
;   sequentialIslands,0
;   spiralVaseMode,0
;   firstLayerHeightPercentage,150
;   firstLayerWidthPercentage,150
;   firstLayerUnderspeed,0.3
;   useRaft,0
;   raftExtruder,0
;   raftTopLayers,3
;   raftBaseLayers,2
;   raftOffset,3
;   raftSeparationDistance,0.18
;   raftTopInfill,100
;   aboveRaftSpeedMultiplier,0.3
;   useSkirt,1
;   skirtExtruder,0
;   skirtLayers,1
;   skirtOutlines,3
;   skirtOffset,10
;   usePrimePillar,0
;   primePillarExtruder,999
;   primePillarWidth,12
;   primePillarLocation,7
;   primePillarSpeedMultiplier,1
;   useOozeShield,0
;   oozeShieldExtruder,999
;   oozeShieldOffset,2
;   oozeShieldOutlines,1
;   oozeShieldSidewallShape,1
;   oozeShieldSidewallAngle,30
;   oozeShieldSpeedMultiplier,1
;   infillExtruder,0
;   internalInfillPattern,Fast Honeycomb
;   externalInfillPattern,Rectilinear
;   infillPercentage,20
;   outlineOverlapPercentage,15
;   infillExtrusionWidthPercentage,150
;   minInfillLength,5
;   infillLayerInterval,1
;   internalInfillAngles,0
;   overlapInternalInfillAngles,0
;   externalInfillAngles,45,-45
;   generateSupport,1
;   supportExtruder,0
;   supportInfillPercentage,30
;   supportExtraInflation,0
;   supportBaseLayers,1
;   denseSupportExtruder,0
;   denseSupportLayers,0
;   denseSupportInfillPercentage,70
;   supportLayerInterval,1
;   supportHorizontalPartOffset,0.3
;   supportUpperSeparationLayers,1
;   supportLowerSeparationLayers,1
;   supportType,1
;   supportGridSpacing,3
;   maxOverhangAngle,45
;   supportAngles,0
;   temperatureName,Extruder 1,Bed
;   temperatureNumber,0,0
;   temperatureSetpointCount,1,1
;   temperatureSetpointLayers,1,1
;   temperatureSetpointTemperatures,225,85
;   temperatureStabilizeAtStartup,1,1
;   temperatureHeatedBed,0,1
;   fanLayers,1,2,3
;   fanSpeeds,0,15,25
;   blipFanToFullPower,1
;   adjustSpeedForCooling,1
;   minSpeedLayerTime,15
;   minCoolingSpeedSlowdown,20
;   increaseFanForCooling,0
;   minFanLayerTime,45
;   maxCoolingFanSpeed,40
;   increaseFanForBridging,0
;   bridgingFanSpeed,80
;   use5D,1
;   relativeEdistances,0
;   allowEaxisZeroing,1
;   independentExtruderAxes,0
;   includeM10123,0
;   stickySupport,1
;   applyToolheadOffsets,0
;   gcodeXoffset,0
;   gcodeYoffset,0
;   gcodeZoffset,0
;   overrideMachineDefinition,1
;   machineTypeOverride,0
;   strokeXoverride,200
;   strokeYoverride,200
;   strokeZoverride,150
;   originOffsetXoverride,0
;   originOffsetYoverride,0
;   originOffsetZoverride,0
;   homeXdirOverride,-1
;   homeYdirOverride,-1
;   homeZdirOverride,-1
;   flipXoverride,1
;   flipYoverride,-1
;   flipZoverride,1
;   toolheadOffsets,0,0|0,0|0,0|0,0|0,0|0,0
;   overrideFirmwareConfiguration,0
;   firmwareTypeOverride,RepRap (Marlin/Repetier/Sprinter)
;   GPXconfigOverride,r2
;   baudRateOverride,115200
;   overridePrinterModels,0
;   printerModelsOverride
;   startingGcode,G28 ; home all axes,G32 ; run bed.g -- probe bed and enable compensation
;   layerChangeGcode,
;   retractionGcode,
;   toolChangeGcode,
;   endingGcode,M0 ; call stop.g
;   exportFileFormat,gcode
;   celebration,0
;   celebrationSong,Random Song
;   postProcessing,
;   defaultSpeed,4800
;   outlineUnderspeed,0.5
;   solidInfillUnderspeed,0.8
;   supportUnderspeed,0.8
;   rapidXYspeed,18000
;   rapidZspeed,1200
;   minBridgingArea,50
;   bridgingExtraInflation,0
;   bridgingExtrusionMultiplier,0.96
;   bridgingSpeedMultiplier,1
;   useFixedBridgingAngle,0
;   fixedBridgingAngle,0
;   applyBridgingToPerimeters,0
;   filamentDiameters,1.75|1.75|1.75|1.75|1.75|1.75
;   filamentPricesPerKg,25|46|46|46|46|46
;   filamentDensities,1.25|1.25|1.25|1.25|1.25|1.25
;   useMinPrintHeight,0
;   minPrintHeight,0
;   useMaxPrintHeight,0
;   maxPrintHeight,0
;   useDiaphragm,1
;   diaphragmLayerInterval,20
;   robustSlicing,1
;   mergeAllIntoSolid,0
;   onlyRetractWhenCrossingOutline,1
;   retractBetweenLayers,0
;   useRetractionMinTravel,1
;   retractionMinTravel,3
;   retractWhileWiping,1
;   onlyWipeOutlines,0
;   avoidCrossingOutline,1
;   maxMovementDetourFactor,3
;   toolChangeRetractionDistance,12
;   toolChangeExtraRestartDistance,-0.5
;   toolChangeRetractionSpeed,600
;   externalThinWallType,0
;   internalThinWallType,1
;   thinWallAllowedOverlapPercentage,10
;   singleExtrusionMinLength,0.1
;   singleExtrusionMinPrintingWidthPercentage,50
;   singleExtrusionMaxPrintingWidthPercentage,200
;   singleExtrusionEndpointExtension,0.2
;   horizontalSizeCompensation,-0.1
G90
M82
M106 S0
M140 S85
M190 S85
G10 S225 R{225-50} P0
M116 P0
G28 ; home all axes
G32 ; run bed.g -- probe bed and enable compensation
; process Process1
; layer 1, Z = 0.300
T0
G92 E0.0000
G1 E-3.0000 F3600
; feature skirt
; tool H0.300 W0.720
G1 Z0.300 F1200
G1 X76.306 Y83.281 F18000
G1 E0.0000 F3600
G92 E0.0000
G1 X78.997 Y81.728 E0.2874 F1440
G1 X81.706 Y81.002 E0.5468
G1 X83.240 Y80.800 E0.6899
G1 X116.760 Y80.800 E3.7904
G1 X118.294 Y81.002 E3.9335
G1 X121.003 Y81.728 E4.1929
G1 X123.694 Y83.281 E4.4803
G1 X126.219 Y85.807 E4.8106
G1 X127.772 Y88.497 E5.0980
G1 X128.498 Y91.206 E5.3574
G1 X128.700 Y92.740 E5.5005
G1 X128.700 Y107.260 E6.8436
G1 X128.498 Y108.794 E6.9866
G1 X127.772 Y111.503 E7.2461
G1 X126.219 Y114.194 E7.5334
G1 X123.694 Y116.719 E7.8637
G1 X121.003 Y118.272 E8.1511
G1 X118.294 Y118.998 E8.4106
G1 X116.759 Y119.200 E8.5537
G1 X83.226 Y119.197 E11.6554
G1 X81.693 Y118.995 E11.7984
G1 X78.997 Y118.272 E12.0566
G1 X76.306 Y116.719 E12.3440
G1 X73.781 Y114.194 E12.6743
G1 X72.228 Y111.503 E12.9617
G1 X71.502 Y108.794 E13.2211
G1 X71.300 Y107.260 E13.3642
G1 X71.300 Y92.740 E14.7073
G1 X71.502 Y91.206 E14.8503
G1 X72.228 Y88.497 E15.1098
G1 X73.781 Y85.806 E15.3971
G1 X76.306 Y83.281 E15.7275
G1 X76.749 Y83.857 F18000
G92 E0.0000
G1 X79.275 Y82.399 E0.2699 F1440
G1 X81.847 Y81.710 E0.5161
G1 X83.287 Y81.520 E0.6505
G1 X116.713 Y81.520 E3.7423
G1 X118.153 Y81.710 E3.8766
G1 X120.725 Y82.399 E4.1229
G1 X123.252 Y83.857 E4.3928
G1 X125.643 Y86.249 E4.7055
G1 X127.101 Y88.775 E4.9754
G1 X127.790 Y91.347 E5.2217
G1 X127.980 Y92.787 E5.3560
G1 X127.980 Y107.213 E6.6904
G1 X127.790 Y108.653 E6.8247
G1 X127.101 Y111.225 E7.0710
G1 X125.643 Y113.752 E7.3408
G1 X123.252 Y116.143 E7.6536
G1 X120.725 Y117.601 E7.9235
G1 X118.153 Y118.290 E8.1698
G1 X116.712 Y118.480 E8.3042
G1 X83.274 Y118.477 E11.3971
G1 X81.834 Y118.287 E11.5314
G1 X79.275 Y117.601 E11.7765
G1 X76.749 Y116.143 E12.0463
G1 X74.358 Y113.752 E12.3591
G1 X72.899 Y111.225 E12.6289
G1 X72.210 Y108.653 E12.8752
G1 X72.020 Y107.213 E13.0096
G1 X72.020 Y92.787 E14.3440
G1 X72.210 Y91.347 E14.4783
G1 X72.899 Y88.775 E14.7246
G1 X74.357 Y86.248 E14.9944
G1 X76.749 Y83.857 E15.3072
G1 X77.191 Y84.434 F18000
G92 E0.0000
G1 X79.553 Y83.070 E0.2523 F1440
G1 X81.988 Y82.417 E0.4855
G1 X83.334 Y82.240 E0.6111
G1 X116.666 Y82.240 E3.6941
G1 X118.012 Y82.417 E3.8198
G1 X120.447 Y83.070 E4.0529
G1 X122.809 Y84.434 E4.3052
G1 X125.066 Y86.691 E4.6005
G1 X126.430 Y89.053 E4.8528
G1 X127.083 Y91.488 E5.0859
G1 X127.260 Y92.834 E5.2115
G1 X127.260 Y107.166 E6.5372
G1 X127.083 Y108.512 E6.6628
G1 X126.430 Y110.947 E6.8959
G1 X125.066 Y113.309 E7.1483
G1 X122.809 Y115.566 E7.4435
G1 X120.447 Y116.930 E7.6958
G1 X118.012 Y117.583 E7.9290
G1 X116.665 Y117.760 E8.0546
G1 X83.321 Y117.757 E11.1389
G1 X81.975 Y117.579 E11.2644
G1 X79.553 Y116.930 E11.4964
G1 X77.191 Y115.566 E11.7487
G1 X74.934 Y113.310 E12.0439
G1 X73.570 Y110.947 E12.2962
G1 X72.917 Y108.512 E12.5294
G1 X72.740 Y107.166 E12.6550
G1 X72.740 Y92.834 E13.9806
G1 X72.917 Y91.488 E14.1063
G1 X73.570 Y89.053 E14.3394
G1 X74.934 Y86.691 E14.5917
G1 X77.191 Y84.434 E14.8870
G92 E0.0000
G1 E-3.0000 F3600
; feature inner perimeter
G1 X83.738 Y93.046 F18000
G1 X83.833 Y93.021
G1 X84.900 Y94.400
G1 E0.0000 F3600
G92 E0.0000
G1 X115.100 Y94.400 E2.7934 F1080
G1 X115.100 Y105.600 E3.8293
G1 X84.900 Y105.597 E6.6227
G1 X84.900 Y94.600 E7.6399
G1 X84.900 Y94.400 F1080
G1 X89.900 Y94.400 F1080
G1 X84.180 Y93.680 F18000
G92 E0.0000
G1 X115.820 Y93.680 E2.9266 F1080
G1 X115.820 Y106.320 E4.0957
G1 X84.180 Y106.317 E7.0223
G1 X84.180 Y93.880 E8.1727
G1 X84.180 Y93.680 F1080
G1 X89.180 Y93.680 F1080
; feature outer perimeter
G1 X84.061 Y92.960 F18000
G92 E0.0000
G1 X115.939 Y92.960 E2.9487 F720
G1 X116.262 Y93.046 E2.9796
G1 X116.454 Y93.238 E3.0046
G1 X116.540 Y93.561 E3.0355
G1 X116.540 Y106.439 E4.2268
G1 X116.454 Y106.762 E4.2576
G1 X116.262 Y106.954 E4.2827
G1 X115.939 Y107.040 E4.3136
G1 X84.048 Y107.037 E7.2634
G1 X83.738 Y106.954 E7.2931
G1 X83.546 Y106.762 E7.3182
G1 X83.460 Y106.439 E7.3491
G1 X83.460 Y93.561 E8.5403
G1 X83.546 Y93.238 E8.5712
G1 X83.738 Y93.046 E8.5963
G1 X83.867 Y93.012 E8.6087
G1 X84.061 Y92.960 F720
G1 X89.061 Y92.960 F720
; feature inner perimeter
G1 X97.777 Y98.385 F18000
G92 E0.0000
G1 X97.252 Y100.000 E0.1571 F1080
G1 X97.777 Y101.615 E0.3142
G1 X99.151 Y102.613 E0.4712
G1 X100.849 Y102.613 E0.6283
G1 X102.223 Y101.615 E0.7854
G1 X102.748 Y100.000 E0.9425
G1 X102.223 Y98.385 E1.0996
G1 X100.849 Y97.387 E1.2566
G1 X99.151 Y97.387 E1.4137
G1 X97.939 Y98.267 E1.5523
G1 X97.777 Y98.385 F1080
G1 X97.252 Y100.000 F1080
G1 X97.777 Y101.615
G1 X99.074 Y102.558
G1 X99.385 Y101.893 F18000
G92 E0.0000
G1 X100.615 Y101.893 E0.1138 F1080
G1 X101.611 Y101.170 E0.2276
G1 X101.991 Y100.000 E0.3414
G1 X101.611 Y98.830 E0.4552
G1 X100.615 Y98.107 E0.5690
G1 X99.385 Y98.107 E0.6828
G1 X98.389 Y98.830 E0.7966
G1 X98.009 Y100.000 E0.9104
G1 X98.389 Y101.170 E1.0242
G1 X99.223 Y101.776 E1.1195
G1 X99.385 Y101.893 F1080
G1 X100.615 Y101.893 F1080
G1 X101.611 Y101.170
G1 X101.991 Y100.000
G1 X101.611 Y98.830
G1 X101.547 Y98.784
; feature outer perimeter
G1 X100.998 Y99.275 F18000
G92 E0.0000
G1 X100.381 Y98.827 E0.0705 F720
G1 X99.619 Y98.827 E0.1410
G1 X99.002 Y99.275 E0.2116
G1 X98.766 Y100.000 E0.2821
G1 X99.002 Y100.725 E0.3526
G1 X99.619 Y101.173 E0.4231
G1 X100.381 Y101.173 E0.4937
G1 X100.998 Y100.725 E0.5642
G1 X101.234 Y100.000 E0.6347
G1 X101.060 Y99.465 E0.6867
G1 X100.998 Y99.275 F720
G1 X100.381 Y98.827 F720
G1 X99.619 Y98.827
G1 X99.002 Y99.275
G1 X98.766 Y100.000
G1 X99.002 Y100.725
G1 X99.619 Y101.173
G1 X100.044 Y101.173
; feature solid layer
G1 X99.152 Y103.225 F18000
G92 E0.0000
G1 X100.913 Y104.986 E0.2304 F1152
G1 X101.932 Y104.987 E0.3246
G1 X100.171 Y103.225 E0.5550
G1 X101.048 Y103.225 E0.6361
G1 X101.130 Y103.166 E0.6454
G1 X102.950 Y104.987 E0.8836
G1 X103.969 Y104.987 E0.9778
G1 X101.719 Y102.738 E1.2720
G1 X102.309 Y102.309 E1.3394
G1 X104.987 Y104.987 E1.6897
G1 X106.005 Y104.987 E1.7839
G1 X102.809 Y101.791 E2.2020
G1 X103.059 Y101.023 E2.2767
G1 X107.024 Y104.987 E2.7953
G1 X108.042 Y104.987 E2.8895
G1 X103.450 Y100.395 E3.4901
G1 X103.309 Y100.254 F1152
G1 X106.844 Y103.790 F1152
G1 X114.358 Y95.012 F18000
G92 E0.0000
G1 X114.488 Y95.142 E0.0169 F1152
G1 X114.488 Y96.160 E0.1111
G1 X113.340 Y95.012 E0.2613
G1 X112.322 Y95.012 E0.3555
G1 X114.488 Y97.178 E0.6388
G1 X114.488 Y98.196 E0.7330
G1 X111.304 Y95.012 E1.1495
G1 X110.286 Y95.012 E1.2437
G1 X114.488 Y99.214 E1.7934
G1 X114.488 Y100.233 E1.8876
G1 X109.267 Y95.012 E2.5705
G1 X108.249 Y95.012 E2.6647
G1 X114.488 Y101.251 E3.4808
G1 X114.488 Y102.269 E3.5750
G1 X107.231 Y95.012 E4.5243
G1 X106.213 Y95.012 E4.6185
G1 X114.488 Y103.287 E5.7010
G1 X114.488 Y104.306 E5.7952
G1 X105.194 Y95.012 E7.0109
G1 X104.176 Y95.012 E7.1051
G1 X114.152 Y104.988 E8.4100
G1 X113.134 Y104.988 E8.5042
G1 X103.158 Y95.012 E9.8091
G1 X102.140 Y95.012 E9.9033
G1 X112.115 Y104.988 E11.2082
G1 X111.097 Y104.987 E11.3024
G1 X101.121 Y95.012 E12.6073
G1 X100.103 Y95.012 E12.7015
G1 X110.079 Y104.987 E14.0063
G1 X109.060 Y104.987 E14.1005
G1 X103.063 Y98.990 E14.8850
G1 X102.744 Y98.007 E14.9807
G1 X101.048 Y96.775 E15.1745
G1 X100.848 Y96.775 E15.1930
G1 X99.085 Y95.012 E15.4236
G1 X98.067 Y95.012 E15.5178
G1 X99.829 Y96.775 E15.7484
G1 X98.952 Y96.775 E15.8295
G1 X98.870 Y96.834 E15.8389
G1 X97.048 Y95.012 E16.0772
G1 X96.030 Y95.012 E16.1714
G1 X98.281 Y97.262 E16.4658
G1 X97.691 Y97.691 E16.5332
G1 X95.012 Y95.012 E16.8836
G1 X93.994 Y95.012 E16.9778
G1 X97.191 Y98.209 E17.3960
G1 X96.941 Y98.977 E17.4707
G1 X92.976 Y95.012 E17.9895
G1 X91.957 Y95.012 E18.0836
G1 X96.691 Y99.746 E18.7029
G1 X96.609 Y100.000 E18.7276
G1 X96.937 Y101.010 E18.8258
G1 X90.939 Y95.012 E19.6103
G1 X89.921 Y95.012 E19.7045
G1 X99.895 Y104.986 E21.0093
G1 X98.877 Y104.986 E21.1035
G1 X88.903 Y95.012 E22.4082
G1 X87.884 Y95.012 E22.5024
G1 X97.858 Y104.986 E23.8071
G1 X96.840 Y104.986 E23.9013
G1 X86.866 Y95.012 E25.2060
G1 X85.848 Y95.012 E25.3001
G1 X95.822 Y104.986 E26.6048
G1 X94.803 Y104.986 E26.6990
G1 X85.512 Y95.694 E27.9144
G1 X85.512 Y96.713 E28.0086
G1 X93.785 Y104.986 E29.0908
G1 X92.767 Y104.986 E29.1850
G1 X85.512 Y97.731 E30.1340
G1 X85.512 Y98.749 E30.2282
G1 X91.748 Y104.985 E31.0440
G1 X90.730 Y104.985 E31.1382
G1 X85.512 Y99.767 E31.8208
G1 X85.512 Y100.785 E31.9149
G1 X89.712 Y104.985 E32.4643
G1 X88.693 Y104.985 E32.5585
G1 X85.512 Y101.804 E32.9747
G1 X85.512 Y102.822 E33.0688
G1 X87.675 Y104.985 E33.3518
G1 X86.657 Y104.985 E33.4460
G1 X85.512 Y103.840 E33.5957
G1 X85.512 Y104.837 E33.6879
G1 X85.512 Y104.858 F1152
G1 X85.638 Y104.985
G1 X85.512 Y104.858 F1152
G1 X85.512 Y103.840
G1 X86.657 Y104.985
G1 X87.675 Y104.985
G1 X86.851 Y104.161
; layer 2, Z = 0.500
M106 S255
G4 P500
M106 S38
; feature inner perimeter
; tool H0.200 W0.480
G1 Z0.500 F1200
G1 X84.300 Y106.191 F18000
G92 E0.0000
G1 X84.300 Y93.800 E0.5094 F3600
G1 X115.700 Y93.800 E1.8002
G1 X115.700 Y106.200 E2.3100
G1 X84.500 Y106.191 E3.5926
G1 X84.300 Y106.191 F3600
G1 X84.300 Y101.191 F3600
G1 X83.820 Y106.392 F18000
G92 E0.0000
G1 X83.820 Y93.608 E0.5255 F3600
G1 X83.881 Y93.381 E0.5352
G1 X84.108 Y93.320 E0.5449
G1 X115.892 Y93.320 E1.8515
G1 X116.119 Y93.381 E1.8612
G1 X116.180 Y93.608 E1.8708
G1 X116.180 Y106.392 E2.3964
G1 X116.119 Y106.619 E2.4061
G1 X115.892 Y106.680 E2.4157
G1 X84.075 Y106.671 E3.7237
G1 X83.881 Y106.619 E3.7320
G1 X83.872 Y106.585 E3.7334
G1 X83.820 Y106.392 F3600
G1 X83.820 Y101.392 F3600
; feature outer perimeter
G1 X83.340 Y106.455 F18000
G92 E0.0000
G1 X83.340 Y93.545 E0.5307 F2400
G1 X83.439 Y93.176 E0.5464
G1 X83.676 Y92.939 E0.5602
G1 X84.045 Y92.840 E0.5759
G1 X115.955 Y92.840 E1.8877
G1 X116.324 Y92.939 E1.9034
G1 X116.561 Y93.176 E1.9172
G1 X116.660 Y93.545 E1.9329
G1 X116.660 Y106.455 E2.4637
G1 X116.561 Y106.824 E2.4794
G1 X116.324 Y107.061 E2.4932
G1 X115.955 Y107.160 E2.5088
G1 X84.011 Y107.151 E3.8220
G1 X83.676 Y107.061 E3.8363
G1 X83.439 Y106.824 E3.8501
G1 X83.392 Y106.648 E3.8576
G1 X83.340 Y106.455 F2400
G1 X83.340 Y101.455 F2400
; feature inner perimeter
G1 X97.883 Y100.000 F18000
G92 E0.0000
G1 X98.287 Y101.244 E0.0538 F3600
G1 X99.346 Y102.013 E0.1076
G1 X100.654 Y102.013 E0.1614
G1 X101.713 Y101.244 E0.2151
G1 X102.117 Y100.000 E0.2689
G1 X101.713 Y98.756 E0.3227
G1 X100.654 Y97.987 E0.3765
G1 X99.346 Y97.987 E0.4303
G1 X98.287 Y98.756 E0.4841
G1 X97.945 Y99.810 E0.5296
G1 X97.883 Y100.000 F3600
G1 X98.287 Y101.244 F3600
G1 X99.346 Y102.013
G1 X100.654 Y102.013
