; G-Code generated by Simplify3D(R) Version 4.1.2
; Dec 30, 2021 at 12:31:55 PM
; Settings Summary
;   processName,Process1
;   applyToModels,finger
;   profileName,HSBot (modified)
;   profileVersion,2019-11-09 11:59:44
;   baseProfile,Default
;   printMaterial,PETG - Eryone
;   printQuality,Medium
;   printExtruders,
;   extruderName,Extruder 1,Extruder - Lite
;   extruderToolheadNumber,0,1
;   extruderDiameter,0.4,0.4
;   extruderAutoWidth,1,1
;   extruderWidth,0.48,0.48
;   extrusionMultiplier,1.03,0.93
;   extruderUseRetract,1,1
;   extruderRetractionDistance,3,1
;   extruderExtraRestartDistance,0,0
;   extruderRetractionZLift,0,0
;   extruderRetractionSpeed,3600,1800
;   extruderUseCoasting,1,0
;   extruderCoastingDistance,0.2,0.2
;   extruderUseWipe,1,0
;   extruderWipeDistance,5,5
;   primaryExtruder,0
;   layerHeight,0.2
;   topSolidLayers,4
;   bottomSolidLayers,4
;   perimeterOutlines,3
;   printPerimetersInsideOut,1
;   startPointOption,2
;   startPointOriginX,0
;   startPointOriginY,0
;   sequentialIslands,0
;   spiralVaseMode,0
;   firstLayerHeightPercentage,150
;   firstLayerWidthPercentage,150
;   firstLayerUnderspeed,0.3
;   useRaft,0
;   raftExtruder,0
;   raftTopLayers,3
;   raftBaseLayers,2
;   raftOffset,3
;   raftSeparationDistance,0.18
;   raftTopInfill,100
;   aboveRaftSpeedMultiplier,0.3
;   useSkirt,1
;   skirtExtruder,0
;   skirtLayers,1
;   skirtOutlines,10
;   skirtOffset,0
;   usePrimePillar,0
;   primePillarExtruder,999
;   primePillarWidth,12
;   primePillarLocation,7
;   primePillarSpeedMultiplier,1
;   useOozeShield,0
;   oozeShieldExtruder,999
;   oozeShieldOffset,2
;   oozeShieldOutlines,1
;   oozeShieldSidewallShape,1
;   oozeShieldSidewallAngle,30
;   oozeShieldSpeedMultiplier,1
;   infillExtruder,0
;   internalInfillPattern,Fast Honeycomb
;   externalInfillPattern,Rectilinear
;   infillPercentage,20
;   outlineOverlapPercentage,15
;   infillExtrusionWidthPercentage,150
;   minInfillLength,5
;   infillLayerInterval,1
;   internalInfillAngles,0
;   overlapInternalInfillAngles,0
;   externalInfillAngles,45,-45
;   generateSupport,1
;   supportExtruder,0
;   supportInfillPercentage,30
;   supportExtraInflation,0
;   supportBaseLayers,1
;   denseSupportExtruder,0
;   denseSupportLayers,0
;   denseSupportInfillPercentage,70
;   supportLayerInterval,1
;   supportHorizontalPartOffset,0.3
;   supportUpperSeparationLayers,1
;   supportLowerSeparationLayers,1
;   supportType,1
;   supportGridSpacing,3
;   maxOverhangAngle,45
;   supportAngles,0
;   temperatureName,Extruder 1,Bed
;   temperatureNumber,0,0
;   temperatureSetpointCount,1,1
;   temperatureSetpointLayers,1,1
;   temperatureSetpointTemperatures,225,85
;   temperatureStabilizeAtStartup,1,1
;   temperatureHeatedBed,0,1
;   fanLayers,1,2,3
;   fanSpeeds,0,15,25
;   blipFanToFullPower,1
;   adjustSpeedForCooling,1
;   minSpeedLayerTime,15
;   minCoolingSpeedSlowdown,20
;   increaseFanForCooling,0
;   minFanLayerTime,45
;   maxCoolingFanSpeed,40
;   increaseFanForBridging,0
;   bridgingFanSpeed,80
;   use5D,1
;   relativeEdistances,0
;   allowEaxisZeroing,1
;   independentExtruderAxes,0
;   includeM10123,0
;   stickySupport,1
;   applyToolheadOffsets,0
;   gcodeXoffset,0
;   gcodeYoffset,0
;   gcodeZoffset,0
;   overrideMachineDefinition,1
;   machineTypeOverride,0
;   strokeXoverride,200
;   strokeYoverride,200
;   strokeZoverride,150
;   originOffsetXoverride,0
;   originOffsetYoverride,0
;   originOffsetZoverride,0
;   homeXdirOverride,-1
;   homeYdirOverride,-1
;   homeZdirOverride,-1
;   flipXoverride,1
;   flipYoverride,-1
;   flipZoverride,1
;   toolheadOffsets,0,0|0,0|0,0|0,0|0,0|0,0
;   overrideFirmwareConfiguration,0
;   firmwareTypeOverride,RepRap (Marlin/Repetier/Sprinter)
;   GPXconfigOverride,r2
;   baudRateOverride,115200
;   overridePrinterModels,0
;   printerModelsOverride
;   startingGcode,G28 ; home all axes,G32 ; run bed.g -- probe bed and enable compensation
;   layerChangeGcode,
;   retractionGcode,
;   toolChangeGcode,
;   endingGcode,M0 ; call stop.g
;   exportFileFormat,gcode
;   celebration,0
;   celebrationSong,Random Song
;   postProcessing,
;   defaultSpeed,4800
;   outlineUnderspeed,0.5
;   solidInfillUnderspeed,0.8
;   supportUnderspeed,0.8
;   rapidXYspeed,18000
;   rapidZspeed,1200
;   minBridgingArea,50
;   bridgingExtraInflation,0
;   bridgingExtrusionMultiplier,0.96
;   bridgingSpeedMultiplier,1
;   useFixedBridgingAngle,0
;   fixedBridgingAngle,0
;   applyBridgingToPerimeters,0
;   filamentDiameters,1.75|1.75|1.75|1.75|1.75|1.75
;   filamentPricesPerKg,25|46|46|46|46|46
;   filamentDensities,1.25|1.25|1.25|1.25|1.25|1.25
;   useMinPrintHeight,0
;   minPrintHeight,0
;   useMaxPrintHeight,0
;   maxPrintHeight,0
;   useDiaphragm,1
;   diaphragmLayerInterval,20
;   robustSlicing,1
;   mergeAllIntoSolid,0
;   onlyRetractWhenCrossingOutline,1
;   retractBetweenLayers,0
;   useRetractionMinTravel,1
;   retractionMinTravel,3
;   retractWhileWiping,1
;   onlyWipeOutlines,0
;   avoidCrossingOutline,1
;   maxMovementDetourFactor,3
;   toolChangeRetractionDistance,12
;   toolChangeExtraRestartDistance,-0.5
;   toolChangeRetractionSpeed,600
;   externalThinWallType,0
;   internalThinWallType,1
;   thinWallAllowedOverlapPercentage,10
;   singleExtrusionMinLength,0.1
;   singleExtrusionMinPrintingWidthPercentage,50
;   singleExtrusionMaxPrintingWidthPercentage,200
;   singleExtrusionEndpointExtension,0.2
;   horizontalSizeCompensation,-0.1
G90
M82
M106 S0
M140 S85
M190 S85
G10 S225 R{225-50} P0
M116 P0
G28 ; home all axes
G32 ; run bed.g -- probe bed and enable compensation
; process Process1
; layer 1, Z = 0.300
T0
G92 E0.0000
G1 E-3.0000 F3600
; feature skirt
; tool H0.300 W0.720
G1 Z0.300 F1200
G1 X69.667 Y72.601 F18000
G1 E0.0000 F3600
G92 E0.0000
G1 X72.181 Y71.560 E0.2517 F1440
G1 X122.710 Y71.563 E4.9254
G1 X123.093 Y71.584 E4.9609
G1 X124.738 Y71.770 E5.1140
G1 X125.487 Y71.941 E5.1851
G1 X127.248 Y72.557 E5.3577
G1 X127.940 Y72.890 E5.4287
G1 X129.520 Y73.883 E5.6013
G1 X130.120 Y74.362 E5.6723
G1 X131.438 Y75.680 E5.8447
G1 X131.917 Y76.280 E5.9158
G1 X132.910 Y77.861 E6.0885
G1 X133.244 Y78.553 E6.1595
G1 X133.859 Y80.313 E6.3320
G1 X134.030 Y81.062 E6.4030
G1 X134.219 Y82.731 E6.5584
G1 X134.240 Y83.114 E6.5939
G1 X134.240 Y116.886 E9.7176
G1 X134.219 Y117.269 E9.7531
G1 X134.030 Y118.938 E9.9085
G1 X133.860 Y119.687 E9.9796
G1 X133.243 Y121.447 E10.1521
G1 X132.910 Y122.140 E10.2231
G1 X131.917 Y123.720 E10.3958
G1 X131.438 Y124.320 E10.4668
G1 X130.120 Y125.639 E10.6393
G1 X129.519 Y126.118 E10.7103
G1 X127.939 Y127.110 E10.8829
G1 X127.247 Y127.444 E10.9540
G1 X125.487 Y128.059 E11.1265
G1 X124.738 Y128.230 E11.1975
G1 X123.069 Y128.419 E11.3529
G1 X122.686 Y128.440 E11.3884
G1 X92.314 Y128.440 E14.1976
G1 X91.931 Y128.419 E14.2331
G1 X90.262 Y128.230 E14.3885
G1 X89.513 Y128.059 E14.4595
G1 X87.753 Y127.444 E14.6320
G1 X87.061 Y127.110 E14.7031
G1 X85.480 Y126.117 E14.8757
G1 X84.880 Y125.638 E14.9468
G1 X83.561 Y124.320 E15.1193
G1 X83.082 Y123.719 E15.1903
G1 X82.090 Y122.139 E15.3629
G1 X81.756 Y121.447 E15.4339
G1 X81.140 Y119.686 E15.6065
G1 X80.969 Y118.937 E15.6776
G1 X80.761 Y117.084 E15.8501
G1 X80.761 Y116.316 E15.9211
G1 X80.969 Y114.463 E16.0936
G1 X81.140 Y113.714 E16.1647
G1 X81.756 Y111.953 E16.3372
G1 X82.090 Y111.261 E16.4083
G1 X83.082 Y109.681 E16.5809
G1 X83.561 Y109.080 E16.6519
G1 X84.880 Y107.762 E16.8244
G1 X85.480 Y107.283 E16.8955
G1 X85.813 Y107.073 E16.9318
G1 X87.947 Y104.940 E17.2109
G1 X96.687 Y104.940 E18.0194
G1 X96.691 Y104.960 E18.0213
G1 X106.708 Y104.960 E18.9478
G1 X110.760 Y100.908 E19.4779
G1 X110.760 Y92.040 E20.2981
G1 X72.181 Y92.040 E23.8665
G1 X69.667 Y90.999 E24.1182
G1 X67.651 Y88.983 E24.3819
G1 X66.610 Y86.469 E24.6336
G1 X66.610 Y77.131 E25.4974
G1 X67.651 Y74.617 E25.7491
G1 X69.667 Y72.601 E26.0127
G1 X70.075 Y73.211 F18000
G92 E0.0000
G1 X72.325 Y72.280 E0.2252 F1440
G1 X122.690 Y72.283 E4.8838
G1 X123.033 Y72.302 E4.9156
G1 X124.617 Y72.480 E5.0631
G1 X125.287 Y72.633 E5.1267
G1 X126.972 Y73.223 E5.2917
G1 X127.591 Y73.521 E5.3553
G1 X129.102 Y74.471 E5.5204
G1 X129.640 Y74.899 E5.5840
G1 X130.901 Y76.160 E5.7489
G1 X131.329 Y76.698 E5.8125
G1 X132.279 Y78.210 E5.9777
G1 X132.577 Y78.829 E6.0412
G1 X133.167 Y80.513 E6.2062
G1 X133.320 Y81.183 E6.2698
G1 X133.501 Y82.791 E6.4196
G1 X133.520 Y83.134 E6.4513
G1 X133.520 Y116.866 E9.5713
G1 X133.501 Y117.208 E9.6031
G1 X133.320 Y118.817 E9.7528
G1 X133.167 Y119.487 E9.8164
G1 X132.577 Y121.172 E9.9815
G1 X132.279 Y121.791 E10.0450
G1 X131.329 Y123.302 E10.2102
G1 X130.900 Y123.840 E10.2738
G1 X129.639 Y125.101 E10.4387
G1 X129.102 Y125.530 E10.5023
G1 X127.591 Y126.479 E10.6674
G1 X126.971 Y126.777 E10.7310
G1 X125.287 Y127.367 E10.8960
G1 X124.617 Y127.520 E10.9596
G1 X123.009 Y127.701 E11.1093
G1 X122.666 Y127.720 E11.1411
G1 X92.334 Y127.720 E13.9466
G1 X91.991 Y127.701 E13.9784
G1 X90.383 Y127.520 E14.1281
G1 X89.713 Y127.367 E14.1917
G1 X88.029 Y126.777 E14.3567
G1 X87.409 Y126.479 E14.4203
G1 X85.898 Y125.529 E14.5854
G1 X85.360 Y125.100 E14.6490
G1 X84.099 Y123.839 E14.8140
G1 X83.670 Y123.302 E14.8776
G1 X82.721 Y121.791 E15.0427
G1 X82.423 Y121.171 E15.1063
G1 X81.833 Y119.487 E15.2713
G1 X81.680 Y118.816 E15.3349
G1 X81.481 Y117.044 E15.4999
G1 X81.481 Y116.356 E15.5635
G1 X81.680 Y114.584 E15.7285
G1 X81.833 Y113.913 E15.7921
G1 X82.423 Y112.229 E15.9572
G1 X82.721 Y111.609 E16.0208
G1 X83.670 Y110.098 E16.1859
G1 X84.099 Y109.561 E16.2494
G1 X85.360 Y108.300 E16.4144
G1 X85.898 Y107.871 E16.4780
G1 X86.265 Y107.640 E16.5182
G1 X88.245 Y105.660 E16.7771
G1 X96.079 Y105.660 E17.5018
G1 X96.083 Y105.680 E17.5037
G1 X107.006 Y105.680 E18.5141
G1 X111.480 Y101.206 E19.0993
G1 X111.480 Y91.320 E20.0137
G1 X72.324 Y91.320 E23.6355
G1 X70.075 Y90.388 E23.8607
G1 X68.262 Y88.575 E24.0978
G1 X67.330 Y86.326 E24.3231
G1 X67.330 Y77.274 E25.1603
G1 X68.262 Y75.025 E25.3855
G1 X70.075 Y73.211 E25.6227
G1 X70.483 Y73.822 F18000
G92 E0.0000
G1 X72.468 Y73.000 E0.1987 F1440
G1 X122.670 Y73.003 E4.8422
G1 X122.972 Y73.020 E4.8702
G1 X124.496 Y73.191 E5.0121
G1 X125.088 Y73.326 E5.0682
G1 X126.696 Y73.889 E5.2258
G1 X127.242 Y74.152 E5.2819
G1 X128.685 Y75.059 E5.4395
G1 X129.159 Y75.437 E5.4956
G1 X130.363 Y76.641 E5.6531
G1 X130.741 Y77.115 E5.7092
G1 X131.648 Y78.558 E5.8669
G1 X131.911 Y79.105 E5.9230
G1 X132.474 Y80.712 E6.0805
G1 X132.609 Y81.304 E6.1366
G1 X132.783 Y82.852 E6.2807
G1 X132.800 Y83.155 E6.3087
G1 X132.800 Y116.845 E9.4250
G1 X132.783 Y117.148 E9.4531
G1 X132.609 Y118.696 E9.5972
G1 X132.474 Y119.288 E9.6533
G1 X131.911 Y120.896 E9.8108
G1 X131.648 Y121.442 E9.8669
G1 X130.741 Y122.885 E10.0246
G1 X130.363 Y123.359 E10.0807
G1 X129.159 Y124.563 E10.2382
G1 X128.685 Y124.941 E10.2943
G1 X127.242 Y125.848 E10.4519
G1 X126.695 Y126.111 E10.5080
G1 X125.088 Y126.674 E10.6655
G1 X124.496 Y126.809 E10.7216
G1 X122.948 Y126.983 E10.8657
G1 X122.646 Y127.000 E10.8938
G1 X92.354 Y127.000 E13.6956
G1 X92.052 Y126.983 E13.7236
G1 X90.504 Y126.809 E13.8677
G1 X89.912 Y126.674 E13.9238
G1 X88.305 Y126.111 E14.0814
G1 X87.758 Y125.848 E14.1375
G1 X86.315 Y124.941 E14.2951
G1 X85.841 Y124.563 E14.3512
G1 X84.637 Y123.359 E14.5088
G1 X84.259 Y122.885 E14.5649
G1 X83.352 Y121.442 E14.7225
G1 X83.089 Y120.895 E14.7786
G1 X82.526 Y119.287 E14.9362
G1 X82.391 Y118.696 E14.9923
G1 X82.201 Y117.003 E15.1498
G1 X82.201 Y116.397 E15.2059
G1 X82.391 Y114.704 E15.3634
G1 X82.526 Y114.113 E15.4195
G1 X83.089 Y112.505 E15.5771
G1 X83.352 Y111.958 E15.6332
G1 X84.259 Y110.515 E15.7909
G1 X84.637 Y110.041 E15.8469
G1 X85.841 Y108.837 E16.0045
G1 X86.315 Y108.459 E16.0606
G1 X86.717 Y108.206 E16.1045
G1 X88.543 Y106.380 E16.3434
G1 X95.471 Y106.380 E16.9842
G1 X95.475 Y106.400 E16.9861
G1 X107.305 Y106.400 E18.0803
G1 X112.200 Y101.505 E18.7207
G1 X112.200 Y90.600 E19.7293
G1 X72.467 Y90.600 E23.4044
G1 X70.483 Y89.778 E23.6031
G1 X68.872 Y88.168 E23.8138
G1 X68.050 Y86.183 E24.0125
G1 X68.050 Y77.417 E24.8233
G1 X68.872 Y75.433 E25.0220
G1 X70.483 Y73.822 E25.2327
G1 X70.891 Y74.432 F18000
G92 E0.0000
G1 X72.611 Y73.720 E0.1722 F1440
G1 X122.649 Y73.723 E4.8006
G1 X122.912 Y73.737 E4.8249
G1 X124.376 Y73.902 E4.9612
G1 X124.888 Y74.019 E5.0098
G1 X126.420 Y74.555 E5.1599
G1 X126.893 Y74.784 E5.2085
G1 X128.268 Y75.647 E5.3586
G1 X128.678 Y75.975 E5.4073
G1 X129.825 Y77.122 E5.5573
G1 X130.153 Y77.532 E5.6059
G1 X131.017 Y78.907 E5.7561
G1 X131.245 Y79.381 E5.8047
G1 X131.781 Y80.912 E5.9547
G1 X131.898 Y81.424 E6.0034
G1 X132.065 Y82.912 E6.1419
G1 X132.080 Y83.175 E6.1662
G1 X132.080 Y116.825 E9.2787
G1 X132.065 Y117.087 E9.3030
G1 X131.898 Y118.575 E9.4415
G1 X131.781 Y119.088 E9.4901
G1 X131.245 Y120.620 E9.6402
G1 X131.017 Y121.093 E9.6888
G1 X130.153 Y122.468 E9.8390
G1 X129.825 Y122.879 E9.8876
G1 X128.678 Y124.026 E10.0377
G1 X128.267 Y124.353 E10.0863
G1 X126.893 Y125.217 E10.2364
G1 X126.419 Y125.445 E10.2850
G1 X124.888 Y125.981 E10.4351
G1 X124.376 Y126.098 E10.4837
G1 X122.888 Y126.265 E10.6222
G1 X122.625 Y126.280 E10.6465
G1 X92.375 Y126.280 E13.4446
G1 X92.112 Y126.265 E13.4689
G1 X90.624 Y126.098 E13.6074
G1 X90.112 Y125.981 E13.6560
G1 X88.581 Y125.445 E13.8061
G1 X88.107 Y125.217 E13.8547
G1 X86.732 Y124.353 E14.0048
G1 X86.321 Y124.025 E14.0535
G1 X85.174 Y122.878 E14.2035
G1 X84.847 Y122.467 E14.2521
G1 X83.983 Y121.093 E14.4022
G1 X83.755 Y120.619 E14.4509
G1 X83.219 Y119.087 E14.6010
G1 X83.102 Y118.575 E14.6496
G1 X82.921 Y116.963 E14.7997
G1 X82.921 Y116.437 E14.8483
G1 X83.102 Y114.825 E14.9984
G1 X83.219 Y114.313 E15.0470
G1 X83.755 Y112.781 E15.1971
G1 X83.983 Y112.307 E15.2457
G1 X84.847 Y110.933 E15.3958
G1 X85.174 Y110.522 E15.4445
G1 X86.321 Y109.375 E15.5945
G1 X86.732 Y109.047 E15.6431
G1 X87.169 Y108.773 E15.6908
G1 X88.842 Y107.100 E15.9096
G1 X94.863 Y107.100 E16.4666
G1 X94.867 Y107.120 E16.4685
G1 X107.603 Y107.120 E17.6465
G1 X112.920 Y101.803 E18.3421
G1 X112.920 Y90.557 E19.3822
G1 X112.881 Y90.213 E19.4143
G1 X112.852 Y90.130 E19.4224
G1 X112.806 Y90.056 E19.4305
G1 X112.744 Y89.994 E19.4386
G1 X112.670 Y89.948 E19.4467
G1 X112.587 Y89.919 E19.4548
G1 X112.243 Y89.880 E19.4868
G1 X72.611 Y89.880 E23.1526
G1 X70.891 Y89.168 E23.3249
G1 X69.483 Y87.760 E23.5090
G1 X68.770 Y86.039 E23.6813
G1 X68.770 Y77.561 E24.4655
G1 X69.482 Y75.840 E24.6377
G1 X70.891 Y74.432 E24.8219
G1 X71.298 Y75.043 F18000
G92 E0.0000
G1 X72.754 Y74.440 E0.1457 F1440
G1 X122.629 Y74.443 E4.7590
G1 X122.851 Y74.455 E4.7796
G1 X124.255 Y74.613 E4.9102
G1 X124.688 Y74.712 E4.9513
G1 X126.144 Y75.222 E5.0940
G1 X126.545 Y75.415 E5.1351
G1 X127.850 Y76.235 E5.2778
G1 X128.198 Y76.512 E5.3189
G1 X129.288 Y77.602 E5.4614
G1 X129.565 Y77.950 E5.5026
G1 X130.386 Y79.256 E5.6453
G1 X130.579 Y79.657 E5.6864
G1 X131.088 Y81.112 E5.8290
G1 X131.187 Y81.545 E5.8701
G1 X131.348 Y82.973 E6.0030
G1 X131.360 Y83.195 E6.0236
G1 X131.360 Y116.805 E9.1324
G1 X131.348 Y117.027 E9.1530
G1 X131.187 Y118.455 E9.2858
G1 X131.088 Y118.888 E9.3270
G1 X130.578 Y120.344 E9.4696
G1 X130.386 Y120.744 E9.5107
G1 X129.565 Y122.050 E9.6534
G1 X129.288 Y122.398 E9.6945
G1 X128.198 Y123.488 E9.8371
G1 X127.850 Y123.765 E9.8782
G1 X126.544 Y124.586 E10.0209
G1 X126.143 Y124.779 E10.0620
G1 X124.688 Y125.288 E10.2046
G1 X124.255 Y125.387 E10.2458
G1 X122.827 Y125.548 E10.3786
G1 X122.605 Y125.560 E10.3992
G1 X92.395 Y125.560 E13.1936
G1 X92.173 Y125.548 E13.2141
G1 X90.745 Y125.387 E13.3470
G1 X90.312 Y125.288 E13.3881
G1 X88.857 Y124.779 E13.5307
G1 X88.456 Y124.586 E13.5719
G1 X87.150 Y123.765 E13.7145
G1 X86.802 Y123.488 E13.7557
G1 X85.712 Y122.398 E13.8983
G1 X85.435 Y122.050 E13.9394
G1 X84.614 Y120.744 E14.0820
G1 X84.421 Y120.343 E14.1232
G1 X83.912 Y118.888 E14.2658
G1 X83.813 Y118.454 E14.3070
G1 X83.641 Y116.922 E14.4495
G1 X83.641 Y116.478 E14.4907
G1 X83.813 Y114.946 E14.6333
G1 X83.912 Y114.512 E14.6744
G1 X84.421 Y113.057 E14.8171
G1 X84.614 Y112.656 E14.8582
G1 X85.435 Y111.350 E15.0008
G1 X85.712 Y111.002 E15.0420
G1 X86.802 Y109.912 E15.1845
G1 X87.150 Y109.635 E15.2257
