; G-Code generated by Simplify3D(R) Version 4.1.2
; Apr 1, 2022 at 12:31:22 PM
; Settings Summary
;   processName,Process1
;   applyToModels,Part1
;   profileName,HSBot (modified)
;   profileVersion,2019-11-09 11:59:44
;   baseProfile,Default
;   printMaterial,PETG - Eryone
;   printQuality,Medium
;   printExtruders,
;   extruderName,Extruder 1,Extruder - Lite
;   extruderToolheadNumber,0,1
;   extruderDiameter,0.4,0.4
;   extruderAutoWidth,1,1
;   extruderWidth,0.48,0.48
;   extrusionMultiplier,1.03,0.93
;   extruderUseRetract,1,1
;   extruderRetractionDistance,3,1
;   extruderExtraRestartDistance,0,0
;   extruderRetractionZLift,0,0
;   extruderRetractionSpeed,3600,1800
;   extruderUseCoasting,1,0
;   extruderCoastingDistance,0.2,0.2
;   extruderUseWipe,1,0
;   extruderWipeDistance,2,5
;   primaryExtruder,0
;   layerHeight,0.2
;   topSolidLayers,3
;   bottomSolidLayers,3
;   perimeterOutlines,3
;   printPerimetersInsideOut,1
;   startPointOption,2
;   startPointOriginX,0
;   startPointOriginY,0
;   sequentialIslands,0
;   spiralVaseMode,0
;   firstLayerHeightPercentage,150
;   firstLayerWidthPercentage,150
;   firstLayerUnderspeed,0.3
;   useRaft,0
;   raftExtruder,0
;   raftTopLayers,3
;   raftBaseLayers,2
;   raftOffset,3
;   raftSeparationDistance,0.18
;   raftTopInfill,100
;   aboveRaftSpeedMultiplier,0.3
;   useSkirt,1
;   skirtExtruder,0
;   skirtLayers,1
;   skirtOutlines,3
;   skirtOffset,5
;   usePrimePillar,0
;   primePillarExtruder,999
;   primePillarWidth,12
;   primePillarLocation,7
;   primePillarSpeedMultiplier,1
;   useOozeShield,0
;   oozeShieldExtruder,999
;   oozeShieldOffset,2
;   oozeShieldOutlines,1
;   oozeShieldSidewallShape,1
;   oozeShieldSidewallAngle,30
;   oozeShieldSpeedMultiplier,1
;   infillExtruder,0
;   internalInfillPattern,Fast Honeycomb
;   externalInfillPattern,Rectilinear
;   infillPercentage,15
;   outlineOverlapPercentage,15
;   infillExtrusionWidthPercentage,100
;   minInfillLength,5
;   infillLayerInterval,1
;   internalInfillAngles,0
;   overlapInternalInfillAngles,0
;   externalInfillAngles,45,-45
;   generateSupport,0
;   supportExtruder,0
;   supportInfillPercentage,30
;   supportExtraInflation,0
;   supportBaseLayers,1
;   denseSupportExtruder,0
;   denseSupportLayers,0
;   denseSupportInfillPercentage,70
;   supportLayerInterval,1
;   supportHorizontalPartOffset,0.3
;   supportUpperSeparationLayers,1
;   supportLowerSeparationLayers,1
;   supportType,1
;   supportGridSpacing,3
;   maxOverhangAngle,45
;   supportAngles,0
;   temperatureName,Extruder 1,Bed
;   temperatureNumber,0,0
;   temperatureSetpointCount,1,1
;   temperatureSetpointLayers,1,1
;   temperatureSetpointTemperatures,225,85
;   temperatureStabilizeAtStartup,1,1
;   temperatureHeatedBed,0,1
;   fanLayers,1,2,3
;   fanSpeeds,0,15,15
;   blipFanToFullPower,1
;   adjustSpeedForCooling,1
;   minSpeedLayerTime,15
;   minCoolingSpeedSlowdown,20
;   increaseFanForCooling,0
;   minFanLayerTime,45
;   maxCoolingFanSpeed,40
;   increaseFanForBridging,0
;   bridgingFanSpeed,80
;   use5D,1
;   relativeEdistances,0
;   allowEaxisZeroing,1
;   independentExtruderAxes,0
;   includeM10123,0
;   stickySupport,1
;   applyToolheadOffsets,0
;   gcodeXoffset,0
;   gcodeYoffset,0
;   gcodeZoffset,0
;   overrideMachineDefinition,1
;   machineTypeOverride,0
;   strokeXoverride,210
;   strokeYoverride,210
;   strokeZoverride,150
;   originOffsetXoverride,0
;   originOffsetYoverride,0
;   originOffsetZoverride,0
;   homeXdirOverride,-1
;   homeYdirOverride,-1
;   homeZdirOverride,-1
;   flipXoverride,1
;   flipYoverride,-1
;   flipZoverride,1
;   toolheadOffsets,0,0|0,0|0,0|0,0|0,0|0,0
;   overrideFirmwareConfiguration,0
;   firmwareTypeOverride,RepRap (Marlin/Repetier/Sprinter)
;   GPXconfigOverride,r2
;   baudRateOverride,115200
;   overridePrinterModels,0
;   printerModelsOverride
;   startingGcode,G28 ; home all axes,G32 ; run bed.g -- probe bed and enable compensation
;   layerChangeGcode,
;   retractionGcode,
;   toolChangeGcode,
;   endingGcode,M0 ; call stop.g
;   exportFileFormat,gcode
;   celebration,0
;   celebrationSong,Random Song
;   postProcessing,
;   defaultSpeed,3600
;   outlineUnderspeed,0.5
;   solidInfillUnderspeed,0.8
;   supportUnderspeed,0.8
;   rapidXYspeed,18000
;   rapidZspeed,1200
;   minBridgingArea,50
;   bridgingExtraInflation,0
;   bridgingExtrusionMultiplier,0.96
;   bridgingSpeedMultiplier,1
;   useFixedBridgingAngle,0
;   fixedBridgingAngle,0
;   applyBridgingToPerimeters,0
;   filamentDiameters,1.75|1.75|1.75|1.75|1.75|1.75
;   filamentPricesPerKg,25|46|46|46|46|46
;   filamentDensities,1.25|1.25|1.25|1.25|1.25|1.25
;   useMinPrintHeight,0
;   minPrintHeight,0
;   useMaxPrintHeight,0
;   maxPrintHeight,0
;   useDiaphragm,1
;   diaphragmLayerInterval,20
;   robustSlicing,1
;   mergeAllIntoSolid,0
;   onlyRetractWhenCrossingOutline,1
;   retractBetweenLayers,0
;   useRetractionMinTravel,1
;   retractionMinTravel,5
;   retractWhileWiping,1
;   onlyWipeOutlines,1
;   avoidCrossingOutline,1
;   maxMovementDetourFactor,3
;   toolChangeRetractionDistance,12
;   toolChangeExtraRestartDistance,-0.5
;   toolChangeRetractionSpeed,600
;   externalThinWallType,0
;   internalThinWallType,1
;   thinWallAllowedOverlapPercentage,10
;   singleExtrusionMinLength,0.1
;   singleExtrusionMinPrintingWidthPercentage,50
;   singleExtrusionMaxPrintingWidthPercentage,200
;   singleExtrusionEndpointExtension,0.2
;   horizontalSizeCompensation,-0.1
G90
M82
M106 S0
M140 S85
M190 S85
G10 S225 R{225-50} P0
M116 P0
G28 ; home all axes
G32 ; run bed.g -- probe bed and enable compensation
; process Process1
; layer 1, Z = 0.300
T0
G92 E0.0000
G1 E-3.0000 F3600
; feature skirt
; tool H0.300 W0.720
G1 Z0.300 F1200
G1 X65.800 Y79.157 F18000
G1 E0.0000 F3600
G92 E0.0000
G1 X70.800 Y75.553 E0.5701 F1080
G1 X70.800 Y74.823 E0.6376
G1 X76.448 Y70.753 E1.2815
G1 X82.500 Y72.770 E1.8716
G1 X86.397 Y71.471 E2.2515
G1 X88.603 Y71.471 E2.4557
G1 X92.500 Y72.770 E2.8356
G1 X96.397 Y71.471 E3.2155
G1 X98.603 Y71.471 E3.4196
G1 X102.500 Y72.770 E3.7995
G1 X106.397 Y71.471 E4.1794
G1 X108.603 Y71.471 E4.3836
G1 X112.500 Y72.770 E4.7635
G1 X116.397 Y71.471 E5.1434
G1 X118.603 Y71.471 E5.3475
G1 X122.500 Y72.770 E5.7274
G1 X126.397 Y71.471 E6.1074
G1 X128.603 Y71.471 E6.3115
G1 X132.500 Y72.770 E6.6914
G1 X138.552 Y70.753 E7.2815
G1 X144.200 Y74.823 E7.9254
G1 X144.200 Y130.843 E13.1071
G1 X139.200 Y134.447 E13.6771
G1 X139.200 Y135.177 E13.7447
G1 X133.552 Y139.247 E14.3886
G1 X127.500 Y137.230 E14.9787
G1 X123.603 Y138.529 E15.3586
G1 X121.397 Y138.529 E15.5627
G1 X117.500 Y137.230 E15.9427
G1 X113.603 Y138.529 E16.3226
G1 X111.397 Y138.529 E16.5267
G1 X107.500 Y137.230 E16.9066
G1 X103.603 Y138.529 E17.2865
G1 X101.397 Y138.529 E17.4907
G1 X97.500 Y137.230 E17.8706
G1 X93.603 Y138.529 E18.2505
G1 X91.397 Y138.529 E18.4546
G1 X87.500 Y137.230 E18.8345
G1 X83.603 Y138.529 E19.2144
G1 X81.397 Y138.529 E19.4186
G1 X77.500 Y137.230 E19.7985
G1 X71.448 Y139.247 E20.3886
G1 X65.800 Y135.177 E21.0325
G1 X65.800 Y79.157 E26.2142
G1 X66.520 Y79.525 F18000
G92 E0.0000
G1 X71.520 Y75.921 E0.5701 F1080
G1 X71.520 Y75.192 E0.6376
G1 X76.570 Y71.552 E1.2134
G1 X82.500 Y73.529 E1.7915
G1 X86.513 Y72.191 E2.1828
G1 X88.487 Y72.191 E2.3654
G1 X92.500 Y73.529 E2.7567
G1 X96.513 Y72.191 E3.1480
G1 X98.487 Y72.191 E3.3305
G1 X102.500 Y73.529 E3.7218
G1 X106.513 Y72.191 E4.1131
G1 X108.487 Y72.191 E4.2956
G1 X112.500 Y73.529 E4.6869
G1 X116.513 Y72.191 E5.0782
G1 X118.487 Y72.191 E5.2607
G1 X122.500 Y73.529 E5.6520
G1 X126.513 Y72.191 E6.0433
G1 X128.487 Y72.191 E6.2259
G1 X132.500 Y73.529 E6.6172
G1 X138.430 Y71.552 E7.1953
G1 X143.480 Y75.192 E7.7711
G1 X143.480 Y130.474 E12.8846
G1 X138.480 Y134.078 E13.4546
G1 X138.480 Y134.808 E13.5222
G1 X133.430 Y138.448 E14.0979
G1 X127.500 Y136.471 E14.6761
G1 X123.487 Y137.809 E15.0674
G1 X121.513 Y137.809 E15.2499
G1 X117.500 Y136.471 E15.6413
G1 X113.487 Y137.809 E16.0326
G1 X111.513 Y137.809 E16.2151
G1 X107.500 Y136.471 E16.6064
G1 X103.487 Y137.809 E16.9977
G1 X101.513 Y137.809 E17.1802
G1 X97.500 Y136.471 E17.5715
G1 X93.487 Y137.809 E17.9628
G1 X91.513 Y137.809 E18.1453
G1 X87.500 Y136.471 E18.5366
G1 X83.487 Y137.809 E18.9279
G1 X81.513 Y137.809 E19.1105
G1 X77.500 Y136.471 E19.5018
G1 X71.570 Y138.448 E20.0799
G1 X66.520 Y134.808 E20.6557
G1 X66.520 Y79.525 E25.7692
G1 X67.240 Y79.894 F18000
G92 E0.0000
G1 X71.692 Y76.685 E0.5076 F1080
G1 X72.240 Y76.868 E0.5610
G1 X72.240 Y75.561 E0.6820
G1 X76.692 Y72.352 E1.1896
G1 X82.500 Y74.288 E1.7558
G1 X86.630 Y72.911 E2.1585
G1 X88.370 Y72.911 E2.3194
G1 X92.500 Y74.288 E2.7221
G1 X96.630 Y72.911 E3.1248
G1 X98.370 Y72.911 E3.2857
G1 X102.500 Y74.288 E3.6884
G1 X106.630 Y72.911 E4.0911
G1 X108.370 Y72.911 E4.2520
G1 X112.500 Y74.288 E4.6547
G1 X116.630 Y72.911 E5.0574
G1 X118.370 Y72.911 E5.2183
G1 X122.500 Y74.288 E5.6210
G1 X126.630 Y72.911 E6.0237
G1 X128.370 Y72.911 E6.1846
G1 X132.500 Y74.288 E6.5873
G1 X138.308 Y72.352 E7.1536
G1 X142.760 Y75.561 E7.6612
G1 X142.760 Y130.106 E12.7064
G1 X138.308 Y133.315 E13.2140
G1 X137.760 Y133.132 E13.2675
G1 X137.760 Y134.439 E13.3884
G1 X133.308 Y137.648 E13.8960
G1 X127.500 Y135.712 E14.4623
G1 X123.370 Y137.089 E14.8650
G1 X121.630 Y137.089 E15.0259
G1 X117.500 Y135.712 E15.4286
G1 X113.370 Y137.089 E15.8313
G1 X111.630 Y137.089 E15.9922
G1 X107.500 Y135.712 E16.3949
G1 X103.370 Y137.089 E16.7976
G1 X101.630 Y137.089 E16.9585
G1 X97.500 Y135.712 E17.3612
G1 X93.370 Y137.089 E17.7639
G1 X91.630 Y137.089 E17.9248
G1 X87.500 Y135.712 E18.3275
G1 X83.370 Y137.089 E18.7302
G1 X81.630 Y137.089 E18.8911
G1 X77.500 Y135.712 E19.2938
G1 X71.692 Y137.648 E19.8601
G1 X67.240 Y134.439 E20.3677
G1 X67.240 Y79.894 E25.4130
G92 E0.0000
G1 E-3.0000 F3600
; feature outer perimeter
G1 X77.960 Y83.991 F18000
G1 E0.0000 F3600
G92 E0.0000
G1 X82.500 Y82.478 E0.4426 F540
G1 X87.480 Y84.138 E0.9282
G1 X87.480 Y78.657 E1.4351
G1 X87.500 Y78.651 E1.4371
G1 X87.520 Y78.657 E1.4390
G1 X87.520 Y84.138 E1.9460
G1 X92.500 Y82.478 E2.4315
G1 X97.480 Y84.138 E2.9171
G1 X97.480 Y78.657 E3.4240
G1 X97.500 Y78.651 E3.4260
G1 X97.520 Y78.657 E3.4279
G1 X97.520 Y84.138 E3.9349
G1 X102.500 Y82.478 E4.4204
G1 X107.480 Y84.138 E4.9060
G1 X107.480 Y78.657 E5.4129
G1 X107.500 Y78.651 E5.4149
G1 X107.520 Y78.657 E5.4168
G1 X107.520 Y84.138 E5.9238
G1 X112.500 Y82.478 E6.4093
G1 X117.480 Y84.138 E6.8949
G1 X117.480 Y78.657 E7.4018
G1 X117.500 Y78.651 E7.4038
G1 X117.520 Y78.657 E7.4057
G1 X117.520 Y84.138 E7.9126
G1 X122.500 Y82.478 E8.3982
G1 X127.480 Y84.138 E8.8837
G1 X127.480 Y78.657 E9.3907
G1 X127.500 Y78.651 E9.3926
G1 X127.520 Y78.657 E9.3946
G1 X127.520 Y84.138 E9.9015
G1 X132.040 Y82.631 E10.3422
G1 X132.040 Y82.673 E10.3461
G1 X127.500 Y84.187 E10.7888
G1 X122.520 Y82.527 E11.2743
G1 X122.520 Y88.472 E11.8242
G1 X127.500 Y86.812 E12.3098
G1 X132.040 Y88.325 E12.7524
G1 X132.040 Y88.367 E12.7563
G1 X127.520 Y86.860 E13.1970
G1 X127.520 Y92.805 E13.7469
G1 X132.040 Y91.298 E14.1876
G1 X132.040 Y91.340 E14.1915
G1 X127.500 Y92.854 E14.6341
G1 X122.520 Y91.194 E15.1197
G1 X122.520 Y97.139 E15.6695
G1 X127.500 Y95.479 E16.1551
G1 X132.040 Y96.992 E16.5977
G1 X132.040 Y97.034 E16.6016
G1 X127.520 Y95.527 E17.0423
G1 X127.520 Y101.472 E17.5922
G1 X132.040 Y99.965 E18.0329
G1 X132.040 Y100.007 E18.0368
G1 X127.500 Y101.521 E18.4794
G1 X122.520 Y99.861 E18.9650
G1 X122.520 Y105.806 E19.5148
G1 X127.500 Y104.146 E20.0004
G1 X132.040 Y105.659 E20.4430
G1 X132.040 Y105.701 E20.4469
G1 X127.520 Y104.194 E20.8876
G1 X127.520 Y110.139 E21.4375
G1 X132.040 Y108.632 E21.8782
G1 X132.040 Y108.674 E21.8821
G1 X127.500 Y110.188 E22.3247
G1 X122.520 Y108.528 E22.8103
G1 X122.520 Y114.473 E23.3602
G1 X127.500 Y112.813 E23.8457
G1 X132.040 Y114.326 E24.2884
G1 X132.040 Y114.368 E24.2923
G1 X127.520 Y112.861 E24.7330
G1 X127.520 Y118.806 E25.2828
G1 X132.040 Y117.299 E25.7235
G1 X132.040 Y117.341 E25.7274
G1 X127.500 Y118.855 E26.1701
G1 X122.520 Y117.195 E26.6556
G1 X122.520 Y123.140 E27.2055
G1 X127.500 Y121.480 E27.6910
G1 X132.040 Y122.993 E28.1337
G1 X132.040 Y123.035 E28.1376
G1 X127.520 Y121.528 E28.5783
G1 X127.520 Y127.473 E29.1281
G1 X132.040 Y125.966 E29.5688
G1 X132.040 Y126.008 E29.5727
G1 X127.500 Y127.522 E30.0154
G1 X122.520 Y125.862 E30.5009
G1 X122.520 Y131.343 E31.0079
G1 X122.500 Y131.349 E31.0098
G1 X122.480 Y131.343 E31.0118
G1 X122.480 Y125.862 E31.5188
G1 X117.500 Y127.522 E32.0043
G1 X112.520 Y125.862 E32.4899
G1 X112.520 Y131.343 E32.9968
G1 X112.500 Y131.349 E32.9988
G1 X112.480 Y131.343 E33.0007
G1 X112.480 Y125.862 E33.5077
G1 X107.500 Y127.522 E33.9933
G1 X102.520 Y125.862 E34.4788
G1 X102.520 Y131.343 E34.9858
G1 X102.500 Y131.349 E34.9877
G1 X102.480 Y131.343 E34.9897
G1 X102.480 Y125.862 E35.4967
G1 X97.500 Y127.522 E35.9822
G1 X92.520 Y125.862 E36.4678
G1 X92.520 Y131.343 E36.9747
G1 X92.500 Y131.349 E36.9767
G1 X92.480 Y131.343 E36.9786
G1 X92.480 Y125.862 E37.4856
G1 X87.500 Y127.522 E37.9712
G1 X82.520 Y125.862 E38.4567
G1 X82.520 Y131.343 E38.9637
G1 X82.500 Y131.349 E38.9656
G1 X82.480 Y131.343 E38.9676
G1 X82.480 Y125.862 E39.4746
G1 X77.960 Y127.368 E39.9153
G1 X77.960 Y127.326 E39.9192
G1 X82.500 Y125.813 E40.3618
G1 X87.480 Y127.473 E40.8474
G1 X87.480 Y121.528 E41.3972
G1 X82.500 Y123.188 E41.8827
G1 X77.960 Y121.675 E42.3254
G1 X77.960 Y121.633 E42.3293
G1 X82.480 Y123.140 E42.7700
G1 X82.480 Y117.195 E43.3199
G1 X77.960 Y118.701 E43.7606
G1 X77.960 Y118.659 E43.7645
G1 X82.500 Y117.146 E44.2071
G1 X87.480 Y118.806 E44.6927
G1 X87.480 Y112.861 E45.2425
G1 X82.500 Y114.521 E45.7281
G1 X77.960 Y113.008 E46.1707
G1 X77.960 Y112.966 E46.1746
G1 X82.480 Y114.473 E46.6153
G1 X82.480 Y108.528 E47.1652
G1 X77.960 Y110.034 E47.6059
G1 X77.960 Y109.992 E47.6098
G1 X82.500 Y108.479 E48.0524
G1 X87.480 Y110.139 E48.5380
G1 X87.480 Y104.194 E49.0878
G1 X82.500 Y105.854 E49.5734
G1 X77.960 Y104.341 E50.0160
G1 X77.960 Y104.299 E50.0199
G1 X82.480 Y105.806 E50.4606
G1 X82.480 Y99.861 E51.0105
G1 X77.960 Y101.367 E51.4512
G1 X77.960 Y101.325 E51.4551
G1 X82.500 Y99.812 E51.8977
G1 X87.480 Y101.472 E52.3833
G1 X87.480 Y95.527 E52.9331
G1 X82.500 Y97.187 E53.4187
G1 X77.960 Y95.674 E53.8613
G1 X77.960 Y95.632 E53.8652
G1 X82.480 Y97.139 E54.3059
G1 X82.480 Y91.194 E54.8558
G1 X77.960 Y92.700 E55.2965
G1 X77.960 Y92.658 E55.3004
G1 X82.500 Y91.145 E55.7430
G1 X87.480 Y92.805 E56.2286
G1 X87.480 Y86.860 E56.7784
G1 X82.500 Y88.520 E57.2640
G1 X77.960 Y87.007 E57.7066
G1 X77.960 Y86.965 E57.7105
G1 X82.480 Y88.472 E58.1512
G1 X82.480 Y82.527 E58.7011
G1 X78.110 Y83.983 E59.1272
G1 X77.960 Y84.033 F540
G1 X77.960 Y83.991
G1 X79.857 Y83.359 F540
G1 X81.880 Y82.727 F18000
G1 X82.480 Y82.527
G1 X82.480 Y82.539
G1 X82.520 Y82.527
G92 E0.0000
G1 X82.520 Y88.472 E0.5499 F540
G1 X87.500 Y86.812 E1.0354
G1 X92.480 Y88.472 E1.5210
G1 X92.480 Y82.527 E2.0708
G1 X87.500 Y84.187 E2.5564
G1 X82.710 Y82.590 E3.0234
G1 X82.520 Y82.527 F540
G1 X82.520 Y84.527 F540
G1 X82.520 Y88.472 F18000
G1 X87.451 Y86.828
G1 X87.520 Y86.860
G92 E0.0000
G1 X87.520 Y92.805 E0.5498 F540
G1 X92.500 Y91.145 E1.0354
G1 X97.480 Y92.805 E1.5209
G1 X97.480 Y86.860 E2.0708
G1 X92.500 Y88.520 E2.5563
G1 X87.710 Y86.924 E3.0234
G1 X87.520 Y86.860 F540
G1 X87.520 Y88.860 F540
G1 X87.500 Y92.854 F18000
G92 E0.0000
G1 X82.520 Y91.194 E0.4855 F540
G1 X82.520 Y97.139 E1.0354
G1 X87.500 Y95.479 E1.5210
G1 X92.480 Y97.139 E2.0065
G1 X92.480 Y91.194 E2.5564
G1 X87.690 Y92.790 E3.0234
G1 X87.500 Y92.854 F540
G1 X85.603 Y92.221 F540
G1 X87.520 Y95.527 F18000
G92 E0.0000
G1 X87.520 Y101.472 E0.5498 F540
G1 X92.500 Y99.812 E1.0354
G1 X97.480 Y101.472 E1.5209
G1 X97.480 Y95.527 E2.0708
G1 X92.500 Y97.187 E2.5563
G1 X87.710 Y95.591 E3.0234
G1 X87.520 Y95.527 F540
G1 X87.520 Y97.527 F540
G1 X87.500 Y101.521 F18000
G92 E0.0000
G1 X82.520 Y99.861 E0.4855 F540
G1 X82.520 Y105.806 E1.0354
G1 X87.500 Y104.146 E1.5210
G1 X92.480 Y105.806 E2.0065
G1 X92.480 Y99.861 E2.5564
G1 X87.690 Y101.457 E3.0234
G1 X87.500 Y101.521 F540
G1 X85.603 Y100.888 F540
G1 X87.520 Y104.194 F18000
G92 E0.0000
