; G-Code generated by Simplify3D(R) Version 4.1.2
; Jan 6, 2022 at 9:53:58 PM
; Settings Summary
;   processName,Process1
;   applyToModels,idler-mount
;   profileName,HSBot (modified)
;   profileVersion,2019-11-09 11:59:44
;   baseProfile,Default
;   printMaterial,PETG - Eryone
;   printQuality,Medium
;   printExtruders,
;   extruderName,Extruder 1,Extruder - Lite
;   extruderToolheadNumber,0,1
;   extruderDiameter,0.4,0.4
;   extruderAutoWidth,1,1
;   extruderWidth,0.48,0.48
;   extrusionMultiplier,1.03,0.93
;   extruderUseRetract,1,1
;   extruderRetractionDistance,3,1
;   extruderExtraRestartDistance,0,0
;   extruderRetractionZLift,0,0
;   extruderRetractionSpeed,3600,1800
;   extruderUseCoasting,1,0
;   extruderCoastingDistance,0.2,0.2
;   extruderUseWipe,1,0
;   extruderWipeDistance,5,5
;   primaryExtruder,0
;   layerHeight,0.2
;   topSolidLayers,4
;   bottomSolidLayers,4
;   perimeterOutlines,4
;   printPerimetersInsideOut,1
;   startPointOption,2
;   startPointOriginX,0
;   startPointOriginY,0
;   sequentialIslands,0
;   spiralVaseMode,0
;   firstLayerHeightPercentage,150
;   firstLayerWidthPercentage,150
;   firstLayerUnderspeed,0.3
;   useRaft,0
;   raftExtruder,0
;   raftTopLayers,3
;   raftBaseLayers,2
;   raftOffset,3
;   raftSeparationDistance,0.18
;   raftTopInfill,100
;   aboveRaftSpeedMultiplier,0.3
;   useSkirt,1
;   skirtExtruder,0
;   skirtLayers,1
;   skirtOutlines,10
;   skirtOffset,0
;   usePrimePillar,0
;   primePillarExtruder,999
;   primePillarWidth,12
;   primePillarLocation,7
;   primePillarSpeedMultiplier,1
;   useOozeShield,0
;   oozeShieldExtruder,999
;   oozeShieldOffset,2
;   oozeShieldOutlines,1
;   oozeShieldSidewallShape,1
;   oozeShieldSidewallAngle,30
;   oozeShieldSpeedMultiplier,1
;   infillExtruder,0
;   internalInfillPattern,Fast Honeycomb
;   externalInfillPattern,Rectilinear
;   infillPercentage,20
;   outlineOverlapPercentage,15
;   infillExtrusionWidthPercentage,150
;   minInfillLength,5
;   infillLayerInterval,1
;   internalInfillAngles,0
;   overlapInternalInfillAngles,0
;   externalInfillAngles,45,-45
;   generateSupport,0
;   supportExtruder,0
;   supportInfillPercentage,30
;   supportExtraInflation,0
;   supportBaseLayers,1
;   denseSupportExtruder,0
;   denseSupportLayers,0
;   denseSupportInfillPercentage,70
;   supportLayerInterval,1
;   supportHorizontalPartOffset,0.3
;   supportUpperSeparationLayers,1
;   supportLowerSeparationLayers,1
;   supportType,1
;   supportGridSpacing,3
;   maxOverhangAngle,45
;   supportAngles,0
;   temperatureName,Extruder 1,Bed
;   temperatureNumber,0,0
;   temperatureSetpointCount,1,1
;   temperatureSetpointLayers,1,1
;   temperatureSetpointTemperatures,225,85
;   temperatureStabilizeAtStartup,1,1
;   temperatureHeatedBed,0,1
;   fanLayers,1,2,3
;   fanSpeeds,0,15,25
;   blipFanToFullPower,1
;   adjustSpeedForCooling,1
;   minSpeedLayerTime,15
;   minCoolingSpeedSlowdown,20
;   increaseFanForCooling,0
;   minFanLayerTime,45
;   maxCoolingFanSpeed,40
;   increaseFanForBridging,0
;   bridgingFanSpeed,80
;   use5D,1
;   relativeEdistances,0
;   allowEaxisZeroing,1
;   independentExtruderAxes,0
;   includeM10123,0
;   stickySupport,1
;   applyToolheadOffsets,0
;   gcodeXoffset,0
;   gcodeYoffset,0
;   gcodeZoffset,0
;   overrideMachineDefinition,1
;   machineTypeOverride,0
;   strokeXoverride,200
;   strokeYoverride,200
;   strokeZoverride,150
;   originOffsetXoverride,0
;   originOffsetYoverride,0
;   originOffsetZoverride,0
;   homeXdirOverride,-1
;   homeYdirOverride,-1
;   homeZdirOverride,-1
;   flipXoverride,1
;   flipYoverride,-1
;   flipZoverride,1
;   toolheadOffsets,0,0|0,0|0,0|0,0|0,0|0,0
;   overrideFirmwareConfiguration,0
;   firmwareTypeOverride,RepRap (Marlin/Repetier/Sprinter)
;   GPXconfigOverride,r2
;   baudRateOverride,115200
;   overridePrinterModels,0
;   printerModelsOverride
;   startingGcode,G28 ; home all axes,G32 ; run bed.g -- probe bed and enable compensation
;   layerChangeGcode,
;   retractionGcode,
;   toolChangeGcode,
;   endingGcode,M0 ; call stop.g
;   exportFileFormat,gcode
;   celebration,0
;   celebrationSong,Random Song
;   postProcessing,
;   defaultSpeed,4800
;   outlineUnderspeed,0.5
;   solidInfillUnderspeed,0.8
;   supportUnderspeed,0.8
;   rapidXYspeed,18000
;   rapidZspeed,1200
;   minBridgingArea,50
;   bridgingExtraInflation,0
;   bridgingExtrusionMultiplier,0.96
;   bridgingSpeedMultiplier,1
;   useFixedBridgingAngle,0
;   fixedBridgingAngle,0
;   applyBridgingToPerimeters,0
;   filamentDiameters,1.75|1.75|1.75|1.75|1.75|1.75
;   filamentPricesPerKg,25|46|46|46|46|46
;   filamentDensities,1.25|1.25|1.25|1.25|1.25|1.25
;   useMinPrintHeight,0
;   minPrintHeight,0
;   useMaxPrintHeight,0
;   maxPrintHeight,0
;   useDiaphragm,1
;   diaphragmLayerInterval,20
;   robustSlicing,1
;   mergeAllIntoSolid,0
;   onlyRetractWhenCrossingOutline,1
;   retractBetweenLayers,0
;   useRetractionMinTravel,1
;   retractionMinTravel,3
;   retractWhileWiping,1
;   onlyWipeOutlines,0
;   avoidCrossingOutline,1
;   maxMovementDetourFactor,3
;   toolChangeRetractionDistance,12
;   toolChangeExtraRestartDistance,-0.5
;   toolChangeRetractionSpeed,600
;   externalThinWallType,0
;   internalThinWallType,1
;   thinWallAllowedOverlapPercentage,10
;   singleExtrusionMinLength,0.1
;   singleExtrusionMinPrintingWidthPercentage,50
;   singleExtrusionMaxPrintingWidthPercentage,200
;   singleExtrusionEndpointExtension,0.2
;   horizontalSizeCompensation,-0.1
G90
M82
M106 S0
M140 S85
M190 S85
G10 S225 R{225-50} P0
M116 P0
G28 ; home all axes
G32 ; run bed.g -- probe bed and enable compensation
; process Process1
; layer 1, Z = 0.300
T0
G92 E0.0000
G1 E-3.0000 F3600
; feature skirt
; tool H0.300 W0.720
G1 Z0.300 F1200
G1 X90.285 Y86.760 F18000
G1 E0.0000 F3600
G92 E0.0000
G1 X100.692 Y86.760 E0.9627 F1264
G1 X101.050 Y86.779 E0.9958
G1 X102.920 Y86.975 E1.1697
G1 X103.621 Y87.124 E1.2361
G1 X105.576 Y87.759 E1.4261
G1 X106.230 Y88.051 E1.4924
G1 X108.010 Y89.078 E1.6825
G1 X108.590 Y89.500 E1.7488
G1 X110.117 Y90.875 E1.9388
G1 X110.596 Y91.407 E2.0051
G1 X111.805 Y93.070 E2.1953
G1 X112.163 Y93.691 E2.2616
G1 X112.999 Y95.568 E2.4516
G1 X113.220 Y96.250 E2.5179
G1 X113.647 Y98.260 E2.7080
G1 X113.722 Y98.973 E2.7743
G1 X113.722 Y101.027 E2.9643
G1 X113.647 Y101.740 E3.0306
G1 X113.220 Y103.750 E3.2207
G1 X112.999 Y104.432 E3.2870
G1 X112.163 Y106.309 E3.4770
G1 X111.805 Y106.930 E3.5433
G1 X110.596 Y108.593 E3.7335
G1 X110.117 Y109.125 E3.7998
G1 X108.590 Y110.500 E3.9898
G1 X108.010 Y110.922 E4.0561
G1 X106.230 Y111.949 E4.2462
G1 X105.576 Y112.241 E4.3125
G1 X103.622 Y112.875 E4.5025
G1 X102.920 Y113.025 E4.5688
G1 X101.050 Y113.221 E4.7428
G1 X100.692 Y113.240 E4.7759
G1 X90.285 Y113.240 E5.7386
G1 X86.278 Y109.233 E6.2627
G1 X86.278 Y90.767 E7.9708
G1 X90.285 Y86.760 E8.4949
G1 X90.583 Y87.480 F18000
G92 E0.0000
G1 X100.673 Y87.480 E0.9333 F1264
G1 X100.993 Y87.497 E0.9630
G1 X102.807 Y87.687 E1.1317
G1 X103.435 Y87.821 E1.1910
G1 X105.317 Y88.433 E1.3741
G1 X105.903 Y88.694 E1.4334
G1 X107.617 Y89.683 E1.6165
G1 X108.136 Y90.060 E1.6758
G1 X109.607 Y91.384 E1.8589
G1 X110.036 Y91.861 E1.9182
G1 X111.200 Y93.463 E2.1014
G1 X111.521 Y94.019 E2.1607
G1 X112.325 Y95.826 E2.3437
G1 X112.524 Y96.436 E2.4031
G1 X112.935 Y98.373 E2.5862
G1 X113.002 Y99.011 E2.6455
G1 X113.002 Y100.989 E2.8285
G1 X112.935 Y101.627 E2.8879
G1 X112.524 Y103.564 E3.0710
G1 X112.325 Y104.174 E3.1303
G1 X111.521 Y105.981 E3.3133
G1 X111.200 Y106.537 E3.3727
G1 X110.036 Y108.139 E3.5558
G1 X109.607 Y108.616 E3.6151
G1 X108.136 Y109.940 E3.7982
G1 X107.617 Y110.317 E3.8575
G1 X105.903 Y111.306 E4.0406
G1 X105.317 Y111.567 E4.0999
G1 X103.435 Y112.179 E4.2830
G1 X102.808 Y112.312 E4.3423
G1 X100.993 Y112.503 E4.5110
G1 X100.673 Y112.520 E4.5407
G1 X90.583 Y112.520 E5.4740
G1 X86.998 Y108.935 E5.9430
G1 X86.998 Y91.065 E7.5959
G1 X90.583 Y87.480 E8.0648
G1 X90.881 Y88.200 F18000
G92 E0.0000
G1 X100.654 Y88.200 E0.9040 F1264
G1 X100.937 Y88.215 E0.9302
G1 X102.695 Y88.400 E1.0936
G1 X103.248 Y88.517 E1.1460
G1 X105.059 Y89.106 E1.3221
G1 X105.576 Y89.336 E1.3744
G1 X107.224 Y90.288 E1.5505
G1 X107.682 Y90.620 E1.6029
G1 X109.097 Y91.894 E1.7789
G1 X109.476 Y92.315 E1.8313
G1 X110.595 Y93.856 E2.0075
G1 X110.878 Y94.346 E2.0598
G1 X111.652 Y96.085 E2.2359
G1 X111.827 Y96.623 E2.2882
G1 X112.223 Y98.485 E2.4643
G1 X112.282 Y99.048 E2.5167
G1 X112.282 Y100.952 E2.6928
G1 X112.223 Y101.515 E2.7451
G1 X111.827 Y103.377 E2.9212
G1 X111.652 Y103.915 E2.9736
G1 X110.878 Y105.654 E3.1496
G1 X110.595 Y106.144 E3.2020
G1 X109.476 Y107.685 E3.3782
G1 X109.097 Y108.106 E3.4305
G1 X107.682 Y109.380 E3.6066
G1 X107.224 Y109.712 E3.6589
G1 X105.576 Y110.664 E3.8350
G1 X105.059 Y110.894 E3.8874
G1 X103.248 Y111.483 E4.0635
G1 X102.695 Y111.600 E4.1158
G1 X100.937 Y111.785 E4.2793
G1 X100.654 Y111.800 E4.3055
G1 X90.881 Y111.800 E5.2095
G1 X87.718 Y108.637 E5.6232
G1 X87.718 Y91.363 E7.2210
G1 X90.881 Y88.200 E7.6348
G1 X91.179 Y88.920 F18000
G92 E0.0000
G1 X100.636 Y88.920 E0.8747 F1264
G1 X100.880 Y88.933 E0.8973
G1 X102.582 Y89.112 E1.0556
G1 X103.061 Y89.214 E1.1010
G1 X104.800 Y89.779 E1.2701
G1 X105.248 Y89.978 E1.3154
G1 X106.832 Y90.892 E1.4845
G1 X107.229 Y91.181 E1.5299
G1 X108.587 Y92.404 E1.6990
G1 X108.915 Y92.769 E1.7444
G1 X109.991 Y94.248 E1.9136
G1 X110.236 Y94.673 E1.9589
G1 X110.979 Y96.343 E2.1280
G1 X111.131 Y96.810 E2.1734
G1 X111.511 Y98.598 E2.3425
G1 X111.562 Y99.086 E2.3879
G1 X111.562 Y100.914 E2.5570
G1 X111.511 Y101.402 E2.6024
G1 X111.131 Y103.190 E2.7715
G1 X110.979 Y103.657 E2.8169
G1 X110.236 Y105.327 E2.9859
G1 X109.991 Y105.752 E3.0313
G1 X108.915 Y107.231 E3.2005
G1 X108.587 Y107.596 E3.2459
G1 X107.229 Y108.819 E3.4150
G1 X106.832 Y109.108 E3.4603
G1 X105.248 Y110.022 E3.6294
G1 X104.800 Y110.221 E3.6748
G1 X103.062 Y110.786 E3.8439
G1 X102.582 Y110.888 E3.8893
G1 X100.880 Y111.067 E4.0475
G1 X100.635 Y111.080 E4.0702
G1 X91.179 Y111.080 E4.9449
G1 X88.438 Y108.338 E5.3035
G1 X88.438 Y91.662 E6.8461
G1 X91.179 Y88.920 E7.2047
G1 X91.478 Y89.640 F18000
G92 E0.0000
G1 X100.617 Y89.640 E0.8453 F1264
G1 X100.824 Y89.651 E0.8645
G1 X102.469 Y89.824 E1.0175
G1 X102.875 Y89.910 E1.0559
G1 X104.542 Y90.452 E1.2181
G1 X104.921 Y90.621 E1.2564
G1 X106.439 Y91.497 E1.4186
G1 X106.775 Y91.741 E1.4570
G1 X108.077 Y92.914 E1.6191
G1 X108.355 Y93.222 E1.6575
G1 X109.386 Y94.641 E1.8197
G1 X109.593 Y95.000 E1.8581
G1 X110.306 Y96.601 E2.0202
G1 X110.434 Y96.996 E2.0586
G1 X110.799 Y98.711 E2.2207
G1 X110.842 Y99.124 E2.2591
G1 X110.842 Y100.876 E2.4212
G1 X110.799 Y101.289 E2.4596
G1 X110.434 Y103.004 E2.6217
G1 X110.306 Y103.399 E2.6601
G1 X109.593 Y105.000 E2.8223
G1 X109.386 Y105.359 E2.8606
G1 X108.355 Y106.778 E3.0228
G1 X108.077 Y107.086 E3.0612
G1 X106.775 Y108.259 E3.2233
G1 X106.439 Y108.503 E3.2617
G1 X104.921 Y109.379 E3.4239
G1 X104.542 Y109.548 E3.4623
G1 X102.875 Y110.090 E3.6244
G1 X102.469 Y110.176 E3.6628
G1 X100.824 Y110.349 E3.8158
G1 X100.617 Y110.360 E3.8350
G1 X91.478 Y110.360 E4.6803
G1 X89.158 Y108.040 E4.9838
G1 X89.158 Y91.960 E6.4711
G1 X91.478 Y89.640 E6.7746
G1 X91.776 Y90.360 F18000
G92 E0.0000
G1 X100.598 Y90.360 E0.8160 F1264
G1 X100.767 Y90.369 E0.8317
G1 X102.356 Y90.536 E0.9795
G1 X102.688 Y90.607 E1.0109
G1 X104.284 Y91.125 E1.1660
G1 X104.594 Y91.263 E1.1974
G1 X106.046 Y92.102 E1.3526
G1 X106.321 Y92.301 E1.3840
G1 X107.568 Y93.424 E1.5392
G1 X107.795 Y93.676 E1.5706
G1 X108.781 Y95.033 E1.7258
G1 X108.951 Y95.328 E1.7572
G1 X109.633 Y96.860 E1.9123
G1 X109.738 Y97.183 E1.9437
G1 X110.087 Y98.824 E2.0989
G1 X110.122 Y99.161 E2.1303
G1 X110.122 Y100.839 E2.2854
G1 X110.087 Y101.176 E2.3168
G1 X109.738 Y102.817 E2.4720
G1 X109.633 Y103.140 E2.5034
G1 X108.951 Y104.672 E2.6586
G1 X108.781 Y104.967 E2.6900
G1 X107.795 Y106.324 E2.8452
G1 X107.568 Y106.576 E2.8766
G1 X106.321 Y107.699 E3.0317
G1 X106.046 Y107.898 E3.0631
G1 X104.594 Y108.737 E3.2183
G1 X104.284 Y108.875 E3.2497
G1 X102.688 Y109.393 E3.4048
G1 X102.356 Y109.464 E3.4363
G1 X100.767 Y109.631 E3.5840
G1 X100.598 Y109.640 E3.5997
G1 X91.776 Y109.640 E4.4157
G1 X89.878 Y107.742 E4.6640
G1 X89.878 Y92.258 E6.0962
G1 X91.776 Y90.360 E6.3445
G1 X92.074 Y91.080 F18000
G92 E0.0000
G1 X100.579 Y91.080 E0.7867 F1264
G1 X100.711 Y91.087 E0.7989
G1 X102.243 Y91.248 E0.9414
G1 X102.502 Y91.303 E0.9658
G1 X104.025 Y91.798 E1.1140
G1 X104.266 Y91.905 E1.1385
G1 X105.654 Y92.706 E1.2866
G1 X105.867 Y92.862 E1.3111
G1 X107.058 Y93.934 E1.4592
G1 X107.235 Y94.130 E1.4837
G1 X108.176 Y95.426 E1.6319
G1 X108.308 Y95.655 E1.6563
G1 X108.960 Y97.118 E1.8045
G1 X109.042 Y97.369 E1.8289
G1 X109.375 Y98.936 E1.9771
G1 X109.402 Y99.199 E2.0015
G1 X109.402 Y100.801 E2.1497
G1 X109.375 Y101.064 E2.1741
G1 X109.042 Y102.631 E2.3223
G1 X108.960 Y102.882 E2.3467
G1 X108.308 Y104.345 E2.4949
G1 X108.176 Y104.574 E2.5193
G1 X107.235 Y105.870 E2.6675
G1 X107.058 Y106.066 E2.6919
G1 X105.867 Y107.138 E2.8401
G1 X105.654 Y107.294 E2.8645
G1 X104.266 Y108.095 E3.0127
G1 X104.025 Y108.202 E3.0371
G1 X102.502 Y108.697 E3.1853
G1 X102.243 Y108.752 E3.2097
G1 X100.711 Y108.913 E3.3523
G1 X100.579 Y108.920 E3.3645
G1 X92.074 Y108.920 E4.1512
G1 X90.598 Y107.444 E4.3443
G1 X90.598 Y92.556 E5.7213
G1 X92.074 Y91.080 E5.9144
G1 X92.372 Y91.800 F18000
G92 E0.0000
G1 X100.560 Y91.800 E0.7573 F1264
G1 X100.654 Y91.805 E0.7660
G1 X102.130 Y91.960 E0.9034
G1 X102.315 Y91.999 E0.9208
G1 X103.767 Y92.471 E1.0620
G1 X103.939 Y92.548 E1.0795
G1 X105.261 Y93.311 E1.2206
G1 X105.414 Y93.422 E1.2381
G1 X106.548 Y94.443 E1.3793
G1 X106.674 Y94.584 E1.3967
G1 X107.572 Y95.819 E1.5380
G1 X107.666 Y95.982 E1.5554
G1 X108.287 Y97.377 E1.6966
G1 X108.345 Y97.556 E1.7140
G1 X108.662 Y99.049 E1.8552
G1 X108.682 Y99.237 E1.8727
G1 X108.682 Y100.763 E2.0139
G1 X108.662 Y100.951 E2.0313
G1 X108.345 Y102.444 E2.1725
G1 X108.287 Y102.623 E2.1900
G1 X107.666 Y104.018 E2.3312
G1 X107.572 Y104.181 E2.3486
G1 X106.674 Y105.416 E2.4898
G1 X106.548 Y105.557 E2.5073
G1 X105.414 Y106.578 E2.6485
G1 X105.261 Y106.689 E2.6659
G1 X103.939 Y107.452 E2.8071
G1 X103.767 Y107.529 E2.8246
G1 X102.315 Y108.001 E2.9658
G1 X102.130 Y108.040 E2.9832
G1 X100.654 Y108.195 E3.1205
G1 X100.560 Y108.200 E3.1293
G1 X92.372 Y108.200 E3.8866
G1 X91.318 Y107.146 E4.0245
G1 X91.318 Y92.854 E5.3464
G1 X92.372 Y91.800 E5.4843
G1 X92.670 Y92.520 F18000
G92 E0.0000
G1 X100.541 Y92.520 E0.7280 F1264
G1 X100.597 Y92.523 E0.7332
G1 X102.018 Y92.672 E0.8653
G1 X102.128 Y92.696 E0.8758
G1 X103.508 Y93.144 E1.0100
G1 X103.612 Y93.190 E1.0205
G1 X104.868 Y93.916 E1.1547
G1 X104.960 Y93.982 E1.1651
G1 X106.038 Y94.953 E1.2994
G1 X106.114 Y95.037 E1.3098
G1 X106.967 Y96.211 E1.4441
G1 X107.024 Y96.309 E1.4545
G1 X107.614 Y97.635 E1.5887
G1 X107.649 Y97.743 E1.5992
G1 X107.950 Y99.162 E1.7334
G1 X107.962 Y99.274 E1.7439
G1 X107.962 Y100.725 E1.8781
G1 X107.950 Y100.838 E1.8886
G1 X107.649 Y102.257 E2.0228
G1 X107.614 Y102.365 E2.0333
G1 X107.024 Y103.691 E2.1675
G1 X106.967 Y103.789 E2.1780
G1 X106.114 Y104.963 E2.3122
G1 X106.038 Y105.047 E2.3227
G1 X104.960 Y106.018 E2.4569
G1 X104.868 Y106.084 E2.4673
G1 X103.612 Y106.810 E2.6015
G1 X103.508 Y106.856 E2.6120
G1 X102.128 Y107.304 E2.7462
G1 X102.018 Y107.328 E2.7567
G1 X100.597 Y107.477 E2.8888
G1 X100.541 Y107.480 E2.8940
G1 X92.670 Y107.480 E3.6220
G1 X92.038 Y106.847 E3.7048
G1 X92.038 Y93.153 E4.9715
G1 X92.670 Y92.520 E5.0542
G1 X92.969 Y93.240 F18000
G92 E0.0000
G1 X100.522 Y93.240 E0.6987 F1264
G1 X100.541 Y93.241 E0.7004
G1 X101.905 Y93.384 E0.8272
G1 X101.942 Y93.392 E0.8307
G1 X103.250 Y93.817 E0.9580
G1 X103.284 Y93.833 E0.9615
G1 X104.476 Y94.520 E1.0887
G1 X104.506 Y94.543 E1.0922
G1 X105.528 Y95.463 E1.2194
G1 X105.554 Y95.491 E1.2229
G1 X106.362 Y96.604 E1.3502
G1 X106.381 Y96.637 E1.3536
G1 X106.941 Y97.893 E1.4809
G1 X106.952 Y97.929 E1.4844
G1 X107.238 Y99.275 E1.6116
G1 X107.242 Y99.312 E1.6151
G1 X107.242 Y100.688 E1.7423
G1 X107.238 Y100.725 E1.7458
G1 X106.952 Y102.071 E1.8731
G1 X106.941 Y102.107 E1.8766
G1 X106.381 Y103.363 E2.0038
G1 X106.362 Y103.396 E2.0073
