; G-Code generated by Simplify3D(R) Version 4.1.2
; Dec 27, 2021 at 10:39:39 PM
; Settings Summary
;   processName,Process1
;   applyToModels,idler-mount-bottom
;   profileName,HSBot (modified)
;   profileVersion,2019-11-09 11:59:44
;   baseProfile,Default
;   printMaterial,PETG - Eryone
;   printQuality,Medium
;   printExtruders,
;   extruderName,Extruder 1,Extruder - Lite
;   extruderToolheadNumber,0,1
;   extruderDiameter,0.4,0.4
;   extruderAutoWidth,1,1
;   extruderWidth,0.48,0.48
;   extrusionMultiplier,1.03,0.93
;   extruderUseRetract,1,1
;   extruderRetractionDistance,3,1
;   extruderExtraRestartDistance,0,0
;   extruderRetractionZLift,0,0
;   extruderRetractionSpeed,3600,1800
;   extruderUseCoasting,1,0
;   extruderCoastingDistance,0.2,0.2
;   extruderUseWipe,1,0
;   extruderWipeDistance,5,5
;   primaryExtruder,0
;   layerHeight,0.2
;   topSolidLayers,3
;   bottomSolidLayers,3
;   perimeterOutlines,3
;   printPerimetersInsideOut,1
;   startPointOption,2
;   startPointOriginX,0
;   startPointOriginY,0
;   sequentialIslands,0
;   spiralVaseMode,0
;   firstLayerHeightPercentage,150
;   firstLayerWidthPercentage,150
;   firstLayerUnderspeed,0.3
;   useRaft,0
;   raftExtruder,0
;   raftTopLayers,3
;   raftBaseLayers,2
;   raftOffset,3
;   raftSeparationDistance,0.18
;   raftTopInfill,100
;   aboveRaftSpeedMultiplier,0.3
;   useSkirt,1
;   skirtExtruder,0
;   skirtLayers,1
;   skirtOutlines,10
;   skirtOffset,0
;   usePrimePillar,0
;   primePillarExtruder,999
;   primePillarWidth,12
;   primePillarLocation,7
;   primePillarSpeedMultiplier,1
;   useOozeShield,0
;   oozeShieldExtruder,999
;   oozeShieldOffset,2
;   oozeShieldOutlines,1
;   oozeShieldSidewallShape,1
;   oozeShieldSidewallAngle,30
;   oozeShieldSpeedMultiplier,1
;   infillExtruder,0
;   internalInfillPattern,Rectilinear
;   externalInfillPattern,Rectilinear
;   infillPercentage,25
;   outlineOverlapPercentage,15
;   infillExtrusionWidthPercentage,150
;   minInfillLength,5
;   infillLayerInterval,1
;   internalInfillAngles,45,-45
;   overlapInternalInfillAngles,0
;   externalInfillAngles,45,-45
;   generateSupport,0
;   supportExtruder,0
;   supportInfillPercentage,30
;   supportExtraInflation,0
;   supportBaseLayers,1
;   denseSupportExtruder,0
;   denseSupportLayers,0
;   denseSupportInfillPercentage,70
;   supportLayerInterval,1
;   supportHorizontalPartOffset,0.3
;   supportUpperSeparationLayers,1
;   supportLowerSeparationLayers,1
;   supportType,0
;   supportGridSpacing,4
;   maxOverhangAngle,45
;   supportAngles,0
;   temperatureName,Extruder 1,Bed
;   temperatureNumber,0,0
;   temperatureSetpointCount,1,1
;   temperatureSetpointLayers,1,1
;   temperatureSetpointTemperatures,225,85
;   temperatureStabilizeAtStartup,1,1
;   temperatureHeatedBed,0,1
;   fanLayers,1,2,3
;   fanSpeeds,0,15,25
;   blipFanToFullPower,1
;   adjustSpeedForCooling,1
;   minSpeedLayerTime,15
;   minCoolingSpeedSlowdown,20
;   increaseFanForCooling,0
;   minFanLayerTime,45
;   maxCoolingFanSpeed,40
;   increaseFanForBridging,0
;   bridgingFanSpeed,80
;   use5D,1
;   relativeEdistances,0
;   allowEaxisZeroing,1
;   independentExtruderAxes,0
;   includeM10123,0
;   stickySupport,1
;   applyToolheadOffsets,0
;   gcodeXoffset,0
;   gcodeYoffset,0
;   gcodeZoffset,0
;   overrideMachineDefinition,1
;   machineTypeOverride,0
;   strokeXoverride,200
;   strokeYoverride,200
;   strokeZoverride,150
;   originOffsetXoverride,0
;   originOffsetYoverride,0
;   originOffsetZoverride,0
;   homeXdirOverride,-1
;   homeYdirOverride,-1
;   homeZdirOverride,-1
;   flipXoverride,1
;   flipYoverride,-1
;   flipZoverride,1
;   toolheadOffsets,0,0|0,0|0,0|0,0|0,0|0,0
;   overrideFirmwareConfiguration,0
;   firmwareTypeOverride,RepRap (Marlin/Repetier/Sprinter)
;   GPXconfigOverride,r2
;   baudRateOverride,115200
;   overridePrinterModels,0
;   printerModelsOverride
;   startingGcode,G28 ; home all axes,G32 ; run bed.g -- probe bed and enable compensation
;   layerChangeGcode,
;   retractionGcode,
;   toolChangeGcode,
;   endingGcode,M0 ; call stop.g
;   exportFileFormat,gcode
;   celebration,0
;   celebrationSong,Random Song
;   postProcessing,
;   defaultSpeed,3000
;   outlineUnderspeed,0.5
;   solidInfillUnderspeed,0.8
;   supportUnderspeed,0.8
;   rapidXYspeed,18000
;   rapidZspeed,1200
;   minBridgingArea,50
;   bridgingExtraInflation,0
;   bridgingExtrusionMultiplier,0.96
;   bridgingSpeedMultiplier,1
;   useFixedBridgingAngle,0
;   fixedBridgingAngle,0
;   applyBridgingToPerimeters,0
;   filamentDiameters,1.75|1.75|1.75|1.75|1.75|1.75
;   filamentPricesPerKg,25|46|46|46|46|46
;   filamentDensities,1.25|1.25|1.25|1.25|1.25|1.25
;   useMinPrintHeight,0
;   minPrintHeight,0
;   useMaxPrintHeight,0
;   maxPrintHeight,0
;   useDiaphragm,1
;   diaphragmLayerInterval,20
;   robustSlicing,1
;   mergeAllIntoSolid,0
;   onlyRetractWhenCrossingOutline,1
;   retractBetweenLayers,0
;   useRetractionMinTravel,1
;   retractionMinTravel,3
;   retractWhileWiping,1
;   onlyWipeOutlines,0
;   avoidCrossingOutline,1
;   maxMovementDetourFactor,3
;   toolChangeRetractionDistance,12
;   toolChangeExtraRestartDistance,-0.5
;   toolChangeRetractionSpeed,600
;   externalThinWallType,1
;   internalThinWallType,1
;   thinWallAllowedOverlapPercentage,10
;   singleExtrusionMinLength,0.1
;   singleExtrusionMinPrintingWidthPercentage,50
;   singleExtrusionMaxPrintingWidthPercentage,200
;   singleExtrusionEndpointExtension,0.2
;   horizontalSizeCompensation,0
G90
M82
M106 S0
M140 S85
M190 S85
G10 S225 R{225-50} P0
M116 P0
G28 ; home all axes
G32 ; run bed.g -- probe bed and enable compensation
; process Process1
; layer 1, Z = 0.300
T0
G92 E0.0000
G1 E-3.0000 F3600
; feature skirt
; tool H0.300 W0.720
G1 Z0.300 F1200
G1 X87.167 Y86.660 F18000
G1 E0.0000 F3600
G92 E0.0000
G1 X97.679 Y86.660 E0.9723 F900
G1 X98.035 Y86.679 E1.0053
G1 X99.912 Y86.875 E1.1799
G1 X100.610 Y87.023 E1.2459
G1 X102.576 Y87.659 E1.4370
G1 X103.229 Y87.948 E1.5030
G1 X105.024 Y88.979 E1.6946
G1 X105.610 Y89.404 E1.7615
G1 X107.186 Y90.821 E1.9575
G1 X107.670 Y91.360 E2.0246
G1 X108.884 Y93.038 E2.2161
G1 X109.240 Y93.655 E2.2820
G1 X110.076 Y95.537 E2.4724
G1 X110.296 Y96.214 E2.5383
G1 X110.727 Y98.231 E2.7291
G1 X110.803 Y98.947 E2.7957
G1 X110.803 Y101.053 E2.9905
G1 X110.727 Y101.769 E3.0571
G1 X110.296 Y103.786 E3.2479
G1 X110.076 Y104.463 E3.3137
G1 X109.240 Y106.345 E3.5042
G1 X108.884 Y106.962 E3.5701
G1 X107.674 Y108.635 E3.7610
G1 X107.198 Y109.166 E3.8271
G1 X105.663 Y110.556 E4.0186
G1 X105.080 Y110.981 E4.0853
G1 X103.245 Y112.044 E4.2814
G1 X102.582 Y112.340 E4.3486
G1 X100.610 Y112.977 E4.5403
G1 X99.912 Y113.125 E4.6063
G1 X98.035 Y113.321 E4.7809
G1 X97.679 Y113.340 E4.8139
G1 X87.167 Y113.340 E5.7862
G1 X83.160 Y109.333 E6.3103
G1 X83.160 Y90.667 E8.0369
G1 X87.167 Y86.660 E8.5610
G1 X87.465 Y87.380 F18000
G92 E0.0000
G1 X97.660 Y87.380 E0.9430 F900
G1 X97.979 Y87.397 E0.9725
G1 X99.799 Y87.587 E1.1418
G1 X100.424 Y87.719 E1.2009
G1 X102.319 Y88.332 E1.3851
G1 X102.903 Y88.591 E1.4442
G1 X104.633 Y89.585 E1.6287
G1 X105.157 Y89.964 E1.6886
G1 X106.676 Y91.331 E1.8776
G1 X107.109 Y91.813 E1.9376
G1 X108.279 Y93.430 E2.1221
G1 X108.597 Y93.982 E2.1811
G1 X109.403 Y95.795 E2.3646
G1 X109.600 Y96.401 E2.4235
G1 X110.015 Y98.344 E2.6073
G1 X110.083 Y98.985 E2.6669
G1 X110.083 Y101.015 E2.8547
G1 X110.015 Y101.656 E2.9143
G1 X109.600 Y103.599 E3.0981
G1 X109.403 Y104.205 E3.1570
G1 X108.597 Y106.018 E3.3405
G1 X108.279 Y106.570 E3.3995
G1 X107.113 Y108.182 E3.5835
G1 X106.686 Y108.658 E3.6426
G1 X105.208 Y109.997 E3.8271
G1 X104.686 Y110.377 E3.8868
G1 X102.918 Y111.402 E4.0759
G1 X102.324 Y111.666 E4.1360
G1 X100.424 Y112.281 E4.3207
G1 X99.800 Y112.413 E4.3797
G1 X97.979 Y112.603 E4.5491
G1 X97.660 Y112.620 E4.5786
G1 X87.465 Y112.620 E5.5216
G1 X83.880 Y109.035 E5.9905
G1 X83.880 Y90.965 E7.6619
G1 X87.465 Y87.380 E8.1309
G1 X87.763 Y88.100 F18000
G92 E0.0000
G1 X97.641 Y88.100 E0.9137 F900
G1 X97.922 Y88.115 E0.9397
G1 X99.687 Y88.299 E1.1038
G1 X100.239 Y88.416 E1.1560
G1 X102.061 Y89.006 E1.3332
G1 X102.576 Y89.234 E1.3853
G1 X104.241 Y90.190 E1.5629
G1 X104.704 Y90.525 E1.6157
G1 X106.166 Y91.841 E1.7976
G1 X106.549 Y92.266 E1.8506
G1 X107.674 Y93.821 E2.0281
G1 X107.954 Y94.309 E2.0801
G1 X108.730 Y96.053 E2.2567
G1 X108.904 Y96.588 E2.3087
G1 X109.303 Y98.458 E2.4856
G1 X109.363 Y99.023 E2.5381
G1 X109.363 Y100.977 E2.7189
G1 X109.303 Y101.542 E2.7715
G1 X108.904 Y103.412 E2.9483
G1 X108.730 Y103.947 E3.0003
G1 X107.954 Y105.691 E3.1769
G1 X107.674 Y106.179 E3.2289
G1 X106.551 Y107.730 E3.4060
G1 X106.175 Y108.150 E3.4581
G1 X104.753 Y109.438 E3.6357
G1 X104.292 Y109.773 E3.6884
G1 X102.590 Y110.760 E3.8703
G1 X102.066 Y110.993 E3.9234
G1 X100.239 Y111.584 E4.1010
G1 X99.687 Y111.701 E4.1532
G1 X97.922 Y111.885 E4.3173
G1 X97.641 Y111.900 E4.3434
G1 X87.763 Y111.900 E5.2570
G1 X84.600 Y108.737 E5.6708
G1 X84.600 Y91.263 E7.2870
G1 X87.763 Y88.100 E7.7008
G1 X88.061 Y88.820 F18000
G92 E0.0000
G1 X97.622 Y88.820 E0.8843 F900
G1 X97.866 Y88.833 E0.9069
G1 X99.575 Y89.012 E1.0658
G1 X100.053 Y89.113 E1.1110
G1 X101.804 Y89.679 E1.2813
G1 X102.250 Y89.877 E1.3264
G1 X103.849 Y90.795 E1.4970
G1 X104.250 Y91.086 E1.5428
G1 X105.656 Y92.351 E1.7177
G1 X105.988 Y92.719 E1.7636
G1 X107.069 Y94.213 E1.9341
G1 X107.312 Y94.636 E1.9792
G1 X108.057 Y96.311 E2.1488
G1 X108.207 Y96.775 E2.1939
G1 X108.591 Y98.571 E2.3638
G1 X108.643 Y99.061 E2.4093
G1 X108.643 Y100.939 E2.5831
G1 X108.591 Y101.429 E2.6287
G1 X108.207 Y103.225 E2.7985
G1 X108.057 Y103.689 E2.8436
G1 X107.312 Y105.364 E3.0132
G1 X107.069 Y105.787 E3.0583
G1 X105.990 Y107.277 E3.2285
G1 X105.664 Y107.641 E3.2737
G1 X104.298 Y108.878 E3.4442
G1 X103.899 Y109.169 E3.4899
G1 X102.262 Y110.117 E3.6648
G1 X101.808 Y110.320 E3.7108
G1 X100.053 Y110.887 E3.8814
G1 X99.575 Y110.988 E3.9266
G1 X97.866 Y111.167 E4.0855
G1 X97.622 Y111.180 E4.1081
G1 X88.061 Y111.180 E4.9924
G1 X85.320 Y108.439 E5.3511
G1 X85.320 Y91.561 E6.9121
G1 X88.061 Y88.820 E7.2707
G1 X88.360 Y89.540 F18000
G92 E0.0000
G1 X97.603 Y89.540 E0.8550 F900
G1 X97.810 Y89.551 E0.8741
G1 X99.463 Y89.724 E1.0278
G1 X99.867 Y89.809 E1.0661
G1 X101.547 Y90.353 E1.2294
G1 X101.924 Y90.520 E1.2676
G1 X103.458 Y91.401 E1.4311
G1 X103.797 Y91.646 E1.4699
G1 X105.146 Y92.860 E1.6378
G1 X105.427 Y93.172 E1.6766
G1 X106.463 Y94.605 E1.8401
G1 X106.669 Y94.962 E1.8783
G1 X107.384 Y96.570 E2.0410
G1 X107.511 Y96.962 E2.0791
G1 X107.879 Y98.684 E2.2420
G1 X107.923 Y99.099 E2.2806
G1 X107.923 Y100.901 E2.4473
G1 X107.879 Y101.316 E2.4859
G1 X107.511 Y103.038 E2.6488
G1 X107.384 Y103.430 E2.6869
G1 X106.669 Y105.038 E2.8496
G1 X106.463 Y105.395 E2.8878
G1 X105.429 Y106.825 E3.0510
G1 X105.153 Y107.133 E3.0892
G1 X103.842 Y108.319 E3.2527
G1 X103.505 Y108.565 E3.2914
G1 X101.934 Y109.475 E3.4593
G1 X101.550 Y109.646 E3.4982
G1 X99.867 Y110.191 E3.6618
G1 X99.463 Y110.276 E3.7000
G1 X97.810 Y110.449 E3.8538
G1 X97.603 Y110.460 E3.8729
G1 X88.360 Y110.460 E4.7279
G1 X86.040 Y108.140 E5.0313
G1 X86.040 Y91.860 E6.5372
G1 X88.360 Y89.540 E6.8406
G1 X88.658 Y90.260 F18000
G92 E0.0000
G1 X97.585 Y90.260 E0.8257 F900
G1 X97.753 Y90.269 E0.8413
G1 X99.350 Y90.436 E0.9898
G1 X99.681 Y90.506 E1.0211
G1 X101.289 Y91.026 E1.1774
G1 X101.598 Y91.163 E1.2087
G1 X103.066 Y92.006 E1.3653
G1 X103.344 Y92.207 E1.3970
G1 X104.636 Y93.370 E1.5578
G1 X104.866 Y93.625 E1.5896
G1 X105.858 Y94.997 E1.7461
G1 X106.026 Y95.289 E1.7773
G1 X106.711 Y96.828 E1.9331
G1 X106.815 Y97.149 E1.9643
G1 X107.167 Y98.797 E2.1202
G1 X107.203 Y99.137 E2.1518
G1 X107.203 Y100.863 E2.3115
G1 X107.167 Y101.203 E2.3431
G1 X106.815 Y102.851 E2.4990
G1 X106.711 Y103.172 E2.5302
G1 X106.026 Y104.711 E2.6860
G1 X105.858 Y105.003 E2.7172
G1 X104.867 Y106.372 E2.8735
G1 X104.642 Y106.624 E2.9047
G1 X103.387 Y107.760 E3.0613
G1 X103.111 Y107.961 E3.0929
G1 X101.606 Y108.833 E3.2537
G1 X101.292 Y108.973 E3.2856
G1 X99.681 Y109.494 E3.4422
G1 X99.350 Y109.564 E3.4735
G1 X97.753 Y109.731 E3.6220
G1 X97.585 Y109.740 E3.6376
G1 X88.658 Y109.740 E4.4633
G1 X86.760 Y107.842 E4.7116
G1 X86.760 Y92.158 E6.1623
G1 X88.658 Y90.260 E6.4106
G1 X88.956 Y90.980 F18000
G92 E0.0000
G1 X97.566 Y90.980 E0.7964 F900
G1 X97.697 Y90.987 E0.8085
G1 X99.238 Y91.148 E0.9518
G1 X99.495 Y91.203 E0.9761
G1 X101.032 Y91.700 E1.1255
G1 X101.272 Y91.806 E1.1499
G1 X102.675 Y92.611 E1.2994
G1 X102.890 Y92.768 E1.3241
G1 X104.126 Y93.880 E1.4779
G1 X104.305 Y94.078 E1.5026
G1 X105.253 Y95.388 E1.6521
G1 X105.384 Y95.616 E1.6764
G1 X106.037 Y97.086 E1.8252
G1 X106.118 Y97.336 E1.8495
G1 X106.455 Y98.911 E1.9985
G1 X106.483 Y99.175 E2.0230
G1 X106.483 Y100.825 E2.1757
G1 X106.455 Y101.089 E2.2002
G1 X106.118 Y102.664 E2.3492
G1 X106.037 Y102.914 E2.3735
G1 X105.384 Y104.384 E2.5223
G1 X105.253 Y104.612 E2.5466
G1 X104.306 Y105.920 E2.6960
G1 X104.131 Y106.116 E2.7203
G1 X102.932 Y107.201 E2.8698
G1 X102.717 Y107.357 E2.8944
G1 X101.279 Y108.191 E3.0482
G1 X101.034 Y108.300 E3.0730
G1 X99.495 Y108.797 E3.2226
G1 X99.238 Y108.852 E3.2469
G1 X97.697 Y109.013 E3.3902
G1 X97.566 Y109.020 E3.4024
G1 X88.956 Y109.020 E4.1987
G1 X87.480 Y107.544 E4.3918
G1 X87.480 Y92.456 E5.7874
G1 X88.956 Y90.980 E5.9805
G1 X89.254 Y91.700 F18000
G92 E0.0000
G1 X97.547 Y91.700 E0.7670 F900
G1 X97.641 Y91.705 E0.7757
G1 X99.126 Y91.860 E0.9138
G1 X99.309 Y91.899 E0.9312
G1 X100.775 Y92.373 E1.0736
G1 X100.946 Y92.449 E1.0910
G1 X102.283 Y93.217 E1.2336
G1 X102.437 Y93.329 E1.2512
G1 X103.616 Y94.390 E1.3979
G1 X103.744 Y94.531 E1.4156
G1 X104.647 Y95.780 E1.5581
G1 X104.741 Y95.943 E1.5755
G1 X105.364 Y97.344 E1.7174
G1 X105.422 Y97.523 E1.7347
G1 X105.743 Y99.024 E1.8767
G1 X105.763 Y99.212 E1.8942
G1 X105.763 Y100.788 E2.0399
G1 X105.743 Y100.976 E2.0574
G1 X105.422 Y102.477 E2.1994
G1 X105.364 Y102.656 E2.2168
G1 X104.741 Y104.057 E2.3587
G1 X104.647 Y104.220 E2.3760
G1 X103.745 Y105.467 E2.5184
G1 X103.619 Y105.607 E2.5358
G1 X102.477 Y106.642 E2.6784
G1 X102.324 Y106.753 E2.6959
G1 X100.951 Y107.549 E2.8427
G1 X100.776 Y107.626 E2.8604
G1 X99.309 Y108.101 E3.0030
G1 X99.126 Y108.140 E3.0203
G1 X97.641 Y108.295 E3.1584
G1 X97.547 Y108.300 E3.1671
G1 X89.254 Y108.300 E3.9341
G1 X88.200 Y107.246 E4.0721
G1 X88.200 Y92.754 E5.4124
G1 X89.254 Y91.700 E5.5504
G1 X89.553 Y92.420 F18000
G92 E0.0000
G1 X97.528 Y92.420 E0.7377 F900
G1 X97.584 Y92.423 E0.7429
G1 X99.013 Y92.572 E0.8758
G1 X99.124 Y92.596 E0.8862
G1 X100.517 Y93.047 E1.0217
G1 X100.620 Y93.092 E1.0321
G1 X101.891 Y93.822 E1.1677
G1 X101.984 Y93.889 E1.1783
G1 X103.106 Y94.899 E1.3180
G1 X103.183 Y94.984 E1.3286
G1 X104.042 Y96.172 E1.4641
G1 X104.098 Y96.269 E1.4745
G1 X104.691 Y97.603 E1.6095
G1 X104.726 Y97.710 E1.6199
G1 X105.031 Y99.137 E1.7549
G1 X105.043 Y99.250 E1.7654
G1 X105.043 Y100.750 E1.9041
G1 X105.031 Y100.863 E1.9146
G1 X104.726 Y102.290 E2.0497
G1 X104.691 Y102.397 E2.0601
G1 X104.098 Y103.731 E2.1950
G1 X104.042 Y103.828 E2.2055
G1 X103.184 Y105.015 E2.3409
G1 X103.108 Y105.099 E2.3514
G1 X102.022 Y106.082 E2.4869
G1 X101.930 Y106.149 E2.4974
G1 X100.623 Y106.906 E2.6371
G1 X100.518 Y106.953 E2.6477
G1 X99.124 Y107.404 E2.7833
G1 X99.013 Y107.428 E2.7938
G1 X97.584 Y107.577 E2.9266
G1 X97.528 Y107.580 E2.9319
G1 X89.553 Y107.580 E3.6696
G1 X88.920 Y106.947 E3.7523
G1 X88.920 Y93.053 E5.0375
G1 X89.553 Y92.420 E5.1203
G1 X89.851 Y93.140 F18000
G92 E0.0000
G1 X97.509 Y93.140 E0.7084 F900
G1 X97.528 Y93.141 E0.7101
G1 X98.901 Y93.285 E0.8378
G1 X98.938 Y93.292 E0.8413
G1 X100.260 Y93.720 E0.9698
G1 X100.294 Y93.735 E0.9733
G1 X101.500 Y94.428 E1.1019
G1 X101.530 Y94.450 E1.1054
G1 X102.597 Y95.409 E1.2380
G1 X102.622 Y95.438 E1.2416
G1 X103.437 Y96.564 E1.3701
G1 X103.456 Y96.596 E1.3736
G1 X104.018 Y97.861 E1.5016
G1 X104.030 Y97.897 E1.5051
G1 X104.319 Y99.251 E1.6332
G1 X104.323 Y99.288 E1.6367
G1 X104.323 Y100.712 E1.7683
G1 X104.319 Y100.749 E1.7718
G1 X104.030 Y102.103 E1.8999
G1 X104.018 Y102.139 E1.9034
G1 X103.456 Y103.404 E2.0314
G1 X103.437 Y103.436 E2.0349
G1 X102.622 Y104.562 E2.1634
G1 X102.597 Y104.590 E2.1669
