; G-Code generated by Simplify3D(R) Version 4.1.2
; Dec 28, 2021 at 3:51:44 PM
; Settings Summary
;   processName,Process1
;   applyToModels,motor-mount
;   profileName,HSBot
;   profileVersion,2019-11-09 11:59:44
;   baseProfile,Default
;   printMaterial,PETG - Eryone
;   printQuality,Medium
;   printExtruders,
;   extruderName,Extruder 1,Extruder - Lite
;   extruderToolheadNumber,0,1
;   extruderDiameter,0.4,0.4
;   extruderAutoWidth,1,1
;   extruderWidth,0.48,0.48
;   extrusionMultiplier,1.03,0.93
;   extruderUseRetract,1,1
;   extruderRetractionDistance,3,1
;   extruderExtraRestartDistance,0,0
;   extruderRetractionZLift,0,0
;   extruderRetractionSpeed,3600,1800
;   extruderUseCoasting,1,0
;   extruderCoastingDistance,0.2,0.2
;   extruderUseWipe,1,0
;   extruderWipeDistance,5,5
;   primaryExtruder,0
;   layerHeight,0.2
;   topSolidLayers,3
;   bottomSolidLayers,3
;   perimeterOutlines,3
;   printPerimetersInsideOut,1
;   startPointOption,2
;   startPointOriginX,0
;   startPointOriginY,0
;   sequentialIslands,0
;   spiralVaseMode,0
;   firstLayerHeightPercentage,150
;   firstLayerWidthPercentage,150
;   firstLayerUnderspeed,0.3
;   useRaft,0
;   raftExtruder,0
;   raftTopLayers,3
;   raftBaseLayers,2
;   raftOffset,3
;   raftSeparationDistance,0.18
;   raftTopInfill,100
;   aboveRaftSpeedMultiplier,0.3
;   useSkirt,1
;   skirtExtruder,0
;   skirtLayers,1
;   skirtOutlines,10
;   skirtOffset,0
;   usePrimePillar,0
;   primePillarExtruder,999
;   primePillarWidth,12
;   primePillarLocation,7
;   primePillarSpeedMultiplier,1
;   useOozeShield,0
;   oozeShieldExtruder,999
;   oozeShieldOffset,2
;   oozeShieldOutlines,1
;   oozeShieldSidewallShape,1
;   oozeShieldSidewallAngle,30
;   oozeShieldSpeedMultiplier,1
;   infillExtruder,0
;   internalInfillPattern,Fast Honeycomb
;   externalInfillPattern,Rectilinear
;   infillPercentage,20
;   outlineOverlapPercentage,15
;   infillExtrusionWidthPercentage,150
;   minInfillLength,5
;   infillLayerInterval,1
;   internalInfillAngles,0
;   overlapInternalInfillAngles,0
;   externalInfillAngles,45,-45
;   generateSupport,0
;   supportExtruder,0
;   supportInfillPercentage,30
;   supportExtraInflation,0
;   supportBaseLayers,1
;   denseSupportExtruder,0
;   denseSupportLayers,0
;   denseSupportInfillPercentage,70
;   supportLayerInterval,1
;   supportHorizontalPartOffset,0.3
;   supportUpperSeparationLayers,1
;   supportLowerSeparationLayers,1
;   supportType,0
;   supportGridSpacing,4
;   maxOverhangAngle,45
;   supportAngles,0
;   temperatureName,Extruder 1,Bed
;   temperatureNumber,0,0
;   temperatureSetpointCount,1,1
;   temperatureSetpointLayers,1,1
;   temperatureSetpointTemperatures,225,85
;   temperatureStabilizeAtStartup,1,1
;   temperatureHeatedBed,0,1
;   fanLayers,1,2,3
;   fanSpeeds,0,15,25
;   blipFanToFullPower,1
;   adjustSpeedForCooling,1
;   minSpeedLayerTime,15
;   minCoolingSpeedSlowdown,20
;   increaseFanForCooling,0
;   minFanLayerTime,45
;   maxCoolingFanSpeed,40
;   increaseFanForBridging,0
;   bridgingFanSpeed,80
;   use5D,1
;   relativeEdistances,0
;   allowEaxisZeroing,1
;   independentExtruderAxes,0
;   includeM10123,0
;   stickySupport,1
;   applyToolheadOffsets,0
;   gcodeXoffset,0
;   gcodeYoffset,0
;   gcodeZoffset,0
;   overrideMachineDefinition,1
;   machineTypeOverride,0
;   strokeXoverride,200
;   strokeYoverride,200
;   strokeZoverride,150
;   originOffsetXoverride,0
;   originOffsetYoverride,0
;   originOffsetZoverride,0
;   homeXdirOverride,-1
;   homeYdirOverride,-1
;   homeZdirOverride,-1
;   flipXoverride,1
;   flipYoverride,-1
;   flipZoverride,1
;   toolheadOffsets,0,0|0,0|0,0|0,0|0,0|0,0
;   overrideFirmwareConfiguration,0
;   firmwareTypeOverride,RepRap (Marlin/Repetier/Sprinter)
;   GPXconfigOverride,r2
;   baudRateOverride,115200
;   overridePrinterModels,0
;   printerModelsOverride
;   startingGcode,G28 ; home all axes,G32 ; run bed.g -- probe bed and enable compensation
;   layerChangeGcode,
;   retractionGcode,
;   toolChangeGcode,
;   endingGcode,M0 ; call stop.g
;   exportFileFormat,gcode
;   celebration,0
;   celebrationSong,Random Song
;   postProcessing,
;   defaultSpeed,4800
;   outlineUnderspeed,0.5
;   solidInfillUnderspeed,0.8
;   supportUnderspeed,0.8
;   rapidXYspeed,18000
;   rapidZspeed,1200
;   minBridgingArea,50
;   bridgingExtraInflation,0
;   bridgingExtrusionMultiplier,0.96
;   bridgingSpeedMultiplier,1
;   useFixedBridgingAngle,0
;   fixedBridgingAngle,0
;   applyBridgingToPerimeters,0
;   filamentDiameters,1.75|1.75|1.75|1.75|1.75|1.75
;   filamentPricesPerKg,25|46|46|46|46|46
;   filamentDensities,1.25|1.25|1.25|1.25|1.25|1.25
;   useMinPrintHeight,0
;   minPrintHeight,0
;   useMaxPrintHeight,0
;   maxPrintHeight,0
;   useDiaphragm,1
;   diaphragmLayerInterval,20
;   robustSlicing,1
;   mergeAllIntoSolid,0
;   onlyRetractWhenCrossingOutline,1
;   retractBetweenLayers,0
;   useRetractionMinTravel,1
;   retractionMinTravel,3
;   retractWhileWiping,1
;   onlyWipeOutlines,0
;   avoidCrossingOutline,1
;   maxMovementDetourFactor,3
;   toolChangeRetractionDistance,12
;   toolChangeExtraRestartDistance,-0.5
;   toolChangeRetractionSpeed,600
;   externalThinWallType,1
;   internalThinWallType,1
;   thinWallAllowedOverlapPercentage,10
;   singleExtrusionMinLength,0.1
;   singleExtrusionMinPrintingWidthPercentage,50
;   singleExtrusionMaxPrintingWidthPercentage,200
;   singleExtrusionEndpointExtension,0.2
;   horizontalSizeCompensation,0
G90
M82
M106 S0
M140 S85
M190 S85
G10 S225 R{225-50} P0
M116 P0
G28 ; home all axes
G32 ; run bed.g -- probe bed and enable compensation
; process Process1
; layer 1, Z = 0.300
T0
G92 E0.0000
G1 E-3.0000 F3600
; feature skirt
; tool H0.300 W0.720
G1 Z0.300 F1200
G1 X70.160 Y65.667 F18000
G1 E0.0000 F3600
G92 E0.0000
G1 X74.167 Y61.660 E0.5241 F1440
G1 X125.833 Y61.660 E5.3031
G1 X129.840 Y65.667 E5.8272
G1 X129.840 Y134.333 E12.1786
G1 X125.833 Y138.340 E12.7027
G1 X74.167 Y138.340 E17.4817
G1 X70.160 Y134.333 E18.0058
G1 X70.160 Y65.667 E24.3572
G1 X70.880 Y65.965 F18000
G92 E0.0000
G1 X74.465 Y62.380 E0.4690 F1440
G1 X125.535 Y62.380 E5.1927
G1 X129.120 Y65.965 E5.6617
G1 X129.120 Y134.035 E11.9579
G1 X125.535 Y137.620 E12.4269
G1 X74.465 Y137.620 E17.1507
G1 X70.880 Y134.035 E17.6196
G1 X70.880 Y65.965 E23.9159
G1 X71.600 Y66.263 F18000
G92 E0.0000
G1 X74.763 Y63.100 E0.4138 F1440
G1 X125.237 Y63.100 E5.0824
G1 X128.400 Y66.263 E5.4962
G1 X128.400 Y133.737 E11.7372
G1 X125.237 Y136.900 E12.1510
G1 X74.763 Y136.900 E16.8197
G1 X71.600 Y133.737 E17.2334
G1 X71.600 Y66.263 E23.4745
G1 X72.320 Y66.561 F18000
G92 E0.0000
G1 X75.061 Y63.820 E0.3586 F1440
G1 X124.939 Y63.820 E4.9721
G1 X127.680 Y66.561 E5.3307
G1 X127.680 Y133.438 E11.5166
G1 X124.939 Y136.180 E11.8752
G1 X75.061 Y136.180 E16.4886
G1 X72.320 Y133.438 E16.8472
G1 X72.320 Y66.561 E23.0331
G1 X73.040 Y66.860 F18000
G92 E0.0000
G1 X75.360 Y64.540 E0.3034 F1440
G1 X124.640 Y64.540 E4.8617
G1 X126.960 Y66.860 E5.1652
G1 X126.960 Y133.140 E11.2959
G1 X124.640 Y135.460 E11.5993
G1 X75.360 Y135.460 E16.1576
G1 X73.040 Y133.140 E16.4610
G1 X73.040 Y66.860 E22.5918
G1 X73.760 Y67.158 F18000
G92 E0.0000
G1 X75.658 Y65.260 E0.2483 F1440
G1 X124.342 Y65.260 E4.7514
G1 X126.240 Y67.158 E4.9996
G1 X126.240 Y132.842 E11.0752
G1 X124.342 Y134.740 E11.3235
G1 X75.658 Y134.740 E15.8266
G1 X73.760 Y132.842 E16.0748
G1 X73.760 Y67.158 E22.1504
G1 X74.480 Y67.456 F18000
G92 E0.0000
G1 X75.956 Y65.980 E0.1931 F1440
G1 X124.044 Y65.980 E4.6410
G1 X125.520 Y67.456 E4.8341
G1 X125.520 Y132.544 E10.8545
G1 X124.044 Y134.020 E11.0476
G1 X75.956 Y134.020 E15.4955
G1 X74.480 Y132.544 E15.6886
G1 X74.480 Y67.456 E21.7090
G1 X75.200 Y67.754 F18000
G92 E0.0000
G1 X76.254 Y66.700 E0.1379 F1440
G1 X123.746 Y66.700 E4.5307
G1 X124.800 Y67.754 E4.6686
G1 X124.800 Y132.246 E10.6338
G1 X123.746 Y133.300 E10.7718
G1 X76.254 Y133.300 E15.1645
G1 X75.200 Y132.246 E15.3024
G1 X75.200 Y67.754 E21.2676
G1 X75.920 Y68.053 F18000
G92 E0.0000
G1 X76.553 Y67.420 E0.0828 F1440
G1 X123.447 Y67.420 E4.4203
G1 X124.080 Y68.053 E4.5031
G1 X124.080 Y131.947 E10.4131
G1 X123.447 Y132.580 E10.4959
G1 X76.553 Y132.580 E14.8335
G1 X75.920 Y131.947 E14.9162
G1 X75.920 Y68.053 E20.8263
G1 X76.640 Y68.351 F18000
G92 E0.0000
G1 X76.851 Y68.140 E0.0276 F1440
G1 X123.149 Y68.140 E4.3100
G1 X123.360 Y68.351 E4.3376
G1 X123.360 Y131.649 E10.1925
G1 X123.149 Y131.860 E10.2200
G1 X76.851 Y131.860 E14.5025
G1 X76.640 Y131.649 E14.5300
G1 X76.640 Y68.351 E20.3849
; feature inner perimeter
G1 X77.360 Y68.860 F18000
G1 X77.360 Y69.001
G1 X78.800 Y70.300
G92 E0.0000
G1 X121.200 Y70.300 E3.9218 F1080
G1 X121.200 Y129.700 E9.4161
G1 X78.800 Y129.700 E13.3380
G1 X78.800 Y70.500 E18.8138
G1 X78.800 Y70.300 F1080
G1 X83.800 Y70.300 F1080
G1 X78.080 Y69.580 F18000
G92 E0.0000
G1 X121.920 Y69.580 E4.0550 F1080
G1 X121.920 Y130.420 E9.6825
G1 X78.080 Y130.420 E13.7376
G1 X78.080 Y69.780 E19.3466
G1 X78.080 Y69.580 F1080
G1 X83.080 Y69.580 F1080
; feature outer perimeter
G1 X77.360 Y68.860 F18000
G92 E0.0000
G1 X122.640 Y68.860 E4.1882 F720
G1 X122.640 Y131.140 E9.9489
G1 X77.360 Y131.140 E14.1372
G1 X77.360 Y69.060 E19.8793
G1 X77.360 Y68.860 F720
G1 X82.360 Y68.860 F720
; feature inner perimeter
G1 X83.000 Y71.015 F18000
G92 E0.0000
G1 X81.666 Y71.280 E0.1258 F1080
G1 X80.536 Y72.036 E0.2516
G1 X79.780 Y73.166 E0.3774
G1 X79.515 Y74.500 E0.5031
G1 X79.780 Y75.834 E0.6289
G1 X80.535 Y76.964 E0.7547
G1 X81.666 Y77.720 E0.8805
G1 X83.000 Y77.985 E1.0063
G1 X84.334 Y77.720 E1.1321
G1 X85.464 Y76.964 E1.2578
G1 X86.220 Y75.834 E1.3836
G1 X86.485 Y74.500 E1.5094
G1 X86.220 Y73.166 E1.6352
G1 X85.464 Y72.035 E1.7610
G1 X84.334 Y71.280 E1.8868
G1 X83.196 Y71.054 E1.9940
G1 X83.000 Y71.015 F1080
G1 X81.666 Y71.280 F1080
G1 X80.536 Y72.036
G1 X79.780 Y73.166
G1 X79.600 Y74.069
G1 X80.249 Y74.500 F18000
G92 E0.0000
G1 X80.458 Y75.553 E0.0993 F1080
G1 X81.055 Y76.445 E0.1986
G1 X81.947 Y77.042 E0.2979
G1 X83.000 Y77.251 E0.3972
G1 X84.053 Y77.042 E0.4964
G1 X84.945 Y76.445 E0.5957
G1 X85.542 Y75.553 E0.6950
G1 X85.751 Y74.500 E0.7943
G1 X85.542 Y73.447 E0.8936
G1 X84.945 Y72.555 E0.9929
G1 X84.053 Y71.958 E1.0922
G1 X83.000 Y71.749 E1.1915
G1 X81.947 Y71.958 E1.2908
G1 X81.055 Y72.555 E1.3901
G1 X80.458 Y73.447 E1.4894
G1 X80.288 Y74.304 E1.5701
G1 X80.249 Y74.500 F1080
G1 X80.458 Y75.553 F1080
G1 X81.055 Y76.445
G1 X81.947 Y77.042
G1 X83.000 Y77.251
G1 X83.693 Y77.113
; feature outer perimeter
G1 X83.772 Y76.364 F18000
G92 E0.0000
G1 X84.426 Y75.926 E0.0728 F720
G1 X84.864 Y75.272 E0.1456
G1 X85.017 Y74.500 E0.2184
G1 X84.864 Y73.728 E0.2912
G1 X84.426 Y73.074 E0.3640
G1 X83.772 Y72.636 E0.4368
G1 X83.000 Y72.483 E0.5096
G1 X82.228 Y72.636 E0.5824
G1 X81.574 Y73.074 E0.6552
G1 X81.136 Y73.728 E0.7280
G1 X80.983 Y74.500 E0.8008
G1 X81.136 Y75.272 E0.8736
G1 X81.574 Y75.926 E0.9464
G1 X82.228 Y76.364 E1.0191
G1 X83.000 Y76.517 E1.0919
G1 X83.576 Y76.403 E1.1462
G1 X83.772 Y76.364 F720
G1 X84.426 Y75.926 F720
G1 X84.864 Y75.272
G1 X85.017 Y74.500
G1 X84.864 Y73.728
G1 X84.426 Y73.074
G1 X83.772 Y72.636
G1 X83.499 Y72.582
; feature inner perimeter
G1 X83.772 Y72.636 F18000
G1 X84.426 Y73.074
G1 X84.864 Y73.728
G1 X85.017 Y74.500
G1 X84.977 Y74.699
G1 X89.092 Y80.592
G92 E0.0000
G1 X87.736 Y82.179 E0.1931 F1080
G1 X86.645 Y83.959 E0.3862
G1 X85.846 Y85.888 E0.5794
G1 X85.358 Y87.919 E0.7725
G1 X85.194 Y90.000 E0.9656
G1 X85.358 Y92.081 E1.1587
G1 X85.846 Y94.112 E1.3519
G1 X86.645 Y96.041 E1.5450
G1 X87.736 Y97.821 E1.7381
G1 X89.092 Y99.408 E1.9312
G1 X90.679 Y100.764 E2.1243
G1 X92.459 Y101.855 E2.3175
G1 X94.388 Y102.654 E2.5106
G1 X96.419 Y103.142 E2.7037
G1 X98.500 Y103.306 E2.8968
G1 X100.581 Y103.142 E3.0899
G1 X102.612 Y102.654 E3.2831
G1 X104.541 Y101.855 E3.4762
G1 X106.321 Y100.764 E3.6693
G1 X107.908 Y99.408 E3.8624
G1 X109.264 Y97.821 E4.0556
G1 X110.355 Y96.041 E4.2487
G1 X111.154 Y94.112 E4.4418
G1 X111.642 Y92.081 E4.6349
G1 X111.806 Y90.000 E4.8280
G1 X111.642 Y87.919 E5.0212
G1 X111.154 Y85.888 E5.2143
G1 X110.355 Y83.959 E5.4074
G1 X109.264 Y82.179 E5.6005
G1 X107.908 Y80.592 E5.7937
G1 X106.321 Y79.236 E5.9868
G1 X104.541 Y78.145 E6.1799
G1 X102.612 Y77.346 E6.3730
G1 X100.581 Y76.858 E6.5661
G1 X98.500 Y76.694 E6.7593
G1 X96.419 Y76.858 E6.9524
G1 X94.388 Y77.346 E7.1455
G1 X92.459 Y78.145 E7.3386
G1 X90.679 Y79.236 E7.5318
G1 X89.244 Y80.462 E7.7064
G1 X89.092 Y80.592 F1080
G1 X87.736 Y82.179 F1080
G1 X86.645 Y83.959
G1 X86.329 Y84.721
G1 X87.288 Y84.287 F18000
G92 E0.0000
G1 X86.533 Y86.112 E0.1826 F1080
G1 X86.072 Y88.032 E0.3653
G1 X85.917 Y90.000 E0.5479
G1 X86.072 Y91.968 E0.7306
G1 X86.533 Y93.888 E0.9132
G1 X87.288 Y95.713 E1.0958
G1 X88.320 Y97.396 E1.2785
G1 X89.602 Y98.898 E1.4611
G1 X91.104 Y100.180 E1.6437
G1 X92.787 Y101.212 E1.8264
G1 X94.612 Y101.967 E2.0090
G1 X96.532 Y102.428 E2.1917
G1 X98.500 Y102.583 E2.3743
G1 X100.468 Y102.428 E2.5569
G1 X102.388 Y101.967 E2.7396
G1 X104.213 Y101.212 E2.9222
G1 X105.896 Y100.180 E3.1049
G1 X107.398 Y98.898 E3.2875
G1 X108.680 Y97.396 E3.4701
G1 X109.712 Y95.713 E3.6528
G1 X110.467 Y93.888 E3.8354
G1 X110.928 Y91.968 E4.0181
G1 X111.083 Y90.000 E4.2007
G1 X110.928 Y88.032 E4.3833
G1 X110.467 Y86.112 E4.5660
G1 X109.712 Y84.287 E4.7486
G1 X108.680 Y82.604 E4.9313
G1 X107.398 Y81.102 E5.1139
G1 X105.896 Y79.820 E5.2965
G1 X104.213 Y78.788 E5.4792
G1 X102.388 Y78.033 E5.6618
G1 X100.468 Y77.572 E5.8445
G1 X98.500 Y77.417 E6.0271
G1 X96.532 Y77.572 E6.2097
G1 X94.612 Y78.033 E6.3924
G1 X92.787 Y78.788 E6.5750
G1 X91.104 Y79.820 E6.7577
G1 X89.602 Y81.102 E6.9403
G1 X88.320 Y82.604 E7.1229
G1 X87.393 Y84.117 E7.2871
G1 X87.288 Y84.287 F1080
G1 X86.533 Y86.112 F1080
G1 X86.072 Y88.032
G1 X85.989 Y89.079
; feature outer perimeter
G1 X86.639 Y90.000 F18000
G92 E0.0000
G1 X86.785 Y91.855 E0.1722 F720
G1 X87.219 Y93.665 E0.3443
G1 X87.932 Y95.385 E0.5165
G1 X88.904 Y96.972 E0.6886
G1 X90.113 Y98.387 E0.8608
G1 X91.528 Y99.596 E1.0329
G1 X93.115 Y100.568 E1.2051
G1 X94.835 Y101.281 E1.3773
G1 X96.645 Y101.715 E1.5494
G1 X98.500 Y101.861 E1.7216
G1 X100.355 Y101.715 E1.8937
G1 X102.165 Y101.281 E2.0659
G1 X103.885 Y100.568 E2.2380
G1 X105.472 Y99.596 E2.4102
G1 X106.887 Y98.387 E2.5823
G1 X108.096 Y96.972 E2.7545
G1 X109.068 Y95.385 E2.9267
G1 X109.781 Y93.665 E3.0988
G1 X110.215 Y91.855 E3.2710
G1 X110.361 Y90.000 E3.4431
G1 X110.215 Y88.145 E3.6153
G1 X109.781 Y86.335 E3.7874
G1 X109.068 Y84.615 E3.9596
G1 X108.096 Y83.028 E4.1318
G1 X106.887 Y81.613 E4.3039
G1 X105.472 Y80.404 E4.4761
G1 X103.885 Y79.432 E4.6482
G1 X102.165 Y78.719 E4.8204
G1 X100.355 Y78.285 E4.9925
G1 X98.500 Y78.139 E5.1647
G1 X96.645 Y78.285 E5.3369
G1 X94.835 Y78.719 E5.5090
G1 X93.115 Y79.432 E5.6812
G1 X91.528 Y80.404 E5.8533
G1 X90.113 Y81.613 E6.0255
G1 X88.904 Y83.028 E6.1976
G1 X87.932 Y84.615 E6.3698
G1 X87.219 Y86.335 E6.5419
G1 X86.785 Y88.145 E6.7141
G1 X86.655 Y89.801 E6.8678
G1 X86.639 Y90.000 F720
G1 X86.785 Y91.855 F720
G1 X87.219 Y93.665
G1 X87.708 Y94.846
; feature inner perimeter
G1 X84.334 Y102.280 F18000
G92 E0.0000
G1 X83.000 Y102.015 E0.1258 F1080
G1 X81.666 Y102.280 E0.2516
G1 X80.536 Y103.036 E0.3774
G1 X79.780 Y104.166 E0.5031
G1 X79.515 Y105.500 E0.6289
G1 X79.780 Y106.834 E0.7547
G1 X80.536 Y107.964 E0.8805
G1 X81.666 Y108.720 E1.0063
G1 X83.000 Y108.985 E1.1321
G1 X84.334 Y108.720 E1.2578
G1 X85.464 Y107.964 E1.3836
G1 X86.220 Y106.834 E1.5094
G1 X86.485 Y105.500 E1.6352
G1 X86.220 Y104.166 E1.7610
G1 X85.464 Y103.035 E1.8868
G1 X84.500 Y102.391 E1.9940
G1 X84.334 Y102.280 F1080
G1 X83.000 Y102.015 F1080
G1 X81.666 Y102.280
G1 X80.536 Y103.036
G1 X80.024 Y103.801
G1 X80.458 Y104.447 F18000
G92 E0.0000
G1 X80.249 Y105.500 E0.0993 F1080
G1 X80.458 Y106.553 E0.1986
G1 X81.055 Y107.445 E0.2979
G1 X81.947 Y108.042 E0.3972
G1 X83.000 Y108.251 E0.4965
G1 X84.053 Y108.042 E0.5957
G1 X84.945 Y107.445 E0.6950
G1 X85.542 Y106.553 E0.7943
G1 X85.751 Y105.500 E0.8936
G1 X85.542 Y104.447 E0.9929
G1 X84.945 Y103.555 E1.0922
G1 X84.053 Y102.958 E1.1915
G1 X83.000 Y102.749 E1.2908
G1 X81.947 Y102.958 E1.3901
G1 X81.055 Y103.555 E1.4894
