; G-Code generated by Simplify3D(R) Version 4.1.2
; Dec 31, 2021 at 6:43:40 PM
; Settings Summary
;   processName,Process1
;   applyToModels,pcm-mount
;   profileName,HSBot (modified)
;   profileVersion,2019-11-09 11:59:44
;   baseProfile,Default
;   printMaterial,PETG - Eryone
;   printQuality,Medium
;   printExtruders,
;   extruderName,Extruder 1,Extruder - Lite
;   extruderToolheadNumber,0,1
;   extruderDiameter,0.4,0.4
;   extruderAutoWidth,1,1
;   extruderWidth,0.48,0.48
;   extrusionMultiplier,1.03,0.93
;   extruderUseRetract,1,1
;   extruderRetractionDistance,3,1
;   extruderExtraRestartDistance,0,0
;   extruderRetractionZLift,0,0
;   extruderRetractionSpeed,3600,1800
;   extruderUseCoasting,1,0
;   extruderCoastingDistance,0.2,0.2
;   extruderUseWipe,1,0
;   extruderWipeDistance,5,5
;   primaryExtruder,0
;   layerHeight,0.2
;   topSolidLayers,3
;   bottomSolidLayers,3
;   perimeterOutlines,3
;   printPerimetersInsideOut,1
;   startPointOption,2
;   startPointOriginX,0
;   startPointOriginY,0
;   sequentialIslands,0
;   spiralVaseMode,0
;   firstLayerHeightPercentage,150
;   firstLayerWidthPercentage,150
;   firstLayerUnderspeed,0.3
;   useRaft,0
;   raftExtruder,0
;   raftTopLayers,3
;   raftBaseLayers,2
;   raftOffset,3
;   raftSeparationDistance,0.18
;   raftTopInfill,100
;   aboveRaftSpeedMultiplier,0.3
;   useSkirt,1
;   skirtExtruder,0
;   skirtLayers,1
;   skirtOutlines,10
;   skirtOffset,0
;   usePrimePillar,0
;   primePillarExtruder,999
;   primePillarWidth,12
;   primePillarLocation,7
;   primePillarSpeedMultiplier,1
;   useOozeShield,0
;   oozeShieldExtruder,999
;   oozeShieldOffset,2
;   oozeShieldOutlines,1
;   oozeShieldSidewallShape,1
;   oozeShieldSidewallAngle,30
;   oozeShieldSpeedMultiplier,1
;   infillExtruder,0
;   internalInfillPattern,Fast Honeycomb
;   externalInfillPattern,Rectilinear
;   infillPercentage,20
;   outlineOverlapPercentage,15
;   infillExtrusionWidthPercentage,150
;   minInfillLength,5
;   infillLayerInterval,1
;   internalInfillAngles,0
;   overlapInternalInfillAngles,0
;   externalInfillAngles,45,-45
;   generateSupport,1
;   supportExtruder,0
;   supportInfillPercentage,30
;   supportExtraInflation,0
;   supportBaseLayers,1
;   denseSupportExtruder,0
;   denseSupportLayers,0
;   denseSupportInfillPercentage,70
;   supportLayerInterval,1
;   supportHorizontalPartOffset,0.3
;   supportUpperSeparationLayers,1
;   supportLowerSeparationLayers,1
;   supportType,1
;   supportGridSpacing,3
;   maxOverhangAngle,45
;   supportAngles,0
;   temperatureName,Extruder 1,Bed
;   temperatureNumber,0,0
;   temperatureSetpointCount,1,1
;   temperatureSetpointLayers,1,1
;   temperatureSetpointTemperatures,225,85
;   temperatureStabilizeAtStartup,1,1
;   temperatureHeatedBed,0,1
;   fanLayers,1,2,3
;   fanSpeeds,0,15,25
;   blipFanToFullPower,1
;   adjustSpeedForCooling,1
;   minSpeedLayerTime,15
;   minCoolingSpeedSlowdown,20
;   increaseFanForCooling,0
;   minFanLayerTime,45
;   maxCoolingFanSpeed,40
;   increaseFanForBridging,0
;   bridgingFanSpeed,80
;   use5D,1
;   relativeEdistances,0
;   allowEaxisZeroing,1
;   independentExtruderAxes,0
;   includeM10123,0
;   stickySupport,1
;   applyToolheadOffsets,0
;   gcodeXoffset,0
;   gcodeYoffset,0
;   gcodeZoffset,0
;   overrideMachineDefinition,1
;   machineTypeOverride,0
;   strokeXoverride,200
;   strokeYoverride,200
;   strokeZoverride,150
;   originOffsetXoverride,0
;   originOffsetYoverride,0
;   originOffsetZoverride,0
;   homeXdirOverride,-1
;   homeYdirOverride,-1
;   homeZdirOverride,-1
;   flipXoverride,1
;   flipYoverride,-1
;   flipZoverride,1
;   toolheadOffsets,0,0|0,0|0,0|0,0|0,0|0,0
;   overrideFirmwareConfiguration,0
;   firmwareTypeOverride,RepRap (Marlin/Repetier/Sprinter)
;   GPXconfigOverride,r2
;   baudRateOverride,115200
;   overridePrinterModels,0
;   printerModelsOverride
;   startingGcode,G28 ; home all axes,G32 ; run bed.g -- probe bed and enable compensation
;   layerChangeGcode,
;   retractionGcode,
;   toolChangeGcode,
;   endingGcode,M0 ; call stop.g
;   exportFileFormat,gcode
;   celebration,0
;   celebrationSong,Random Song
;   postProcessing,
;   defaultSpeed,6000
;   outlineUnderspeed,0.5
;   solidInfillUnderspeed,0.8
;   supportUnderspeed,0.8
;   rapidXYspeed,18000
;   rapidZspeed,1200
;   minBridgingArea,50
;   bridgingExtraInflation,0
;   bridgingExtrusionMultiplier,0.96
;   bridgingSpeedMultiplier,1
;   useFixedBridgingAngle,0
;   fixedBridgingAngle,0
;   applyBridgingToPerimeters,0
;   filamentDiameters,1.75|1.75|1.75|1.75|1.75|1.75
;   filamentPricesPerKg,25|46|46|46|46|46
;   filamentDensities,1.25|1.25|1.25|1.25|1.25|1.25
;   useMinPrintHeight,0
;   minPrintHeight,0
;   useMaxPrintHeight,0
;   maxPrintHeight,0
;   useDiaphragm,1
;   diaphragmLayerInterval,20
;   robustSlicing,1
;   mergeAllIntoSolid,0
;   onlyRetractWhenCrossingOutline,1
;   retractBetweenLayers,0
;   useRetractionMinTravel,1
;   retractionMinTravel,3
;   retractWhileWiping,1
;   onlyWipeOutlines,0
;   avoidCrossingOutline,1
;   maxMovementDetourFactor,3
;   toolChangeRetractionDistance,12
;   toolChangeExtraRestartDistance,-0.5
;   toolChangeRetractionSpeed,600
;   externalThinWallType,0
;   internalThinWallType,1
;   thinWallAllowedOverlapPercentage,10
;   singleExtrusionMinLength,0.1
;   singleExtrusionMinPrintingWidthPercentage,50
;   singleExtrusionMaxPrintingWidthPercentage,200
;   singleExtrusionEndpointExtension,0.2
;   horizontalSizeCompensation,-0.1
G90
M82
M106 S0
M140 S85
M190 S85
G10 S225 R{225-50} P0
M116 P0
G28 ; home all axes
G32 ; run bed.g -- probe bed and enable compensation
; process Process1
; layer 1, Z = 0.300
T0
G92 E0.0000
G1 E-3.0000 F3600
; feature skirt
; tool H0.300 W0.720
G1 Z0.300 F1200
G1 X57.562 Y57.380 F18000
G1 E0.0000 F3600
G92 E0.0000
G1 X58.880 Y56.062 E0.1724 F1800
G1 X59.480 Y55.583 E0.2435
G1 X61.061 Y54.590 E0.4161
G1 X61.753 Y54.256 E0.4871
G1 X63.514 Y53.640 E0.6597
G1 X64.263 Y53.469 E0.7308
G1 X65.931 Y53.281 E0.8860
G1 X66.314 Y53.260 E0.9216
G1 X133.686 Y53.260 E7.1532
G1 X134.069 Y53.281 E7.1887
G1 X135.737 Y53.469 E7.3440
G1 X136.486 Y53.640 E7.4150
G1 X138.247 Y54.256 E7.5876
G1 X138.939 Y54.590 E7.6587
G1 X140.519 Y55.582 E7.8312
G1 X141.120 Y56.061 E7.9023
G1 X142.439 Y57.380 E8.0748
G1 X142.918 Y57.981 E8.1459
G1 X143.910 Y59.561 E8.3184
G1 X144.244 Y60.253 E8.3895
G1 X144.859 Y62.012 E8.5619
G1 X145.030 Y62.761 E8.6330
G1 X145.219 Y64.431 E8.7884
G1 X145.240 Y64.814 E8.8239
G1 X145.240 Y135.186 E15.3330
G1 X145.219 Y135.569 E15.3685
G1 X145.030 Y137.239 E15.5240
G1 X144.859 Y137.988 E15.5950
G1 X144.243 Y139.747 E15.7675
G1 X143.910 Y140.439 E15.8385
G1 X142.917 Y142.020 E16.0111
G1 X142.438 Y142.620 E16.0822
G1 X141.120 Y143.938 E16.2546
G1 X140.520 Y144.417 E16.3257
G1 X138.939 Y145.410 E16.4983
G1 X138.247 Y145.743 E16.5693
G1 X136.488 Y146.359 E16.7418
G1 X135.739 Y146.530 E16.8128
G1 X134.069 Y146.719 E16.9683
G1 X133.686 Y146.740 E17.0038
G1 X66.314 Y146.740 E23.2354
G1 X65.931 Y146.719 E23.2709
G1 X64.261 Y146.530 E23.4263
G1 X63.512 Y146.359 E23.4974
G1 X61.753 Y145.744 E23.6698
G1 X61.061 Y145.410 E23.7409
G1 X59.481 Y144.418 E23.9135
G1 X58.880 Y143.938 E23.9845
G1 X57.561 Y142.620 E24.1570
G1 X57.082 Y142.019 E24.2281
G1 X56.090 Y140.439 E24.4006
G1 X55.756 Y139.747 E24.4717
G1 X55.140 Y137.986 E24.6443
G1 X54.969 Y137.237 E24.7153
G1 X54.781 Y135.569 E24.8706
G1 X54.760 Y135.186 E24.9061
G1 X54.763 Y64.790 E31.4175
G1 X54.784 Y64.407 E31.4530
G1 X54.969 Y62.763 E31.6060
G1 X55.140 Y62.014 E31.6771
G1 X55.756 Y60.253 E31.8496
G1 X56.090 Y59.561 E31.9207
G1 X57.083 Y57.980 E32.0933
G1 X57.562 Y57.380 E32.1644
G1 X58.099 Y57.860 F18000
G92 E0.0000
G1 X59.360 Y56.600 E0.1649 F1800
G1 X59.898 Y56.171 E0.2285
G1 X61.409 Y55.221 E0.3937
G1 X62.029 Y54.923 E0.4572
G1 X63.713 Y54.333 E0.6223
G1 X64.384 Y54.180 E0.6859
G1 X65.991 Y53.999 E0.8356
G1 X66.334 Y53.980 E0.8673
G1 X133.666 Y53.980 E7.0952
G1 X134.009 Y53.999 E7.1270
G1 X135.616 Y54.180 E7.2767
G1 X136.287 Y54.333 E7.3402
G1 X137.971 Y54.923 E7.5053
G1 X138.591 Y55.221 E7.5689
G1 X140.102 Y56.170 E7.7340
G1 X140.639 Y56.599 E7.7976
G1 X141.901 Y57.861 E7.9626
G1 X142.330 Y58.398 E8.0262
G1 X143.279 Y59.909 E8.1913
G1 X143.577 Y60.529 E8.2549
G1 X144.166 Y62.212 E8.4198
G1 X144.319 Y62.882 E8.4834
G1 X144.501 Y64.492 E8.6332
G1 X144.520 Y64.834 E8.6650
G1 X144.520 Y135.166 E15.1704
G1 X144.501 Y135.508 E15.2021
G1 X144.319 Y137.118 E15.3519
G1 X144.166 Y137.788 E15.4155
G1 X143.577 Y139.471 E15.5805
G1 X143.279 Y140.091 E15.6441
G1 X142.329 Y141.602 E15.8092
G1 X141.901 Y142.140 E15.8728
G1 X140.640 Y143.401 E16.0377
G1 X140.102 Y143.829 E16.1013
G1 X138.591 Y144.779 E16.2664
G1 X137.971 Y145.077 E16.3300
G1 X136.288 Y145.666 E16.4950
G1 X135.618 Y145.819 E16.5585
G1 X134.008 Y146.001 E16.7084
G1 X133.666 Y146.020 E16.7401
G1 X66.334 Y146.020 E22.9680
G1 X65.992 Y146.001 E22.9998
G1 X64.382 Y145.819 E23.1496
G1 X63.712 Y145.666 E23.2132
G1 X62.029 Y145.077 E23.3781
G1 X61.409 Y144.779 E23.4417
G1 X59.898 Y143.829 E23.6068
G1 X59.360 Y143.401 E23.6704
G1 X58.099 Y142.139 E23.8354
G1 X57.670 Y141.602 E23.8990
G1 X56.721 Y140.091 E24.0641
G1 X56.423 Y139.471 E24.1277
G1 X55.833 Y137.787 E24.2928
G1 X55.680 Y137.116 E24.3563
G1 X55.499 Y135.509 E24.5060
G1 X55.480 Y135.166 E24.5378
G1 X55.483 Y64.810 E31.0454
G1 X55.502 Y64.467 E31.0771
G1 X55.680 Y62.884 E31.2246
G1 X55.833 Y62.213 E31.2882
G1 X56.423 Y60.529 E31.4532
G1 X56.721 Y59.909 E31.5168
G1 X57.671 Y58.398 E31.6820
G1 X58.099 Y57.860 E31.7455
G1 X58.637 Y58.341 F18000
G92 E0.0000
G1 X59.841 Y57.137 E0.1575 F1800
G1 X60.315 Y56.759 E0.2136
G1 X61.758 Y55.852 E0.3712
G1 X62.305 Y55.589 E0.4273
G1 X63.913 Y55.026 E0.5849
G1 X64.504 Y54.891 E0.6410
G1 X66.052 Y54.717 E0.7851
G1 X66.354 Y54.700 E0.8131
G1 X133.646 Y54.700 E7.0373
G1 X133.948 Y54.717 E7.0653
G1 X135.496 Y54.891 E7.2094
G1 X136.087 Y55.026 E7.2655
G1 X137.695 Y55.589 E7.4231
G1 X138.242 Y55.852 E7.4792
G1 X139.685 Y56.759 E7.6368
G1 X140.159 Y57.137 E7.6929
G1 X141.363 Y58.341 E7.8504
G1 X141.741 Y58.816 E7.9066
G1 X142.648 Y60.258 E8.0642
G1 X142.911 Y60.805 E8.1203
G1 X143.473 Y62.412 E8.2777
G1 X143.608 Y63.003 E8.3338
G1 X143.783 Y64.552 E8.4780
G1 X143.800 Y64.855 E8.5061
G1 X143.800 Y135.145 E15.0077
G1 X143.783 Y135.448 E15.0357
G1 X143.608 Y136.997 E15.1799
G1 X143.473 Y137.588 E15.2360
G1 X142.911 Y139.195 E15.3935
G1 X142.648 Y139.742 E15.4496
G1 X141.741 Y141.185 E15.6072
G1 X141.363 Y141.659 E15.6634
G1 X140.159 Y142.863 E15.8208
G1 X139.685 Y143.241 E15.8769
G1 X138.242 Y144.148 E16.0346
G1 X137.695 Y144.411 E16.0907
G1 X136.088 Y144.973 E16.2482
G1 X135.497 Y145.108 E16.3043
G1 X133.948 Y145.283 E16.4485
G1 X133.645 Y145.300 E16.4765
G1 X66.355 Y145.300 E22.7006
G1 X66.052 Y145.283 E22.7287
G1 X64.503 Y145.108 E22.8729
G1 X63.912 Y144.973 E22.9290
G1 X62.305 Y144.411 E23.0865
G1 X61.758 Y144.148 E23.1425
G1 X60.315 Y143.241 E23.3002
G1 X59.841 Y142.863 E23.3563
G1 X58.637 Y141.659 E23.5138
G1 X58.259 Y141.185 E23.5699
G1 X57.352 Y139.742 E23.7275
G1 X57.089 Y139.195 E23.7836
G1 X56.526 Y137.587 E23.9412
G1 X56.391 Y136.996 E23.9973
G1 X56.217 Y135.448 E24.1414
G1 X56.200 Y135.145 E24.1694
G1 X56.203 Y64.830 E30.6733
G1 X56.220 Y64.528 E30.7013
G1 X56.391 Y63.004 E30.8432
G1 X56.526 Y62.413 E30.8992
G1 X57.089 Y60.805 E31.0569
G1 X57.352 Y60.258 E31.1130
G1 X58.259 Y58.815 E31.2706
G1 X58.637 Y58.341 E31.3267
G1 X59.175 Y58.822 F18000
G92 E0.0000
G1 X60.321 Y57.675 E0.1500 F1800
G1 X60.732 Y57.347 E0.1986
G1 X62.107 Y56.483 E0.3488
G1 X62.581 Y56.255 E0.3974
G1 X64.113 Y55.719 E0.5475
G1 X64.625 Y55.602 E0.5961
G1 X66.112 Y55.435 E0.7346
G1 X66.375 Y55.420 E0.7589
G1 X133.625 Y55.420 E6.9793
G1 X133.888 Y55.435 E7.0036
G1 X135.375 Y55.602 E7.1421
G1 X135.887 Y55.719 E7.1907
G1 X137.419 Y56.255 E7.3408
G1 X137.893 Y56.483 E7.3894
G1 X139.267 Y57.347 E7.5396
G1 X139.678 Y57.674 E7.5882
G1 X140.826 Y58.822 E7.7383
G1 X141.153 Y59.233 E7.7869
G1 X142.017 Y60.607 E7.9370
G1 X142.245 Y61.081 E7.9856
G1 X142.780 Y62.611 E8.1357
G1 X142.898 Y63.124 E8.1843
G1 X143.065 Y64.612 E8.3228
G1 X143.080 Y64.875 E8.3471
G1 X143.080 Y135.125 E14.8450
G1 X143.065 Y135.387 E14.8693
G1 X142.898 Y136.876 E15.0079
G1 X142.780 Y137.388 E15.0565
G1 X142.245 Y138.919 E15.2065
G1 X142.017 Y139.393 E15.2552
G1 X141.153 Y140.767 E15.4053
G1 X140.825 Y141.178 E15.4539
G1 X139.678 Y142.325 E15.6040
G1 X139.267 Y142.653 E15.6526
G1 X137.893 Y143.517 E15.8027
G1 X137.419 Y143.745 E15.8513
G1 X135.888 Y144.280 E16.0014
G1 X135.376 Y144.398 E16.0500
G1 X133.887 Y144.565 E16.1885
G1 X133.625 Y144.580 E16.2128
G1 X66.375 Y144.580 E22.4333
G1 X66.112 Y144.565 E22.4576
G1 X64.624 Y144.398 E22.5961
G1 X64.111 Y144.280 E22.6447
G1 X62.581 Y143.745 E22.7948
G1 X62.107 Y143.517 E22.8434
G1 X60.733 Y142.653 E22.9935
G1 X60.322 Y142.325 E23.0422
G1 X59.174 Y141.178 E23.1922
G1 X58.847 Y140.767 E23.2408
G1 X57.983 Y139.393 E23.3910
G1 X57.755 Y138.919 E23.4396
G1 X57.219 Y137.387 E23.5897
G1 X57.102 Y136.875 E23.6383
G1 X56.935 Y135.388 E23.7768
G1 X56.920 Y135.125 E23.8011
G1 X56.923 Y64.851 E30.3012
G1 X56.937 Y64.588 E30.3255
G1 X57.102 Y63.125 E30.4617
G1 X57.219 Y62.613 E30.5103
G1 X57.755 Y61.081 E30.6605
G1 X57.983 Y60.607 E30.7091
G1 X58.847 Y59.232 E30.8592
G1 X59.175 Y58.822 E30.9079
G1 X59.712 Y59.302 F18000
G92 E0.0000
G1 X60.802 Y58.212 E0.1425 F1800
G1 X61.150 Y57.935 E0.1837
G1 X62.456 Y57.114 E0.3263
G1 X62.857 Y56.921 E0.3675
G1 X64.312 Y56.412 E0.5101
G1 X64.746 Y56.313 E0.5513
G1 X66.173 Y56.152 E0.6841
G1 X66.395 Y56.140 E0.7047
G1 X133.605 Y56.140 E6.9214
G1 X133.827 Y56.152 E6.9419
G1 X135.254 Y56.313 E7.0748
G1 X135.688 Y56.412 E7.1159
G1 X137.143 Y56.921 E7.2586
G1 X137.544 Y57.114 E7.2997
G1 X138.850 Y57.935 E7.4423
G1 X139.198 Y58.212 E7.4835
G1 X140.288 Y59.302 E7.6261
G1 X140.565 Y59.650 E7.6672
G1 X141.386 Y60.956 E7.8099
G1 X141.579 Y61.356 E7.8510
G1 X142.088 Y62.811 E7.9936
G1 X142.187 Y63.245 E8.0347
G1 X142.348 Y64.673 E8.1676
G1 X142.360 Y64.895 E8.1882
G1 X142.360 Y135.105 E14.6824
G1 X142.348 Y135.327 E14.7029
G1 X142.187 Y136.755 E14.8359
G1 X142.088 Y137.189 E14.8770
G1 X141.578 Y138.643 E15.0196
G1 X141.386 Y139.044 E15.0607
G1 X140.565 Y140.350 E15.2034
G1 X140.288 Y140.698 E15.2445
G1 X139.198 Y141.788 E15.3871
G1 X138.850 Y142.065 E15.4282
G1 X137.544 Y142.886 E15.5709
G1 X137.143 Y143.078 E15.6120
G1 X135.689 Y143.588 E15.7546
G1 X135.255 Y143.687 E15.7957
G1 X133.827 Y143.848 E15.9286
G1 X133.605 Y143.860 E15.9492
G1 X66.395 Y143.860 E22.1659
G1 X66.173 Y143.848 E22.1865
G1 X64.745 Y143.687 E22.3194
G1 X64.311 Y143.588 E22.3605
G1 X62.856 Y143.079 E22.5031
G1 X62.456 Y142.886 E22.5442
G1 X61.150 Y142.065 E22.6869
G1 X60.802 Y141.788 E22.7280
G1 X59.712 Y140.698 E22.8706
G1 X59.435 Y140.350 E22.9118
G1 X58.614 Y139.044 E23.0544
G1 X58.421 Y138.643 E23.0955
G1 X57.912 Y137.188 E23.2382
G1 X57.813 Y136.754 E23.2793
G1 X57.652 Y135.327 E23.4122
G1 X57.640 Y135.105 E23.4327
G1 X57.643 Y64.871 E29.9291
G1 X57.655 Y64.649 E29.9497
G1 X57.813 Y63.246 E30.0803
G1 X57.912 Y62.812 E30.1214
G1 X58.421 Y61.357 E30.2641
G1 X58.614 Y60.956 E30.3052
G1 X59.435 Y59.650 E30.4479
G1 X59.712 Y59.302 E30.4890
G1 X60.250 Y59.783 F18000
G92 E0.0000
G1 X61.283 Y58.750 E0.1351 F1800
G1 X61.567 Y58.523 E0.1687
G1 X62.805 Y57.746 E0.3039
G1 X63.132 Y57.588 E0.3376
G1 X64.512 Y57.105 E0.4727
G1 X64.866 Y57.024 E0.5064
G1 X66.233 Y56.870 E0.6336
G1 X66.415 Y56.860 E0.6504
G1 X133.585 Y56.860 E6.8634
G1 X133.767 Y56.870 E6.8803
G1 X135.133 Y57.024 E7.0075
G1 X135.488 Y57.105 E7.0412
G1 X136.867 Y57.588 E7.1763
G1 X137.195 Y57.746 E7.2100
G1 X138.433 Y58.523 E7.3451
G1 X138.717 Y58.750 E7.3788
G1 X139.750 Y59.783 E7.5139
G1 X139.977 Y60.067 E7.5476
G1 X140.754 Y61.305 E7.6827
G1 X140.912 Y61.632 E7.7164
G1 X141.395 Y63.011 E7.8515
G1 X141.476 Y63.366 E7.8851
G1 X141.630 Y64.733 E8.0124
G1 X141.640 Y64.915 E8.0293
G1 X141.640 Y135.085 E14.5197
G1 X141.630 Y135.267 E14.5366
G1 X141.476 Y136.634 E14.6639
G1 X141.395 Y136.989 E14.6975
G1 X140.912 Y138.368 E14.8326
G1 X140.754 Y138.695 E14.8663
