; G-Code generated by Simplify3D(R) Version 4.1.2
; Dec 28, 2021 at 8:46:29 PM
; Settings Summary
;   processName,Process1
;   applyToModels,rail-block-mount
;   profileName,HSBot (modified)
;   profileVersion,2019-11-09 11:59:44
;   baseProfile,Default
;   printMaterial,PETG - Eryone
;   printQuality,Medium
;   printExtruders,
;   extruderName,Extruder 1,Extruder - Lite
;   extruderToolheadNumber,0,1
;   extruderDiameter,0.4,0.4
;   extruderAutoWidth,1,1
;   extruderWidth,0.48,0.48
;   extrusionMultiplier,1.03,0.93
;   extruderUseRetract,1,1
;   extruderRetractionDistance,3,1
;   extruderExtraRestartDistance,0,0
;   extruderRetractionZLift,0,0
;   extruderRetractionSpeed,3600,1800
;   extruderUseCoasting,1,0
;   extruderCoastingDistance,0.2,0.2
;   extruderUseWipe,1,0
;   extruderWipeDistance,5,5
;   primaryExtruder,0
;   layerHeight,0.2
;   topSolidLayers,3
;   bottomSolidLayers,3
;   perimeterOutlines,3
;   printPerimetersInsideOut,1
;   startPointOption,2
;   startPointOriginX,0
;   startPointOriginY,0
;   sequentialIslands,0
;   spiralVaseMode,0
;   firstLayerHeightPercentage,150
;   firstLayerWidthPercentage,150
;   firstLayerUnderspeed,0.3
;   useRaft,0
;   raftExtruder,0
;   raftTopLayers,3
;   raftBaseLayers,2
;   raftOffset,3
;   raftSeparationDistance,0.18
;   raftTopInfill,100
;   aboveRaftSpeedMultiplier,0.3
;   useSkirt,1
;   skirtExtruder,0
;   skirtLayers,1
;   skirtOutlines,10
;   skirtOffset,0
;   usePrimePillar,0
;   primePillarExtruder,999
;   primePillarWidth,12
;   primePillarLocation,7
;   primePillarSpeedMultiplier,1
;   useOozeShield,0
;   oozeShieldExtruder,999
;   oozeShieldOffset,2
;   oozeShieldOutlines,1
;   oozeShieldSidewallShape,1
;   oozeShieldSidewallAngle,30
;   oozeShieldSpeedMultiplier,1
;   infillExtruder,0
;   internalInfillPattern,Fast Honeycomb
;   externalInfillPattern,Rectilinear
;   infillPercentage,20
;   outlineOverlapPercentage,15
;   infillExtrusionWidthPercentage,150
;   minInfillLength,5
;   infillLayerInterval,1
;   internalInfillAngles,0
;   overlapInternalInfillAngles,0
;   externalInfillAngles,45,-45
;   generateSupport,1
;   supportExtruder,0
;   supportInfillPercentage,30
;   supportExtraInflation,0
;   supportBaseLayers,1
;   denseSupportExtruder,0
;   denseSupportLayers,0
;   denseSupportInfillPercentage,70
;   supportLayerInterval,1
;   supportHorizontalPartOffset,0.3
;   supportUpperSeparationLayers,1
;   supportLowerSeparationLayers,1
;   supportType,1
;   supportGridSpacing,3
;   maxOverhangAngle,45
;   supportAngles,0
;   temperatureName,Extruder 1,Bed
;   temperatureNumber,0,0
;   temperatureSetpointCount,1,1
;   temperatureSetpointLayers,1,1
;   temperatureSetpointTemperatures,225,85
;   temperatureStabilizeAtStartup,1,1
;   temperatureHeatedBed,0,1
;   fanLayers,1,2,3
;   fanSpeeds,0,15,25
;   blipFanToFullPower,1
;   adjustSpeedForCooling,1
;   minSpeedLayerTime,15
;   minCoolingSpeedSlowdown,20
;   increaseFanForCooling,0
;   minFanLayerTime,45
;   maxCoolingFanSpeed,40
;   increaseFanForBridging,0
;   bridgingFanSpeed,80
;   use5D,1
;   relativeEdistances,0
;   allowEaxisZeroing,1
;   independentExtruderAxes,0
;   includeM10123,0
;   stickySupport,1
;   applyToolheadOffsets,0
;   gcodeXoffset,0
;   gcodeYoffset,0
;   gcodeZoffset,0
;   overrideMachineDefinition,1
;   machineTypeOverride,0
;   strokeXoverride,200
;   strokeYoverride,200
;   strokeZoverride,150
;   originOffsetXoverride,0
;   originOffsetYoverride,0
;   originOffsetZoverride,0
;   homeXdirOverride,-1
;   homeYdirOverride,-1
;   homeZdirOverride,-1
;   flipXoverride,1
;   flipYoverride,-1
;   flipZoverride,1
;   toolheadOffsets,0,0|0,0|0,0|0,0|0,0|0,0
;   overrideFirmwareConfiguration,0
;   firmwareTypeOverride,RepRap (Marlin/Repetier/Sprinter)
;   GPXconfigOverride,r2
;   baudRateOverride,115200
;   overridePrinterModels,0
;   printerModelsOverride
;   startingGcode,G28 ; home all axes,G32 ; run bed.g -- probe bed and enable compensation
;   layerChangeGcode,
;   retractionGcode,
;   toolChangeGcode,
;   endingGcode,M0 ; call stop.g
;   exportFileFormat,gcode
;   celebration,0
;   celebrationSong,Random Song
;   postProcessing,
;   defaultSpeed,4800
;   outlineUnderspeed,0.5
;   solidInfillUnderspeed,0.8
;   supportUnderspeed,0.8
;   rapidXYspeed,18000
;   rapidZspeed,1200
;   minBridgingArea,50
;   bridgingExtraInflation,0
;   bridgingExtrusionMultiplier,0.96
;   bridgingSpeedMultiplier,1
;   useFixedBridgingAngle,0
;   fixedBridgingAngle,0
;   applyBridgingToPerimeters,0
;   filamentDiameters,1.75|1.75|1.75|1.75|1.75|1.75
;   filamentPricesPerKg,25|46|46|46|46|46
;   filamentDensities,1.25|1.25|1.25|1.25|1.25|1.25
;   useMinPrintHeight,0
;   minPrintHeight,0
;   useMaxPrintHeight,0
;   maxPrintHeight,0
;   useDiaphragm,1
;   diaphragmLayerInterval,20
;   robustSlicing,1
;   mergeAllIntoSolid,0
;   onlyRetractWhenCrossingOutline,1
;   retractBetweenLayers,0
;   useRetractionMinTravel,1
;   retractionMinTravel,3
;   retractWhileWiping,1
;   onlyWipeOutlines,0
;   avoidCrossingOutline,1
;   maxMovementDetourFactor,3
;   toolChangeRetractionDistance,12
;   toolChangeExtraRestartDistance,-0.5
;   toolChangeRetractionSpeed,600
;   externalThinWallType,1
;   internalThinWallType,1
;   thinWallAllowedOverlapPercentage,10
;   singleExtrusionMinLength,0.1
;   singleExtrusionMinPrintingWidthPercentage,50
;   singleExtrusionMaxPrintingWidthPercentage,200
;   singleExtrusionEndpointExtension,0.2
;   horizontalSizeCompensation,0
G90
M82
M106 S0
M140 S85
M190 S85
G10 S225 R{225-50} P0
M116 P0
G28 ; home all axes
G32 ; run bed.g -- probe bed and enable compensation
; process Process1
; layer 1, Z = 0.300
T0
G92 E0.0000
G1 E-3.0000 F3600
; feature skirt
; tool H0.300 W0.720
G1 Z0.300 F1200
G1 X68.660 Y71.917 F18000
G1 E0.0000 F3600
G92 E0.0000
G1 X72.667 Y67.910 E0.5241 F1440
G1 X112.533 Y67.910 E4.2116
G1 X116.540 Y71.917 E4.7358
G1 X116.540 Y77.910 E5.2901
G1 X125.333 Y77.910 E6.1034
G1 X129.340 Y81.917 E6.6276
G1 X129.340 Y87.847 E7.1761
G1 X131.340 Y89.847 E7.4377
G1 X131.340 Y110.513 E9.3493
G1 X127.333 Y114.520 E9.8734
G1 X111.340 Y114.520 E11.3527
G1 X111.340 Y128.083 E12.6073
G1 X107.333 Y132.090 E13.1314
G1 X92.667 Y132.090 E14.4880
G1 X88.660 Y128.083 E15.0121
G1 X88.660 Y120.019 E15.7580
G1 X88.600 Y119.259 E15.8286
G1 X88.485 Y118.779 E15.8742
G1 X88.296 Y118.324 E15.9197
G1 X88.038 Y117.903 E15.9655
G1 X87.745 Y117.559 E16.0072
G1 X87.328 Y117.200 E16.0581
G1 X86.922 Y116.951 E16.1022
G1 X86.470 Y116.765 E16.1474
G1 X85.993 Y116.650 E16.1927
G1 X85.231 Y116.590 E16.2635
G1 X72.667 Y116.590 E17.4256
G1 X68.660 Y112.583 E17.9497
G1 X68.660 Y80.217 E20.9435
G1 X68.940 Y79.937 E20.9801
G1 X68.940 Y78.963 E21.0702
G1 X68.660 Y78.683 E21.1068
G1 X68.660 Y71.917 E21.7327
G1 X69.380 Y72.215 F18000
G92 E0.0000
G1 X72.965 Y68.630 E0.4690 F1440
G1 X112.235 Y68.630 E4.1013
G1 X115.820 Y72.215 E4.5702
G1 X115.820 Y78.630 E5.1636
G1 X125.035 Y78.630 E6.0160
G1 X128.620 Y82.215 E6.4849
G1 X128.620 Y88.145 E7.0334
G1 X130.620 Y90.145 E7.2950
G1 X130.620 Y110.215 E9.1514
G1 X127.035 Y113.800 E9.6204
G1 X110.620 Y113.800 E11.1387
G1 X110.620 Y127.785 E12.4323
G1 X107.035 Y131.370 E12.9012
G1 X92.965 Y131.370 E14.2027
G1 X89.380 Y127.785 E14.6716
G1 X89.380 Y119.991 E15.3925
G1 X89.313 Y119.145 E15.4710
G1 X89.172 Y118.556 E15.5270
G1 X88.940 Y117.996 E15.5831
G1 X88.622 Y117.478 E15.6393
G1 X88.256 Y117.050 E15.6914
G1 X87.754 Y116.616 E15.7528
G1 X87.249 Y116.308 E15.8075
G1 X86.693 Y116.078 E15.8632
G1 X86.106 Y115.937 E15.9190
G1 X85.259 Y115.870 E15.9976
G1 X72.965 Y115.870 E17.1347
G1 X69.380 Y112.285 E17.6037
G1 X69.380 Y80.515 E20.5423
G1 X69.660 Y80.235 E20.5789
G1 X69.660 Y78.665 E20.7242
G1 X69.380 Y78.385 E20.7608
G1 X69.380 Y72.215 E21.3315
G1 X70.100 Y72.513 F18000
G92 E0.0000
G1 X73.263 Y69.350 E0.4138 F1440
G1 X111.937 Y69.350 E3.9909
G1 X115.100 Y72.513 E4.4047
G1 X115.100 Y79.350 E5.0371
G1 X124.737 Y79.350 E5.9285
G1 X127.900 Y82.513 E6.3423
G1 X127.900 Y88.443 E6.8908
G1 X129.900 Y90.443 E7.1524
G1 X129.900 Y109.917 E8.9536
G1 X126.737 Y113.080 E9.3674
G1 X109.900 Y113.080 E10.9247
G1 X109.900 Y127.487 E12.2573
G1 X106.737 Y130.650 E12.6711
G1 X93.263 Y130.650 E13.9173
G1 X90.100 Y127.487 E14.3311
G1 X90.100 Y119.963 E15.0271
G1 X90.027 Y119.032 E15.1134
G1 X89.859 Y118.333 E15.1799
G1 X89.583 Y117.668 E15.2465
G1 X89.206 Y117.053 E15.3132
G1 X88.768 Y116.541 E15.3756
G1 X88.179 Y116.033 E15.4475
G1 X87.577 Y115.664 E15.5128
G1 X86.916 Y115.391 E15.5789
G1 X86.220 Y115.224 E15.6452
G1 X85.287 Y115.150 E15.7317
G1 X73.263 Y115.150 E16.8439
G1 X70.100 Y111.987 E17.2577
G1 X70.100 Y80.813 E20.1411
G1 X70.380 Y80.533 E20.1777
G1 X70.380 Y78.367 E20.3781
G1 X70.100 Y78.087 E20.4148
G1 X70.100 Y72.513 E20.9303
G1 X70.820 Y72.811 F18000
G92 E0.0000
G1 X73.561 Y70.070 E0.3586 F1440
G1 X111.638 Y70.070 E3.8806
G1 X114.380 Y72.811 E4.2392
G1 X114.380 Y80.070 E4.9106
G1 X124.439 Y80.070 E5.8410
G1 X127.180 Y82.811 E6.1996
G1 X127.180 Y88.741 E6.7481
G1 X129.180 Y90.742 E7.0097
G1 X129.180 Y109.618 E8.7558
G1 X126.439 Y112.360 E9.1144
G1 X109.180 Y112.360 E10.7107
G1 X109.180 Y127.189 E12.0823
G1 X106.439 Y129.930 E12.4409
G1 X93.561 Y129.930 E13.6320
G1 X90.820 Y127.189 E13.9906
G1 X90.820 Y119.934 E14.6616
G1 X90.740 Y118.919 E14.7558
G1 X90.545 Y118.109 E14.8328
G1 X90.226 Y117.340 E14.9099
G1 X89.790 Y116.629 E14.9870
G1 X89.280 Y116.031 E15.0597
G1 X88.605 Y115.449 E15.1422
G1 X87.904 Y115.020 E15.2182
G1 X87.139 Y114.704 E15.2947
G1 X86.333 Y114.510 E15.3715
G1 X85.316 Y114.430 E15.4658
G1 X73.561 Y114.430 E16.5530
G1 X70.820 Y111.689 E16.9117
G1 X70.820 Y81.111 E19.7399
G1 X71.100 Y80.831 E19.7765
G1 X71.100 Y78.068 E20.0321
G1 X70.820 Y77.788 E20.0687
G1 X70.820 Y72.811 E20.5291
G1 X71.540 Y73.110 F18000
G92 E0.0000
G1 X73.860 Y70.790 E0.3034 F1440
G1 X111.340 Y70.790 E3.7703
G1 X113.660 Y73.110 E4.0737
G1 X113.660 Y80.790 E4.7841
G1 X124.140 Y80.790 E5.7535
G1 X126.460 Y83.110 E6.0569
G1 X126.460 Y89.040 E6.6054
G1 X128.460 Y91.040 E6.8671
G1 X128.460 Y109.320 E8.5579
G1 X126.140 Y111.640 E8.8614
G1 X108.460 Y111.640 E10.4967
G1 X108.460 Y126.890 E11.9073
G1 X106.140 Y129.210 E12.2108
G1 X93.860 Y129.210 E13.3467
G1 X91.540 Y126.890 E13.6501
G1 X91.540 Y119.906 E14.2962
G1 X91.453 Y118.806 E14.3982
G1 X91.232 Y117.886 E14.4857
G1 X90.870 Y117.012 E14.5733
G1 X90.375 Y116.204 E14.6609
G1 X89.792 Y115.522 E14.7439
G1 X89.031 Y114.866 E14.8368
G1 X88.232 Y114.377 E14.9235
G1 X87.362 Y114.017 E15.0105
G1 X86.446 Y113.797 E15.0977
G1 X85.344 Y113.710 E15.1999
G1 X73.860 Y113.710 E16.2622
G1 X71.540 Y111.390 E16.5656
G1 X71.540 Y81.410 E19.3387
G1 X71.820 Y81.130 E19.3754
G1 X71.820 Y77.770 E19.6861
G1 X71.540 Y77.490 E19.7227
G1 X71.540 Y73.110 E20.1279
G1 X72.260 Y73.408 F18000
G92 E0.0000
G1 X74.158 Y71.510 E0.2483 F1440
G1 X111.042 Y71.510 E3.6599
G1 X112.940 Y73.408 E3.9082
G1 X112.940 Y81.510 E4.6576
G1 X123.842 Y81.510 E5.6660
G1 X125.740 Y83.408 E5.9143
G1 X125.740 Y89.440 E6.4722
G1 X125.842 Y89.440 E6.4817
G1 X127.740 Y91.338 E6.7299
G1 X127.740 Y109.022 E8.3656
G1 X125.842 Y110.920 E8.6139
G1 X107.740 Y110.920 E10.2883
G1 X107.740 Y126.592 E11.7379
G1 X105.842 Y128.490 E11.9862
G1 X94.158 Y128.490 E13.0669
G1 X92.260 Y126.592 E13.3152
G1 X92.260 Y119.878 E13.9362
G1 X92.167 Y118.693 E14.0461
G1 X91.919 Y117.663 E14.1442
G1 X91.513 Y116.684 E14.2422
G1 X90.959 Y115.780 E14.3403
G1 X90.304 Y115.012 E14.4336
G1 X89.457 Y114.282 E14.5370
G1 X88.559 Y113.733 E14.6343
G1 X87.586 Y113.330 E14.7318
G1 X86.559 Y113.084 E14.8295
G1 X85.372 Y112.990 E14.9396
G1 X74.158 Y112.990 E15.9769
G1 X72.260 Y111.092 E16.2251
G1 X72.260 Y81.708 E18.9431
G1 X72.540 Y81.428 E18.9797
G1 X72.540 Y77.472 E19.3456
G1 X72.260 Y77.192 E19.3822
G1 X72.260 Y73.408 E19.7322
G1 X72.980 Y73.706 F18000
G92 E0.0000
G1 X74.456 Y72.230 E0.1931 F1440
G1 X110.744 Y72.230 E3.5496
G1 X112.220 Y73.706 E3.7427
G1 X112.220 Y82.230 E4.5311
G1 X123.544 Y82.230 E5.5785
G1 X125.020 Y83.706 E5.7716
G1 X125.020 Y90.160 E6.3686
G1 X125.544 Y90.160 E6.4170
G1 X127.020 Y91.636 E6.6101
G1 X127.020 Y99.845 E7.3694
G1 X126.740 Y100.007 E7.3993
G1 X126.740 Y100.353 E7.4314
G1 X127.020 Y100.515 E7.4613
G1 X127.020 Y108.724 E8.2206
G1 X125.544 Y110.200 E8.4137
G1 X107.020 Y110.200 E10.1270
G1 X107.020 Y126.294 E11.6157
G1 X105.544 Y127.770 E11.8088
G1 X94.456 Y127.770 E12.8343
G1 X92.980 Y126.294 E13.0274
G1 X92.980 Y119.849 E13.6235
G1 X92.880 Y118.580 E13.7413
G1 X92.606 Y117.439 E13.8498
G1 X92.157 Y116.356 E13.9583
G1 X91.543 Y115.355 E14.0669
G1 X90.815 Y114.503 E14.1705
G1 X89.882 Y113.699 E14.2845
G1 X88.887 Y113.089 E14.3924
G1 X87.809 Y112.643 E14.5004
G1 X86.672 Y112.370 E14.6085
G1 X85.401 Y112.270 E14.7264
G1 X74.456 Y112.270 E15.7388
G1 X72.980 Y110.794 E15.9319
G1 X72.980 Y82.006 E18.5946
G1 X73.260 Y81.726 E18.6312
G1 X73.260 Y77.174 E19.0523
G1 X72.980 Y76.894 E19.0890
G1 X72.980 Y73.706 E19.3838
G1 X73.700 Y74.004 F18000
G92 E0.0000
G1 X74.754 Y72.950 E0.1379 F1440
G1 X110.446 Y72.950 E3.4392
G1 X111.500 Y74.004 E3.5772
G1 X111.500 Y82.950 E4.4046
G1 X123.246 Y82.950 E5.4910
G1 X124.300 Y84.004 E5.6289
G1 X124.300 Y90.880 E6.2649
G1 X125.246 Y90.880 E6.3524
G1 X126.300 Y91.934 E6.4903
G1 X126.300 Y99.429 E7.1836
G1 X126.020 Y99.591 E7.2135
G1 X126.020 Y100.769 E7.3224
G1 X126.300 Y100.931 E7.3523
G1 X126.300 Y108.426 E8.0456
G1 X125.246 Y109.480 E8.1835
G1 X106.300 Y109.480 E9.9359
G1 X106.300 Y125.996 E11.4635
G1 X105.246 Y127.050 E11.6015
G1 X94.754 Y127.050 E12.5719
G1 X93.700 Y125.996 E12.7098
G1 X93.700 Y119.821 E13.2809
G1 X93.593 Y118.467 E13.4065
G1 X93.293 Y117.216 E13.5255
G1 X92.800 Y116.027 E13.6446
G1 X92.127 Y114.930 E13.7636
G1 X91.327 Y113.994 E13.8775
G1 X90.308 Y113.115 E14.0020
G1 X89.214 Y112.446 E14.1206
G1 X88.032 Y111.956 E14.2390
G1 X86.785 Y111.657 E14.3576
G1 X85.429 Y111.550 E14.4834
G1 X74.754 Y111.550 E15.4708
G1 X73.700 Y110.496 E15.6087
G1 X73.700 Y82.304 E18.2163
G1 X73.980 Y82.024 E18.2529
G1 X73.980 Y76.876 E18.7292
G1 X73.700 Y76.596 E18.7658
G1 X73.700 Y74.004 E19.0055
G1 X74.420 Y74.303 F18000
G92 E0.0000
G1 X75.053 Y73.670 E0.0828 F1440
G1 X110.147 Y73.670 E3.3289
G1 X110.780 Y74.303 E3.4116
G1 X110.780 Y83.670 E4.2781
G1 X122.947 Y83.670 E5.4035
G1 X123.580 Y84.303 E5.4863
G1 X123.580 Y91.600 E6.1613
G1 X124.947 Y91.600 E6.2877
G1 X125.580 Y92.233 E6.3705
G1 X125.580 Y99.014 E6.9977
G1 X125.300 Y99.175 E7.0276
G1 X125.300 Y101.185 E7.2135
G1 X125.580 Y101.346 E7.2434
G1 X125.580 Y108.127 E7.8706
G1 X124.947 Y108.760 E7.9534
G1 X105.580 Y108.760 E9.7448
G1 X105.580 Y125.697 E11.3114
G1 X104.947 Y126.330 E11.3942
G1 X95.053 Y126.330 E12.3094
G1 X94.420 Y125.697 E12.3922
G1 X94.420 Y119.793 E12.9383
G1 X94.307 Y118.354 E13.0718
G1 X93.980 Y116.993 E13.2013
G1 X93.443 Y115.699 E13.3308
G1 X92.711 Y114.506 E13.4603
G1 X91.839 Y113.484 E13.5846
G1 X90.734 Y112.531 E13.7195
G1 X89.542 Y111.802 E13.8488
G1 X88.255 Y111.270 E13.9776
G1 X86.898 Y110.944 E14.1067
G1 X85.457 Y110.830 E14.2404
G1 X75.053 Y110.830 E15.2028
G1 X74.420 Y110.197 E15.2855
G1 X74.420 Y82.603 E17.8379
G1 X74.700 Y82.323 E17.8746
G1 X74.700 Y76.577 E18.4060
G1 X74.420 Y76.297 E18.4426
G1 X74.420 Y74.303 E18.6271
G1 X75.140 Y74.601 F18000
G92 E0.0000
G1 X75.351 Y74.390 E0.0276 F1440
G1 X109.849 Y74.390 E3.2185
G1 X110.060 Y74.601 E3.2461
G1 X110.060 Y84.390 E4.1516
G1 X122.649 Y84.390 E5.3160
G1 X122.860 Y84.601 E5.3436
G1 X122.860 Y92.320 E6.0576
G1 X124.649 Y92.320 E6.2231
G1 X124.860 Y92.531 E6.2507
G1 X124.860 Y98.598 E6.8119
G1 X124.580 Y98.760 E6.8418
G1 X124.580 Y101.600 E7.1045
G1 X124.860 Y101.762 E7.1344
G1 X124.860 Y107.829 E7.6956
G1 X124.649 Y108.040 E7.7232
G1 X104.860 Y108.040 E9.5536
G1 X104.860 Y125.399 E11.1593
G1 X104.649 Y125.610 E11.1869
G1 X95.351 Y125.610 E12.0469
G1 X95.140 Y125.399 E12.0745
G1 X95.140 Y119.764 E12.5957
G1 X95.020 Y118.241 E12.7370
G1 X94.666 Y116.769 E12.8770
G1 X94.087 Y115.371 E13.0170
G1 X93.295 Y114.081 E13.1570
G1 X92.351 Y112.975 E13.2916
G1 X91.160 Y111.948 E13.4371
G1 X89.869 Y111.158 E13.5770
G1 X88.478 Y110.583 E13.7163
G1 X87.011 Y110.230 E13.8558
