; G-Code generated by Simplify3D(R) Version 4.1.2
; Dec 25, 2021 at 3:16:10 PM
; Settings Summary
;   processName,Process1
;   applyToModels,rail-mount
;   profileName,HSBot (modified)
;   profileVersion,2019-11-09 11:59:44
;   baseProfile,Default
;   printMaterial,PETG - Eryone
;   printQuality,Medium
;   printExtruders,
;   extruderName,Extruder 1,Extruder - Lite
;   extruderToolheadNumber,0,1
;   extruderDiameter,0.4,0.4
;   extruderAutoWidth,1,1
;   extruderWidth,0.48,0.48
;   extrusionMultiplier,1.03,0.9
;   extruderUseRetract,1,1
;   extruderRetractionDistance,3,1
;   extruderExtraRestartDistance,0,0
;   extruderRetractionZLift,0,0
;   extruderRetractionSpeed,3600,1800
;   extruderUseCoasting,1,0
;   extruderCoastingDistance,0.2,0.2
;   extruderUseWipe,1,0
;   extruderWipeDistance,5,5
;   primaryExtruder,0
;   layerHeight,0.2
;   topSolidLayers,3
;   bottomSolidLayers,3
;   perimeterOutlines,3
;   printPerimetersInsideOut,1
;   startPointOption,2
;   startPointOriginX,0
;   startPointOriginY,0
;   sequentialIslands,0
;   spiralVaseMode,0
;   firstLayerHeightPercentage,150
;   firstLayerWidthPercentage,150
;   firstLayerUnderspeed,0.3
;   useRaft,0
;   raftExtruder,0
;   raftTopLayers,3
;   raftBaseLayers,2
;   raftOffset,3
;   raftSeparationDistance,0.18
;   raftTopInfill,100
;   aboveRaftSpeedMultiplier,0.3
;   useSkirt,1
;   skirtExtruder,0
;   skirtLayers,1
;   skirtOutlines,10
;   skirtOffset,0
;   usePrimePillar,0
;   primePillarExtruder,999
;   primePillarWidth,12
;   primePillarLocation,7
;   primePillarSpeedMultiplier,1
;   useOozeShield,0
;   oozeShieldExtruder,999
;   oozeShieldOffset,2
;   oozeShieldOutlines,1
;   oozeShieldSidewallShape,1
;   oozeShieldSidewallAngle,30
;   oozeShieldSpeedMultiplier,1
;   infillExtruder,0
;   internalInfillPattern,Fast Honeycomb
;   externalInfillPattern,Rectilinear
;   infillPercentage,20
;   outlineOverlapPercentage,15
;   infillExtrusionWidthPercentage,150
;   minInfillLength,5
;   infillLayerInterval,1
;   internalInfillAngles,0
;   overlapInternalInfillAngles,0
;   externalInfillAngles,45,-45
;   generateSupport,0
;   supportExtruder,0
;   supportInfillPercentage,30
;   supportExtraInflation,0
;   supportBaseLayers,1
;   denseSupportExtruder,0
;   denseSupportLayers,0
;   denseSupportInfillPercentage,70
;   supportLayerInterval,1
;   supportHorizontalPartOffset,0.3
;   supportUpperSeparationLayers,1
;   supportLowerSeparationLayers,1
;   supportType,0
;   supportGridSpacing,4
;   maxOverhangAngle,45
;   supportAngles,0
;   temperatureName,Extruder 1,Bed
;   temperatureNumber,0,0
;   temperatureSetpointCount,1,1
;   temperatureSetpointLayers,1,1
;   temperatureSetpointTemperatures,225,85
;   temperatureStabilizeAtStartup,1,1
;   temperatureHeatedBed,0,1
;   fanLayers,1,2,3
;   fanSpeeds,0,15,25
;   blipFanToFullPower,1
;   adjustSpeedForCooling,1
;   minSpeedLayerTime,15
;   minCoolingSpeedSlowdown,20
;   increaseFanForCooling,0
;   minFanLayerTime,45
;   maxCoolingFanSpeed,40
;   increaseFanForBridging,0
;   bridgingFanSpeed,80
;   use5D,1
;   relativeEdistances,0
;   allowEaxisZeroing,1
;   independentExtruderAxes,0
;   includeM10123,0
;   stickySupport,1
;   applyToolheadOffsets,0
;   gcodeXoffset,0
;   gcodeYoffset,0
;   gcodeZoffset,0
;   overrideMachineDefinition,1
;   machineTypeOverride,0
;   strokeXoverride,200
;   strokeYoverride,200
;   strokeZoverride,150
;   originOffsetXoverride,0
;   originOffsetYoverride,0
;   originOffsetZoverride,0
;   homeXdirOverride,-1
;   homeYdirOverride,-1
;   homeZdirOverride,-1
;   flipXoverride,1
;   flipYoverride,-1
;   flipZoverride,1
;   toolheadOffsets,0,0|0,0|0,0|0,0|0,0|0,0
;   overrideFirmwareConfiguration,0
;   firmwareTypeOverride,RepRap (Marlin/Repetier/Sprinter)
;   GPXconfigOverride,r2
;   baudRateOverride,115200
;   overridePrinterModels,0
;   printerModelsOverride
;   startingGcode,G28 ; home all axes,G32 ; run bed.g -- probe bed and enable compensation
;   layerChangeGcode,
;   retractionGcode,
;   toolChangeGcode,
;   endingGcode,M0 ; call stop.g
;   exportFileFormat,gcode
;   celebration,0
;   celebrationSong,Random Song
;   postProcessing,
;   defaultSpeed,7200
;   outlineUnderspeed,0.5
;   solidInfillUnderspeed,0.8
;   supportUnderspeed,0.8
;   rapidXYspeed,18000
;   rapidZspeed,1200
;   minBridgingArea,50
;   bridgingExtraInflation,0
;   bridgingExtrusionMultiplier,0.96
;   bridgingSpeedMultiplier,1
;   useFixedBridgingAngle,0
;   fixedBridgingAngle,0
;   applyBridgingToPerimeters,0
;   filamentDiameters,1.75|1.75|1.75|1.75|1.75|1.75
;   filamentPricesPerKg,25|46|46|46|46|46
;   filamentDensities,1.25|1.25|1.25|1.25|1.25|1.25
;   useMinPrintHeight,0
;   minPrintHeight,0
;   useMaxPrintHeight,0
;   maxPrintHeight,0
;   useDiaphragm,1
;   diaphragmLayerInterval,20
;   robustSlicing,1
;   mergeAllIntoSolid,0
;   onlyRetractWhenCrossingOutline,1
;   retractBetweenLayers,0
;   useRetractionMinTravel,1
;   retractionMinTravel,3
;   retractWhileWiping,1
;   onlyWipeOutlines,0
;   avoidCrossingOutline,1
;   maxMovementDetourFactor,3
;   toolChangeRetractionDistance,12
;   toolChangeExtraRestartDistance,-0.5
;   toolChangeRetractionSpeed,600
;   externalThinWallType,1
;   internalThinWallType,2
;   thinWallAllowedOverlapPercentage,10
;   singleExtrusionMinLength,1
;   singleExtrusionMinPrintingWidthPercentage,50
;   singleExtrusionMaxPrintingWidthPercentage,200
;   singleExtrusionEndpointExtension,0.2
;   horizontalSizeCompensation,0
G90
M82
M106 S0
M140 S85
M190 S85
G10 S225 R{225-50} P0
M116 P0
G28 ; home all axes
G32 ; run bed.g -- probe bed and enable compensation
; process Process1
; layer 1, Z = 0.300
T0
G92 E0.0000
G1 E-3.0000 F3600
; feature skirt
; tool H0.300 W0.720
G1 Z0.300 F1200
G1 X99.025 Y57.296 F18000
G1 E0.0000 F3600
G92 E0.0000
G1 X117.174 Y39.147 E2.3741 F2160
G1 X122.840 Y39.147 E2.8982
G1 X145.109 Y61.416 E5.8112
G1 X172.328 Y34.197 E9.3717
G1 X177.994 Y34.197 E9.8958
G1 X191.194 Y47.396 E11.6224
G1 X191.194 Y53.063 E12.1465
G1 X53.190 Y191.066 E30.1987
G1 X47.524 Y191.066 E30.7228
G1 X9.222 Y152.765 E35.7330
G1 X9.222 Y147.098 E36.2572
G1 X27.371 Y128.949 E38.6312
G1 X33.037 Y128.949 E39.1553
G1 X55.307 Y151.218 E42.0683
G1 X121.294 Y85.231 E50.7001
G1 X99.025 Y62.962 E53.6131
G1 X99.025 Y57.296 E54.1372
G1 X99.745 Y57.594 F18000
G92 E0.0000
G1 X117.472 Y39.867 E2.3189 F2160
G1 X122.542 Y39.867 E2.7878
G1 X145.109 Y62.434 E5.7399
G1 X172.626 Y34.917 E9.3394
G1 X177.696 Y34.917 E9.8083
G1 X190.474 Y47.694 E11.4797
G1 X190.474 Y52.764 E11.9487
G1 X52.892 Y190.346 E29.9457
G1 X47.822 Y190.346 E30.4147
G1 X9.942 Y152.466 E35.3697
G1 X9.942 Y147.396 E35.8386
G1 X27.669 Y129.669 E38.1575
G1 X32.739 Y129.669 E38.6265
G1 X55.307 Y152.237 E41.5785
G1 X122.312 Y85.231 E50.3434
G1 X99.745 Y62.664 E53.2955
G1 X99.745 Y57.594 E53.7644
G1 X100.465 Y57.892 F18000
G92 E0.0000
G1 X117.770 Y40.587 E2.2637 F2160
G1 X122.244 Y40.587 E2.6775
G1 X145.109 Y63.452 E5.6685
G1 X172.924 Y35.637 E9.3070
G1 X177.398 Y35.637 E9.7208
G1 X189.754 Y47.993 E11.3371
G1 X189.754 Y52.466 E11.7508
G1 X52.594 Y189.626 E29.6927
G1 X48.120 Y189.626 E30.1065
G1 X10.662 Y152.168 E35.0063
G1 X10.662 Y147.695 E35.4201
G1 X27.968 Y130.389 E37.6838
G1 X32.441 Y130.389 E38.0976
G1 X55.307 Y153.255 E41.0886
G1 X123.330 Y85.231 E49.9868
G1 X100.465 Y62.366 E52.9778
G1 X100.465 Y57.892 E53.3916
G1 X101.185 Y58.190 F18000
G92 E0.0000
G1 X118.068 Y41.307 E2.2085 F2160
G1 X121.945 Y41.307 E2.5672
G1 X145.109 Y64.470 E5.5972
G1 X173.223 Y36.357 E9.2747
G1 X177.100 Y36.357 E9.6333
G1 X189.034 Y48.291 E11.1944
G1 X189.034 Y52.168 E11.5530
G1 X52.295 Y188.906 E29.4397
G1 X48.418 Y188.906 E29.7983
G1 X11.382 Y151.870 E34.6430
G1 X11.382 Y147.993 E35.0016
G1 X28.266 Y131.109 E37.2101
G1 X32.143 Y131.109 E37.5688
G1 X54.895 Y153.861 E40.5449
G1 X55.152 Y154.066 E40.5754
G1 X55.211 Y154.095 E40.5814
G1 X55.274 Y154.109 E40.5874
G1 X55.339 Y154.109 E40.5934
G1 X55.403 Y154.095 E40.5994
G1 X55.461 Y154.066 E40.6054
G1 X55.719 Y153.861 E40.6359
G1 X123.937 Y85.643 E49.5595
G1 X124.142 Y85.386 E49.5899
G1 X124.170 Y85.327 E49.5959
G1 X124.184 Y85.264 E49.6020
G1 X124.184 Y85.199 E49.6080
G1 X124.170 Y85.135 E49.6140
G1 X124.142 Y85.077 E49.6200
G1 X123.937 Y84.819 E49.6505
G1 X101.185 Y62.067 E52.6266
G1 X101.185 Y58.190 E52.9852
G1 X101.905 Y58.489 F18000
G92 E0.0000
G1 X118.367 Y42.027 E2.1534 F2160
G1 X121.647 Y42.027 E2.4568
G1 X145.109 Y65.489 E5.5259
G1 X173.521 Y37.077 E9.2424
G1 X176.801 Y37.077 E9.5458
G1 X188.314 Y48.589 E11.0517
G1 X188.314 Y51.870 E11.3552
G1 X51.997 Y188.186 E29.1867
G1 X48.717 Y188.186 E29.4901
G1 X12.102 Y151.572 E34.2797
G1 X12.102 Y148.291 E34.5831
G1 X28.564 Y131.829 E36.7365
G1 X31.845 Y131.829 E37.0399
G1 X54.414 Y154.399 E39.9922
G1 X54.767 Y154.680 E40.0339
G1 X54.971 Y154.779 E40.0549
G1 X55.193 Y154.829 E40.0760
G1 X55.420 Y154.829 E40.0970
G1 X55.642 Y154.779 E40.1180
G1 X55.846 Y154.680 E40.1390
G1 X56.199 Y154.399 E40.1807
G1 X124.474 Y86.124 E49.1118
G1 X124.755 Y85.771 E49.1535
G1 X124.854 Y85.566 E49.1745
G1 X124.904 Y85.345 E49.1955
G1 X124.904 Y85.117 E49.2166
G1 X124.854 Y84.896 E49.2376
G1 X124.755 Y84.691 E49.2586
G1 X124.474 Y84.339 E49.3003
G1 X101.905 Y61.769 E52.2526
G1 X101.905 Y58.489 E52.5560
G1 X102.625 Y58.787 F18000
G92 E0.0000
G1 X118.665 Y42.747 E2.0982 F2160
G1 X121.349 Y42.747 E2.3465
G1 X145.109 Y66.507 E5.4545
G1 X173.819 Y37.797 E9.2101
G1 X176.503 Y37.797 E9.4583
G1 X187.594 Y48.887 E10.9091
G1 X187.594 Y51.571 E11.1573
G1 X51.699 Y187.466 E28.9337
G1 X49.015 Y187.466 E29.1820
G1 X12.822 Y151.273 E33.9163
G1 X12.822 Y148.589 E34.1646
G1 X28.862 Y132.549 E36.2628
G1 X31.546 Y132.549 E36.5110
G1 X53.934 Y154.936 E39.4395
G1 X54.381 Y155.293 E39.4924
G1 X54.732 Y155.462 E39.5285
G1 X55.112 Y155.549 E39.5645
G1 X55.501 Y155.549 E39.6005
G1 X55.881 Y155.462 E39.6366
G1 X56.232 Y155.293 E39.6726
G1 X56.680 Y154.936 E39.7256
G1 X125.012 Y86.604 E48.6641
G1 X125.369 Y86.157 E48.7170
G1 X125.538 Y85.806 E48.7531
G1 X125.624 Y85.426 E48.7891
G1 X125.624 Y85.036 E48.8251
G1 X125.538 Y84.657 E48.8611
G1 X125.369 Y84.306 E48.8972
G1 X125.012 Y83.858 E48.9501
G1 X102.625 Y61.471 E51.8786
G1 X102.625 Y58.787 E52.1269
G1 X103.345 Y59.085 F18000
G92 E0.0000
G1 X118.963 Y43.467 E2.0430 F2160
G1 X121.051 Y43.467 E2.2361
G1 X145.109 Y67.525 E5.3832
G1 X174.117 Y38.517 E9.1778
G1 X176.205 Y38.517 E9.3709
G1 X186.874 Y49.186 E10.7664
G1 X186.874 Y51.273 E10.9595
G1 X51.401 Y186.746 E28.6807
G1 X49.313 Y186.746 E28.8738
G1 X13.542 Y150.975 E33.5530
G1 X13.542 Y148.888 E33.7461
G1 X29.160 Y133.269 E35.7891
G1 X31.248 Y133.269 E35.9822
G1 X53.453 Y155.474 E38.8868
G1 X53.996 Y155.907 E38.9510
G1 X54.493 Y156.146 E39.0020
G1 X55.031 Y156.269 E39.0531
G1 X55.582 Y156.269 E39.1041
G1 X56.120 Y156.146 E39.1551
G1 X56.617 Y155.907 E39.2062
G1 X57.160 Y155.474 E39.2704
G1 X125.550 Y87.085 E48.2164
G1 X125.982 Y86.542 E48.2806
G1 X126.222 Y86.045 E48.3316
G1 X126.344 Y85.507 E48.3826
G1 X126.344 Y84.955 E48.4337
G1 X126.222 Y84.418 E48.4847
G1 X125.982 Y83.920 E48.5358
G1 X125.550 Y83.378 E48.6000
G1 X103.345 Y61.173 E51.5046
G1 X103.345 Y59.085 E51.6977
G1 X104.065 Y59.383 F18000
G92 E0.0000
G1 X119.261 Y44.187 E1.9879 F2160
G1 X120.752 Y44.187 E2.1258
G1 X145.109 Y68.543 E5.3119
G1 X174.416 Y39.237 E9.1454
G1 X175.907 Y39.237 E9.2834
G1 X186.154 Y49.484 E10.6238
G1 X186.154 Y50.975 E10.7617
G1 X51.102 Y186.026 E28.4277
G1 X49.611 Y186.026 E28.5656
G1 X14.262 Y150.677 E33.1896
G1 X14.262 Y149.186 E33.3275
G1 X29.459 Y133.989 E35.3154
G1 X30.950 Y133.989 E35.4533
G1 X52.972 Y156.012 E38.3341
G1 X53.610 Y156.520 E38.4095
G1 X54.253 Y156.830 E38.4756
G1 X54.950 Y156.989 E38.5416
G1 X55.664 Y156.989 E38.6077
G1 X56.360 Y156.830 E38.6737
G1 X57.003 Y156.520 E38.7398
G1 X57.641 Y156.012 E38.8152
G1 X126.087 Y87.565 E47.7687
G1 X126.596 Y86.928 E47.8441
G1 X126.906 Y86.284 E47.9102
G1 X127.064 Y85.588 E47.9762
G1 X127.064 Y84.874 E48.0423
G1 X126.906 Y84.178 E48.1083
G1 X126.596 Y83.535 E48.1743
G1 X126.087 Y82.897 E48.2498
G1 X104.065 Y60.874 E51.1306
G1 X104.065 Y59.383 E51.2685
G1 X104.785 Y59.682 F18000
G92 E0.0000
G1 X119.559 Y44.907 E1.9327 F2160
G1 X120.454 Y44.907 E2.0154
G1 X145.109 Y69.562 E5.2405
G1 X174.714 Y39.957 E9.1131
G1 X175.609 Y39.957 E9.1959
G1 X185.434 Y49.782 E10.4811
G1 X185.434 Y50.677 E10.5639
G1 X50.804 Y185.306 E28.1747
G1 X49.909 Y185.306 E28.2574
G1 X14.982 Y150.379 E32.8263
G1 X14.982 Y149.484 E32.9090
G1 X29.757 Y134.709 E34.8417
G1 X30.652 Y134.709 E34.9245
G1 X52.492 Y156.550 E37.7814
G1 X53.225 Y157.134 E37.8681
G1 X54.014 Y157.514 E37.9491
G1 X54.868 Y157.709 E38.0302
G1 X55.745 Y157.709 E38.1112
G1 X56.599 Y157.514 E38.1923
G1 X57.389 Y157.134 E38.2733
G1 X58.121 Y156.550 E38.3600
G1 X126.625 Y88.046 E47.3210
G1 X127.209 Y87.313 E47.4077
G1 X127.590 Y86.524 E47.4887
G1 X127.784 Y85.669 E47.5698
G1 X127.784 Y84.793 E47.6508
G1 X127.590 Y83.939 E47.7319
G1 X127.209 Y83.149 E47.8129
G1 X126.625 Y82.416 E47.8996
G1 X104.785 Y60.576 E50.7565
G1 X104.785 Y59.682 E50.8393
G1 X105.505 Y59.980 F18000
G92 E0.0000
G1 X119.858 Y45.627 E1.8775 F2160
G1 X120.156 Y45.627 E1.9051
G1 X145.109 Y70.580 E5.1692
G1 X175.012 Y40.677 E9.0808
G1 X175.310 Y40.677 E9.1084
G1 X184.714 Y50.080 E10.3384
G1 X184.714 Y50.379 E10.3660
G1 X50.506 Y184.586 E27.9217
G1 X50.208 Y184.586 E27.9493
G1 X15.702 Y150.081 E32.4629
G1 X15.702 Y149.782 E32.4905
G1 X30.055 Y135.429 E34.3680
G1 X30.353 Y135.429 E34.3956
G1 X52.011 Y157.087 E37.2287
G1 X52.839 Y157.747 E37.3266
G1 X53.775 Y158.198 E37.4227
G1 X54.787 Y158.429 E37.5187
G1 X55.826 Y158.429 E37.6148
G1 X56.838 Y158.198 E37.7109
G1 X57.774 Y157.747 E37.8069
G1 X58.602 Y157.087 E37.9049
G1 X127.163 Y88.526 E46.8733
G1 X127.823 Y87.699 E46.9712
G1 X128.273 Y86.763 E47.0673
G1 X128.504 Y85.750 E47.1633
G1 X128.505 Y84.712 E47.2594
G1 X128.273 Y83.700 E47.3554
G1 X127.823 Y82.764 E47.4515
G1 X127.163 Y81.936 E47.5495
G1 X105.505 Y60.278 E50.3825
G1 X105.505 Y59.980 E50.4101
; feature inner perimeter
G1 X106.374 Y60.129 F18000
G1 X106.473 Y60.030
G1 X108.410 Y60.129
G92 E0.0000
G1 X120.007 Y48.532 E1.5169 F1620
G1 X145.109 Y73.635 E4.8006
G1 X151.425 Y67.319 E5.6268
G1 X151.856 Y67.567 E5.6728
G1 X151.210 Y69.976 E5.9035
G1 X155.414 Y74.180 E6.4534
G1 X157.823 Y73.535 E6.6841
G1 X158.072 Y73.965 E6.7301
G1 X144.803 Y87.234 E8.4657
G1 X144.373 Y86.985 E8.5117
G1 X145.018 Y84.576 E8.7424
G1 X140.814 Y80.372 E9.2923
G1 X135.071 Y81.911 E9.8423
G1 X133.533 Y87.654 E10.3922
G1 X137.737 Y91.858 E10.9421
G1 X140.146 Y91.212 E11.1728
G1 X140.394 Y91.643 E11.2188
G1 X127.126 Y104.912 E12.9545
G1 X126.695 Y104.663 E13.0005
G1 X127.341 Y102.254 E13.2312
G1 X123.137 Y98.050 E13.7811
G1 X120.728 Y98.695 E14.0118
G1 X120.479 Y98.265 E14.0578
G1 X128.776 Y89.968 E15.1431
G1 X129.663 Y88.855 E15.2747
G1 X130.325 Y87.481 E15.4158
G1 X130.664 Y85.994 E15.5569
G1 X130.665 Y84.469 E15.6980
G1 X130.325 Y82.982 E15.8391
G1 X129.663 Y81.607 E15.9802
G1 X128.776 Y80.494 E16.1118
G1 X108.552 Y60.270 E18.7573
G1 X108.410 Y60.129 F1620
G1 X111.946 Y56.593 F1620
G1 X133.157 Y59.646 F18000
G1 X145.109 Y71.598
G1 X154.054 Y62.653
G1 X155.834 Y62.909
G92 E0.0000
G1 X169.103 Y49.641 E1.7357 F1620
G1 X169.534 Y49.889 E1.7817
G1 X168.888 Y52.299 E2.0123
G1 X173.092 Y56.503 E2.5623
G1 X175.501 Y55.857 E2.7930
G1 X175.750 Y56.288 E2.8390
G1 X162.481 Y69.556 E4.5746
G1 X162.050 Y69.308 E4.6206
G1 X162.696 Y66.899 E4.8513
G1 X158.492 Y62.695 E5.4012
G1 X156.083 Y63.340 E5.6319
G1 X155.934 Y63.083 E5.6594
G1 X155.834 Y62.909 F1620
G1 X159.370 Y59.374 F1620
G1 X173.761 Y45.662 F18000
G92 E0.0000
G1 X173.512 Y45.232 E0.0460 F1620
G1 X175.161 Y43.583 E0.2617
G1 X176.505 Y44.927 E0.4376
G1 X173.954 Y45.611 E0.6819
G1 X173.761 Y45.662 F1620
G1 X173.512 Y45.232 F1620
G1 X175.161 Y43.583
G1 X176.505 Y44.927
G1 X176.245 Y44.997
G1 X180.464 Y48.885 F18000
G92 E0.0000
G1 X181.808 Y50.229 E0.1759 F1620
G1 X180.159 Y51.879 E0.3916
G1 X179.728 Y51.630 E0.4376
G1 X180.412 Y49.078 E0.6819
G1 X180.464 Y48.885 F1620
G1 X181.808 Y50.229 F1620
G1 X180.159 Y51.879
G1 X179.728 Y51.630
G1 X179.798 Y51.370
