; G-Code generated by Simplify3D(R) Version 4.1.2
; Dec 29, 2021 at 8:29:17 PM
; Settings Summary
;   processName,Process1
;   applyToModels,servo-clamp
;   profileName,HSBot (modified)
;   profileVersion,2019-11-09 11:59:44
;   baseProfile,Default
;   printMaterial,PETG - Eryone
;   printQuality,Medium
;   printExtruders,
;   extruderName,Extruder 1,Extruder - Lite
;   extruderToolheadNumber,0,1
;   extruderDiameter,0.4,0.4
;   extruderAutoWidth,1,1
;   extruderWidth,0.48,0.48
;   extrusionMultiplier,1.03,0.93
;   extruderUseRetract,1,1
;   extruderRetractionDistance,3,1
;   extruderExtraRestartDistance,0,0
;   extruderRetractionZLift,0,0
;   extruderRetractionSpeed,3600,1800
;   extruderUseCoasting,1,0
;   extruderCoastingDistance,0.2,0.2
;   extruderUseWipe,1,0
;   extruderWipeDistance,5,5
;   primaryExtruder,0
;   layerHeight,0.2
;   topSolidLayers,3
;   bottomSolidLayers,3
;   perimeterOutlines,3
;   printPerimetersInsideOut,1
;   startPointOption,2
;   startPointOriginX,0
;   startPointOriginY,0
;   sequentialIslands,0
;   spiralVaseMode,0
;   firstLayerHeightPercentage,150
;   firstLayerWidthPercentage,150
;   firstLayerUnderspeed,0.3
;   useRaft,0
;   raftExtruder,0
;   raftTopLayers,3
;   raftBaseLayers,2
;   raftOffset,3
;   raftSeparationDistance,0.18
;   raftTopInfill,100
;   aboveRaftSpeedMultiplier,0.3
;   useSkirt,1
;   skirtExtruder,0
;   skirtLayers,1
;   skirtOutlines,3
;   skirtOffset,10
;   usePrimePillar,0
;   primePillarExtruder,999
;   primePillarWidth,12
;   primePillarLocation,7
;   primePillarSpeedMultiplier,1
;   useOozeShield,0
;   oozeShieldExtruder,999
;   oozeShieldOffset,2
;   oozeShieldOutlines,1
;   oozeShieldSidewallShape,1
;   oozeShieldSidewallAngle,30
;   oozeShieldSpeedMultiplier,1
;   infillExtruder,0
;   internalInfillPattern,Fast Honeycomb
;   externalInfillPattern,Rectilinear
;   infillPercentage,20
;   outlineOverlapPercentage,15
;   infillExtrusionWidthPercentage,150
;   minInfillLength,5
;   infillLayerInterval,1
;   internalInfillAngles,0
;   overlapInternalInfillAngles,0
;   externalInfillAngles,45,-45
;   generateSupport,1
;   supportExtruder,0
;   supportInfillPercentage,30
;   supportExtraInflation,0
;   supportBaseLayers,1
;   denseSupportExtruder,0
;   denseSupportLayers,0
;   denseSupportInfillPercentage,70
;   supportLayerInterval,1
;   supportHorizontalPartOffset,0.3
;   supportUpperSeparationLayers,1
;   supportLowerSeparationLayers,1
;   supportType,1
;   supportGridSpacing,3
;   maxOverhangAngle,45
;   supportAngles,0
;   temperatureName,Extruder 1,Bed
;   temperatureNumber,0,0
;   temperatureSetpointCount,1,1
;   temperatureSetpointLayers,1,1
;   temperatureSetpointTemperatures,225,85
;   temperatureStabilizeAtStartup,1,1
;   temperatureHeatedBed,0,1
;   fanLayers,1,2,3
;   fanSpeeds,0,15,25
;   blipFanToFullPower,1
;   adjustSpeedForCooling,1
;   minSpeedLayerTime,15
;   minCoolingSpeedSlowdown,20
;   increaseFanForCooling,0
;   minFanLayerTime,45
;   maxCoolingFanSpeed,40
;   increaseFanForBridging,0
;   bridgingFanSpeed,80
;   use5D,1
;   relativeEdistances,0
;   allowEaxisZeroing,1
;   independentExtruderAxes,0
;   includeM10123,0
;   stickySupport,1
;   applyToolheadOffsets,0
;   gcodeXoffset,0
;   gcodeYoffset,0
;   gcodeZoffset,0
;   overrideMachineDefinition,1
;   machineTypeOverride,0
;   strokeXoverride,200
;   strokeYoverride,200
;   strokeZoverride,150
;   originOffsetXoverride,0
;   originOffsetYoverride,0
;   originOffsetZoverride,0
;   homeXdirOverride,-1
;   homeYdirOverride,-1
;   homeZdirOverride,-1
;   flipXoverride,1
;   flipYoverride,-1
;   flipZoverride,1
;   toolheadOffsets,0,0|0,0|0,0|0,0|0,0|0,0
;   overrideFirmwareConfiguration,0
;   firmwareTypeOverride,RepRap (Marlin/Repetier/Sprinter)
;   GPXconfigOverride,r2
;   baudRateOverride,115200
;   overridePrinterModels,0
;   printerModelsOverride
;   startingGcode,G28 ; home all axes,G32 ; run bed.g -- probe bed and enable compensation
;   layerChangeGcode,
;   retractionGcode,
;   toolChangeGcode,
;   endingGcode,M0 ; call stop.g
;   exportFileFormat,gcode
;   celebration,0
;   celebrationSong,Random Song
;   postProcessing,
;   defaultSpeed,4800
;   outlineUnderspeed,0.5
;   solidInfillUnderspeed,0.8
;   supportUnderspeed,0.8
;   rapidXYspeed,18000
;   rapidZspeed,1200
;   minBridgingArea,50
;   bridgingExtraInflation,0
;   bridgingExtrusionMultiplier,0.96
;   bridgingSpeedMultiplier,1
;   useFixedBridgingAngle,0
;   fixedBridgingAngle,0
;   applyBridgingToPerimeters,0
;   filamentDiameters,1.75|1.75|1.75|1.75|1.75|1.75
;   filamentPricesPerKg,25|46|46|46|46|46
;   filamentDensities,1.25|1.25|1.25|1.25|1.25|1.25
;   useMinPrintHeight,0
;   minPrintHeight,0
;   useMaxPrintHeight,0
;   maxPrintHeight,0
;   useDiaphragm,1
;   diaphragmLayerInterval,20
;   robustSlicing,1
;   mergeAllIntoSolid,0
;   onlyRetractWhenCrossingOutline,1
;   retractBetweenLayers,0
;   useRetractionMinTravel,1
;   retractionMinTravel,3
;   retractWhileWiping,1
;   onlyWipeOutlines,0
;   avoidCrossingOutline,1
;   maxMovementDetourFactor,3
;   toolChangeRetractionDistance,12
;   toolChangeExtraRestartDistance,-0.5
;   toolChangeRetractionSpeed,600
;   externalThinWallType,0
;   internalThinWallType,1
;   thinWallAllowedOverlapPercentage,10
;   singleExtrusionMinLength,0.1
;   singleExtrusionMinPrintingWidthPercentage,50
;   singleExtrusionMaxPrintingWidthPercentage,200
;   singleExtrusionEndpointExtension,0.2
;   horizontalSizeCompensation,0
G90
M82
M106 S0
M140 S85
M190 S85
G10 S225 R{225-50} P0
M116 P0
G28 ; home all axes
G32 ; run bed.g -- probe bed and enable compensation
; process Process1
; layer 1, Z = 0.300
T0
G92 E0.0000
G1 E-3.0000 F3600
; feature skirt
; tool H0.300 W0.720
G1 Z0.300 F1200
G1 X78.750 Y77.362 F18000
G1 E0.0000 F3600
G92 E0.0000
G1 X85.662 Y70.450 E0.9042 F1440
G1 X114.338 Y70.450 E3.5566
G1 X121.250 Y77.362 E4.4608
G1 X121.250 Y94.638 E6.0587
G1 X115.438 Y100.450 E6.8190
G1 X116.350 Y101.362 E6.9383
G1 X116.350 Y122.638 E8.9062
G1 X109.438 Y129.550 E9.8104
G1 X95.662 Y129.550 E11.0846
G1 X88.750 Y122.638 E11.9888
G1 X88.750 Y120.050 E12.2281
G1 X85.662 Y120.050 E12.5137
G1 X78.750 Y113.138 E13.4179
G1 X78.750 Y77.362 E16.7270
G1 X79.470 Y77.661 F18000
G92 E0.0000
G1 X85.961 Y71.170 E0.8490 F1440
G1 X114.039 Y71.170 E3.4462
G1 X120.530 Y77.661 E4.2952
G1 X120.530 Y94.339 E5.8380
G1 X114.419 Y100.450 E6.6373
G1 X115.630 Y101.661 E6.7957
G1 X115.630 Y122.339 E8.7084
G1 X109.139 Y128.830 E9.5574
G1 X95.961 Y128.830 E10.7764
G1 X89.470 Y122.339 E11.6254
G1 X89.470 Y119.330 E11.9038
G1 X85.961 Y119.330 E12.2284
G1 X79.470 Y112.839 E13.0774
G1 X79.470 Y77.661 E16.3314
G1 X80.190 Y77.959 F18000
G92 E0.0000
G1 X86.259 Y71.890 E0.7939 F1440
G1 X113.741 Y71.890 E3.3359
G1 X119.810 Y77.959 E4.1297
G1 X119.810 Y94.041 E5.6173
G1 X113.741 Y100.110 E6.4112
G1 X113.061 Y100.110 E6.4741
G1 X114.910 Y101.959 E6.7159
G1 X114.910 Y122.041 E8.5735
G1 X108.841 Y128.110 E9.3673
G1 X96.259 Y128.110 E10.5311
G1 X90.190 Y122.041 E11.3250
G1 X90.190 Y118.610 E11.6424
G1 X86.259 Y118.610 E12.0060
G1 X80.190 Y112.541 E12.7998
G1 X80.190 Y77.959 E15.9986
G92 E0.0000
G1 E-3.0000 F3600
; feature inner perimeter
G1 X90.910 Y82.610 F18000
G1 X90.910 Y92.644
G1 X92.190 Y94.398
G1 X92.190 Y106.610
G1 X101.104 Y106.610
G1 X101.630 Y107.330
G1 E0.0000 F3600
G92 E0.0000
G1 X103.470 Y107.330 E0.1702 F1080
G1 X103.470 Y116.670 E1.0341
G1 X101.630 Y116.670 E1.2043
G1 X101.630 Y107.530 E2.0497
G1 X101.630 Y107.330 F1080
G1 X103.470 Y107.330 F1080
G1 X103.470 Y110.490
; feature outer perimeter
G1 X100.910 Y107.890 F18000
G92 E0.0000
G1 X90.910 Y107.890 E0.9250 F720
G1 X90.910 Y82.610 E3.2633
G1 X109.090 Y82.610 E4.9449
G1 X109.090 Y89.390 E5.5720
G1 X108.410 Y89.390 E5.6349
G1 X108.410 Y82.890 E6.2361
G1 X92.190 Y82.890 E7.7364
G1 X92.190 Y106.610 E9.9304
G1 X104.190 Y106.610 E11.0404
G1 X104.190 Y117.390 E12.0375
G1 X100.910 Y117.390 E12.3409
G1 X100.910 Y108.090 E13.2011
G1 X100.910 Y107.890 F720
G1 X95.910 Y107.890 F720
; feature internal single extrusion
; tool H0.300 W0.560
G1 X101.177 Y107.250 F18000
G92 E0.0000
G1 X91.841 Y107.250 E0.6717 F720
; tool H0.300 W0.566
G1 X91.746 Y107.244 E0.6786
; tool H0.300 W0.595
G1 X91.651 Y107.221 E0.6861
; tool H0.300 W0.616
G1 X91.578 Y107.146 E0.6944
; tool H0.300 W0.593
G1 X91.556 Y107.050 E0.7019
; tool H0.300 W0.566
G1 X91.550 Y106.954 E0.7089
; tool H0.300 W0.560
G1 X91.550 Y83.258 E2.4136
G1 X91.550 Y83.058 F720
G1 X91.550 Y88.058 F720
; tool H0.300 W0.960
G1 X92.190 Y89.222 F18000
G1 X92.190 Y106.610
G1 X101.750 Y106.610
G1 X102.550 Y108.065
G92 E0.0000
G1 X102.550 Y108.265 E0.0247 F720
G1 X102.550 Y108.360 E0.0365
G1 X102.550 Y108.456 E0.0483
G1 X102.550 Y108.552 E0.0601
G1 X102.550 Y108.648 E0.0719
G1 X102.550 Y108.744 E0.0837
G1 X102.550 Y108.839 E0.0955
G1 X102.550 Y108.935 E0.1074
G1 X102.550 Y109.031 E0.1192
G1 X102.550 Y109.127 E0.1310
G1 X102.550 Y109.222 E0.1428
G1 X102.550 Y109.318 E0.1546
G1 X102.550 Y109.414 E0.1664
G1 X102.550 Y109.510 E0.1782
G1 X102.550 Y109.606 E0.1900
G1 X102.550 Y109.701 E0.2018
G1 X102.550 Y109.797 E0.2137
G1 X102.550 Y109.893 E0.2255
G1 X102.550 Y109.989 E0.2373
G1 X102.550 Y110.084 E0.2491
G1 X102.550 Y110.180 E0.2609
G1 X102.550 Y110.276 E0.2727
G1 X102.550 Y110.372 E0.2845
G1 X102.550 Y110.468 E0.2963
G1 X102.550 Y110.563 E0.3082
G1 X102.550 Y110.659 E0.3200
G1 X102.550 Y110.755 E0.3318
G1 X102.550 Y110.851 E0.3436
G1 X102.550 Y110.946 E0.3554
G1 X102.550 Y111.042 E0.3672
G1 X102.550 Y111.138 E0.3790
G1 X102.550 Y111.234 E0.3908
G1 X102.550 Y111.330 E0.4027
G1 X102.550 Y111.425 E0.4145
G1 X102.550 Y111.521 E0.4263
G1 X102.550 Y111.617 E0.4381
G1 X102.550 Y111.713 E0.4499
G1 X102.550 Y111.808 E0.4617
G1 X102.550 Y111.904 E0.4735
G1 X102.550 Y112.000 E0.4853
G1 X102.550 Y112.096 E0.4972
G1 X102.550 Y112.192 E0.5090
G1 X102.550 Y112.287 E0.5208
G1 X102.550 Y112.383 E0.5326
G1 X102.550 Y112.479 E0.5444
G1 X102.550 Y112.575 E0.5562
G1 X102.550 Y112.670 E0.5680
G1 X102.550 Y112.766 E0.5798
G1 X102.550 Y112.862 E0.5916
G1 X102.550 Y112.958 E0.6035
G1 X102.550 Y113.054 E0.6153
G1 X102.550 Y113.149 E0.6271
G1 X102.550 Y113.245 E0.6389
G1 X102.550 Y113.341 E0.6507
G1 X102.550 Y113.437 E0.6625
G1 X102.550 Y113.532 E0.6743
G1 X102.550 Y113.628 E0.6861
G1 X102.550 Y113.724 E0.6980
G1 X102.550 Y113.820 E0.7098
G1 X102.550 Y113.916 E0.7216
G1 X102.550 Y114.011 E0.7334
G1 X102.550 Y114.107 E0.7452
G1 X102.550 Y114.203 E0.7570
G1 X102.550 Y114.299 E0.7688
G1 X102.550 Y114.394 E0.7806
G1 X102.550 Y114.490 E0.7925
G1 X102.550 Y114.586 E0.8043
G1 X102.550 Y114.682 E0.8161
G1 X102.550 Y114.778 E0.8279
G1 X102.550 Y114.873 E0.8397
G1 X102.550 Y114.969 E0.8515
G1 X102.550 Y115.065 E0.8633
G1 X102.550 Y115.161 E0.8751
G1 X102.550 Y115.256 E0.8870
G1 X102.550 Y115.352 E0.8988
G1 X102.550 Y115.448 E0.9106
G1 X102.550 Y115.544 E0.9224
G1 X102.550 Y115.640 E0.9342
G1 X102.550 Y115.735 E0.9460
G1 X102.550 Y115.935 F720
G1 X102.550 Y115.640 F720
G1 X102.550 Y115.544
G1 X102.550 Y115.448
G1 X102.550 Y115.352
G1 X102.550 Y115.256
G1 X102.550 Y115.161
G1 X102.550 Y115.065
G1 X102.550 Y114.969
G1 X102.550 Y114.873
G1 X102.550 Y114.778
G1 X102.550 Y114.682
G1 X102.550 Y114.586
G1 X102.550 Y114.490
G1 X102.550 Y114.394
G1 X102.550 Y114.299
G1 X102.550 Y114.203
G1 X102.550 Y114.107
G1 X102.550 Y114.011
G1 X102.550 Y113.916
G1 X102.550 Y113.820
G1 X102.550 Y113.724
G1 X102.550 Y113.628
G1 X102.550 Y113.532
G1 X102.550 Y113.437
G1 X102.550 Y113.341
G1 X102.550 Y113.245
G1 X102.550 Y113.149
G1 X102.550 Y113.054
G1 X102.550 Y112.958
G1 X102.550 Y112.862
G1 X102.550 Y112.766
G1 X102.550 Y112.670
G1 X102.550 Y112.575
G1 X102.550 Y112.479
G1 X102.550 Y112.383
G1 X102.550 Y112.287
G1 X102.550 Y112.192
G1 X102.550 Y112.096
G1 X102.550 Y112.000
G1 X102.550 Y111.904
G1 X102.550 Y111.808
G1 X102.550 Y111.713
G1 X102.550 Y111.617
G1 X102.550 Y111.521
G1 X102.550 Y111.425
G1 X102.550 Y111.330
G1 X102.550 Y111.234
G1 X102.550 Y111.138
G1 X102.550 Y111.042
G1 X102.550 Y110.946
G1 X102.550 Y110.935
; layer 2, Z = 0.500
M106 S255
G4 P500
M106 S38
; feature inner perimeter
; tool H0.200 W0.480
G1 Z0.500 F1200
G1 X103.350 Y107.450 F18000
G92 E0.0000
G1 X103.350 Y116.550 E0.3741 F1650
G1 X101.750 Y116.550 E0.4399
G1 X101.750 Y107.450 E0.8140
G1 X103.150 Y107.450 E0.8715
G1 X103.350 Y107.450 F1650
G1 X103.350 Y112.450 F1650
G1 X103.830 Y117.030 F18000
G92 E0.0000
G1 X101.270 Y117.030 E0.1052 F1650
G1 X101.270 Y107.530 E0.4958
G1 X91.270 Y107.530 E0.9069
G1 X91.270 Y82.970 E1.9165
G1 X91.830 Y82.970 E1.9395
G1 X91.830 Y106.970 E2.9262
G1 X103.830 Y106.970 E3.4195
G1 X103.830 Y116.830 E3.8248
G1 X103.830 Y117.030 F1650
G1 X101.270 Y117.030 F1650
G1 X101.270 Y114.590
; feature outer perimeter
G1 X100.790 Y117.510 F18000
G92 E0.0000
G1 X100.790 Y108.010 E0.3905 F1100
G1 X90.790 Y108.010 E0.8016
G1 X90.790 Y82.490 E1.8508
G1 X109.210 Y82.490 E2.6080
G1 X109.210 Y89.510 E2.8966
G1 X108.290 Y89.510 E2.9344
G1 X108.290 Y83.010 E3.2016
G1 X92.310 Y83.010 E3.8585
G1 X92.310 Y106.490 E4.8238
G1 X104.310 Y106.490 E5.3171
G1 X104.310 Y117.510 E5.7701
G1 X100.990 Y117.510 E5.9066
G1 X100.790 Y117.510 F1100
G1 X100.790 Y112.510 F1100
; feature internal single extrusion
; tool H0.200 W0.240
G1 X101.610 Y107.250 F18000
G92 E0.0000
G1 X101.410 Y107.250 E0.0041 F1100
G1 X91.685 Y107.250 E0.2040
G1 X91.590 Y107.250 E0.2060
G1 X91.574 Y107.248 E0.2063
G1 X91.557 Y107.243 E0.2067
G1 X91.552 Y107.226 E0.2070
G1 X91.550 Y107.210 E0.2074
G1 X91.550 Y107.114 E0.2093
G1 X91.550 Y83.306 E0.6987
G1 X91.550 Y83.106 F1100
G1 X91.550 Y88.106 F1100
; tool H0.200 W0.440
G1 X92.310 Y88.154 F18000
G1 X92.310 Y83.010
G1 X108.290 Y83.010
G1 X108.290 Y89.157
G1 X108.750 Y89.186
G92 E0.0000
G1 X108.750 Y88.983 E0.0077 F1100
G1 X108.750 Y82.961 E0.2383
; tool H0.200 W0.356
G1 X108.697 Y82.901 E0.2408
G1 X108.666 Y82.866 F1100
G1 X108.570 Y82.770
G1 X108.557 Y82.759
G92 E0.0000
G1 X108.570 Y82.770 E-0.0566 F1100
G1 X108.666 Y82.866 E-0.4989
G1 X108.750 Y82.961 E-0.9163
G1 X108.750 Y83.598 E-3.0000
G1 X108.750 Y87.681 F1100
; feature solid layer
; tool H0.200 W0.480
G1 X102.158 Y108.024 F18000
G1 E0.0000 F3600
G92 E0.0000
G1 X102.324 Y107.858 E0.0097 F1760
G1 X102.942 Y107.858 E0.0351
G1 X102.942 Y107.919 E0.0376
G1 X102.158 Y108.703 E0.0832
G1 X102.158 Y109.382 E0.1111
G1 X102.942 Y108.598 E0.1566
G1 X102.942 Y109.277 E0.1846
G1 X102.158 Y110.061 E0.2301
G1 X102.158 Y110.740 E0.2580
G1 X102.942 Y109.956 E0.3036
G1 X102.942 Y110.634 E0.3315
G1 X102.158 Y111.418 E0.3771
G1 X102.158 Y112.097 E0.4050
G1 X102.942 Y111.313 E0.4506
G1 X102.942 Y111.992 E0.4785
G1 X102.158 Y112.776 E0.5241
G1 X102.158 Y113.455 E0.5520
G1 X102.942 Y112.671 E0.5976
G1 X102.942 Y113.350 E0.6255
G1 X102.158 Y114.134 E0.6710
G1 X102.158 Y114.813 E0.6990
G1 X102.942 Y114.029 E0.7445
G1 X102.942 Y114.707 E0.7724
G1 X102.158 Y115.491 E0.8180
G1 X102.158 Y116.142 E0.8448
G1 X102.186 Y116.142 E0.8459
G1 X102.942 Y115.386 E0.8899
G1 X102.942 Y115.974 E0.9140
G1 X102.942 Y116.065 F1760
G1 X102.865 Y116.142
G1 X102.942 Y116.065 F1760
G1 X102.942 Y115.386
G1 X102.186 Y116.142
G1 X102.158 Y116.142
G1 X102.158 Y115.491
G1 X102.942 Y114.707
G1 X102.942 Y114.029
G1 X102.463 Y114.507
; layer 3, Z = 0.700
M106 S255
G4 P500
M106 S64
; feature inner perimeter
G1 Z0.700 F1200
G1 X101.750 Y116.550 F18000
G92 E0.0000
G1 X101.750 Y107.450 E0.3741 F1647
G1 X103.350 Y107.450 E0.4399
G1 X103.350 Y116.550 E0.8140
G1 X101.950 Y116.550 E0.8715
G1 X101.750 Y116.550 F1647
G1 X101.750 Y111.550 F1647
G1 X101.270 Y107.530 F18000
G92 E0.0000
G1 X91.270 Y107.530 E0.4111 F1647
G1 X91.270 Y82.970 E1.4207
G1 X91.830 Y82.970 E1.4438
G1 X91.830 Y106.970 E2.4304
G1 X103.830 Y106.970 E2.9237
G1 X103.830 Y117.030 E3.3373
G1 X101.270 Y117.030 E3.4425
G1 X101.270 Y107.730 E3.8248
G1 X101.270 Y107.530 F1647
G1 X96.270 Y107.530 F1647
; feature outer perimeter
G1 X92.310 Y106.490 F18000
G92 E0.0000
G1 X104.310 Y106.490 E0.4933 F1098
G1 X104.310 Y117.510 E0.9463
G1 X100.790 Y117.510 E1.0910
G1 X100.790 Y108.010 E1.4816
G1 X90.790 Y108.010 E1.8927
G1 X90.790 Y82.490 E2.9418
