; G-Code generated by Simplify3D(R) Version 4.1.2
; Jan 2, 2022 at 7:27:32 PM
; Settings Summary
;   processName,Process1
;   applyToModels,top-mount,top-mount-top,top-mount(2),top-mount-top(2),top-mount(3),top-mount-top(3)
;   profileName,HSBot (modified)
;   profileVersion,2019-11-09 11:59:44
;   baseProfile,Default
;   printMaterial,PETG - Eryone
;   printQuality,Medium
;   printExtruders,
;   extruderName,Extruder 1,Extruder - Lite
;   extruderToolheadNumber,0,1
;   extruderDiameter,0.4,0.4
;   extruderAutoWidth,1,1
;   extruderWidth,0.48,0.48
;   extrusionMultiplier,1.03,0.93
;   extruderUseRetract,1,1
;   extruderRetractionDistance,3,1
;   extruderExtraRestartDistance,0,0
;   extruderRetractionZLift,0,0
;   extruderRetractionSpeed,3600,1800
;   extruderUseCoasting,1,0
;   extruderCoastingDistance,0.2,0.2
;   extruderUseWipe,1,0
;   extruderWipeDistance,5,5
;   primaryExtruder,0
;   layerHeight,0.2
;   topSolidLayers,4
;   bottomSolidLayers,4
;   perimeterOutlines,4
;   printPerimetersInsideOut,1
;   startPointOption,2
;   startPointOriginX,0
;   startPointOriginY,0
;   sequentialIslands,0
;   spiralVaseMode,0
;   firstLayerHeightPercentage,150
;   firstLayerWidthPercentage,150
;   firstLayerUnderspeed,0.3
;   useRaft,0
;   raftExtruder,0
;   raftTopLayers,3
;   raftBaseLayers,2
;   raftOffset,3
;   raftSeparationDistance,0.18
;   raftTopInfill,100
;   aboveRaftSpeedMultiplier,0.3
;   useSkirt,1
;   skirtExtruder,0
;   skirtLayers,1
;   skirtOutlines,3
;   skirtOffset,10
;   usePrimePillar,0
;   primePillarExtruder,999
;   primePillarWidth,12
;   primePillarLocation,7
;   primePillarSpeedMultiplier,1
;   useOozeShield,0
;   oozeShieldExtruder,999
;   oozeShieldOffset,2
;   oozeShieldOutlines,1
;   oozeShieldSidewallShape,1
;   oozeShieldSidewallAngle,30
;   oozeShieldSpeedMultiplier,1
;   infillExtruder,0
;   internalInfillPattern,Fast Honeycomb
;   externalInfillPattern,Rectilinear
;   infillPercentage,20
;   outlineOverlapPercentage,15
;   infillExtrusionWidthPercentage,150
;   minInfillLength,5
;   infillLayerInterval,1
;   internalInfillAngles,0
;   overlapInternalInfillAngles,0
;   externalInfillAngles,45,-45
;   generateSupport,1
;   supportExtruder,0
;   supportInfillPercentage,30
;   supportExtraInflation,0
;   supportBaseLayers,1
;   denseSupportExtruder,0
;   denseSupportLayers,0
;   denseSupportInfillPercentage,70
;   supportLayerInterval,1
;   supportHorizontalPartOffset,0.3
;   supportUpperSeparationLayers,1
;   supportLowerSeparationLayers,1
;   supportType,1
;   supportGridSpacing,3
;   maxOverhangAngle,45
;   supportAngles,0
;   temperatureName,Extruder 1,Bed
;   temperatureNumber,0,0
;   temperatureSetpointCount,1,1
;   temperatureSetpointLayers,1,1
;   temperatureSetpointTemperatures,225,85
;   temperatureStabilizeAtStartup,1,1
;   temperatureHeatedBed,0,1
;   fanLayers,1,2,3
;   fanSpeeds,0,15,25
;   blipFanToFullPower,1
;   adjustSpeedForCooling,1
;   minSpeedLayerTime,15
;   minCoolingSpeedSlowdown,20
;   increaseFanForCooling,0
;   minFanLayerTime,45
;   maxCoolingFanSpeed,40
;   increaseFanForBridging,0
;   bridgingFanSpeed,80
;   use5D,1
;   relativeEdistances,0
;   allowEaxisZeroing,1
;   independentExtruderAxes,0
;   includeM10123,0
;   stickySupport,1
;   applyToolheadOffsets,0
;   gcodeXoffset,0
;   gcodeYoffset,0
;   gcodeZoffset,0
;   overrideMachineDefinition,1
;   machineTypeOverride,0
;   strokeXoverride,200
;   strokeYoverride,200
;   strokeZoverride,150
;   originOffsetXoverride,0
;   originOffsetYoverride,0
;   originOffsetZoverride,0
;   homeXdirOverride,-1
;   homeYdirOverride,-1
;   homeZdirOverride,-1
;   flipXoverride,1
;   flipYoverride,-1
;   flipZoverride,1
;   toolheadOffsets,0,0|0,0|0,0|0,0|0,0|0,0
;   overrideFirmwareConfiguration,0
;   firmwareTypeOverride,RepRap (Marlin/Repetier/Sprinter)
;   GPXconfigOverride,r2
;   baudRateOverride,115200
;   overridePrinterModels,0
;   printerModelsOverride
;   startingGcode,G28 ; home all axes,G32 ; run bed.g -- probe bed and enable compensation
;   layerChangeGcode,
;   retractionGcode,
;   toolChangeGcode,
;   endingGcode,M0 ; call stop.g
;   exportFileFormat,gcode
;   celebration,0
;   celebrationSong,Random Song
;   postProcessing,
;   defaultSpeed,4800
;   outlineUnderspeed,0.5
;   solidInfillUnderspeed,0.8
;   supportUnderspeed,0.8
;   rapidXYspeed,18000
;   rapidZspeed,1200
;   minBridgingArea,50
;   bridgingExtraInflation,0
;   bridgingExtrusionMultiplier,0.96
;   bridgingSpeedMultiplier,1
;   useFixedBridgingAngle,0
;   fixedBridgingAngle,0
;   applyBridgingToPerimeters,0
;   filamentDiameters,1.75|1.75|1.75|1.75|1.75|1.75
;   filamentPricesPerKg,25|46|46|46|46|46
;   filamentDensities,1.25|1.25|1.25|1.25|1.25|1.25
;   useMinPrintHeight,0
;   minPrintHeight,0
;   useMaxPrintHeight,0
;   maxPrintHeight,0
;   useDiaphragm,1
;   diaphragmLayerInterval,20
;   robustSlicing,1
;   mergeAllIntoSolid,0
;   onlyRetractWhenCrossingOutline,1
;   retractBetweenLayers,0
;   useRetractionMinTravel,1
;   retractionMinTravel,3
;   retractWhileWiping,1
;   onlyWipeOutlines,0
;   avoidCrossingOutline,1
;   maxMovementDetourFactor,3
;   toolChangeRetractionDistance,12
;   toolChangeExtraRestartDistance,-0.5
;   toolChangeRetractionSpeed,600
;   externalThinWallType,0
;   internalThinWallType,1
;   thinWallAllowedOverlapPercentage,10
;   singleExtrusionMinLength,0.1
;   singleExtrusionMinPrintingWidthPercentage,50
;   singleExtrusionMaxPrintingWidthPercentage,200
;   singleExtrusionEndpointExtension,0.2
;   horizontalSizeCompensation,-0.1
G90
M82
M106 S0
M140 S85
M190 S85
G10 S225 R{225-50} P0
M116 P0
G28 ; home all axes
G32 ; run bed.g -- probe bed and enable compensation
; process Process1
; layer 1, Z = 0.300
T0
G92 E0.0000
G1 E-3.0000 F3600
; feature skirt
; tool H0.300 W0.720
G1 Z0.300 F1200
G1 X68.462 Y62.300 F18000
G1 E0.0000 F3600
G92 E0.0000
G1 X131.538 Y62.300 E5.8343 F1440
G1 X138.450 Y69.212 E6.7384
G1 X138.450 Y126.788 E12.0640
G1 X131.536 Y133.701 E12.9684
G1 X115.540 Y133.698 E14.4479
G1 X111.538 Y137.700 E14.9715
G1 X68.462 Y137.700 E18.9558
G1 X61.550 Y130.788 E19.8600
G1 X61.550 Y69.212 E25.5555
G1 X68.462 Y62.300 E26.4597
G1 X68.761 Y63.020 F18000
G92 E0.0000
G1 X131.239 Y63.020 E5.7791 F1440
G1 X137.730 Y69.511 E6.6281
G1 X137.730 Y88.490 E8.3837
G1 X137.720 Y88.500 E8.3850
G1 X137.730 Y88.511 E8.3863
G1 X137.730 Y107.490 E10.1419
G1 X137.720 Y107.500 E10.1432
G1 X137.730 Y107.511 E10.1445
G1 X137.730 Y126.490 E11.9001
G1 X131.238 Y132.981 E12.7492
G1 X115.242 Y132.978 E14.2288
G1 X111.239 Y136.980 E14.7523
G1 X68.761 Y136.980 E18.6815
G1 X62.270 Y130.489 E19.5305
G1 X62.270 Y69.511 E25.1709
G1 X68.761 Y63.020 E26.0199
G1 X69.059 Y63.740 F18000
G92 E0.0000
G1 X130.941 Y63.740 E5.7239 F1440
G1 X137.010 Y69.809 E6.5178
G1 X137.010 Y88.192 E8.2181
G1 X136.702 Y88.500 E8.2585
G1 X137.010 Y88.809 E8.2988
G1 X137.010 Y107.192 E9.9992
G1 X136.702 Y107.500 E10.0396
G1 X137.010 Y107.809 E10.0799
G1 X137.010 Y126.192 E11.7803
G1 X130.940 Y132.261 E12.5742
G1 X114.944 Y132.258 E14.0538
G1 X110.941 Y136.260 E14.5774
G1 X69.059 Y136.260 E18.4514
G1 X62.990 Y130.191 E19.2452
G1 X62.990 Y69.809 E24.8304
G1 X69.059 Y63.740 E25.6242
G92 E0.0000
G1 E-3.0000 F3600
; feature inner perimeter
G1 X73.710 Y74.460 F18000
G1 X74.728 Y74.460
G1 X75.870 Y76.620
G1 E0.0000 F3600
G92 E0.0000
G1 X78.849 Y76.620 E0.2755 F1080
G1 X78.988 Y77.080 E0.3200
G1 X77.694 Y77.944 E0.4639
G1 X76.758 Y79.346 E0.6198
G1 X76.454 Y80.870 E0.7636
G1 X75.870 Y80.813 E0.8179
G1 X75.870 Y76.820 E1.1872
G1 X75.870 Y76.620 F1080
G1 X78.849 Y76.620 F1080
G1 X78.988 Y77.080
G1 X77.707 Y77.936
G1 X76.454 Y81.130 F18000
G92 E0.0000
G1 X76.758 Y82.654 E0.1437 F1080
G1 X77.694 Y84.056 E0.2997
G1 X78.988 Y84.920 E0.4436
G1 X78.849 Y85.380 E0.4880
G1 X75.870 Y85.380 E0.7636
G1 X75.870 Y81.187 E1.1514
G1 X76.255 Y81.149 E1.1872
G1 X76.454 Y81.130 F1080
G1 X76.758 Y82.654 F1080
G1 X77.694 Y84.056
G1 X78.988 Y84.920
G1 X78.929 Y85.115
G1 X82.512 Y84.920 F18000
G92 E0.0000
G1 X83.806 Y84.056 E0.1439 F1080
G1 X84.742 Y82.654 E0.2999
G1 X85.071 Y81.000 E0.4558
G1 X84.749 Y79.380 E0.6086
G1 X83.818 Y77.953 E0.7662
G1 X82.512 Y77.080 E0.9116
G1 X82.651 Y76.620 E0.9560
G1 X104.130 Y76.620 E2.9427
G1 X104.130 Y85.380 E3.7530
G1 X82.651 Y85.380 E5.7397
G1 X82.570 Y85.111 E5.7656
G1 X82.512 Y84.920 F1080
G1 X83.806 Y84.056 F1080
G1 X84.742 Y82.654
G1 X85.071 Y81.000
G1 X85.057 Y80.930
G1 X82.251 Y79.503 F18000
G1 X81.561 Y79.042
G1 X81.197 Y78.970
G1 X75.150 Y75.900
G92 E0.0000
G1 X104.850 Y75.900 E2.7471 F1080
G1 X104.850 Y86.100 E3.6906
G1 X75.150 Y86.100 E6.4378
G1 X75.150 Y76.100 E7.3627
G1 X75.150 Y75.900 F1080
G1 X80.150 Y75.900 F1080
G1 X74.430 Y75.180 F18000
G92 E0.0000
G1 X105.570 Y75.180 E2.8803 F1080
G1 X105.570 Y86.820 E3.9570
G1 X74.430 Y86.820 E6.8373
G1 X74.430 Y75.380 E7.8955
G1 X74.430 Y75.180 F1080
G1 X79.430 Y75.180 F1080
; feature outer perimeter
G1 X73.710 Y74.460 F18000
G92 E0.0000
G1 X106.290 Y74.460 E3.0135 F720
G1 X106.290 Y87.540 E4.2234
G1 X73.710 Y87.540 E7.2369
G1 X73.710 Y74.660 E8.4283
G1 X73.710 Y74.460 F720
G1 X78.710 Y74.460 F720
; feature inner perimeter
G1 X79.377 Y77.686 F18000
G92 E0.0000
G1 X78.213 Y78.463 E0.1295 F1080
G1 X77.436 Y79.627 E0.2589
G1 X77.163 Y81.000 E0.3884
G1 X77.436 Y82.373 E0.5179
G1 X78.213 Y83.537 E0.6473
G1 X79.377 Y84.314 E0.7768
G1 X80.750 Y84.587 E0.9062
G1 X82.123 Y84.314 E1.0357
G1 X83.287 Y83.537 E1.1652
G1 X84.064 Y82.373 E1.2946
G1 X84.337 Y81.000 E1.4241
G1 X84.070 Y79.657 E1.5508
G1 X83.296 Y78.470 E1.6819
G1 X82.123 Y77.686 E1.8124
G1 X80.750 Y77.413 E1.9418
G1 X79.573 Y77.647 E2.0528
G1 X79.377 Y77.686 F1080
G1 X78.213 Y78.463 F1080
G1 X77.436 Y79.627
G1 X77.163 Y81.000
G1 X77.319 Y81.786
G1 X78.114 Y82.092 F18000
G92 E0.0000
G1 X78.733 Y83.017 E0.1030 F1080
G1 X79.658 Y83.636 E0.2059
G1 X80.750 Y83.853 E0.3089
G1 X81.842 Y83.636 E0.4119
G1 X82.767 Y83.017 E0.5149
G1 X83.386 Y82.092 E0.6178
G1 X83.603 Y81.000 E0.7208
G1 X83.391 Y79.934 E0.8213
G1 X82.773 Y78.986 E0.9260
G1 X81.842 Y78.364 E1.0296
G1 X80.750 Y78.147 E1.1325
G1 X79.658 Y78.364 E1.2355
G1 X78.733 Y78.983 E1.3385
G1 X78.114 Y79.908 E1.4415
G1 X77.897 Y81.000 E1.5444
G1 X78.075 Y81.896 E1.6289
G1 X78.114 Y82.092 F1080
G1 X78.733 Y83.017 F1080
G1 X79.658 Y83.636
G1 X80.750 Y83.853
G1 X81.842 Y83.636
G1 X82.297 Y83.332
; feature outer perimeter
G1 X81.561 Y82.958 F18000
G92 E0.0000
G1 X82.248 Y82.498 E0.0765 F720
G1 X82.708 Y81.811 E0.1530
G1 X82.869 Y81.000 E0.2294
G1 X82.712 Y80.211 E0.3039
G1 X82.251 Y79.503 E0.3820
G1 X81.561 Y79.042 E0.4587
G1 X80.750 Y78.881 E0.5352
G1 X79.939 Y79.042 E0.6117
G1 X79.252 Y79.502 E0.6882
G1 X78.792 Y80.189 E0.7646
G1 X78.631 Y81.000 E0.8411
G1 X78.792 Y81.811 E0.9176
G1 X79.252 Y82.498 E0.9941
G1 X79.939 Y82.958 E1.0705
G1 X80.750 Y83.119 E1.1470
G1 X81.365 Y82.997 E1.2050
G1 X81.561 Y82.958 F720
G1 X82.248 Y82.498 F720
G1 X82.708 Y81.811
G1 X82.869 Y81.000
G1 X82.712 Y80.211
G1 X82.251 Y79.503
G1 X81.561 Y79.042
G1 X81.521 Y79.034
; feature internal single extrusion
; tool H0.300 W0.240
G1 X82.306 Y77.369 F18000
G92 E0.0000
G1 X82.060 Y77.266 E0.0082 F720
G1 X82.048 Y77.260 E0.0086
G1 X82.035 Y77.251 E0.0091
G1 X82.020 Y77.235 E0.0098
G1 X82.002 Y77.210 E0.0108
G1 X81.886 Y77.046 F720
; tool H0.300 W0.529
G1 X82.015 Y77.232 F18000
G92 E0.0000
G1 X81.840 Y76.939 E0.0232 F720
G1 X81.737 Y76.768 F720
; tool H0.300 W0.938
G1 X81.906 Y76.763 F18000
G92 E0.0000
; tool H0.300 W0.957
G1 X81.611 Y76.734 E0.0364 F720
; tool H0.300 W0.938
G1 X81.516 Y76.724 E0.0480
; tool H0.300 W0.919
G1 X81.420 Y76.715 E0.0594
; tool H0.300 W0.901
G1 X81.324 Y76.706 E0.0705
; tool H0.300 W0.882
G1 X81.228 Y76.696 E0.0814
; tool H0.300 W0.863
G1 X81.133 Y76.687 E0.0920
; tool H0.300 W0.844
G1 X81.037 Y76.677 E0.1025
; tool H0.300 W0.825
G1 X80.941 Y76.668 E0.1127
; tool H0.300 W0.806
G1 X80.846 Y76.658 E0.1226
; tool H0.300 W0.791
G1 X80.750 Y76.653 E0.1324
G1 X80.654 Y76.658 E0.1421
; tool H0.300 W0.825
G1 X80.367 Y76.687 E0.1727
; tool H0.300 W0.882
G1 X80.080 Y76.715 E0.2054
; tool H0.300 W0.938
G1 X79.793 Y76.743 E0.2402
G1 X79.594 Y76.763 F720
; tool H0.300 W0.240
G1 X79.651 Y77.036 F18000
G92 E0.0000
G1 X79.529 Y77.167 E0.0098 F720
G1 X79.435 Y77.269 F720
G1 X79.379 Y77.292
G1 X79.324 Y79.453 F18000
G1 X79.252 Y79.502
G1 X78.792 Y80.189
G1 X78.631 Y81.000
G1 X78.792 Y81.811
G1 X79.248 Y82.492
G1 X79.194 Y84.631
G92 E0.0000
G1 X79.440 Y84.734 E0.0082 F720
G1 X79.452 Y84.740 E0.0086
G1 X79.465 Y84.749 E0.0091
G1 X79.626 Y84.868 F720
; tool H0.300 W0.319
G1 X79.412 Y84.646 F18000
G92 E0.0000
G1 X79.588 Y84.939 E0.0140 F720
; tool H0.300 W0.529
G1 X79.660 Y85.061 E0.0236
G1 X79.763 Y85.232 F720
; tool H0.300 W0.938
G1 X79.594 Y85.237 F18000
G92 E0.0000
; tool H0.300 W0.957
G1 X79.889 Y85.266 E0.0364 F720
; tool H0.300 W0.938
G1 X79.984 Y85.276 E0.0480
; tool H0.300 W0.919
G1 X80.080 Y85.285 E0.0594
; tool H0.300 W0.901
G1 X80.176 Y85.294 E0.0705
; tool H0.300 W0.882
G1 X80.272 Y85.304 E0.0814
; tool H0.300 W0.863
G1 X80.367 Y85.313 E0.0920
; tool H0.300 W0.844
G1 X80.463 Y85.323 E0.1025
; tool H0.300 W0.825
G1 X80.559 Y85.332 E0.1127
; tool H0.300 W0.806
G1 X80.654 Y85.342 E0.1226
; tool H0.300 W0.791
G1 X80.750 Y85.347 E0.1324
G1 X80.846 Y85.342 E0.1421
; tool H0.300 W0.825
G1 X81.133 Y85.313 E0.1727
; tool H0.300 W0.882
G1 X81.420 Y85.285 E0.2054
; tool H0.300 W0.938
G1 X81.707 Y85.257 E0.2402
G1 X81.906 Y85.237 F720
; tool H0.300 W0.240
G1 X81.849 Y84.964 F18000
G92 E0.0000
G1 X81.971 Y84.833 E0.0098 F720
G1 X82.065 Y84.731 F720
G1 X82.121 Y84.708
; feature solid layer
; tool H0.300 W0.720
G1 X84.347 Y84.347 F18000
G92 E0.0000
G1 X84.768 Y84.768 E0.0551 F1152
G1 X85.786 Y84.768 E0.1493
G1 X84.755 Y83.737 E0.2842
G1 X85.163 Y83.126 E0.3521
G1 X86.804 Y84.768 E0.5668
G1 X87.823 Y84.768 E0.6610
G1 X85.423 Y82.368 E0.9749
G1 X85.592 Y81.519 E1.0550
G1 X88.841 Y84.768 E1.4800
G1 X89.859 Y84.768 E1.5742
G1 X85.597 Y80.506 E2.1317
G1 X85.344 Y79.235 E2.2516
G1 X90.877 Y84.768 E2.9754
G1 X91.896 Y84.768 E3.0696
G1 X84.360 Y77.232 E4.0553
G1 X85.378 Y77.232 E4.1495
G1 X92.914 Y84.768 E5.1353
G1 X93.932 Y84.768 E5.2295
G1 X86.396 Y77.232 E6.2153
G1 X87.414 Y77.232 E6.3095
G1 X94.950 Y84.768 E7.2952
G1 X95.969 Y84.768 E7.3894
G1 X88.433 Y77.232 E8.3752
G1 X89.451 Y77.232 E8.4694
G1 X96.987 Y84.768 E9.4552
G1 X98.005 Y84.768 E9.5494
G1 X90.469 Y77.232 E10.5351
G1 X91.487 Y77.232 E10.6293
G1 X99.023 Y84.768 E11.6151
G1 X100.042 Y84.768 E11.7093
G1 X92.506 Y77.232 E12.6951
G1 X93.524 Y77.232 E12.7892
G1 X101.060 Y84.768 E13.7750
G1 X102.078 Y84.768 E13.8692
G1 X94.542 Y77.232 E14.8550
G1 X95.560 Y77.232 E14.9492
G1 X103.096 Y84.768 E15.9350
G1 X103.518 Y84.768 E15.9740
G1 X103.518 Y84.172 E16.0291
G1 X96.578 Y77.232 E16.9369
G1 X97.597 Y77.232 E17.0311
G1 X103.518 Y83.153 E17.8056
G1 X103.518 Y82.135 E17.8998
G1 X98.615 Y77.232 E18.5412
G1 X99.633 Y77.232 E18.6354
G1 X103.518 Y81.117 E19.1436
G1 X103.518 Y80.099 E19.2377
G1 X100.651 Y77.232 E19.6127
G1 X101.670 Y77.232 E19.7069
G1 X103.518 Y79.080 E19.9487
G1 X103.518 Y78.062 E20.0429
G1 X102.829 Y77.373 E20.1330
G1 X102.688 Y77.232 F1152
G1 X103.518 Y78.062 F1152
G1 X103.518 Y79.080
G1 X101.670 Y77.232
G1 X101.476 Y77.232
G1 X77.232 Y77.232 F18000
G92 E0.0000
G1 X77.403 Y77.403 E0.0224 F1152
G1 X77.253 Y77.503 E0.0390
G1 X76.945 Y77.964 E0.0903
G1 X76.482 Y77.500 E0.1509
G1 X76.482 Y78.397 E0.2338
G1 X76.482 Y78.518 F1152
G1 X76.538 Y78.574
G1 X76.482 Y83.610 F18000
G92 E0.0000
G1 X77.019 Y84.147 E0.0703 F1152
G1 X77.253 Y84.497 E0.1092
G1 X77.603 Y84.731 E0.1481
G1 X77.640 Y84.768 E0.1530
G1 X76.622 Y84.768 E0.2472
G1 X76.482 Y84.628 F1152
G92 E0.0000
G1 E-3.0000 F3600
; feature inner perimeter
G1 X75.870 Y95.620 F18000
G1 E0.0000 F3600
G92 E0.0000
G1 X78.849 Y95.620 E0.2755 F1080
G1 X78.988 Y96.080 E0.3200
G1 X77.694 Y96.944 E0.4639
G1 X76.758 Y98.346 E0.6198
G1 X76.454 Y99.870 E0.7636
G1 X75.870 Y99.813 E0.8179
G1 X75.870 Y95.820 E1.1872
G1 X75.870 Y95.620 F1080
G1 X78.849 Y95.620 F1080
G1 X78.988 Y96.080
G1 X77.707 Y96.936
G1 X76.454 Y100.130 F18000
G92 E0.0000
