; G-Code generated by Simplify3D(R) Version 4.1.2
; Apr 21, 2020 at 9:20:24 PM
; Settings Summary
;   processName,Process1
;   applyToModels,test
;   profileName,HBot (modified)
;   profileVersion,2020-04-21 03:35:54
;   baseProfile,Default
;   printMaterial,PETG - ERYONE
;   printQuality,Medium
;   printExtruders,
;   extruderName,Extruder 1
;   extruderToolheadNumber,0
;   extruderDiameter,0.4
;   extruderAutoWidth,1
;   extruderWidth,0.48
;   extrusionMultiplier,1
;   extruderUseRetract,1
;   extruderRetractionDistance,3
;   extruderExtraRestartDistance,-0.1
;   extruderRetractionZLift,0
;   extruderRetractionSpeed,3600
;   extruderUseCoasting,1
;   extruderCoastingDistance,0.2
;   extruderUseWipe,1
;   extruderWipeDistance,5
;   primaryExtruder,0
;   layerHeight,0.2
;   topSolidLayers,3
;   bottomSolidLayers,3
;   perimeterOutlines,3
;   printPerimetersInsideOut,1
;   startPointOption,3
;   startPointOriginX,200
;   startPointOriginY,100
;   sequentialIslands,0
;   spiralVaseMode,0
;   firstLayerHeightPercentage,100
;   firstLayerWidthPercentage,150
;   firstLayerUnderspeed,0.5
;   useRaft,0
;   raftExtruder,0
;   raftTopLayers,3
;   raftBaseLayers,2
;   raftOffset,3
;   raftSeparationDistance,0.18
;   raftTopInfill,100
;   aboveRaftSpeedMultiplier,0.3
;   useSkirt,0
;   skirtExtruder,0
;   skirtLayers,1
;   skirtOutlines,8
;   skirtOffset,0
;   usePrimePillar,0
;   primePillarExtruder,999
;   primePillarWidth,12
;   primePillarLocation,7
;   primePillarSpeedMultiplier,1
;   useOozeShield,0
;   oozeShieldExtruder,999
;   oozeShieldOffset,2
;   oozeShieldOutlines,1
;   oozeShieldSidewallShape,1
;   oozeShieldSidewallAngle,30
;   oozeShieldSpeedMultiplier,1
;   infillExtruder,0
;   internalInfillPattern,Rectilinear
;   externalInfillPattern,Rectilinear
;   infillPercentage,20
;   outlineOverlapPercentage,25
;   infillExtrusionWidthPercentage,150
;   minInfillLength,5
;   infillLayerInterval,1
;   internalInfillAngles,45,-45
;   overlapInternalInfillAngles,0
;   externalInfillAngles,45,-45
;   generateSupport,0
;   supportExtruder,0
;   supportInfillPercentage,30
;   supportExtraInflation,0
;   supportBaseLayers,1
;   denseSupportExtruder,0
;   denseSupportLayers,0
;   denseSupportInfillPercentage,70
;   supportLayerInterval,1
;   supportHorizontalPartOffset,0.3
;   supportUpperSeparationLayers,1
;   supportLowerSeparationLayers,1
;   supportType,0
;   supportGridSpacing,4
;   maxOverhangAngle,25
;   supportAngles,0
;   temperatureName,Extruder 1,Heated Bed
;   temperatureNumber,0,1
;   temperatureSetpointCount,1,2
;   temperatureSetpointLayers,1,1,20
;   temperatureSetpointTemperatures,230,75,70
;   temperatureStabilizeAtStartup,1,1
;   temperatureHeatedBed,0,1
;   fanLayers,1,2,4
;   fanSpeeds,0,20,30
;   blipFanToFullPower,1
;   adjustSpeedForCooling,1
;   minSpeedLayerTime,15
;   minCoolingSpeedSlowdown,20
;   increaseFanForCooling,0
;   minFanLayerTime,45
;   maxCoolingFanSpeed,40
;   increaseFanForBridging,1
;   bridgingFanSpeed,80
;   use5D,1
;   relativeEdistances,0
;   allowEaxisZeroing,1
;   independentExtruderAxes,0
;   includeM10123,0
;   stickySupport,1
;   applyToolheadOffsets,0
;   gcodeXoffset,0
;   gcodeYoffset,0
;   gcodeZoffset,0
;   overrideMachineDefinition,1
;   machineTypeOverride,0
;   strokeXoverride,200
;   strokeYoverride,200
;   strokeZoverride,150
;   originOffsetXoverride,0
;   originOffsetYoverride,0
;   originOffsetZoverride,0
;   homeXdirOverride,-1
;   homeYdirOverride,-1
;   homeZdirOverride,-1
;   flipXoverride,1
;   flipYoverride,-1
;   flipZoverride,1
;   toolheadOffsets,0,0|0,0|0,0|0,0|0,0|0,0
;   overrideFirmwareConfiguration,1
;   firmwareTypeOverride,RepRap (Marlin/Repetier/Sprinter)
;   GPXconfigOverride,r2
;   baudRateOverride,115200
;   overridePrinterModels,0
;   printerModelsOverride
;   startingGcode,G28 ; home all axes,G32 ; run bed.g -- probe bed and enable compensation
;   layerChangeGcode,
;   retractionGcode,
;   toolChangeGcode,
;   endingGcode,M0 ; call stop.g
;   exportFileFormat,gcode
;   celebration,0
;   celebrationSong,Random Song
;   postProcessing,
;   defaultSpeed,3600
;   outlineUnderspeed,0.5
;   solidInfillUnderspeed,0.8
;   supportUnderspeed,0.8
;   rapidXYspeed,18000
;   rapidZspeed,1200
;   minBridgingArea,50
;   bridgingExtraInflation,0
;   bridgingExtrusionMultiplier,0.96
;   bridgingSpeedMultiplier,1
;   useFixedBridgingAngle,0
;   fixedBridgingAngle,0
;   applyBridgingToPerimeters,0
;   filamentDiameters,1.75|1.75|1.75|1.75|1.75|1.75
;   filamentPricesPerKg,46|46|46|46|46|46
;   filamentDensities,1.25|1.25|1.25|1.25|1.25|1.25
;   useMinPrintHeight,0
;   minPrintHeight,0
;   useMaxPrintHeight,0
;   maxPrintHeight,0
;   useDiaphragm,0
;   diaphragmLayerInterval,20
;   robustSlicing,1
;   mergeAllIntoSolid,0
;   onlyRetractWhenCrossingOutline,1
;   retractBetweenLayers,0
;   useRetractionMinTravel,1
;   retractionMinTravel,3
;   retractWhileWiping,1
;   onlyWipeOutlines,1
;   avoidCrossingOutline,1
;   maxMovementDetourFactor,50
;   toolChangeRetractionDistance,12
;   toolChangeExtraRestartDistance,-0.5
;   toolChangeRetractionSpeed,600
;   externalThinWallType,0
;   internalThinWallType,2
;   thinWallAllowedOverlapPercentage,10
;   singleExtrusionMinLength,1
;   singleExtrusionMinPrintingWidthPercentage,50
;   singleExtrusionMaxPrintingWidthPercentage,200
;   singleExtrusionEndpointExtension,0.2
;   horizontalSizeCompensation,-0.1
G90
M82
M106 S0
M140 S75
M190 S75
M104 S230 T0
M109 S230 T0
G28 ; home all axes
G32 ; run bed.g -- probe bed and enable compensation
; process Process1
; layer 1, Z = 0.200
T0
G92 E0.0000
G1 E-3.0000 F3600
; feature outer perimeter
; tool H0.200 W0.720
G1 Z0.200 F1200
G1 X174.540 Y174.540 F18000
G1 E-0.1000 F3600
G92 E0.0000
G1 X25.460 Y174.540 E8.9252 F900
G1 X25.460 Y25.460 E17.8503
G1 X174.540 Y25.460 E26.7755
G1 X174.540 Y174.340 E35.6887
G1 X174.540 Y174.540 F900
G1 X169.540 Y174.540 F900
G1 X173.460 Y173.460 F18000
G92 E0.0000
G1 X173.460 Y26.540 E8.7958 F900
G1 X26.540 Y26.540 E17.5917
G1 X26.540 Y173.460 E26.3875
G1 X173.260 Y173.460 E35.1714
G1 X173.460 Y173.460 F900
G1 X173.460 Y168.460 F900
; feature gap fill
; tool H0.200 W0.480
G1 X174.120 Y27.494 F18000
G92 E0.0000
G1 X173.880 Y27.254 E0.0135 F1800
G1 X173.880 Y27.933 E0.0406
G1 X174.120 Y28.173 E0.0542
G1 X174.120 Y28.852 E0.0813
G1 X173.880 Y28.612 E0.0948
G1 X173.880 Y29.291 E0.1219
G1 X174.120 Y29.531 E0.1355
G1 X174.120 Y30.210 E0.1626
G1 X173.880 Y29.970 E0.1761
G1 X173.880 Y30.648 E0.2032
G1 X174.120 Y30.888 E0.2167
G1 X174.120 Y31.567 E0.2438
G1 X173.880 Y31.327 E0.2574
G1 X173.880 Y32.006 E0.2845
G1 X174.120 Y32.246 E0.2980
G1 X174.120 Y32.925 E0.3251
G1 X173.880 Y32.685 E0.3387
G1 X173.880 Y33.364 E0.3658
G1 X174.120 Y33.604 E0.3793
G1 X174.120 Y34.283 E0.4064
G1 X173.880 Y34.043 E0.4199
G1 X173.880 Y34.721 E0.4470
G1 X174.120 Y34.961 E0.4606
G1 X174.120 Y35.640 E0.4877
G1 X173.880 Y35.400 E0.5012
G1 X173.880 Y36.079 E0.5283
G1 X174.120 Y36.319 E0.5419
G1 X174.120 Y36.998 E0.5690
G1 X173.880 Y36.758 E0.5825
G1 X173.880 Y37.437 E0.6096
G1 X174.120 Y37.677 E0.6231
G1 X174.120 Y38.355 E0.6502
G1 X173.880 Y38.115 E0.6638
G1 X173.880 Y38.794 E0.6909
G1 X174.120 Y39.034 E0.7044
G1 X174.120 Y39.713 E0.7315
G1 X173.880 Y39.473 E0.7451
G1 X173.880 Y40.152 E0.7722
G1 X174.120 Y40.392 E0.7857
G1 X174.120 Y41.071 E0.8128
G1 X173.880 Y40.831 E0.8263
G1 X173.880 Y41.510 E0.8534
G1 X174.120 Y41.750 E0.8670
G1 X174.120 Y42.428 E0.8941
G1 X173.880 Y42.188 E0.9076
G1 X173.880 Y42.867 E0.9347
G1 X174.120 Y43.107 E0.9483
G1 X174.120 Y43.786 E0.9754
G1 X173.880 Y43.546 E0.9889
G1 X173.880 Y44.225 E1.0160
G1 X174.120 Y44.465 E1.0295
G1 X174.120 Y45.144 E1.0566
G1 X173.880 Y44.904 E1.0702
G1 X173.880 Y45.583 E1.0973
G1 X174.120 Y45.823 E1.1108
G1 X174.120 Y46.501 E1.1379
G1 X173.880 Y46.261 E1.1515
G1 X173.880 Y46.940 E1.1786
G1 X174.120 Y47.180 E1.1921
G1 X174.120 Y47.859 E1.2192
G1 X173.880 Y47.619 E1.2327
G1 X173.880 Y48.298 E1.2598
G1 X174.120 Y48.538 E1.2734
G1 X174.120 Y49.217 E1.3005
G1 X173.880 Y48.977 E1.3140
G1 X173.880 Y49.655 E1.3411
G1 X174.120 Y49.895 E1.3547
G1 X174.120 Y50.574 E1.3818
G1 X173.880 Y50.334 E1.3953
G1 X173.880 Y51.013 E1.4224
G1 X174.120 Y51.253 E1.4359
G1 X174.120 Y51.932 E1.4630
G1 X173.880 Y51.692 E1.4766
G1 X173.880 Y52.371 E1.5037
G1 X174.120 Y52.611 E1.5172
G1 X174.120 Y53.290 E1.5443
G1 X173.880 Y53.050 E1.5579
G1 X173.880 Y53.728 E1.5850
G1 X174.120 Y53.968 E1.5985
G1 X174.120 Y54.647 E1.6256
G1 X173.880 Y54.407 E1.6391
G1 X173.880 Y55.086 E1.6662
G1 X174.120 Y55.326 E1.6798
G1 X174.120 Y56.005 E1.7069
G1 X173.880 Y55.765 E1.7204
G1 X173.880 Y56.444 E1.7475
G1 X174.120 Y56.684 E1.7611
G1 X174.120 Y57.363 E1.7882
G1 X173.880 Y57.123 E1.8017
G1 X173.880 Y57.801 E1.8288
G1 X174.120 Y58.041 E1.8423
G1 X174.120 Y58.720 E1.8694
G1 X173.880 Y58.480 E1.8830
G1 X173.880 Y59.159 E1.9101
G1 X174.120 Y59.399 E1.9236
G1 X174.120 Y60.078 E1.9507
G1 X173.880 Y59.838 E1.9643
G1 X173.880 Y60.517 E1.9914
G1 X174.120 Y60.757 E2.0049
G1 X174.120 Y61.435 E2.0320
G1 X173.880 Y61.195 E2.0455
G1 X173.880 Y61.874 E2.0726
G1 X174.120 Y62.114 E2.0862
G1 X174.120 Y62.793 E2.1133
G1 X173.880 Y62.553 E2.1268
G1 X173.880 Y63.232 E2.1539
G1 X174.120 Y63.472 E2.1675
G1 X174.120 Y64.151 E2.1946
G1 X173.880 Y63.911 E2.2081
G1 X173.880 Y64.590 E2.2352
G1 X174.120 Y64.830 E2.2487
G1 X174.120 Y65.508 E2.2758
G1 X173.880 Y65.268 E2.2894
G1 X173.880 Y65.947 E2.3165
G1 X174.120 Y66.187 E2.3300
G1 X174.120 Y66.866 E2.3571
G1 X173.880 Y66.626 E2.3707
G1 X173.880 Y67.305 E2.3978
G1 X174.120 Y67.545 E2.4113
G1 X174.120 Y68.224 E2.4384
G1 X173.880 Y67.984 E2.4519
G1 X173.880 Y68.662 E2.4790
G1 X174.120 Y68.902 E2.4926
G1 X174.120 Y69.581 E2.5197
G1 X173.880 Y69.341 E2.5332
G1 X173.880 Y70.020 E2.5603
G1 X174.120 Y70.260 E2.5739
G1 X174.120 Y70.939 E2.6010
G1 X173.880 Y70.699 E2.6145
G1 X173.880 Y71.378 E2.6416
G1 X174.120 Y71.618 E2.6551
G1 X174.120 Y72.297 E2.6822
G1 X173.880 Y72.057 E2.6958
G1 X173.880 Y72.735 E2.7229
G1 X174.120 Y72.975 E2.7364
G1 X174.120 Y73.654 E2.7635
G1 X173.880 Y73.414 E2.7771
G1 X173.880 Y74.093 E2.8042
G1 X174.120 Y74.333 E2.8177
G1 X174.120 Y75.012 E2.8448
G1 X173.880 Y74.772 E2.8583
G1 X173.880 Y75.451 E2.8854
G1 X174.120 Y75.691 E2.8990
G1 X174.120 Y76.370 E2.9261
G1 X173.880 Y76.130 E2.9396
G1 X173.880 Y76.808 E2.9667
G1 X174.120 Y77.048 E2.9803
G1 X174.120 Y77.727 E3.0074
G1 X173.880 Y77.487 E3.0209
G1 X173.880 Y78.166 E3.0480
G1 X174.120 Y78.406 E3.0615
G1 X174.120 Y79.085 E3.0886
G1 X173.880 Y78.845 E3.1022
G1 X173.880 Y79.524 E3.1293
G1 X174.120 Y79.764 E3.1428
G1 X174.120 Y80.442 E3.1699
G1 X173.880 Y80.202 E3.1835
G1 X173.880 Y80.881 E3.2106
G1 X174.120 Y81.121 E3.2241
G1 X174.120 Y81.800 E3.2512
G1 X173.880 Y81.560 E3.2647
G1 X173.880 Y82.239 E3.2918
G1 X174.120 Y82.479 E3.3054
G1 X174.120 Y83.158 E3.3325
G1 X173.880 Y82.918 E3.3460
G1 X173.880 Y83.597 E3.3731
G1 X174.120 Y83.837 E3.3867
G1 X174.120 Y84.515 E3.4138
G1 X173.880 Y84.275 E3.4273
G1 X173.880 Y84.954 E3.4544
G1 X174.120 Y85.194 E3.4679
G1 X174.120 Y85.873 E3.4950
G1 X173.880 Y85.633 E3.5086
G1 X173.880 Y86.312 E3.5357
G1 X174.120 Y86.552 E3.5492
G1 X174.120 Y87.231 E3.5763
G1 X173.880 Y86.991 E3.5899
G1 X173.880 Y87.670 E3.6170
G1 X174.120 Y87.910 E3.6305
G1 X174.120 Y88.588 E3.6576
G1 X173.880 Y88.348 E3.6711
G1 X173.880 Y89.027 E3.6982
G1 X174.120 Y89.267 E3.7118
G1 X174.120 Y89.946 E3.7389
G1 X173.880 Y89.706 E3.7524
G1 X173.880 Y90.385 E3.7795
G1 X174.120 Y90.625 E3.7931
G1 X174.120 Y91.304 E3.8202
G1 X173.880 Y91.064 E3.8337
G1 X173.880 Y91.742 E3.8608
G1 X174.120 Y91.982 E3.8743
G1 X174.120 Y92.661 E3.9014
G1 X173.880 Y92.421 E3.9150
G1 X173.880 Y93.100 E3.9421
G1 X174.120 Y93.340 E3.9556
G1 X174.120 Y94.019 E3.9827
G1 X173.880 Y93.779 E3.9963
G1 X173.880 Y94.458 E4.0234
G1 X174.120 Y94.698 E4.0369
G1 X174.120 Y95.377 E4.0640
G1 X173.880 Y95.137 E4.0775
G1 X173.880 Y95.815 E4.1046
G1 X174.120 Y96.055 E4.1182
G1 X174.120 Y96.734 E4.1453
G1 X173.880 Y96.494 E4.1588
G1 X173.880 Y97.173 E4.1859
G1 X174.120 Y97.413 E4.1995
G1 X174.120 Y98.092 E4.2266
G1 X173.880 Y97.852 E4.2401
G1 X173.880 Y98.531 E4.2672
G1 X174.120 Y98.771 E4.2807
G1 X174.120 Y99.450 E4.3078
G1 X173.880 Y99.210 E4.3214
G1 X173.880 Y99.888 E4.3485
G1 X174.120 Y100.128 E4.3620
G1 X174.120 Y100.807 E4.3891
G1 X173.880 Y100.567 E4.4027
G1 X173.880 Y101.246 E4.4298
G1 X174.120 Y101.486 E4.4433
G1 X174.120 Y102.165 E4.4704
G1 X173.880 Y101.925 E4.4839
G1 X173.880 Y102.604 E4.5110
G1 X174.120 Y102.844 E4.5246
G1 X174.120 Y103.522 E4.5517
G1 X173.880 Y103.282 E4.5652
G1 X173.880 Y103.961 E4.5923
G1 X174.120 Y104.201 E4.6059
G1 X174.120 Y104.880 E4.6329
G1 X173.880 Y104.640 E4.6465
G1 X173.880 Y105.319 E4.6736
G1 X174.120 Y105.559 E4.6871
G1 X174.120 Y106.238 E4.7142
G1 X173.880 Y105.998 E4.7278
G1 X173.880 Y106.677 E4.7549
G1 X174.120 Y106.917 E4.7684
G1 X174.120 Y107.595 E4.7955
G1 X173.880 Y107.355 E4.8091
G1 X173.880 Y108.034 E4.8361
G1 X174.120 Y108.274 E4.8497
G1 X174.120 Y108.953 E4.8768
G1 X173.880 Y108.713 E4.8903
G1 X173.880 Y109.392 E4.9174
G1 X174.120 Y109.632 E4.9310
G1 X174.120 Y110.311 E4.9581
G1 X173.880 Y110.071 E4.9716
G1 X173.880 Y110.749 E4.9987
G1 X174.120 Y110.989 E5.0123
G1 X174.120 Y111.668 E5.0393
G1 X173.880 Y111.428 E5.0529
G1 X173.880 Y112.107 E5.0800
G1 X174.120 Y112.347 E5.0935
G1 X174.120 Y113.026 E5.1206
G1 X173.880 Y112.786 E5.1342
G1 X173.880 Y113.465 E5.1613
G1 X174.120 Y113.705 E5.1748
G1 X174.120 Y114.384 E5.2019
G1 X173.880 Y114.144 E5.2155
G1 X173.880 Y114.822 E5.2425
G1 X174.120 Y115.062 E5.2561
G1 X174.120 Y115.741 E5.2832
G1 X173.880 Y115.501 E5.2967
G1 X173.880 Y116.180 E5.3238
G1 X174.120 Y116.420 E5.3374
G1 X174.120 Y117.099 E5.3645
G1 X173.880 Y116.859 E5.3780
G1 X173.880 Y117.538 E5.4051
G1 X174.120 Y117.778 E5.4187
G1 X174.120 Y118.457 E5.4457
G1 X173.880 Y118.217 E5.4593
G1 X173.880 Y118.895 E5.4864
G1 X174.120 Y119.135 E5.4999
G1 X174.120 Y119.814 E5.5270
G1 X173.880 Y119.574 E5.5406
G1 X173.880 Y120.253 E5.5677
G1 X174.120 Y120.493 E5.5812
G1 X174.120 Y121.172 E5.6083
G1 X173.880 Y120.932 E5.6219
G1 X173.880 Y121.611 E5.6489
G1 X174.120 Y121.851 E5.6625
G1 X174.120 Y122.529 E5.6896
G1 X173.880 Y122.289 E5.7031
G1 X173.880 Y122.968 E5.7302
G1 X174.120 Y123.208 E5.7438
G1 X174.120 Y123.887 E5.7709
G1 X173.880 Y123.647 E5.7844
G1 X173.880 Y124.326 E5.8115
G1 X174.120 Y124.566 E5.8251
G1 X174.120 Y125.245 E5.8521
G1 X173.880 Y125.005 E5.8657
G1 X173.880 Y125.684 E5.8928
G1 X174.120 Y125.924 E5.9063
G1 X174.120 Y126.602 E5.9334
G1 X173.880 Y126.362 E5.9470
G1 X173.880 Y127.041 E5.9741
G1 X174.120 Y127.281 E5.9876
G1 X174.120 Y127.960 E6.0147
G1 X173.880 Y127.720 E6.0283
G1 X173.880 Y128.399 E6.0553
G1 X174.120 Y128.639 E6.0689
G1 X174.120 Y129.318 E6.0960
G1 X173.880 Y129.078 E6.1095
G1 X173.880 Y129.757 E6.1366
G1 X174.120 Y129.997 E6.1502
G1 X174.120 Y130.675 E6.1773
G1 X173.880 Y130.435 E6.1908
G1 X173.880 Y131.114 E6.2179
G1 X174.120 Y131.354 E6.2315
G1 X174.120 Y132.033 E6.2585
G1 X173.880 Y131.793 E6.2721
G1 X173.880 Y132.472 E6.2992
G1 X174.120 Y132.712 E6.3127
G1 X174.120 Y133.391 E6.3398
G1 X173.880 Y133.151 E6.3534
G1 X173.880 Y133.829 E6.3805
G1 X174.120 Y134.069 E6.3940
G1 X174.120 Y134.748 E6.4211
G1 X173.880 Y134.508 E6.4347
G1 X173.880 Y135.187 E6.4617
G1 X174.120 Y135.427 E6.4753
G1 X174.120 Y136.106 E6.5024
G1 X173.880 Y135.866 E6.5159
G1 X173.880 Y136.545 E6.5430
G1 X174.120 Y136.785 E6.5566
G1 X174.120 Y137.464 E6.5837
G1 X173.880 Y137.224 E6.5972
G1 X173.880 Y137.902 E6.6243
G1 X174.120 Y138.142 E6.6379
G1 X174.120 Y138.821 E6.6649
G1 X173.880 Y138.581 E6.6785
G1 X173.880 Y139.260 E6.7056
G1 X174.120 Y139.500 E6.7191
G1 X174.120 Y140.179 E6.7462
G1 X173.880 Y139.939 E6.7598
G1 X173.880 Y140.618 E6.7869
G1 X174.120 Y140.858 E6.8004
G1 X174.120 Y141.537 E6.8275
G1 X173.880 Y141.297 E6.8411
G1 X173.880 Y141.975 E6.8681
G1 X174.120 Y142.215 E6.8817
G1 X174.120 Y142.894 E6.9088
G1 X173.880 Y142.654 E6.9223
G1 X173.880 Y143.333 E6.9494
G1 X174.120 Y143.573 E6.9630
G1 X174.120 Y144.252 E6.9901
G1 X173.880 Y144.012 E7.0036
