; G-Code generated by Simplify3D(R) Version 4.1.2
; May 9, 2020 at 3:42:53 PM
; Settings Summary
;   processName,Process1
;   applyToModels,150mmx150mm-level-test
;   profileName,HBot
;   profileVersion,2019-10-26 23:38:43
;   baseProfile,Default
;   printMaterial,PETG - SUNLU
;   printQuality,High
;   printExtruders,
;   extruderName,Extruder 1
;   extruderToolheadNumber,0
;   extruderDiameter,0.4
;   extruderAutoWidth,1
;   extruderWidth,0.48
;   extrusionMultiplier,0.94
;   extruderUseRetract,1
;   extruderRetractionDistance,4
;   extruderExtraRestartDistance,0
;   extruderRetractionZLift,0
;   extruderRetractionSpeed,3600
;   extruderUseCoasting,1
;   extruderCoastingDistance,0.2
;   extruderUseWipe,1
;   extruderWipeDistance,5
;   primaryExtruder,0
;   layerHeight,0.1
;   topSolidLayers,5
;   bottomSolidLayers,5
;   perimeterOutlines,4
;   printPerimetersInsideOut,1
;   startPointOption,3
;   startPointOriginX,200
;   startPointOriginY,100
;   sequentialIslands,0
;   spiralVaseMode,0
;   firstLayerHeightPercentage,100
;   firstLayerWidthPercentage,100
;   firstLayerUnderspeed,0.5
;   useRaft,0
;   raftExtruder,0
;   raftTopLayers,3
;   raftBaseLayers,2
;   raftOffset,3
;   raftSeparationDistance,0.18
;   raftTopInfill,100
;   aboveRaftSpeedMultiplier,0.3
;   useSkirt,1
;   skirtExtruder,0
;   skirtLayers,1
;   skirtOutlines,3
;   skirtOffset,10
;   usePrimePillar,0
;   primePillarExtruder,999
;   primePillarWidth,12
;   primePillarLocation,7
;   primePillarSpeedMultiplier,1
;   useOozeShield,0
;   oozeShieldExtruder,999
;   oozeShieldOffset,2
;   oozeShieldOutlines,1
;   oozeShieldSidewallShape,1
;   oozeShieldSidewallAngle,30
;   oozeShieldSpeedMultiplier,1
;   infillExtruder,0
;   internalInfillPattern,Rectilinear
;   externalInfillPattern,Rectilinear
;   infillPercentage,30
;   outlineOverlapPercentage,25
;   infillExtrusionWidthPercentage,100
;   minInfillLength,5
;   infillLayerInterval,1
;   internalInfillAngles,45,-45
;   overlapInternalInfillAngles,0
;   externalInfillAngles,45,-45
;   generateSupport,0
;   supportExtruder,0
;   supportInfillPercentage,40
;   supportExtraInflation,0
;   supportBaseLayers,1
;   denseSupportExtruder,0
;   denseSupportLayers,0
;   denseSupportInfillPercentage,70
;   supportLayerInterval,1
;   supportHorizontalPartOffset,0.3
;   supportUpperSeparationLayers,1
;   supportLowerSeparationLayers,1
;   supportType,0
;   supportGridSpacing,4
;   maxOverhangAngle,25
;   supportAngles,0
;   temperatureName,Extruder 1,Heated Bed
;   temperatureNumber,0,1
;   temperatureSetpointCount,1,1
;   temperatureSetpointLayers,1,1
;   temperatureSetpointTemperatures,225,75
;   temperatureStabilizeAtStartup,1,1
;   temperatureHeatedBed,0,1
;   fanLayers,1,10
;   fanSpeeds,0,5
;   blipFanToFullPower,1
;   adjustSpeedForCooling,1
;   minSpeedLayerTime,15
;   minCoolingSpeedSlowdown,20
;   increaseFanForCooling,1
;   minFanLayerTime,45
;   maxCoolingFanSpeed,35
;   increaseFanForBridging,1
;   bridgingFanSpeed,80
;   use5D,1
;   relativeEdistances,0
;   allowEaxisZeroing,1
;   independentExtruderAxes,0
;   includeM10123,0
;   stickySupport,1
;   applyToolheadOffsets,0
;   gcodeXoffset,0
;   gcodeYoffset,0
;   gcodeZoffset,0
;   overrideMachineDefinition,1
;   machineTypeOverride,0
;   strokeXoverride,200
;   strokeYoverride,200
;   strokeZoverride,150
;   originOffsetXoverride,0
;   originOffsetYoverride,0
;   originOffsetZoverride,0
;   homeXdirOverride,-1
;   homeYdirOverride,-1
;   homeZdirOverride,-1
;   flipXoverride,1
;   flipYoverride,-1
;   flipZoverride,1
;   toolheadOffsets,0,0|0,0|0,0|0,0|0,0|0,0
;   overrideFirmwareConfiguration,1
;   firmwareTypeOverride,RepRap (Marlin/Repetier/Sprinter)
;   GPXconfigOverride,r2
;   baudRateOverride,115200
;   overridePrinterModels,0
;   printerModelsOverride
;   startingGcode,G28 ; home all axes,G32 ; run bed.g -- probe bed and enable compensation
;   layerChangeGcode,
;   retractionGcode,
;   toolChangeGcode,
;   endingGcode,M0 ; call stop.g
;   exportFileFormat,gcode
;   celebration,0
;   celebrationSong,Random Song
;   postProcessing,
;   defaultSpeed,3600
;   outlineUnderspeed,0.5
;   solidInfillUnderspeed,0.8
;   supportUnderspeed,0.8
;   rapidXYspeed,18000
;   rapidZspeed,1200
;   minBridgingArea,50
;   bridgingExtraInflation,0
;   bridgingExtrusionMultiplier,0.96
;   bridgingSpeedMultiplier,1
;   useFixedBridgingAngle,0
;   fixedBridgingAngle,0
;   applyBridgingToPerimeters,0
;   filamentDiameters,1.75|1.75|1.75|1.75|1.75|1.75
;   filamentPricesPerKg,46|46|46|46|46|46
;   filamentDensities,1.25|1.25|1.25|1.25|1.25|1.25
;   useMinPrintHeight,0
;   minPrintHeight,0.2
;   useMaxPrintHeight,0
;   maxPrintHeight,0
;   useDiaphragm,0
;   diaphragmLayerInterval,20
;   robustSlicing,1
;   mergeAllIntoSolid,0
;   onlyRetractWhenCrossingOutline,1
;   retractBetweenLayers,0
;   useRetractionMinTravel,1
;   retractionMinTravel,3
;   retractWhileWiping,1
;   onlyWipeOutlines,1
;   avoidCrossingOutline,1
;   maxMovementDetourFactor,50
;   toolChangeRetractionDistance,12
;   toolChangeExtraRestartDistance,-0.5
;   toolChangeRetractionSpeed,600
;   externalThinWallType,0
;   internalThinWallType,2
;   thinWallAllowedOverlapPercentage,10
;   singleExtrusionMinLength,1
;   singleExtrusionMinPrintingWidthPercentage,50
;   singleExtrusionMaxPrintingWidthPercentage,150
;   singleExtrusionEndpointExtension,0.2
;   horizontalSizeCompensation,-0.1
G90
M82
M106 S0
M140 S75
M190 S75
M104 S225 T0
M109 S225 T0
G28 ; home all axes
G32 ; run bed.g -- probe bed and enable compensation
; process Process1
; layer 1, Z = 0.100
T0
G92 E0.0000
G1 E-4.0000 F3600
; feature skirt
; tool H0.100 W0.480
G1 Z0.100 F1200
G1 X186.100 Y179.539 F18000
G1 E0.0000 F3600
G92 E0.0000
G1 X179.539 Y186.100 E0.1741 F1800
G1 X20.461 Y186.100 E3.1582
G1 X13.900 Y179.539 E3.3322
G1 X13.900 Y20.461 E6.3163
G1 X20.461 Y13.900 E6.4904
G1 X179.539 Y13.900 E9.4745
G1 X186.100 Y20.461 E9.6485
G1 X186.100 Y179.539 E12.6326
G92 E0.0000
G1 E-4.0000 F3600
G1 X185.620 Y20.660 F18000
G1 E0.0000 F3600
G92 E0.0000
G1 X185.620 Y179.340 E2.9766 F1800
G1 X179.340 Y185.620 E3.1432
G1 X20.660 Y185.620 E6.1199
G1 X14.380 Y179.340 E6.2865
G1 X14.380 Y20.660 E9.2631
G1 X20.660 Y14.380 E9.4297
G1 X179.340 Y14.380 E12.4064
G1 X185.620 Y20.660 E12.5730
G1 X185.140 Y20.858 F18000
G92 E0.0000
G1 X185.140 Y179.142 E2.9692 F1800
G1 X179.142 Y185.140 E3.1283
G1 X20.858 Y185.140 E6.0975
G1 X14.860 Y179.142 E6.2566
G1 X14.860 Y20.858 E9.2258
G1 X20.858 Y14.860 E9.3850
G1 X179.142 Y14.860 E12.3541
G1 X185.140 Y20.858 E12.5133
G92 E0.0000
G1 E-4.0000 F3600
; feature outer perimeter
G1 X174.660 Y174.660 F18000
G1 E0.0000 F3600
G92 E0.0000
G1 X25.340 Y174.660 E2.8011 F900
G1 X25.340 Y25.340 E5.6021
G1 X174.660 Y25.340 E8.4032
G1 X174.660 Y174.460 E11.2005
G1 X174.660 Y174.660 F900
G1 X169.660 Y174.660 F900
G1 X173.340 Y173.340 F18000
G92 E0.0000
G1 X173.340 Y26.660 E2.7515 F900
G1 X26.660 Y26.660 E5.5031
G1 X26.660 Y173.340 E8.2546
G1 X173.140 Y173.340 E11.0024
G1 X173.340 Y173.340 F900
G1 X173.340 Y168.340 F900
; feature gap fill
G1 X174.300 Y27.674 F18000
G92 E0.0000
G1 X173.700 Y27.074 E0.0159 F1800
G1 X173.700 Y27.753 E0.0287
G1 X174.300 Y28.353 E0.0446
G1 X174.300 Y29.032 E0.0573
G1 X173.700 Y28.432 E0.0732
G1 X173.700 Y29.111 E0.0860
G1 X174.300 Y29.711 E0.1019
G1 X174.300 Y30.390 E0.1146
G1 X173.700 Y29.790 E0.1305
G1 X173.700 Y30.468 E0.1433
G1 X174.300 Y31.068 E0.1592
G1 X174.300 Y31.747 E0.1719
G1 X173.700 Y31.147 E0.1878
G1 X173.700 Y31.826 E0.2006
G1 X174.300 Y32.426 E0.2165
G1 X174.300 Y33.105 E0.2292
G1 X173.700 Y32.505 E0.2451
G1 X173.700 Y33.184 E0.2579
G1 X174.300 Y33.784 E0.2738
G1 X174.300 Y34.463 E0.2865
G1 X173.700 Y33.863 E0.3024
G1 X173.700 Y34.541 E0.3152
G1 X174.300 Y35.141 E0.3311
G1 X174.300 Y35.820 E0.3438
G1 X173.700 Y35.220 E0.3597
G1 X173.700 Y35.899 E0.3725
G1 X174.300 Y36.499 E0.3884
G1 X174.300 Y37.178 E0.4011
G1 X173.700 Y36.578 E0.4170
G1 X173.700 Y37.257 E0.4298
G1 X174.300 Y37.857 E0.4457
G1 X174.300 Y38.535 E0.4584
G1 X173.700 Y37.935 E0.4743
G1 X173.700 Y38.614 E0.4871
G1 X174.300 Y39.214 E0.5030
G1 X174.300 Y39.893 E0.5157
G1 X173.700 Y39.293 E0.5316
G1 X173.700 Y39.972 E0.5444
G1 X174.300 Y40.572 E0.5603
G1 X174.300 Y41.251 E0.5730
G1 X173.700 Y40.651 E0.5889
G1 X173.700 Y41.330 E0.6017
G1 X174.300 Y41.930 E0.6176
G1 X174.300 Y42.608 E0.6303
G1 X173.700 Y42.008 E0.6462
G1 X173.700 Y42.687 E0.6590
G1 X174.300 Y43.287 E0.6749
G1 X174.300 Y43.966 E0.6876
G1 X173.700 Y43.366 E0.7035
G1 X173.700 Y44.045 E0.7163
G1 X174.300 Y44.645 E0.7322
G1 X174.300 Y45.324 E0.7449
G1 X173.700 Y44.724 E0.7608
G1 X173.700 Y45.403 E0.7736
G1 X174.300 Y46.003 E0.7895
G1 X174.300 Y46.681 E0.8022
G1 X173.700 Y46.081 E0.8181
G1 X173.700 Y46.760 E0.8309
G1 X174.300 Y47.360 E0.8468
G1 X174.300 Y48.039 E0.8595
G1 X173.700 Y47.439 E0.8755
G1 X173.700 Y48.118 E0.8882
G1 X174.300 Y48.718 E0.9041
G1 X174.300 Y49.397 E0.9168
G1 X173.700 Y48.797 E0.9328
G1 X173.700 Y49.475 E0.9455
G1 X174.300 Y50.075 E0.9614
G1 X174.300 Y50.754 E0.9741
G1 X173.700 Y50.154 E0.9901
G1 X173.700 Y50.833 E1.0028
G1 X174.300 Y51.433 E1.0187
G1 X174.300 Y52.112 E1.0314
G1 X173.700 Y51.512 E1.0474
G1 X173.700 Y52.191 E1.0601
G1 X174.300 Y52.791 E1.0760
G1 X174.300 Y53.470 E1.0887
G1 X173.700 Y52.870 E1.1047
G1 X173.700 Y53.548 E1.1174
G1 X174.300 Y54.148 E1.1333
G1 X174.300 Y54.827 E1.1460
G1 X173.700 Y54.227 E1.1620
G1 X173.700 Y54.906 E1.1747
G1 X174.300 Y55.506 E1.1906
G1 X174.300 Y56.185 E1.2033
G1 X173.700 Y55.585 E1.2193
G1 X173.700 Y56.264 E1.2320
G1 X174.300 Y56.864 E1.2479
G1 X174.300 Y57.543 E1.2607
G1 X173.700 Y56.943 E1.2766
G1 X173.700 Y57.621 E1.2893
G1 X174.300 Y58.221 E1.3052
G1 X174.300 Y58.900 E1.3180
G1 X173.700 Y58.300 E1.3339
G1 X173.700 Y58.979 E1.3466
G1 X174.300 Y59.579 E1.3625
G1 X174.300 Y60.258 E1.3753
G1 X173.700 Y59.658 E1.3912
G1 X173.700 Y60.337 E1.4039
G1 X174.300 Y60.937 E1.4198
G1 X174.300 Y61.615 E1.4326
G1 X173.700 Y61.015 E1.4485
G1 X173.700 Y61.694 E1.4612
G1 X174.300 Y62.294 E1.4771
G1 X174.300 Y62.973 E1.4899
G1 X173.700 Y62.373 E1.5058
G1 X173.700 Y63.052 E1.5185
G1 X174.300 Y63.652 E1.5344
G1 X174.300 Y64.331 E1.5472
G1 X173.700 Y63.731 E1.5631
G1 X173.700 Y64.410 E1.5758
G1 X174.300 Y65.010 E1.5917
G1 X174.300 Y65.688 E1.6045
G1 X173.700 Y65.088 E1.6204
G1 X173.700 Y65.767 E1.6331
G1 X174.300 Y66.367 E1.6490
G1 X174.300 Y67.046 E1.6618
G1 X173.700 Y66.446 E1.6777
G1 X173.700 Y67.125 E1.6904
G1 X174.300 Y67.725 E1.7063
G1 X174.300 Y68.404 E1.7191
G1 X173.700 Y67.804 E1.7350
G1 X173.700 Y68.482 E1.7477
G1 X174.300 Y69.082 E1.7636
G1 X174.300 Y69.761 E1.7764
G1 X173.700 Y69.161 E1.7923
G1 X173.700 Y69.840 E1.8050
G1 X174.300 Y70.440 E1.8209
G1 X174.300 Y71.119 E1.8337
G1 X173.700 Y70.519 E1.8496
G1 X173.700 Y71.198 E1.8623
G1 X174.300 Y71.798 E1.8782
G1 X174.300 Y72.477 E1.8910
G1 X173.700 Y71.877 E1.9069
G1 X173.700 Y72.555 E1.9196
G1 X174.300 Y73.155 E1.9355
G1 X174.300 Y73.834 E1.9483
G1 X173.700 Y73.234 E1.9642
G1 X173.700 Y73.913 E1.9769
G1 X174.300 Y74.513 E1.9928
G1 X174.300 Y75.192 E2.0056
G1 X173.700 Y74.592 E2.0215
G1 X173.700 Y75.271 E2.0342
G1 X174.300 Y75.871 E2.0501
G1 X174.300 Y76.550 E2.0629
G1 X173.700 Y75.950 E2.0788
G1 X173.700 Y76.628 E2.0915
G1 X174.300 Y77.228 E2.1075
G1 X174.300 Y77.907 E2.1202
G1 X173.700 Y77.307 E2.1361
G1 X173.700 Y77.986 E2.1488
G1 X174.300 Y78.586 E2.1648
G1 X174.300 Y79.265 E2.1775
G1 X173.700 Y78.665 E2.1934
G1 X173.700 Y79.344 E2.2061
G1 X174.300 Y79.944 E2.2221
G1 X174.300 Y80.622 E2.2348
G1 X173.700 Y80.022 E2.2507
G1 X173.700 Y80.701 E2.2634
G1 X174.300 Y81.301 E2.2794
G1 X174.300 Y81.980 E2.2921
G1 X173.700 Y81.380 E2.3080
G1 X173.700 Y82.059 E2.3207
G1 X174.300 Y82.659 E2.3367
G1 X174.300 Y83.338 E2.3494
G1 X173.700 Y82.738 E2.3653
G1 X173.700 Y83.417 E2.3780
G1 X174.300 Y84.017 E2.3940
G1 X174.300 Y84.695 E2.4067
G1 X173.700 Y84.095 E2.4226
G1 X173.700 Y84.774 E2.4353
G1 X174.300 Y85.374 E2.4513
G1 X174.300 Y86.053 E2.4640
G1 X173.700 Y85.453 E2.4799
G1 X173.700 Y86.132 E2.4926
G1 X174.300 Y86.732 E2.5086
G1 X174.300 Y87.411 E2.5213
G1 X173.700 Y86.811 E2.5372
G1 X173.700 Y87.490 E2.5500
G1 X174.300 Y88.090 E2.5659
G1 X174.300 Y88.768 E2.5786
G1 X173.700 Y88.168 E2.5945
G1 X173.700 Y88.847 E2.6073
G1 X174.300 Y89.447 E2.6232
G1 X174.300 Y90.126 E2.6359
G1 X173.700 Y89.526 E2.6518
G1 X173.700 Y90.205 E2.6646
G1 X174.300 Y90.805 E2.6805
G1 X174.300 Y91.484 E2.6932
G1 X173.700 Y90.884 E2.7091
G1 X173.700 Y91.562 E2.7219
G1 X174.300 Y92.162 E2.7378
G1 X174.300 Y92.841 E2.7505
G1 X173.700 Y92.241 E2.7664
G1 X173.700 Y92.920 E2.7792
G1 X174.300 Y93.520 E2.7951
G1 X174.300 Y94.199 E2.8078
G1 X173.700 Y93.599 E2.8237
G1 X173.700 Y94.278 E2.8365
G1 X174.300 Y94.878 E2.8524
G1 X174.300 Y95.557 E2.8651
G1 X173.700 Y94.957 E2.8810
G1 X173.700 Y95.635 E2.8938
G1 X174.300 Y96.235 E2.9097
G1 X174.300 Y96.914 E2.9224
G1 X173.700 Y96.314 E2.9383
G1 X173.700 Y96.993 E2.9511
G1 X174.300 Y97.593 E2.9670
G1 X174.300 Y98.272 E2.9797
G1 X173.700 Y97.672 E2.9956
G1 X173.700 Y98.351 E3.0084
G1 X174.300 Y98.951 E3.0243
G1 X174.300 Y99.630 E3.0370
G1 X173.700 Y99.030 E3.0529
G1 X173.700 Y99.708 E3.0657
G1 X174.300 Y100.308 E3.0816
G1 X174.300 Y100.987 E3.0943
G1 X173.700 Y100.387 E3.1102
G1 X173.700 Y101.066 E3.1230
G1 X174.300 Y101.666 E3.1389
G1 X174.300 Y102.345 E3.1516
G1 X173.700 Y101.745 E3.1675
G1 X173.700 Y102.424 E3.1803
G1 X174.300 Y103.024 E3.1962
G1 X174.300 Y103.702 E3.2089
G1 X173.700 Y103.102 E3.2248
G1 X173.700 Y103.781 E3.2376
G1 X174.300 Y104.381 E3.2535
G1 X174.300 Y105.060 E3.2662
G1 X173.700 Y104.460 E3.2821
G1 X173.700 Y105.139 E3.2949
G1 X174.300 Y105.739 E3.3108
G1 X174.300 Y106.418 E3.3235
G1 X173.700 Y105.818 E3.3394
G1 X173.700 Y106.497 E3.3522
G1 X174.300 Y107.097 E3.3681
G1 X174.300 Y107.775 E3.3808
G1 X173.700 Y107.175 E3.3968
G1 X173.700 Y107.854 E3.4095
G1 X174.300 Y108.454 E3.4254
G1 X174.300 Y109.133 E3.4381
G1 X173.700 Y108.533 E3.4541
G1 X173.700 Y109.212 E3.4668
G1 X174.300 Y109.812 E3.4827
G1 X174.300 Y110.491 E3.4954
G1 X173.700 Y109.891 E3.5114
G1 X173.700 Y110.569 E3.5241
G1 X174.300 Y111.169 E3.5400
G1 X174.300 Y111.848 E3.5527
G1 X173.700 Y111.248 E3.5687
G1 X173.700 Y111.927 E3.5814
G1 X174.300 Y112.527 E3.5973
G1 X174.300 Y113.206 E3.6100
G1 X173.700 Y112.606 E3.6260
G1 X173.700 Y113.285 E3.6387
G1 X174.300 Y113.885 E3.6546
G1 X174.300 Y114.564 E3.6673
G1 X173.700 Y113.964 E3.6833
G1 X173.700 Y114.642 E3.6960
G1 X174.300 Y115.242 E3.7119
G1 X174.300 Y115.921 E3.7246
G1 X173.700 Y115.321 E3.7406
G1 X173.700 Y116.000 E3.7533
G1 X174.300 Y116.600 E3.7692
G1 X174.300 Y117.279 E3.7820
G1 X173.700 Y116.679 E3.7979
G1 X173.700 Y117.358 E3.8106
G1 X174.300 Y117.958 E3.8265
G1 X174.300 Y118.637 E3.8393
G1 X173.700 Y118.037 E3.8552
G1 X173.700 Y118.715 E3.8679
G1 X174.300 Y119.315 E3.8838
G1 X174.300 Y119.994 E3.8966
G1 X173.700 Y119.394 E3.9125
G1 X173.700 Y120.073 E3.9252
G1 X174.300 Y120.673 E3.9411
G1 X174.300 Y121.352 E3.9539
G1 X173.700 Y120.752 E3.9698
G1 X173.700 Y121.431 E3.9825
G1 X174.300 Y122.031 E3.9984
G1 X174.300 Y122.709 E4.0112
G1 X173.700 Y122.109 E4.0271
G1 X173.700 Y122.788 E4.0398
G1 X174.300 Y123.388 E4.0557
G1 X174.300 Y124.067 E4.0685
G1 X173.700 Y123.467 E4.0844
G1 X173.700 Y124.146 E4.0971
G1 X174.300 Y124.746 E4.1130
G1 X174.300 Y125.425 E4.1258
G1 X173.700 Y124.825 E4.1417
G1 X173.700 Y125.504 E4.1544
G1 X174.300 Y126.104 E4.1703
G1 X174.300 Y126.782 E4.1831
G1 X173.700 Y126.182 E4.1990
G1 X173.700 Y126.861 E4.2117
G1 X174.300 Y127.461 E4.2276
G1 X174.300 Y128.140 E4.2404
G1 X173.700 Y127.540 E4.2563
G1 X173.700 Y128.219 E4.2690
G1 X174.300 Y128.819 E4.2849
G1 X174.300 Y129.498 E4.2977
G1 X173.700 Y128.898 E4.3136
G1 X173.700 Y129.577 E4.3263
G1 X174.300 Y130.177 E4.3422
G1 X174.300 Y130.855 E4.3550
G1 X173.700 Y130.255 E4.3709
G1 X173.700 Y130.934 E4.3836
G1 X174.300 Y131.534 E4.3995
G1 X174.300 Y132.213 E4.4123
G1 X173.700 Y131.613 E4.4282
G1 X173.700 Y132.292 E4.4409
G1 X174.300 Y132.892 E4.4568
G1 X174.300 Y133.571 E4.4696
G1 X173.700 Y132.971 E4.4855
G1 X173.700 Y133.649 E4.4982
