; G-Code generated by Simplify3D(R) Version 4.1.2
; May 10, 2020 at 1:56:39 AM
; Settings Summary
;   processName,Process1
;   applyToModels,xyz-cube-test-20mm
;   profileName,HBot
;   profileVersion,2019-10-26 23:38:43
;   baseProfile,Default
;   printMaterial,PETG - SUNLU
;   printQuality,Medium
;   printExtruders,
;   extruderName,Extruder 1
;   extruderToolheadNumber,0
;   extruderDiameter,0.4
;   extruderAutoWidth,1
;   extruderWidth,0.48
;   extrusionMultiplier,1
;   extruderUseRetract,1
;   extruderRetractionDistance,4
;   extruderExtraRestartDistance,0
;   extruderRetractionZLift,0
;   extruderRetractionSpeed,3600
;   extruderUseCoasting,1
;   extruderCoastingDistance,0.2
;   extruderUseWipe,1
;   extruderWipeDistance,5
;   primaryExtruder,0
;   layerHeight,0.2
;   topSolidLayers,3
;   bottomSolidLayers,3
;   perimeterOutlines,10
;   printPerimetersInsideOut,1
;   startPointOption,3
;   startPointOriginX,200
;   startPointOriginY,100
;   sequentialIslands,0
;   spiralVaseMode,0
;   firstLayerHeightPercentage,100
;   firstLayerWidthPercentage,100
;   firstLayerUnderspeed,0.5
;   useRaft,0
;   raftExtruder,0
;   raftTopLayers,3
;   raftBaseLayers,2
;   raftOffset,3
;   raftSeparationDistance,0.18
;   raftTopInfill,100
;   aboveRaftSpeedMultiplier,0.3
;   useSkirt,1
;   skirtExtruder,0
;   skirtLayers,1
;   skirtOutlines,10
;   skirtOffset,0
;   usePrimePillar,0
;   primePillarExtruder,999
;   primePillarWidth,12
;   primePillarLocation,7
;   primePillarSpeedMultiplier,1
;   useOozeShield,0
;   oozeShieldExtruder,999
;   oozeShieldOffset,2
;   oozeShieldOutlines,1
;   oozeShieldSidewallShape,1
;   oozeShieldSidewallAngle,30
;   oozeShieldSpeedMultiplier,1
;   infillExtruder,0
;   internalInfillPattern,Rectilinear
;   externalInfillPattern,Rectilinear
;   infillPercentage,20
;   outlineOverlapPercentage,25
;   infillExtrusionWidthPercentage,100
;   minInfillLength,5
;   infillLayerInterval,1
;   internalInfillAngles,45,-45
;   overlapInternalInfillAngles,0
;   externalInfillAngles,45,-45
;   generateSupport,0
;   supportExtruder,0
;   supportInfillPercentage,30
;   supportExtraInflation,0
;   supportBaseLayers,1
;   denseSupportExtruder,0
;   denseSupportLayers,0
;   denseSupportInfillPercentage,70
;   supportLayerInterval,1
;   supportHorizontalPartOffset,0.3
;   supportUpperSeparationLayers,1
;   supportLowerSeparationLayers,1
;   supportType,0
;   supportGridSpacing,4
;   maxOverhangAngle,25
;   supportAngles,0
;   temperatureName,Extruder 1,Heated Bed
;   temperatureNumber,0,1
;   temperatureSetpointCount,2,1
;   temperatureSetpointLayers,1,2,1
;   temperatureSetpointTemperatures,235,225,75
;   temperatureStabilizeAtStartup,1,1
;   temperatureHeatedBed,0,1
;   fanLayers,1,10
;   fanSpeeds,0,5
;   blipFanToFullPower,1
;   adjustSpeedForCooling,1
;   minSpeedLayerTime,15
;   minCoolingSpeedSlowdown,20
;   increaseFanForCooling,1
;   minFanLayerTime,45
;   maxCoolingFanSpeed,35
;   increaseFanForBridging,1
;   bridgingFanSpeed,80
;   use5D,1
;   relativeEdistances,0
;   allowEaxisZeroing,1
;   independentExtruderAxes,0
;   includeM10123,0
;   stickySupport,1
;   applyToolheadOffsets,0
;   gcodeXoffset,0
;   gcodeYoffset,0
;   gcodeZoffset,0
;   overrideMachineDefinition,1
;   machineTypeOverride,0
;   strokeXoverride,200
;   strokeYoverride,200
;   strokeZoverride,150
;   originOffsetXoverride,0
;   originOffsetYoverride,0
;   originOffsetZoverride,0
;   homeXdirOverride,-1
;   homeYdirOverride,-1
;   homeZdirOverride,-1
;   flipXoverride,1
;   flipYoverride,-1
;   flipZoverride,1
;   toolheadOffsets,0,0|0,0|0,0|0,0|0,0|0,0
;   overrideFirmwareConfiguration,1
;   firmwareTypeOverride,RepRap (Marlin/Repetier/Sprinter)
;   GPXconfigOverride,r2
;   baudRateOverride,115200
;   overridePrinterModels,0
;   printerModelsOverride
;   startingGcode,G28 ; home all axes,G32 ; run bed.g -- probe bed and enable compensation
;   layerChangeGcode,
;   retractionGcode,
;   toolChangeGcode,
;   endingGcode,M0 ; call stop.g
;   exportFileFormat,gcode
;   celebration,0
;   celebrationSong,Random Song
;   postProcessing,
;   defaultSpeed,3600
;   outlineUnderspeed,0.5
;   solidInfillUnderspeed,0.8
;   supportUnderspeed,0.8
;   rapidXYspeed,18000
;   rapidZspeed,1200
;   minBridgingArea,50
;   bridgingExtraInflation,0
;   bridgingExtrusionMultiplier,0.96
;   bridgingSpeedMultiplier,1
;   useFixedBridgingAngle,0
;   fixedBridgingAngle,0
;   applyBridgingToPerimeters,0
;   filamentDiameters,1.75|1.75|1.75|1.75|1.75|1.75
;   filamentPricesPerKg,46|46|46|46|46|46
;   filamentDensities,1.25|1.25|1.25|1.25|1.25|1.25
;   useMinPrintHeight,0
;   minPrintHeight,0.2
;   useMaxPrintHeight,0
;   maxPrintHeight,0
;   useDiaphragm,0
;   diaphragmLayerInterval,20
;   robustSlicing,1
;   mergeAllIntoSolid,0
;   onlyRetractWhenCrossingOutline,1
;   retractBetweenLayers,0
;   useRetractionMinTravel,1
;   retractionMinTravel,3
;   retractWhileWiping,1
;   onlyWipeOutlines,1
;   avoidCrossingOutline,1
;   maxMovementDetourFactor,5
;   toolChangeRetractionDistance,12
;   toolChangeExtraRestartDistance,-0.5
;   toolChangeRetractionSpeed,600
;   externalThinWallType,0
;   internalThinWallType,2
;   thinWallAllowedOverlapPercentage,10
;   singleExtrusionMinLength,1
;   singleExtrusionMinPrintingWidthPercentage,50
;   singleExtrusionMaxPrintingWidthPercentage,150
;   singleExtrusionEndpointExtension,0.2
;   horizontalSizeCompensation,-0.1
G90
M82
M106 S255
G4 P500
M106 S41
M140 S75
M190 S75
M104 S235 T0
M109 S235 T0
G28 ; home all axes
G32 ; run bed.g -- probe bed and enable compensation
; process Process1
; layer 1, Z = 0.200
T0
G92 E0.0000
G1 E-4.0000 F3600
; feature skirt
; tool H0.200 W0.480
G1 Z0.200 F1200
G1 X114.460 Y88.211 F18000
G1 E0.0000 F3600
G92 E0.0000
G1 X114.460 Y111.789 E0.9410 F1800
G1 X111.789 Y114.460 E1.0918
G1 X88.211 Y114.460 E2.0328
G1 X85.540 Y111.789 E2.1836
G1 X85.540 Y88.211 E3.1246
G1 X88.211 Y85.540 E3.2754
G1 X111.789 Y85.540 E4.2165
G1 X114.460 Y88.211 E4.3672
G1 X113.980 Y88.410 F18000
G92 E0.0000
G1 X113.980 Y111.590 E0.9252 F1800
G1 X111.590 Y113.980 E1.0601
G1 X88.410 Y113.980 E1.9852
G1 X86.020 Y111.590 E2.1201
G1 X86.020 Y88.410 E3.0453
G1 X88.410 Y86.020 E3.1802
G1 X111.590 Y86.020 E4.1054
G1 X113.980 Y88.410 E4.2403
G1 X113.500 Y88.609 F18000
G92 E0.0000
G1 X113.500 Y111.391 E0.9093 F1800
G1 X111.391 Y113.500 E1.0283
G1 X88.609 Y113.500 E1.9376
G1 X86.500 Y111.391 E2.0566
G1 X86.500 Y88.609 E2.9659
G1 X88.609 Y86.500 E3.0850
G1 X111.391 Y86.500 E3.9943
G1 X113.500 Y88.609 E4.1133
G1 X113.020 Y88.808 F18000
G92 E0.0000
G1 X113.020 Y111.192 E0.8934 F1800
G1 X111.192 Y113.020 E0.9966
G1 X88.808 Y113.020 E1.8900
G1 X86.980 Y111.192 E1.9932
G1 X86.980 Y88.808 E2.8866
G1 X88.808 Y86.980 E2.9897
G1 X111.192 Y86.980 E3.8832
G1 X113.020 Y88.808 E3.9863
G1 X112.540 Y89.006 F18000
G92 E0.0000
G1 X112.540 Y110.994 E0.8775 F1800
G1 X110.994 Y112.540 E0.9648
G1 X89.006 Y112.540 E1.8424
G1 X87.460 Y110.994 E1.9297
G1 X87.460 Y89.006 E2.8072
G1 X89.006 Y87.460 E2.8945
G1 X110.994 Y87.460 E3.7721
G1 X112.540 Y89.006 E3.8594
G1 X112.060 Y89.205 F18000
G92 E0.0000
G1 X112.060 Y110.795 E0.8617 F1800
G1 X110.795 Y112.060 E0.9331
G1 X89.205 Y112.060 E1.7948
G1 X87.940 Y110.795 E1.8662
G1 X87.940 Y89.205 E2.7279
G1 X89.205 Y87.940 E2.7993
G1 X110.795 Y87.940 E3.6610
G1 X112.060 Y89.205 E3.7324
G1 X111.580 Y89.404 F18000
G92 E0.0000
G1 X111.580 Y110.596 E0.8458 F1800
G1 X110.596 Y111.580 E0.9014
G1 X89.404 Y111.580 E1.7472
G1 X88.420 Y110.596 E1.8027
G1 X88.420 Y89.404 E2.6485
G1 X89.404 Y88.420 E2.7041
G1 X110.596 Y88.420 E3.5499
G1 X111.580 Y89.404 E3.6054
G1 X111.100 Y89.603 F18000
G92 E0.0000
G1 X111.100 Y110.397 E0.8299 F1800
G1 X110.397 Y111.100 E0.8696
G1 X89.603 Y111.100 E1.6996
G1 X88.900 Y110.397 E1.7392
G1 X88.900 Y89.603 E2.5692
G1 X89.603 Y88.900 E2.6088
G1 X110.397 Y88.900 E3.4388
G1 X111.100 Y89.603 E3.4785
G1 X110.620 Y89.802 F18000
G92 E0.0000
G1 X110.620 Y110.198 E0.8141 F1800
G1 X110.198 Y110.620 E0.8379
G1 X89.802 Y110.620 E1.6519
G1 X89.380 Y110.198 E1.6757
G1 X89.380 Y89.802 E2.4898
G1 X89.802 Y89.380 E2.5136
G1 X110.198 Y89.380 E3.3277
G1 X110.620 Y89.802 E3.3515
G1 X110.140 Y90.001 F18000
G92 E0.0000
G1 X110.140 Y109.999 E0.7982 F1800
G1 X109.999 Y110.140 E0.8061
G1 X90.001 Y110.140 E1.6043
G1 X89.860 Y109.999 E1.6123
G1 X89.860 Y90.001 E2.4105
G1 X90.001 Y89.860 E2.4184
G1 X109.999 Y89.860 E3.2166
G1 X110.140 Y90.001 E3.2245
G92 E0.0000
G1 E-4.0000 F3600
; feature inner perimeter
G1 X109.660 Y90.340 F18000
G1 X109.660 Y91.535
G1 X105.340 Y105.340
G1 E0.0000 F3600
G92 E0.0000
G1 X94.660 Y105.340 E0.4263 F1350
G1 X94.660 Y94.660 E0.8525
G1 X105.340 Y94.660 E1.2788
G1 X105.340 Y105.140 E1.6971
G1 X105.340 Y105.340 F1350
G1 X105.820 Y105.820 F18000
G92 E0.0000
G1 X94.180 Y105.820 E0.4646 F1350
G1 X94.180 Y94.180 E0.9292
G1 X105.820 Y94.180 E1.3937
G1 X105.820 Y105.620 E1.8503
G1 X105.820 Y105.820 F1350
G1 X106.300 Y106.300 F18000
G92 E0.0000
G1 X93.700 Y106.300 E0.5029 F1350
G1 X93.700 Y93.700 E1.0058
G1 X106.300 Y93.700 E1.5087
G1 X106.300 Y106.100 E2.0036
G1 X106.300 Y106.300 F1350
G1 X106.780 Y106.780 F18000
G92 E0.0000
G1 X93.220 Y106.780 E0.5412 F1350
G1 X93.220 Y93.220 E1.0824
G1 X106.780 Y93.220 E1.6236
G1 X106.780 Y106.580 E2.1569
G1 X106.780 Y106.780 F1350
G1 X107.260 Y107.260 F18000
G92 E0.0000
G1 X92.740 Y107.260 E0.5795 F1350
G1 X92.740 Y92.740 E1.1590
G1 X107.260 Y92.740 E1.7386
G1 X107.260 Y107.060 E2.3101
G1 X107.260 Y107.260 F1350
G1 X107.740 Y107.740 F18000
G92 E0.0000
G1 X92.260 Y107.740 E0.6178 F1350
G1 X92.260 Y92.260 E1.2357
G1 X107.740 Y92.260 E1.8535
G1 X107.740 Y107.540 E2.4634
G1 X107.740 Y107.740 F1350
G1 X108.220 Y108.220 F18000
G92 E0.0000
G1 X91.780 Y108.220 E0.6562 F1350
G1 X91.780 Y91.780 E1.3123
G1 X108.220 Y91.780 E1.9685
G1 X108.220 Y108.020 E2.6166
G1 X108.220 Y108.220 F1350
G1 X108.700 Y108.700 F18000
G92 E0.0000
G1 X91.300 Y108.700 E0.6945 F1350
G1 X91.300 Y91.300 E1.3889
G1 X108.700 Y91.300 E2.0834
G1 X108.700 Y108.500 E2.7699
G1 X108.700 Y108.700 F1350
G1 X109.180 Y109.180 F18000
G92 E0.0000
G1 X90.820 Y109.180 E0.7328 F1350
G1 X90.820 Y90.820 E1.4656
G1 X109.180 Y90.820 E2.1984
G1 X109.180 Y108.980 E2.9232
G1 X109.180 Y109.180 F1350
; feature outer perimeter
G1 X109.660 Y109.660 F18000
G92 E0.0000
G1 X90.340 Y109.660 E0.7711 F900
G1 X90.340 Y90.340 E1.5422
G1 X109.660 Y90.340 E2.3133
G1 X109.660 Y109.460 E3.0764
G1 X109.660 Y109.660 F900
G1 X104.660 Y109.660 F900
; feature solid layer
G1 X95.476 Y104.980 F18000
G92 E0.0000
G1 X95.020 Y104.524 E0.0258 F1440
G1 X95.020 Y103.845 E0.0529
G1 X96.155 Y104.980 E0.1169
G1 X96.834 Y104.980 E0.1440
G1 X95.020 Y103.166 E0.2464
G1 X95.020 Y102.487 E0.2735
G1 X97.513 Y104.980 E0.4142
G1 X98.192 Y104.980 E0.4413
G1 X95.020 Y101.808 E0.6204
G1 X95.020 Y101.129 E0.6475
G1 X98.871 Y104.980 E0.8648
G1 X99.549 Y104.980 E0.8919
G1 X95.020 Y100.451 E1.1476
G1 X95.020 Y99.772 E1.1746
G1 X100.228 Y104.980 E1.4686
G1 X100.907 Y104.980 E1.4957
G1 X95.020 Y99.093 E1.8280
G1 X95.020 Y98.414 E1.8551
G1 X101.586 Y104.980 E2.2257
G1 X102.265 Y104.980 E2.2528
G1 X95.020 Y97.735 E2.6617
G1 X95.020 Y97.056 E2.6888
G1 X102.944 Y104.980 E3.1361
G1 X103.622 Y104.980 E3.1632
G1 X95.020 Y96.378 E3.6487
G1 X95.020 Y95.699 E3.6758
G1 X104.301 Y104.980 E4.1997
G1 X104.980 Y104.980 E4.2268
G1 X95.020 Y95.020 E4.7890
G1 X95.699 Y95.020 E4.8160
G1 X104.980 Y104.301 E5.3399
G1 X104.980 Y103.622 E5.3670
G1 X96.378 Y95.020 E5.8526
G1 X97.056 Y95.020 E5.8797
G1 X104.980 Y102.944 E6.3269
G1 X104.980 Y102.265 E6.3540
G1 X97.735 Y95.020 E6.7629
G1 X98.414 Y95.020 E6.7900
G1 X104.980 Y101.586 E7.1606
G1 X104.980 Y100.907 E7.1877
G1 X99.093 Y95.020 E7.5200
G1 X99.772 Y95.020 E7.5471
G1 X104.980 Y100.228 E7.8411
G1 X104.980 Y99.549 E7.8682
G1 X100.451 Y95.020 E8.1238
G1 X101.129 Y95.020 E8.1509
G1 X104.980 Y98.871 E8.3682
G1 X104.980 Y98.192 E8.3953
G1 X101.808 Y95.020 E8.5744
G1 X102.487 Y95.020 E8.6015
G1 X104.980 Y97.513 E8.7422
G1 X104.980 Y96.834 E8.7693
G1 X103.166 Y95.020 E8.8717
G1 X103.845 Y95.020 E8.8988
G1 X104.980 Y96.155 E8.9628
G1 X104.980 Y95.476 E8.9899
G1 X104.665 Y95.161 E9.0077
G1 X104.524 Y95.020 F1440
; layer 2, Z = 0.400
M106 S255
G4 P500
M106 S89
M104 S225 T0
; feature inner perimeter
G1 Z0.400 F1200
G1 X105.340 Y105.340 F18000
G92 E0.0000
G1 X94.660 Y105.340 E0.4263 F2700
G1 X94.660 Y94.660 E0.8525
G1 X105.340 Y94.660 E1.2788
G1 X105.340 Y105.140 E1.6971
G1 X105.340 Y105.340 F2700
G1 X105.820 Y105.820 F18000
G92 E0.0000
G1 X94.180 Y105.820 E0.4646 F2700
G1 X94.180 Y94.180 E0.9292
G1 X105.820 Y94.180 E1.3937
G1 X105.820 Y105.620 E1.8503
G1 X105.820 Y105.820 F2700
G1 X106.300 Y106.300 F18000
G92 E0.0000
G1 X93.700 Y106.300 E0.5029 F2700
G1 X93.700 Y93.700 E1.0058
G1 X106.300 Y93.700 E1.5087
G1 X106.300 Y106.100 E2.0036
G1 X106.300 Y106.300 F2700
G1 X106.780 Y106.780 F18000
G92 E0.0000
G1 X93.220 Y106.780 E0.5412 F2700
G1 X93.220 Y93.220 E1.0824
G1 X106.780 Y93.220 E1.6236
G1 X106.780 Y106.580 E2.1569
G1 X106.780 Y106.780 F2700
G1 X107.260 Y107.260 F18000
G92 E0.0000
G1 X92.740 Y107.260 E0.5795 F2700
G1 X92.740 Y92.740 E1.1590
G1 X107.260 Y92.740 E1.7386
G1 X107.260 Y107.060 E2.3101
G1 X107.260 Y107.260 F2700
G1 X107.740 Y107.740 F18000
G92 E0.0000
G1 X92.260 Y107.740 E0.6178 F2700
G1 X92.260 Y92.260 E1.2357
G1 X107.740 Y92.260 E1.8535
G1 X107.740 Y107.540 E2.4634
G1 X107.740 Y107.740 F2700
G1 X108.220 Y108.220 F18000
G92 E0.0000
G1 X91.780 Y108.220 E0.6562 F2700
G1 X91.780 Y91.780 E1.3123
G1 X108.220 Y91.780 E1.9685
G1 X108.220 Y108.020 E2.6166
G1 X108.220 Y108.220 F2700
G1 X108.700 Y108.700 F18000
G92 E0.0000
G1 X91.300 Y108.700 E0.6945 F2700
G1 X91.300 Y91.300 E1.3889
G1 X108.700 Y91.300 E2.0834
G1 X108.700 Y108.500 E2.7699
G1 X108.700 Y108.700 F2700
G1 X109.180 Y109.180 F18000
G92 E0.0000
G1 X90.820 Y109.180 E0.7328 F2700
G1 X90.820 Y90.820 E1.4656
G1 X109.180 Y90.820 E2.1984
G1 X109.180 Y108.980 E2.9232
G1 X109.180 Y109.180 F2700
; feature outer perimeter
G1 X109.660 Y109.660 F18000
G92 E0.0000
G1 X90.340 Y109.660 E0.7711 F1800
G1 X90.340 Y90.340 E1.5422
G1 X109.660 Y90.340 E2.3133
G1 X109.660 Y109.460 E3.0764
G1 X109.660 Y109.660 F1800
G1 X104.660 Y109.660 F1800
; feature solid layer
G1 X104.980 Y104.524 F18000
G92 E0.0000
G1 X104.524 Y104.980 E0.0258 F2880
G1 X103.845 Y104.980 E0.0529
G1 X104.980 Y103.845 E0.1169
G1 X104.980 Y103.166 E0.1440
G1 X103.166 Y104.980 E0.2464
G1 X102.487 Y104.980 E0.2735
G1 X104.980 Y102.487 E0.4142
G1 X104.980 Y101.808 E0.4413
G1 X101.808 Y104.980 E0.6204
G1 X101.129 Y104.980 E0.6474
G1 X104.980 Y101.129 E0.8648
G1 X104.980 Y100.451 E0.8919
G1 X100.451 Y104.980 E1.1475
G1 X99.772 Y104.980 E1.1746
G1 X104.980 Y99.772 E1.4686
G1 X104.980 Y99.093 E1.4957
G1 X99.093 Y104.980 E1.8280
G1 X98.414 Y104.980 E1.8551
G1 X104.980 Y98.414 E2.2257
G1 X104.980 Y97.735 E2.2528
G1 X97.735 Y104.980 E2.6617
G1 X97.057 Y104.980 E2.6888
G1 X104.980 Y97.057 E3.1360
G1 X104.980 Y96.378 E3.1631
G1 X96.378 Y104.980 E3.6487
G1 X95.699 Y104.980 E3.6758
G1 X104.980 Y95.699 E4.1996
G1 X104.980 Y95.020 E4.2267
G1 X95.020 Y104.980 E4.7889
G1 X95.020 Y104.301 E4.8160
G1 X104.301 Y95.020 E5.3399
G1 X103.622 Y95.020 E5.3670
G1 X95.020 Y103.622 E5.8525
G1 X95.020 Y102.944 E5.8796
G1 X102.944 Y95.020 E6.3269
G1 X102.265 Y95.020 E6.3540
G1 X95.020 Y102.265 E6.7629
G1 X95.020 Y101.586 E6.7900
G1 X101.586 Y95.020 E7.1606
G1 X100.907 Y95.020 E7.1877
G1 X95.020 Y100.907 E7.5200
G1 X95.020 Y100.228 E7.5471
G1 X100.228 Y95.020 E7.8410
G1 X99.549 Y95.020 E7.8681
G1 X95.020 Y99.549 E8.1238
G1 X95.020 Y98.871 E8.1509
G1 X98.871 Y95.020 E8.3682
G1 X98.192 Y95.020 E8.3953
G1 X95.020 Y98.192 E8.5744
G1 X95.020 Y97.513 E8.6015
G1 X97.513 Y95.020 E8.7422
G1 X96.834 Y95.020 E8.7693
G1 X95.020 Y96.834 E8.8717
G1 X95.020 Y96.155 E8.8988
G1 X96.155 Y95.020 E8.9628
G1 X95.477 Y95.020 E8.9899
G1 X95.161 Y95.335 E9.0077
G1 X95.020 Y95.477 F2880
; layer 3, Z = 0.600
; feature inner perimeter
G1 Z0.600 F1200
G1 X105.340 Y105.340 F18000
G92 E0.0000
G1 X94.660 Y105.340 E0.4263 F2700
G1 X94.660 Y94.660 E0.8525
G1 X105.340 Y94.660 E1.2788
