; G-Code generated by Simplify3D(R) Version 4.1.2
; May 10, 2020 at 1:36:02 AM
; Settings Summary
;   processName,Process1
;   applyToModels,xyz-cube-test-20mm
;   profileName,HBot
;   profileVersion,2019-10-26 23:38:43
;   baseProfile,Default
;   printMaterial,PETG - SUNLU
;   printQuality,Medium
;   printExtruders,
;   extruderName,Extruder 1
;   extruderToolheadNumber,0
;   extruderDiameter,0.4
;   extruderAutoWidth,1
;   extruderWidth,0.48
;   extrusionMultiplier,0.94
;   extruderUseRetract,1
;   extruderRetractionDistance,4
;   extruderExtraRestartDistance,0
;   extruderRetractionZLift,0
;   extruderRetractionSpeed,3600
;   extruderUseCoasting,1
;   extruderCoastingDistance,0.2
;   extruderUseWipe,1
;   extruderWipeDistance,5
;   primaryExtruder,0
;   layerHeight,0.2
;   topSolidLayers,3
;   bottomSolidLayers,3
;   perimeterOutlines,10
;   printPerimetersInsideOut,1
;   startPointOption,3
;   startPointOriginX,200
;   startPointOriginY,100
;   sequentialIslands,0
;   spiralVaseMode,0
;   firstLayerHeightPercentage,100
;   firstLayerWidthPercentage,100
;   firstLayerUnderspeed,0.5
;   useRaft,0
;   raftExtruder,0
;   raftTopLayers,3
;   raftBaseLayers,2
;   raftOffset,3
;   raftSeparationDistance,0.18
;   raftTopInfill,100
;   aboveRaftSpeedMultiplier,0.3
;   useSkirt,1
;   skirtExtruder,0
;   skirtLayers,1
;   skirtOutlines,10
;   skirtOffset,0
;   usePrimePillar,0
;   primePillarExtruder,999
;   primePillarWidth,12
;   primePillarLocation,7
;   primePillarSpeedMultiplier,1
;   useOozeShield,0
;   oozeShieldExtruder,999
;   oozeShieldOffset,2
;   oozeShieldOutlines,1
;   oozeShieldSidewallShape,1
;   oozeShieldSidewallAngle,30
;   oozeShieldSpeedMultiplier,1
;   infillExtruder,0
;   internalInfillPattern,Rectilinear
;   externalInfillPattern,Rectilinear
;   infillPercentage,20
;   outlineOverlapPercentage,25
;   infillExtrusionWidthPercentage,100
;   minInfillLength,5
;   infillLayerInterval,1
;   internalInfillAngles,45,-45
;   overlapInternalInfillAngles,0
;   externalInfillAngles,45,-45
;   generateSupport,0
;   supportExtruder,0
;   supportInfillPercentage,30
;   supportExtraInflation,0
;   supportBaseLayers,1
;   denseSupportExtruder,0
;   denseSupportLayers,0
;   denseSupportInfillPercentage,70
;   supportLayerInterval,1
;   supportHorizontalPartOffset,0.3
;   supportUpperSeparationLayers,1
;   supportLowerSeparationLayers,1
;   supportType,0
;   supportGridSpacing,4
;   maxOverhangAngle,25
;   supportAngles,0
;   temperatureName,Extruder 1,Heated Bed
;   temperatureNumber,0,1
;   temperatureSetpointCount,1,1
;   temperatureSetpointLayers,1,1
;   temperatureSetpointTemperatures,225,75
;   temperatureStabilizeAtStartup,1,1
;   temperatureHeatedBed,0,1
;   fanLayers,1,10
;   fanSpeeds,0,5
;   blipFanToFullPower,1
;   adjustSpeedForCooling,1
;   minSpeedLayerTime,15
;   minCoolingSpeedSlowdown,20
;   increaseFanForCooling,1
;   minFanLayerTime,45
;   maxCoolingFanSpeed,35
;   increaseFanForBridging,1
;   bridgingFanSpeed,80
;   use5D,1
;   relativeEdistances,0
;   allowEaxisZeroing,1
;   independentExtruderAxes,0
;   includeM10123,0
;   stickySupport,1
;   applyToolheadOffsets,0
;   gcodeXoffset,0
;   gcodeYoffset,0
;   gcodeZoffset,0
;   overrideMachineDefinition,1
;   machineTypeOverride,0
;   strokeXoverride,200
;   strokeYoverride,200
;   strokeZoverride,150
;   originOffsetXoverride,0
;   originOffsetYoverride,0
;   originOffsetZoverride,0
;   homeXdirOverride,-1
;   homeYdirOverride,-1
;   homeZdirOverride,-1
;   flipXoverride,1
;   flipYoverride,-1
;   flipZoverride,1
;   toolheadOffsets,0,0|0,0|0,0|0,0|0,0|0,0
;   overrideFirmwareConfiguration,1
;   firmwareTypeOverride,RepRap (Marlin/Repetier/Sprinter)
;   GPXconfigOverride,r2
;   baudRateOverride,115200
;   overridePrinterModels,0
;   printerModelsOverride
;   startingGcode,G28 ; home all axes,G32 ; run bed.g -- probe bed and enable compensation
;   layerChangeGcode,
;   retractionGcode,
;   toolChangeGcode,
;   endingGcode,M0 ; call stop.g
;   exportFileFormat,gcode
;   celebration,0
;   celebrationSong,Random Song
;   postProcessing,
;   defaultSpeed,3600
;   outlineUnderspeed,0.5
;   solidInfillUnderspeed,0.8
;   supportUnderspeed,0.8
;   rapidXYspeed,18000
;   rapidZspeed,1200
;   minBridgingArea,50
;   bridgingExtraInflation,0
;   bridgingExtrusionMultiplier,0.96
;   bridgingSpeedMultiplier,1
;   useFixedBridgingAngle,0
;   fixedBridgingAngle,0
;   applyBridgingToPerimeters,0
;   filamentDiameters,1.75|1.75|1.75|1.75|1.75|1.75
;   filamentPricesPerKg,46|46|46|46|46|46
;   filamentDensities,1.25|1.25|1.25|1.25|1.25|1.25
;   useMinPrintHeight,0
;   minPrintHeight,0.2
;   useMaxPrintHeight,0
;   maxPrintHeight,0
;   useDiaphragm,0
;   diaphragmLayerInterval,20
;   robustSlicing,1
;   mergeAllIntoSolid,0
;   onlyRetractWhenCrossingOutline,1
;   retractBetweenLayers,0
;   useRetractionMinTravel,1
;   retractionMinTravel,3
;   retractWhileWiping,1
;   onlyWipeOutlines,1
;   avoidCrossingOutline,1
;   maxMovementDetourFactor,5
;   toolChangeRetractionDistance,12
;   toolChangeExtraRestartDistance,-0.5
;   toolChangeRetractionSpeed,600
;   externalThinWallType,0
;   internalThinWallType,2
;   thinWallAllowedOverlapPercentage,10
;   singleExtrusionMinLength,1
;   singleExtrusionMinPrintingWidthPercentage,50
;   singleExtrusionMaxPrintingWidthPercentage,150
;   singleExtrusionEndpointExtension,0.2
;   horizontalSizeCompensation,-0.1
G90
M82
M106 S255
G4 P500
M106 S41
M140 S75
M190 S75
M104 S225 T0
M109 S225 T0
G28 ; home all axes
G32 ; run bed.g -- probe bed and enable compensation
; process Process1
; layer 1, Z = 0.200
T0
G92 E0.0000
G1 E-4.0000 F3600
; feature skirt
; tool H0.200 W0.480
G1 Z0.200 F1200
G1 X114.460 Y88.211 F18000
G1 E0.0000 F3600
G92 E0.0000
G1 X114.460 Y111.789 E0.8846 F1800
G1 X111.789 Y114.460 E1.0263
G1 X88.211 Y114.460 E1.9109
G1 X85.540 Y111.789 E2.0526
G1 X85.540 Y88.211 E2.9372
G1 X88.211 Y85.540 E3.0789
G1 X111.789 Y85.540 E3.9635
G1 X114.460 Y88.211 E4.1052
G1 X113.980 Y88.410 F18000
G92 E0.0000
G1 X113.980 Y111.590 E0.8697 F1800
G1 X111.590 Y113.980 E0.9965
G1 X88.410 Y113.980 E1.8661
G1 X86.020 Y111.590 E1.9929
G1 X86.020 Y88.410 E2.8626
G1 X88.410 Y86.020 E2.9894
G1 X111.590 Y86.020 E3.8590
G1 X113.980 Y88.410 E3.9858
G1 X113.500 Y88.609 F18000
G92 E0.0000
G1 X113.500 Y111.391 E0.8547 F1800
G1 X111.391 Y113.500 E0.9666
G1 X88.609 Y113.500 E1.8214
G1 X86.500 Y111.391 E1.9332
G1 X86.500 Y88.609 E2.7880
G1 X88.609 Y86.500 E2.8999
G1 X111.391 Y86.500 E3.7546
G1 X113.500 Y88.609 E3.8665
G1 X113.020 Y88.808 F18000
G92 E0.0000
G1 X113.020 Y111.192 E0.8398 F1800
G1 X111.192 Y113.020 E0.9368
G1 X88.808 Y113.020 E1.7766
G1 X86.980 Y111.192 E1.8736
G1 X86.980 Y88.808 E2.7134
G1 X88.808 Y86.980 E2.8104
G1 X111.192 Y86.980 E3.6502
G1 X113.020 Y88.808 E3.7471
G1 X112.540 Y89.006 F18000
G92 E0.0000
G1 X112.540 Y110.994 E0.8249 F1800
G1 X110.994 Y112.540 E0.9069
G1 X89.006 Y112.540 E1.7318
G1 X87.460 Y110.994 E1.8139
G1 X87.460 Y89.006 E2.6388
G1 X89.006 Y87.460 E2.7208
G1 X110.994 Y87.460 E3.5457
G1 X112.540 Y89.006 E3.6278
G1 X112.060 Y89.205 F18000
G92 E0.0000
G1 X112.060 Y110.795 E0.8100 F1800
G1 X110.795 Y112.060 E0.8771
G1 X89.205 Y112.060 E1.6871
G1 X87.940 Y110.795 E1.7542
G1 X87.940 Y89.205 E2.5642
G1 X89.205 Y87.940 E2.6313
G1 X110.795 Y87.940 E3.4413
G1 X112.060 Y89.205 E3.5085
G1 X111.580 Y89.404 F18000
G92 E0.0000
G1 X111.580 Y110.596 E0.7951 F1800
G1 X110.596 Y111.580 E0.8473
G1 X89.404 Y111.580 E1.6423
G1 X88.420 Y110.596 E1.6946
G1 X88.420 Y89.404 E2.4896
G1 X89.404 Y88.420 E2.5418
G1 X110.596 Y88.420 E3.3369
G1 X111.580 Y89.404 E3.3891
G1 X111.100 Y89.603 F18000
G92 E0.0000
G1 X111.100 Y110.397 E0.7801 F1800
G1 X110.397 Y111.100 E0.8174
G1 X89.603 Y111.100 E1.5976
G1 X88.900 Y110.397 E1.6349
G1 X88.900 Y89.603 E2.4150
G1 X89.603 Y88.900 E2.4523
G1 X110.397 Y88.900 E3.2325
G1 X111.100 Y89.603 E3.2698
G1 X110.620 Y89.802 F18000
G92 E0.0000
G1 X110.620 Y110.198 E0.7652 F1800
G1 X110.198 Y110.620 E0.7876
G1 X89.802 Y110.620 E1.5528
G1 X89.380 Y110.198 E1.5752
G1 X89.380 Y89.802 E2.3404
G1 X89.802 Y89.380 E2.3628
G1 X110.198 Y89.380 E3.1280
G1 X110.620 Y89.802 E3.1504
G1 X110.140 Y90.001 F18000
G92 E0.0000
G1 X110.140 Y109.999 E0.7503 F1800
G1 X109.999 Y110.140 E0.7578
G1 X90.001 Y110.140 E1.5081
G1 X89.860 Y109.999 E1.5155
G1 X89.860 Y90.001 E2.2658
G1 X90.001 Y89.860 E2.2733
G1 X109.999 Y89.860 E3.0236
G1 X110.140 Y90.001 E3.0311
G92 E0.0000
G1 E-4.0000 F3600
; feature inner perimeter
G1 X109.660 Y90.340 F18000
G1 X109.660 Y91.535
G1 X105.340 Y105.340
G1 E0.0000 F3600
G92 E0.0000
G1 X94.660 Y105.340 E0.4007 F1350
G1 X94.660 Y94.660 E0.8014
G1 X105.340 Y94.660 E1.2021
G1 X105.340 Y105.140 E1.5952
G1 X105.340 Y105.340 F1350
G1 X105.820 Y105.820 F18000
G92 E0.0000
G1 X94.180 Y105.820 E0.4367 F1350
G1 X94.180 Y94.180 E0.8734
G1 X105.820 Y94.180 E1.3101
G1 X105.820 Y105.620 E1.7393
G1 X105.820 Y105.820 F1350
G1 X106.300 Y106.300 F18000
G92 E0.0000
G1 X93.700 Y106.300 E0.4727 F1350
G1 X93.700 Y93.700 E0.9454
G1 X106.300 Y93.700 E1.4182
G1 X106.300 Y106.100 E1.8834
G1 X106.300 Y106.300 F1350
G1 X106.780 Y106.780 F18000
G92 E0.0000
G1 X93.220 Y106.780 E0.5087 F1350
G1 X93.220 Y93.220 E1.0175
G1 X106.780 Y93.220 E1.5262
G1 X106.780 Y106.580 E2.0274
G1 X106.780 Y106.780 F1350
G1 X107.260 Y107.260 F18000
G92 E0.0000
G1 X92.740 Y107.260 E0.5448 F1350
G1 X92.740 Y92.740 E1.0895
G1 X107.260 Y92.740 E1.6343
G1 X107.260 Y107.060 E2.1715
G1 X107.260 Y107.260 F1350
G1 X107.740 Y107.740 F18000
G92 E0.0000
G1 X92.260 Y107.740 E0.5808 F1350
G1 X92.260 Y92.260 E1.1615
G1 X107.740 Y92.260 E1.7423
G1 X107.740 Y107.540 E2.3156
G1 X107.740 Y107.740 F1350
G1 X108.220 Y108.220 F18000
G92 E0.0000
G1 X91.780 Y108.220 E0.6168 F1350
G1 X91.780 Y91.780 E1.2336
G1 X108.220 Y91.780 E1.8504
G1 X108.220 Y108.020 E2.4596
G1 X108.220 Y108.220 F1350
G1 X108.700 Y108.700 F18000
G92 E0.0000
G1 X91.300 Y108.700 E0.6528 F1350
G1 X91.300 Y91.300 E1.3056
G1 X108.700 Y91.300 E1.9584
G1 X108.700 Y108.500 E2.6037
G1 X108.700 Y108.700 F1350
G1 X109.180 Y109.180 F18000
G92 E0.0000
G1 X90.820 Y109.180 E0.6888 F1350
G1 X90.820 Y90.820 E1.3776
G1 X109.180 Y90.820 E2.0665
G1 X109.180 Y108.980 E2.7478
G1 X109.180 Y109.180 F1350
; feature outer perimeter
G1 X109.660 Y109.660 F18000
G92 E0.0000
G1 X90.340 Y109.660 E0.7248 F900
G1 X90.340 Y90.340 E1.4497
G1 X109.660 Y90.340 E2.1745
G1 X109.660 Y109.460 E2.8918
G1 X109.660 Y109.660 F900
G1 X104.660 Y109.660 F900
; feature solid layer
G1 X95.476 Y104.980 F18000
G92 E0.0000
G1 X95.020 Y104.524 E0.0242 F1440
G1 X95.020 Y103.845 E0.0497
G1 X96.155 Y104.980 E0.1099
G1 X96.834 Y104.980 E0.1354
G1 X95.020 Y103.166 E0.2316
G1 X95.020 Y102.487 E0.2571
G1 X97.513 Y104.980 E0.3894
G1 X98.192 Y104.980 E0.4149
G1 X95.020 Y101.808 E0.5831
G1 X95.020 Y101.129 E0.6086
G1 X98.871 Y104.980 E0.8129
G1 X99.549 Y104.980 E0.8384
G1 X95.020 Y100.451 E1.0787
G1 X95.020 Y99.772 E1.1042
G1 X100.228 Y104.980 E1.3805
G1 X100.907 Y104.980 E1.4060
G1 X95.020 Y99.093 E1.7183
G1 X95.020 Y98.414 E1.7438
G1 X101.586 Y104.980 E2.0922
G1 X102.265 Y104.980 E2.1176
G1 X95.020 Y97.735 E2.5020
G1 X95.020 Y97.056 E2.5275
G1 X102.944 Y104.980 E2.9479
G1 X103.622 Y104.980 E2.9734
G1 X95.020 Y96.378 E3.4298
G1 X95.020 Y95.699 E3.4553
G1 X104.301 Y104.980 E3.9477
G1 X104.980 Y104.980 E3.9732
G1 X95.020 Y95.020 E4.5016
G1 X95.699 Y95.020 E4.5271
G1 X104.980 Y104.301 E5.0195
G1 X104.980 Y103.622 E5.0450
G1 X96.378 Y95.020 E5.5014
G1 X97.056 Y95.020 E5.5269
G1 X104.980 Y102.944 E5.9473
G1 X104.980 Y102.265 E5.9727
G1 X97.735 Y95.020 E6.3571
G1 X98.414 Y95.020 E6.3826
G1 X104.980 Y101.586 E6.7310
G1 X104.980 Y100.907 E6.7564
G1 X99.093 Y95.020 E7.0688
G1 X99.772 Y95.020 E7.0943
G1 X104.980 Y100.228 E7.3706
G1 X104.980 Y99.549 E7.3961
G1 X100.451 Y95.020 E7.6364
G1 X101.129 Y95.020 E7.6618
G1 X104.980 Y98.871 E7.8662
G1 X104.980 Y98.192 E7.8916
G1 X101.808 Y95.020 E8.0599
G1 X102.487 Y95.020 E8.0854
G1 X104.980 Y97.513 E8.2176
G1 X104.980 Y96.834 E8.2431
G1 X103.166 Y95.020 E8.3394
G1 X103.845 Y95.020 E8.3648
G1 X104.980 Y96.155 E8.4251
G1 X104.980 Y95.476 E8.4505
G1 X104.665 Y95.161 E8.4673
G1 X104.524 Y95.020 F1440
; layer 2, Z = 0.400
M106 S255
G4 P500
M106 S89
; feature inner perimeter
G1 Z0.400 F1200
G1 X105.340 Y105.340 F18000
G92 E0.0000
G1 X94.660 Y105.340 E0.4007 F2700
G1 X94.660 Y94.660 E0.8014
G1 X105.340 Y94.660 E1.2021
G1 X105.340 Y105.140 E1.5952
G1 X105.340 Y105.340 F2700
G1 X105.820 Y105.820 F18000
G92 E0.0000
G1 X94.180 Y105.820 E0.4367 F2700
G1 X94.180 Y94.180 E0.8734
G1 X105.820 Y94.180 E1.3101
G1 X105.820 Y105.620 E1.7393
G1 X105.820 Y105.820 F2700
G1 X106.300 Y106.300 F18000
G92 E0.0000
G1 X93.700 Y106.300 E0.4727 F2700
G1 X93.700 Y93.700 E0.9454
G1 X106.300 Y93.700 E1.4182
G1 X106.300 Y106.100 E1.8834
G1 X106.300 Y106.300 F2700
G1 X106.780 Y106.780 F18000
G92 E0.0000
G1 X93.220 Y106.780 E0.5087 F2700
G1 X93.220 Y93.220 E1.0175
G1 X106.780 Y93.220 E1.5262
G1 X106.780 Y106.580 E2.0274
G1 X106.780 Y106.780 F2700
G1 X107.260 Y107.260 F18000
G92 E0.0000
G1 X92.740 Y107.260 E0.5448 F2700
G1 X92.740 Y92.740 E1.0895
G1 X107.260 Y92.740 E1.6343
G1 X107.260 Y107.060 E2.1715
G1 X107.260 Y107.260 F2700
G1 X107.740 Y107.740 F18000
G92 E0.0000
G1 X92.260 Y107.740 E0.5808 F2700
G1 X92.260 Y92.260 E1.1615
G1 X107.740 Y92.260 E1.7423
G1 X107.740 Y107.540 E2.3156
G1 X107.740 Y107.740 F2700
G1 X108.220 Y108.220 F18000
G92 E0.0000
G1 X91.780 Y108.220 E0.6168 F2700
G1 X91.780 Y91.780 E1.2336
G1 X108.220 Y91.780 E1.8504
G1 X108.220 Y108.020 E2.4596
G1 X108.220 Y108.220 F2700
G1 X108.700 Y108.700 F18000
G92 E0.0000
G1 X91.300 Y108.700 E0.6528 F2700
G1 X91.300 Y91.300 E1.3056
G1 X108.700 Y91.300 E1.9584
G1 X108.700 Y108.500 E2.6037
G1 X108.700 Y108.700 F2700
G1 X109.180 Y109.180 F18000
G92 E0.0000
G1 X90.820 Y109.180 E0.6888 F2700
G1 X90.820 Y90.820 E1.3776
G1 X109.180 Y90.820 E2.0665
G1 X109.180 Y108.980 E2.7478
G1 X109.180 Y109.180 F2700
; feature outer perimeter
G1 X109.660 Y109.660 F18000
G92 E0.0000
G1 X90.340 Y109.660 E0.7248 F1800
G1 X90.340 Y90.340 E1.4497
G1 X109.660 Y90.340 E2.1745
G1 X109.660 Y109.460 E2.8918
G1 X109.660 Y109.660 F1800
G1 X104.660 Y109.660 F1800
; feature solid layer
G1 X104.980 Y104.524 F18000
G92 E0.0000
G1 X104.524 Y104.980 E0.0242 F2880
G1 X103.845 Y104.980 E0.0497
G1 X104.980 Y103.845 E0.1099
G1 X104.980 Y103.166 E0.1354
G1 X103.166 Y104.980 E0.2316
G1 X102.487 Y104.980 E0.2571
G1 X104.980 Y102.487 E0.3894
G1 X104.980 Y101.808 E0.4148
G1 X101.808 Y104.980 E0.5831
G1 X101.129 Y104.980 E0.6086
G1 X104.980 Y101.129 E0.8129
G1 X104.980 Y100.451 E0.8384
G1 X100.451 Y104.980 E1.0787
G1 X99.772 Y104.980 E1.1042
G1 X104.980 Y99.772 E1.3805
G1 X104.980 Y99.093 E1.4060
G1 X99.093 Y104.980 E1.7183
G1 X98.414 Y104.980 E1.7438
G1 X104.980 Y98.414 E2.0921
G1 X104.980 Y97.735 E2.1176
G1 X97.735 Y104.980 E2.5020
G1 X97.057 Y104.980 E2.5275
G1 X104.980 Y97.057 E2.9479
G1 X104.980 Y96.378 E2.9733
G1 X96.378 Y104.980 E3.4298
G1 X95.699 Y104.980 E3.4552
G1 X104.980 Y95.699 E3.9477
G1 X104.980 Y95.020 E3.9731
G1 X95.020 Y104.980 E4.5016
G1 X95.020 Y104.301 E4.5270
G1 X104.301 Y95.020 E5.0195
G1 X103.622 Y95.020 E5.0450
G1 X95.020 Y103.622 E5.5014
G1 X95.020 Y102.944 E5.5268
G1 X102.944 Y95.020 E5.9472
G1 X102.265 Y95.020 E5.9727
G1 X95.020 Y102.265 E6.3571
G1 X95.020 Y101.586 E6.3826
G1 X101.586 Y95.020 E6.7309
G1 X100.907 Y95.020 E6.7564
G1 X95.020 Y100.907 E7.0688
G1 X95.020 Y100.228 E7.0942
G1 X100.228 Y95.020 E7.3706
G1 X99.549 Y95.020 E7.3960
G1 X95.020 Y99.549 E7.6364
G1 X95.020 Y98.871 E7.6618
G1 X98.871 Y95.020 E7.8661
G1 X98.192 Y95.020 E7.8916
G1 X95.020 Y98.192 E8.0599
G1 X95.020 Y97.513 E8.0854
G1 X97.513 Y95.020 E8.2176
G1 X96.834 Y95.020 E8.2431
G1 X95.020 Y96.834 E8.3394
G1 X95.020 Y96.155 E8.3648
G1 X96.155 Y95.020 E8.4251
G1 X95.477 Y95.020 E8.4505
G1 X95.161 Y95.335 E8.4673
G1 X95.020 Y95.477 F2880
; layer 3, Z = 0.600
; feature inner perimeter
G1 Z0.600 F1200
G1 X105.340 Y105.340 F18000
G92 E0.0000
G1 X94.660 Y105.340 E0.4007 F2700
G1 X94.660 Y94.660 E0.8014
G1 X105.340 Y94.660 E1.2021
G1 X105.340 Y105.140 E1.5952
