; G-Code generated by Simplify3D(R) Version 4.1.2
; Jan 7, 2021 at 8:25:26 PM
; Settings Summary
;   processName,Process1
;   applyToModels,wheel
;   profileName,HBot (modified)
;   profileVersion,2019-10-26 23:38:43
;   baseProfile,Default
;   printMaterial,PETG - SUNLU
;   printQuality,Fast
;   printExtruders,
;   extruderName,Extruder 1
;   extruderToolheadNumber,0
;   extruderDiameter,0.4
;   extruderAutoWidth,1
;   extruderWidth,0.48
;   extrusionMultiplier,1.02
;   extruderUseRetract,1
;   extruderRetractionDistance,3
;   extruderExtraRestartDistance,0
;   extruderRetractionZLift,0
;   extruderRetractionSpeed,5400
;   extruderUseCoasting,0
;   extruderCoastingDistance,0.2
;   extruderUseWipe,1
;   extruderWipeDistance,5
;   primaryExtruder,0
;   layerHeight,0.3
;   topSolidLayers,4
;   bottomSolidLayers,4
;   perimeterOutlines,4
;   printPerimetersInsideOut,1
;   startPointOption,3
;   startPointOriginX,110
;   startPointOriginY,300
;   sequentialIslands,0
;   spiralVaseMode,0
;   firstLayerHeightPercentage,100
;   firstLayerWidthPercentage,100
;   firstLayerUnderspeed,0.5
;   useRaft,0
;   raftExtruder,0
;   raftTopLayers,3
;   raftBaseLayers,2
;   raftOffset,3
;   raftSeparationDistance,0.18
;   raftTopInfill,100
;   aboveRaftSpeedMultiplier,0.3
;   useSkirt,0
;   skirtExtruder,0
;   skirtLayers,1
;   skirtOutlines,10
;   skirtOffset,0
;   usePrimePillar,0
;   primePillarExtruder,999
;   primePillarWidth,12
;   primePillarLocation,7
;   primePillarSpeedMultiplier,1
;   useOozeShield,0
;   oozeShieldExtruder,999
;   oozeShieldOffset,0.9
;   oozeShieldOutlines,2
;   oozeShieldSidewallShape,0
;   oozeShieldSidewallAngle,30
;   oozeShieldSpeedMultiplier,1.5
;   infillExtruder,0
;   internalInfillPattern,Fast Honeycomb
;   externalInfillPattern,Rectilinear
;   infillPercentage,18
;   outlineOverlapPercentage,25
;   infillExtrusionWidthPercentage,100
;   minInfillLength,5
;   infillLayerInterval,1
;   internalInfillAngles,0
;   overlapInternalInfillAngles,0
;   externalInfillAngles,45,-45
;   generateSupport,1
;   supportExtruder,0
;   supportInfillPercentage,25
;   supportExtraInflation,0
;   supportBaseLayers,0
;   denseSupportExtruder,0
;   denseSupportLayers,0
;   denseSupportInfillPercentage,70
;   supportLayerInterval,1
;   supportHorizontalPartOffset,0.3
;   supportUpperSeparationLayers,1
;   supportLowerSeparationLayers,1
;   supportType,0
;   supportGridSpacing,2
;   maxOverhangAngle,25
;   supportAngles,0
;   temperatureName,Extruder 1,Heated Bed
;   temperatureNumber,0,1
;   temperatureSetpointCount,2,1
;   temperatureSetpointLayers,1,2,1
;   temperatureSetpointTemperatures,215,215,85
;   temperatureStabilizeAtStartup,1,1
;   temperatureHeatedBed,0,1
;   fanLayers,1,5,10
;   fanSpeeds,0,5,20
;   blipFanToFullPower,1
;   adjustSpeedForCooling,0
;   minSpeedLayerTime,15
;   minCoolingSpeedSlowdown,20
;   increaseFanForCooling,1
;   minFanLayerTime,15
;   maxCoolingFanSpeed,40
;   increaseFanForBridging,1
;   bridgingFanSpeed,85
;   use5D,1
;   relativeEdistances,0
;   allowEaxisZeroing,1
;   independentExtruderAxes,0
;   includeM10123,0
;   stickySupport,1
;   applyToolheadOffsets,0
;   gcodeXoffset,0
;   gcodeYoffset,0
;   gcodeZoffset,0
;   overrideMachineDefinition,1
;   machineTypeOverride,0
;   strokeXoverride,210
;   strokeYoverride,210
;   strokeZoverride,150
;   originOffsetXoverride,0
;   originOffsetYoverride,0
;   originOffsetZoverride,0
;   homeXdirOverride,-1
;   homeYdirOverride,-1
;   homeZdirOverride,-1
;   flipXoverride,1
;   flipYoverride,-1
;   flipZoverride,1
;   toolheadOffsets,0,0|0,0|0,0|0,0|0,0|0,0
;   overrideFirmwareConfiguration,1
;   firmwareTypeOverride,RepRap (Marlin/Repetier/Sprinter)
;   GPXconfigOverride,r2
;   baudRateOverride,115200
;   overridePrinterModels,0
;   printerModelsOverride
;   startingGcode,G28 ; home all axes,G32 ; run bed.g -- probe bed and enable compensation
;   layerChangeGcode,
;   retractionGcode,
;   toolChangeGcode,
;   endingGcode,M0 ; call stop.g
;   exportFileFormat,gcode
;   celebration,0
;   celebrationSong,Random Song
;   postProcessing,
;   defaultSpeed,3600
;   outlineUnderspeed,0.5
;   solidInfillUnderspeed,0.8
;   supportUnderspeed,0.8
;   rapidXYspeed,18000
;   rapidZspeed,1200
;   minBridgingArea,50
;   bridgingExtraInflation,0
;   bridgingExtrusionMultiplier,0.96
;   bridgingSpeedMultiplier,1
;   useFixedBridgingAngle,0
;   fixedBridgingAngle,0
;   applyBridgingToPerimeters,0
;   filamentDiameters,1.75|1.75|1.75|1.75|1.75|1.75
;   filamentPricesPerKg,46|46|46|46|46|46
;   filamentDensities,1.25|1.25|1.25|1.25|1.25|1.25
;   useMinPrintHeight,0
;   minPrintHeight,17.2
;   useMaxPrintHeight,0
;   maxPrintHeight,15
;   useDiaphragm,0
;   diaphragmLayerInterval,20
;   robustSlicing,1
;   mergeAllIntoSolid,0
;   onlyRetractWhenCrossingOutline,1
;   retractBetweenLayers,0
;   useRetractionMinTravel,1
;   retractionMinTravel,3
;   retractWhileWiping,1
;   onlyWipeOutlines,1
;   avoidCrossingOutline,1
;   maxMovementDetourFactor,5
;   toolChangeRetractionDistance,12
;   toolChangeExtraRestartDistance,-0.5
;   toolChangeRetractionSpeed,600
;   externalThinWallType,0
;   internalThinWallType,2
;   thinWallAllowedOverlapPercentage,10
;   singleExtrusionMinLength,1
;   singleExtrusionMinPrintingWidthPercentage,50
;   singleExtrusionMaxPrintingWidthPercentage,150
;   singleExtrusionEndpointExtension,0.2
;   horizontalSizeCompensation,0
G90
M82
M106 S0
M140 S85
M190 S85
M104 S215 T0
M109 S215 T0
G28 ; home all axes
G32 ; run bed.g -- probe bed and enable compensation
; process Process1
; layer 1, Z = 0.300
T0
G92 E0.0000
G1 E-3.0000 F5400
; feature inner perimeter
; tool H0.300 W0.480
G1 Z0.300 F1200
G1 X105.706 Y129.269 F18000
G1 E0.0000 F5400
G92 E0.0000
G1 X105.000 Y129.279 E0.0431 F1350
G1 X104.761 Y129.275 E0.0577
G1 X104.753 Y128.935 E0.0785
G1 X104.552 Y129.272 E0.1024
G1 X104.290 Y129.269 E0.1185
G1 X103.580 Y129.237 E0.1618
G1 X102.872 Y129.186 E0.2052
G1 X102.166 Y129.113 E0.2485
G1 X101.462 Y129.020 E0.2919
G1 X100.761 Y128.906 E0.3352
G1 X100.064 Y128.772 E0.3786
G1 X99.371 Y128.617 E0.4220
G1 X98.683 Y128.443 E0.4653
G1 X98.000 Y128.248 E0.5087
G1 X97.323 Y128.034 E0.5520
G1 X96.653 Y127.799 E0.5954
G1 X95.990 Y127.545 E0.6387
G1 X95.335 Y127.272 E0.6821
G1 X94.687 Y126.980 E0.7255
G1 X94.049 Y126.669 E0.7688
G1 X93.420 Y126.340 E0.8122
G1 X92.801 Y125.992 E0.8555
G1 X92.192 Y125.626 E0.8989
G1 X91.595 Y125.243 E0.9422
G1 X91.009 Y124.843 E0.9856
G1 X90.434 Y124.425 E1.0290
G1 X89.873 Y123.991 E1.0723
G1 X89.324 Y123.541 E1.1157
G1 X88.788 Y123.074 E1.1590
G1 X88.267 Y122.593 E1.2024
G1 X87.671 Y122.009 E1.2533
G1 X87.913 Y121.749 E1.2750
G1 X87.521 Y121.848 E1.2997
G1 X87.267 Y121.584 E1.3221
G1 X86.790 Y121.059 E1.3654
G1 X86.328 Y120.519 E1.4088
G1 X85.882 Y119.967 E1.4521
G1 X85.453 Y119.402 E1.4955
G1 X85.040 Y118.824 E1.5389
G1 X84.644 Y118.234 E1.5822
G1 X84.266 Y117.633 E1.6256
G1 X83.905 Y117.022 E1.6689
G1 X83.563 Y116.400 E1.7123
G1 X83.239 Y115.768 E1.7556
G1 X82.933 Y115.127 E1.7990
G1 X82.646 Y114.478 E1.8423
G1 X82.379 Y113.820 E1.8857
G1 X82.130 Y113.155 E1.9291
G1 X81.902 Y112.483 E1.9724
G1 X81.693 Y111.804 E2.0158
G1 X81.504 Y111.120 E2.0591
G1 X81.335 Y110.430 E2.1025
G1 X81.186 Y109.736 E2.1458
G1 X81.058 Y109.037 E2.1892
G1 X80.950 Y108.336 E2.2326
G1 X80.863 Y107.631 E2.2759
G1 X80.796 Y106.924 E2.3193
G1 X80.750 Y106.216 E2.3626
G1 X80.725 Y105.506 E2.4060
G1 X80.721 Y104.789 E2.4498
G1 X81.103 Y104.776 E2.4731
G1 X80.726 Y104.552 E2.4999
G1 X80.737 Y104.087 E2.5283
G1 X80.774 Y103.377 E2.5717
G1 X80.832 Y102.670 E2.6150
G1 X80.910 Y101.964 E2.6584
G1 X81.009 Y101.261 E2.7018
G1 X81.129 Y100.561 E2.7451
G1 X81.269 Y99.865 E2.7885
G1 X81.429 Y99.174 E2.8318
G1 X81.609 Y98.487 E2.8752
G1 X81.810 Y97.806 E2.9185
G1 X82.030 Y97.130 E2.9619
G1 X82.270 Y96.462 E3.0053
G1 X82.529 Y95.802 E3.0486
G1 X82.808 Y95.148 E3.0920
G1 X83.106 Y94.503 E3.1353
G1 X83.422 Y93.868 E3.1787
G1 X83.756 Y93.242 E3.2220
G1 X84.109 Y92.625 E3.2654
G1 X84.480 Y92.020 E3.3087
G1 X84.871 Y91.421 E3.3524
G1 X85.274 Y90.843 E3.3955
G1 X85.696 Y90.272 E3.4388
G1 X86.135 Y89.714 E3.4822
G1 X86.590 Y89.169 E3.5255
G1 X87.061 Y88.637 E3.5689
G1 X87.547 Y88.120 E3.6122
G1 X87.976 Y87.688 E3.6494
G1 X88.263 Y87.957 E3.6734
G1 X88.152 Y87.518 E3.7011
G1 X88.563 Y87.128 E3.7357
G1 X89.093 Y86.655 E3.7791
G1 X89.636 Y86.198 E3.8224
G1 X90.192 Y85.757 E3.8658
G1 X90.761 Y85.332 E3.9091
G1 X91.342 Y84.924 E3.9525
G1 X91.935 Y84.534 E3.9958
G1 X92.539 Y84.160 E4.0392
G1 X93.154 Y83.805 E4.0825
G1 X93.778 Y83.468 E4.1259
G1 X94.413 Y83.149 E4.1693
G1 X95.056 Y82.849 E4.2126
G1 X95.708 Y82.567 E4.2560
G1 X96.368 Y82.305 E4.2993
G1 X97.035 Y82.063 E4.3427
G1 X97.709 Y81.839 E4.3861
G1 X98.389 Y81.636 E4.4294
G1 X99.075 Y81.453 E4.4728
G1 X99.767 Y81.290 E4.5161
G1 X100.462 Y81.147 E4.5595
G1 X101.161 Y81.024 E4.6028
G1 X101.864 Y80.922 E4.6462
G1 X102.569 Y80.841 E4.6895
G1 X103.277 Y80.780 E4.7329
G1 X103.986 Y80.740 E4.7763
G1 X104.695 Y80.721 E4.8196
G1 X105.204 Y80.722 E4.8507
G1 X105.216 Y81.114 E4.8746
G1 X105.448 Y80.724 E4.9023
G1 X106.115 Y80.745 E4.9431
G1 X106.824 Y80.788 E4.9865
G1 X107.531 Y80.851 E5.0298
G1 X108.236 Y80.936 E5.0732
G1 X108.938 Y81.041 E5.1165
G1 X109.637 Y81.166 E5.1599
G1 X110.332 Y81.312 E5.2032
G1 X111.022 Y81.478 E5.2466
G1 X111.707 Y81.664 E5.2899
G1 X112.387 Y81.870 E5.3333
G1 X113.060 Y82.096 E5.3767
G1 X113.726 Y82.341 E5.4200
G1 X114.385 Y82.606 E5.4634
G1 X115.036 Y82.890 E5.5067
G1 X115.677 Y83.193 E5.5501
G1 X116.311 Y83.515 E5.5934
G1 X116.934 Y83.855 E5.6368
G1 X117.547 Y84.213 E5.6801
G1 X118.150 Y84.588 E5.7235
G1 X118.741 Y84.982 E5.7669
G1 X119.320 Y85.392 E5.8102
G1 X119.888 Y85.819 E5.8536
G1 X120.442 Y86.263 E5.8969
G1 X120.983 Y86.722 E5.9403
G1 X121.511 Y87.198 E5.9837
G1 X122.024 Y87.688 E6.0270
G1 X122.315 Y87.982 E6.0523
G1 X122.052 Y88.260 E6.0756
G1 X122.484 Y88.150 E6.1028
G1 X123.007 Y88.712 E6.1497
G1 X123.475 Y89.246 E6.1930
G1 X123.928 Y89.793 E6.2364
G1 X124.365 Y90.353 E6.2798
G1 X124.784 Y90.925 E6.3231
G1 X125.188 Y91.510 E6.3665
G1 X125.573 Y92.106 E6.4098
G1 X125.942 Y92.713 E6.4532
G1 X126.292 Y93.331 E6.4965
G1 X126.624 Y93.958 E6.5399
G1 X126.938 Y94.595 E6.5833
G1 X127.232 Y95.241 E6.6266
G1 X127.508 Y95.895 E6.6700
G1 X127.765 Y96.557 E6.7133
G1 X128.002 Y97.226 E6.7567
G1 X128.219 Y97.903 E6.8000
G1 X128.417 Y98.584 E6.8434
G1 X128.594 Y99.272 E6.8867
G1 X128.752 Y99.964 E6.9301
G1 X128.889 Y100.661 E6.9735
G1 X129.006 Y101.361 E7.0168
G1 X129.102 Y102.064 E7.0601
G1 X129.177 Y102.771 E7.1035
G1 X129.232 Y103.479 E7.1469
G1 X129.266 Y104.188 E7.1902
G1 X129.279 Y104.898 E7.2336
G1 X129.276 Y105.222 E7.2534
G1 X128.913 Y105.232 E7.2756
G1 X129.274 Y105.447 E7.3013
G1 X129.272 Y105.608 E7.3111
G1 X129.244 Y106.317 E7.3544
G1 X129.195 Y107.025 E7.3978
G1 X129.125 Y107.732 E7.4412
G1 X129.035 Y108.436 E7.4845
G1 X128.924 Y109.137 E7.5279
G1 X128.793 Y109.835 E7.5712
G1 X128.642 Y110.529 E7.6146
G1 X128.470 Y111.218 E7.6580
G1 X128.278 Y111.901 E7.7013
G1 X128.066 Y112.579 E7.7447
G1 X127.835 Y113.250 E7.7880
G1 X127.584 Y113.914 E7.8314
G1 X127.313 Y114.571 E7.8747
G1 X127.024 Y115.219 E7.9181
G1 X126.716 Y115.859 E7.9614
G1 X126.389 Y116.489 E8.0048
G1 X126.044 Y117.110 E8.0482
G1 X125.680 Y117.720 E8.0915
G1 X125.299 Y118.319 E8.1349
G1 X124.902 Y118.907 E8.1782
G1 X124.487 Y119.483 E8.2216
G1 X124.054 Y120.047 E8.2650
G1 X123.606 Y120.597 E8.3083
G1 X123.142 Y121.135 E8.3517
G1 X122.663 Y121.658 E8.3950
G1 X122.168 Y122.168 E8.4384
G1 X121.997 Y122.334 E8.4529
G1 X121.751 Y122.099 E8.4737
G1 X121.847 Y122.479 E8.4976
G1 X121.662 Y122.659 E8.5134
G1 X121.141 Y123.137 E8.5566
G1 X120.607 Y123.598 E8.5997
G1 X120.059 Y124.045 E8.6428
G1 X119.499 Y124.474 E8.6859
G1 X118.926 Y124.888 E8.7291
G1 X118.342 Y125.285 E8.7722
G1 X117.746 Y125.664 E8.8153
G1 X117.140 Y126.026 E8.8585
G1 X116.523 Y126.370 E8.9016
G1 X115.896 Y126.697 E8.9447
G1 X115.261 Y127.004 E8.9879
G1 X114.617 Y127.293 E9.0310
G1 X113.964 Y127.564 E9.0741
G1 X113.304 Y127.815 E9.1172
G1 X112.637 Y128.047 E9.1604
G1 X111.963 Y128.259 E9.2035
G1 X111.284 Y128.452 E9.2466
G1 X110.599 Y128.624 E9.2897
G1 X109.910 Y128.777 E9.3329
G1 X109.216 Y128.910 E9.3760
G1 X108.518 Y129.023 E9.4191
G1 X107.819 Y129.115 E9.4622
G1 X107.116 Y129.187 E9.5054
G1 X106.411 Y129.238 E9.5485
G1 X105.706 Y129.269 E9.5916
; feature outer perimeter
G1 X105.720 Y129.749 F18000
G92 E0.0000
G1 X105.000 Y129.759 E0.0440 F900
G1 X104.276 Y129.748 E0.0882
G1 X103.552 Y129.717 E0.1324
G1 X102.830 Y129.664 E0.1766
G1 X102.110 Y129.590 E0.2208
G1 X101.392 Y129.495 E0.2650
G1 X100.678 Y129.379 E0.3092
G1 X99.966 Y129.242 E0.3535
G1 X99.260 Y129.084 E0.3977
G1 X98.558 Y128.906 E0.4419
G1 X97.862 Y128.708 E0.4861
G1 X97.172 Y128.489 E0.5303
G1 X96.488 Y128.250 E0.5746
G1 X95.812 Y127.991 E0.6187
G1 X95.143 Y127.713 E0.6630
G1 X94.484 Y127.415 E0.7072
G1 X93.833 Y127.098 E0.7514
G1 X93.191 Y126.762 E0.7956
G1 X92.560 Y126.407 E0.8398
G1 X91.939 Y126.034 E0.8841
G1 X91.330 Y125.644 E0.9283
G1 X90.732 Y125.235 E0.9725
G1 X90.147 Y124.809 E1.0167
G1 X89.573 Y124.366 E1.0609
G1 X89.014 Y123.907 E1.1051
G1 X88.468 Y123.432 E1.1493
G1 X87.936 Y122.940 E1.1936
G1 X87.419 Y122.434 E1.2378
G1 X86.917 Y121.912 E1.2820
G1 X86.430 Y121.376 E1.3262
G1 X85.959 Y120.826 E1.3704
G1 X85.504 Y120.263 E1.4146
G1 X85.066 Y119.686 E1.4588
G1 X84.645 Y119.097 E1.5031
G1 X84.242 Y118.496 E1.5472
G1 X83.856 Y117.883 E1.5915
G1 X83.488 Y117.259 E1.6357
G1 X83.139 Y116.625 E1.6799
G1 X82.808 Y115.981 E1.7241
G1 X82.497 Y115.327 E1.7683
G1 X82.204 Y114.665 E1.8125
G1 X81.932 Y113.994 E1.8568
G1 X81.678 Y113.316 E1.9010
G1 X81.445 Y112.630 E1.9452
G1 X81.232 Y111.939 E1.9894
G1 X81.039 Y111.241 E2.0336
G1 X80.867 Y110.537 E2.0778
G1 X80.715 Y109.829 E2.1220
G1 X80.585 Y109.117 E2.1663
G1 X80.475 Y108.402 E2.2105
G1 X80.386 Y107.683 E2.2547
G1 X80.318 Y106.962 E2.2989
G1 X80.271 Y106.240 E2.3431
G1 X80.245 Y105.516 E2.3873
G1 X80.241 Y104.792 E2.4315
G1 X80.257 Y104.068 E2.4758
G1 X80.295 Y103.345 E2.5200
G1 X80.354 Y102.624 E2.5642
G1 X80.434 Y101.904 E2.6084
G1 X80.535 Y101.187 E2.6526
G1 X80.657 Y100.473 E2.6968
G1 X80.800 Y99.764 E2.7410
G1 X80.963 Y99.058 E2.7853
G1 X81.147 Y98.358 E2.8295
G1 X81.351 Y97.663 E2.8737
G1 X81.576 Y96.975 E2.9179
G1 X81.821 Y96.293 E2.9621
G1 X82.085 Y95.619 E3.0063
G1 X82.369 Y94.953 E3.0505
G1 X82.672 Y94.296 E3.0947
G1 X82.995 Y93.648 E3.1390
G1 X83.336 Y93.009 E3.1832
G1 X83.696 Y92.381 E3.2274
G1 X84.074 Y91.763 E3.2716
G1 X84.473 Y91.153 E3.3162
G1 X84.884 Y90.563 E3.3600
G1 X85.314 Y89.981 E3.4043
G1 X85.762 Y89.412 E3.4485
G1 X86.226 Y88.856 E3.4927
G1 X86.706 Y88.314 E3.5369
G1 X87.202 Y87.786 E3.5811
G1 X87.712 Y87.273 E3.6253
G1 X88.238 Y86.775 E3.6695
G1 X88.778 Y86.293 E3.7137
G1 X89.332 Y85.826 E3.7580
G1 X89.899 Y85.377 E3.8022
G1 X90.479 Y84.944 E3.8464
G1 X91.072 Y84.527 E3.8906
G1 X91.677 Y84.129 E3.9348
G1 X92.293 Y83.748 E3.9790
G1 X92.919 Y83.386 E4.0233
G1 X93.557 Y83.042 E4.0675
G1 X94.203 Y82.717 E4.1117
G1 X94.860 Y82.411 E4.1559
G1 X95.524 Y82.124 E4.2001
G1 X96.197 Y81.856 E4.2443
G1 X96.878 Y81.609 E4.2885
G1 X97.565 Y81.381 E4.3328
G1 X98.259 Y81.174 E4.3770
G1 X98.958 Y80.987 E4.4212
G1 X99.663 Y80.821 E4.4654
G1 X100.372 Y80.675 E4.5096
G1 X101.085 Y80.550 E4.5538
G1 X101.802 Y80.446 E4.5980
G1 X102.521 Y80.363 E4.6423
G1 X103.243 Y80.301 E4.6865
G1 X103.966 Y80.261 E4.7307
G1 X104.689 Y80.241 E4.7749
G1 X105.413 Y80.242 E4.8191
G1 X106.137 Y80.265 E4.8633
G1 X106.860 Y80.309 E4.9075
G1 X107.581 Y80.374 E4.9517
G1 X108.300 Y80.460 E4.9960
G1 X109.016 Y80.567 E5.0402
G1 X109.729 Y80.695 E5.0844
G1 X110.437 Y80.843 E5.1286
G1 X111.141 Y81.013 E5.1728
G1 X111.840 Y81.203 E5.2170
G1 X112.533 Y81.413 E5.2613
G1 X113.219 Y81.643 E5.3055
G1 X113.899 Y81.893 E5.3497
G1 X114.570 Y82.163 E5.3939
G1 X115.234 Y82.453 E5.4381
G1 X115.889 Y82.762 E5.4823
G1 X116.534 Y83.090 E5.5265
G1 X117.170 Y83.437 E5.5707
G1 X117.795 Y83.802 E5.6150
G1 X118.410 Y84.185 E5.6592
G1 X119.012 Y84.586 E5.7034
G1 X119.604 Y85.004 E5.7476
