; G-Code generated by Simplify3D(R) Version 4.1.2
; Apr 18, 2021 at 8:06:14 PM
; Settings Summary
;   processName,V6
;   applyToModels,spacer-v3,spacer-v3(2)
;   profileName,HBot (modified)
;   profileVersion,2021-04-01 14:49:35
;   baseProfile,Default
;   printMaterial,PETG - SUNLU
;   printQuality,Medium
;   printExtruders,
;   extruderName,Extruder 1,Extruder 2 - support
;   extruderToolheadNumber,0,1
;   extruderDiameter,0.4,0.4
;   extruderAutoWidth,1,1
;   extruderWidth,0.48,0.48
;   extrusionMultiplier,1.02,1
;   extruderUseRetract,1,1
;   extruderRetractionDistance,3,1
;   extruderExtraRestartDistance,0,0
;   extruderRetractionZLift,0,0
;   extruderRetractionSpeed,5400,1800
;   extruderUseCoasting,1,1
;   extruderCoastingDistance,0.2,0.2
;   extruderUseWipe,1,1
;   extruderWipeDistance,0.4,0.4
;   primaryExtruder,0
;   layerHeight,0.2
;   topSolidLayers,4
;   bottomSolidLayers,4
;   perimeterOutlines,3
;   printPerimetersInsideOut,1
;   startPointOption,3
;   startPointOriginX,0
;   startPointOriginY,110
;   sequentialIslands,0
;   spiralVaseMode,0
;   firstLayerHeightPercentage,100
;   firstLayerWidthPercentage,100
;   firstLayerUnderspeed,0.5
;   useRaft,0
;   raftExtruder,0
;   raftTopLayers,3
;   raftBaseLayers,2
;   raftOffset,3
;   raftSeparationDistance,0.18
;   raftTopInfill,100
;   aboveRaftSpeedMultiplier,0.3
;   useSkirt,1
;   skirtExtruder,0
;   skirtLayers,1
;   skirtOutlines,3
;   skirtOffset,10
;   usePrimePillar,0
;   primePillarExtruder,999
;   primePillarWidth,12
;   primePillarLocation,7
;   primePillarSpeedMultiplier,1
;   useOozeShield,1
;   oozeShieldExtruder,999
;   oozeShieldOffset,1.4
;   oozeShieldOutlines,2
;   oozeShieldSidewallShape,0
;   oozeShieldSidewallAngle,30
;   oozeShieldSpeedMultiplier,1.5
;   infillExtruder,0
;   internalInfillPattern,Fast Honeycomb
;   externalInfillPattern,Rectilinear
;   infillPercentage,15
;   outlineOverlapPercentage,25
;   infillExtrusionWidthPercentage,100
;   minInfillLength,5
;   infillLayerInterval,1
;   internalInfillAngles,0
;   overlapInternalInfillAngles,0
;   externalInfillAngles,45,-45
;   generateSupport,0
;   supportExtruder,0
;   supportInfillPercentage,25
;   supportExtraInflation,0
;   supportBaseLayers,0
;   denseSupportExtruder,1
;   denseSupportLayers,10
;   denseSupportInfillPercentage,100
;   supportLayerInterval,1
;   supportHorizontalPartOffset,0
;   supportUpperSeparationLayers,0
;   supportLowerSeparationLayers,0
;   supportType,0
;   supportGridSpacing,2.5
;   maxOverhangAngle,45
;   supportAngles,0
;   temperatureName,Extruder 1,Heated Bed,Extruder 2 - support
;   temperatureNumber,0,1,1
;   temperatureSetpointCount,2,1,1
;   temperatureSetpointLayers,1,2,1,1
;   temperatureSetpointTemperatures,215,215,85,0
;   temperatureStabilizeAtStartup,1,1,1
;   temperatureHeatedBed,0,1,0
;   fanLayers,1,3,5
;   fanSpeeds,0,75,100
;   blipFanToFullPower,1
;   adjustSpeedForCooling,1
;   minSpeedLayerTime,15
;   minCoolingSpeedSlowdown,20
;   increaseFanForCooling,1
;   minFanLayerTime,15
;   maxCoolingFanSpeed,100
;   increaseFanForBridging,1
;   bridgingFanSpeed,100
;   use5D,1
;   relativeEdistances,0
;   allowEaxisZeroing,1
;   independentExtruderAxes,0
;   includeM10123,0
;   stickySupport,1
;   applyToolheadOffsets,0
;   gcodeXoffset,0
;   gcodeYoffset,0
;   gcodeZoffset,0
;   overrideMachineDefinition,1
;   machineTypeOverride,0
;   strokeXoverride,210
;   strokeYoverride,210
;   strokeZoverride,150
;   originOffsetXoverride,0
;   originOffsetYoverride,0
;   originOffsetZoverride,0
;   homeXdirOverride,1
;   homeYdirOverride,-1
;   homeZdirOverride,-1
;   flipXoverride,1
;   flipYoverride,-1
;   flipZoverride,1
;   toolheadOffsets,0,0|0,0|0,0|0,0|0,0|0,0
;   overrideFirmwareConfiguration,0
;   firmwareTypeOverride,RepRap (Marlin/Repetier/Sprinter)
;   GPXconfigOverride,r2
;   baudRateOverride,115200
;   overridePrinterModels,0
;   printerModelsOverride
;   startingGcode,;G28 is now included in bed.g G28 ; home all axes,G32 ; run bed.g -- probe bed and enable compensation
;   layerChangeGcode,
;   retractionGcode,
;   toolChangeGcode,
;   endingGcode,M0 ; call stop.g
;   exportFileFormat,gcode
;   celebration,0
;   celebrationSong,Random Song
;   postProcessing,
;   defaultSpeed,3600
;   outlineUnderspeed,0.5
;   solidInfillUnderspeed,0.8
;   supportUnderspeed,0.8
;   rapidXYspeed,21000
;   rapidZspeed,1200
;   minBridgingArea,50
;   bridgingExtraInflation,0
;   bridgingExtrusionMultiplier,0.96
;   bridgingSpeedMultiplier,1
;   useFixedBridgingAngle,0
;   fixedBridgingAngle,0
;   applyBridgingToPerimeters,0
;   filamentDiameters,1.75|1.75|1.75|1.75|1.75|1.75
;   filamentPricesPerKg,46|46|46|46|46|46
;   filamentDensities,1.25|1.25|1.25|1.25|1.25|1.25
;   useMinPrintHeight,0
;   minPrintHeight,0
;   useMaxPrintHeight,0
;   maxPrintHeight,12.79
;   useDiaphragm,0
;   diaphragmLayerInterval,20
;   robustSlicing,1
;   mergeAllIntoSolid,0
;   onlyRetractWhenCrossingOutline,1
;   retractBetweenLayers,0
;   useRetractionMinTravel,1
;   retractionMinTravel,3
;   retractWhileWiping,1
;   onlyWipeOutlines,1
;   avoidCrossingOutline,1
;   maxMovementDetourFactor,50
;   toolChangeRetractionDistance,7.5
;   toolChangeExtraRestartDistance,0
;   toolChangeRetractionSpeed,600
;   externalThinWallType,0
;   internalThinWallType,0
;   thinWallAllowedOverlapPercentage,10
;   singleExtrusionMinLength,1
;   singleExtrusionMinPrintingWidthPercentage,50
;   singleExtrusionMaxPrintingWidthPercentage,150
;   singleExtrusionEndpointExtension,0.2
;   horizontalSizeCompensation,0
G90
M82
M106 S0
M140 S85
M190 S85
G10 P0 S215 R{215-50}
G10 P1 S0 R{0-50}
M116 P0
;G28 is now included in bed.g G28 ; home all axes
G32 ; run bed.g -- probe bed and enable compensation
; process V6
; layer 1, Z = 0.200
T0
G92 E0.0000
G1 E-3.0000 F5400
; feature skirt
; tool H0.200 W0.480
G1 Z0.200 F1200
G1 X85.454 Y111.705 F21000
G1 E0.0000 F5400
G92 E0.0000
G1 X85.484 Y111.188 E0.0211 F1800
G1 X85.628 Y109.789 E0.0783
G1 X85.712 Y109.239 E0.1010
G1 X85.985 Y107.905 E0.1564
G1 X86.123 Y107.369 E0.1790
G1 X86.538 Y106.032 E0.2359
G1 X86.741 Y105.480 E0.2599
G1 X86.948 Y104.999 E0.2812
G1 X86.709 Y104.435 E0.3061
G1 X86.512 Y103.895 E0.3295
G1 X86.123 Y102.629 E0.3835
G1 X85.996 Y102.139 E0.4041
G1 X85.743 Y100.942 E0.4539
G1 X85.663 Y100.458 E0.4738
G1 X85.506 Y99.156 E0.5272
G1 X85.465 Y98.519 E0.5532
G1 X85.454 Y96.730 E0.6261
G1 X85.488 Y96.072 E0.6529
G1 X85.650 Y94.625 E0.7122
G1 X85.746 Y94.042 E0.7362
G1 X86.084 Y92.509 E0.8001
G1 X86.279 Y91.828 E0.8290
G1 X86.897 Y90.101 E0.9036
G1 X87.120 Y89.566 E0.9272
G1 X87.640 Y88.481 E0.9762
G1 X87.904 Y87.993 E0.9988
G1 X88.702 Y86.680 E1.0614
G1 X89.064 Y86.153 E1.0874
G1 X90.074 Y84.852 E1.1545
G1 X90.541 Y84.323 E1.1832
G1 X91.840 Y83.025 E1.2579
G1 X92.374 Y82.556 E1.2869
G1 X93.687 Y81.541 E1.3544
G1 X94.197 Y81.190 E1.3796
G1 X96.063 Y80.052 E1.4686
G1 X97.471 Y79.440 E1.5311
G1 X99.574 Y78.849 E1.6200
G1 X101.095 Y78.640 E1.6825
G1 X112.685 Y78.640 E2.1544
G1 X115.441 Y79.351 E2.2702
G1 X119.038 Y81.342 E2.4376
G1 X121.155 Y83.380 E2.5572
G1 X122.708 Y85.950 E2.6795
G1 X123.104 Y86.740 E2.7154
G1 X123.746 Y88.321 E2.7849
G1 X124.044 Y89.304 E2.8267
G1 X124.426 Y91.165 E2.9041
G1 X124.541 Y92.274 E2.9495
G1 X124.560 Y97.664 E3.1689
G1 X124.551 Y98.009 E3.1829
G1 X124.474 Y99.344 E3.2374
G1 X124.421 Y99.850 E3.2581
G1 X124.265 Y100.895 E3.3011
G1 X124.180 Y101.338 E3.3195
G1 X123.888 Y102.589 E3.3718
G1 X123.748 Y103.084 E3.3927
G1 X123.361 Y104.249 E3.4427
G1 X123.156 Y104.774 E3.4656
G1 X123.058 Y104.993 E3.4754
G1 X123.433 Y105.953 E3.5173
G1 X123.605 Y106.461 E3.5392
G1 X124.011 Y107.891 E3.5997
G1 X124.141 Y108.462 E3.6236
G1 X124.381 Y109.842 E3.6806
G1 X124.452 Y110.432 E3.7048
G1 X124.546 Y111.841 E3.7622
G1 X124.558 Y112.209 E3.7772
G1 X124.560 Y117.249 E3.9824
G1 X124.528 Y117.846 E4.0068
G1 X124.438 Y118.689 E4.0413
G1 X124.344 Y119.277 E4.0655
G1 X124.036 Y120.704 E4.1250
G1 X123.836 Y121.406 E4.1547
G1 X123.487 Y122.383 E4.1969
G1 X123.198 Y123.053 E4.2266
G1 X121.717 Y125.946 E4.3589
G1 X119.614 Y128.215 E4.4848
G1 X115.842 Y130.522 E4.6649
G1 X112.864 Y131.360 E4.7908
G1 X101.155 Y131.360 E5.2675
G1 X99.716 Y131.173 E5.3266
G1 X97.704 Y130.640 E5.4113
G1 X96.333 Y130.075 E5.4716
G1 X94.759 Y129.168 E5.5456
G1 X94.328 Y128.892 E5.5665
G1 X93.076 Y128.008 E5.6288
G1 X92.594 Y127.627 E5.6538
G1 X91.499 Y126.658 E5.7134
G1 X91.062 Y126.226 E5.7384
G1 X90.028 Y125.087 E5.8010
G1 X89.696 Y124.684 E5.8223
G1 X89.045 Y123.817 E5.8664
G1 X88.812 Y123.482 E5.8830
G1 X88.261 Y122.624 E5.9245
G1 X88.013 Y122.197 E5.9446
G1 X87.320 Y120.873 E6.0055
G1 X87.062 Y120.306 E6.0308
G1 X86.516 Y118.904 E6.0921
G1 X86.336 Y118.361 E6.1154
G1 X85.985 Y117.090 E6.1690
G1 X85.877 Y116.622 E6.1886
G1 X85.661 Y115.452 E6.2370
G1 X85.587 Y114.906 E6.2595
G1 X85.462 Y113.438 E6.3194
G1 X85.442 Y112.906 E6.3411
G1 X85.454 Y111.705 E6.3900
G1 X85.934 Y111.721 F21000
G92 E0.0000
G1 X85.962 Y111.227 E0.0202 F1800
G1 X86.104 Y109.850 E0.0765
G1 X86.185 Y109.324 E0.0982
G1 X86.453 Y108.013 E0.1526
G1 X86.585 Y107.500 E0.1742
G1 X86.993 Y106.186 E0.2302
G1 X87.187 Y105.658 E0.2531
G1 X87.470 Y105.000 E0.2823
G1 X87.156 Y104.259 E0.3150
G1 X86.967 Y103.742 E0.3374
G1 X86.585 Y102.498 E0.3904
G1 X86.463 Y102.029 E0.4102
G1 X86.215 Y100.853 E0.4591
G1 X86.138 Y100.390 E0.4782
G1 X85.984 Y99.112 E0.5306
G1 X85.945 Y98.502 E0.5555
G1 X85.934 Y96.741 E0.6272
G1 X85.967 Y96.111 E0.6529
G1 X86.125 Y94.691 E0.7110
G1 X86.218 Y94.132 E0.7341
G1 X86.549 Y92.627 E0.7968
G1 X86.737 Y91.975 E0.8244
G1 X87.344 Y90.275 E0.8980
G1 X87.558 Y89.762 E0.9206
G1 X88.067 Y88.699 E0.9686
G1 X88.320 Y88.232 E0.9902
G1 X89.105 Y86.941 E1.0517
G1 X89.452 Y86.436 E1.0766
G1 X90.444 Y85.158 E1.1425
G1 X90.891 Y84.652 E1.1700
G1 X92.168 Y83.376 E1.2435
G1 X92.679 Y82.926 E1.2712
G1 X93.970 Y81.929 E1.3376
G1 X94.458 Y81.593 E1.3617
G1 X96.285 Y80.479 E1.4488
G1 X97.632 Y79.893 E1.5086
G1 X99.672 Y79.320 E1.5949
G1 X101.128 Y79.120 E1.6547
G1 X112.624 Y79.120 E2.1227
G1 X115.262 Y79.801 E2.2336
G1 X118.750 Y81.731 E2.3959
G1 X120.777 Y83.682 E2.5104
G1 X122.287 Y86.182 E2.6294
G1 X122.666 Y86.938 E2.6638
G1 X123.293 Y88.481 E2.7316
G1 X123.578 Y89.422 E2.7716
G1 X123.951 Y91.238 E2.8471
G1 X124.061 Y92.300 E2.8905
G1 X124.080 Y97.659 E3.1087
G1 X124.071 Y97.989 E3.1221
G1 X123.995 Y99.305 E3.1758
G1 X123.945 Y99.789 E3.1956
G1 X123.791 Y100.814 E3.2378
G1 X123.710 Y101.238 E3.2554
G1 X123.423 Y102.469 E3.3069
G1 X123.289 Y102.943 E3.3269
G1 X122.909 Y104.086 E3.3760
G1 X122.713 Y104.589 E3.3979
G1 X122.538 Y104.981 E3.4154
G1 X122.541 Y104.989 E3.4158
G1 X122.982 Y106.117 E3.4651
G1 X123.146 Y106.603 E3.4860
G1 X123.546 Y108.010 E3.5455
G1 X123.671 Y108.557 E3.5683
G1 X123.906 Y109.912 E3.6243
G1 X123.974 Y110.476 E3.6475
G1 X124.066 Y111.865 E3.7041
G1 X124.078 Y112.217 E3.7185
G1 X124.080 Y117.236 E3.9228
G1 X124.050 Y117.808 E3.9461
G1 X123.963 Y118.625 E3.9796
G1 X123.872 Y119.188 E4.0028
G1 X123.570 Y120.588 E4.0611
G1 X123.378 Y121.259 E4.0895
G1 X123.040 Y122.207 E4.1305
G1 X122.763 Y122.848 E4.1589
G1 X121.320 Y125.668 E4.2879
G1 X119.307 Y127.840 E4.4084
G1 X115.648 Y130.078 E4.5830
G1 X112.798 Y130.880 E4.7036
G1 X101.186 Y130.880 E5.1763
G1 X99.809 Y130.701 E5.2328
G1 X97.858 Y130.184 E5.3150
G1 X96.546 Y129.644 E5.3728
G1 X95.009 Y128.757 E5.4450
G1 X94.596 Y128.493 E5.4650
G1 X93.363 Y127.623 E5.5264
G1 X92.903 Y127.259 E5.5503
G1 X91.827 Y126.307 E5.6087
G1 X91.408 Y125.894 E5.6327
G1 X90.391 Y124.773 E5.6943
G1 X90.073 Y124.387 E5.7147
G1 X89.434 Y123.536 E5.7580
G1 X89.211 Y123.215 E5.7739
G1 X88.671 Y122.373 E5.8146
G1 X88.433 Y121.965 E5.8339
G1 X87.751 Y120.662 E5.8937
G1 X87.504 Y120.119 E5.9180
G1 X86.968 Y118.741 E5.9782
G1 X86.795 Y118.222 E6.0005
G1 X86.451 Y116.973 E6.0532
G1 X86.348 Y116.524 E6.0720
G1 X86.135 Y115.376 E6.1195
G1 X86.064 Y114.854 E6.1410
G1 X85.941 Y113.409 E6.2000
G1 X85.922 Y112.899 E6.2208
G1 X85.934 Y111.721 E6.2687
G1 X86.414 Y111.737 F21000
G92 E0.0000
G1 X86.441 Y111.265 E0.0193 F1800
G1 X86.580 Y109.911 E0.0747
G1 X86.657 Y109.408 E0.0954
G1 X86.921 Y108.121 E0.1489
G1 X87.047 Y107.631 E0.1695
G1 X87.447 Y106.340 E0.2245
G1 X87.633 Y105.836 E0.2464
G1 X87.992 Y105.001 E0.2833
G1 X87.603 Y104.083 E0.3239
G1 X87.422 Y103.589 E0.3453
G1 X87.047 Y102.367 E0.3974
G1 X86.931 Y101.919 E0.4162
G1 X86.687 Y100.765 E0.4643
G1 X86.614 Y100.322 E0.4825
G1 X86.462 Y99.068 E0.5340
G1 X86.425 Y98.486 E0.5577
G1 X86.414 Y96.752 E0.6283
G1 X86.445 Y96.150 E0.6528
G1 X86.601 Y94.757 E0.7099
G1 X86.689 Y94.223 E0.7319
G1 X87.015 Y92.745 E0.7935
G1 X87.194 Y92.123 E0.8199
G1 X87.792 Y90.448 E0.8923
G1 X87.996 Y89.958 E0.9139
G1 X88.495 Y88.917 E0.9609
G1 X88.737 Y88.471 E0.9815
G1 X89.508 Y87.201 E1.0420
G1 X89.839 Y86.720 E1.0658
G1 X90.814 Y85.464 E1.1305
G1 X91.241 Y84.980 E1.1568
G1 X92.497 Y83.726 E1.2291
G1 X92.985 Y83.297 E1.2555
G1 X94.253 Y82.317 E1.3208
G1 X94.719 Y81.996 E1.3438
G1 X96.507 Y80.906 E1.4290
G1 X97.794 Y80.346 E1.4862
G1 X99.771 Y79.791 E1.5698
G1 X101.161 Y79.600 E1.6269
G1 X112.563 Y79.600 E2.0911
G1 X115.083 Y80.251 E2.1970
G1 X118.463 Y82.121 E2.3543
G1 X120.398 Y83.984 E2.4637
G1 X121.867 Y86.414 E2.5793
G1 X122.229 Y87.136 E2.6121
G1 X122.840 Y88.641 E2.6783
G1 X123.113 Y89.540 E2.7165
G1 X123.476 Y91.312 E2.7901
G1 X123.581 Y92.325 E2.8316
G1 X123.600 Y97.653 E3.0485
G1 X123.592 Y97.968 E3.0613
G1 X123.516 Y99.267 E3.1143
G1 X123.469 Y99.729 E3.1332
G1 X123.318 Y100.734 E3.1746
G1 X123.241 Y101.139 E3.1914
G1 X122.958 Y102.349 E3.2420
G1 X122.830 Y102.802 E3.2611
G1 X122.457 Y103.923 E3.3092
G1 X122.270 Y104.403 E3.3302
G1 X122.012 Y104.981 E3.3560
G1 X122.098 Y105.175 E3.3646
G1 X122.531 Y106.281 E3.4130
G1 X122.687 Y106.746 E3.4329
G1 X123.081 Y108.129 E3.4915
G1 X123.200 Y108.652 E3.5133
G1 X123.431 Y109.981 E3.5682
G1 X123.496 Y110.521 E3.5904
G1 X123.587 Y111.888 E3.6462
G1 X123.598 Y112.225 E3.6599
G1 X123.600 Y117.224 E3.8634
G1 X123.571 Y117.769 E3.8856
G1 X123.487 Y118.562 E3.9181
G1 X123.400 Y119.099 E3.9402
G1 X123.104 Y120.471 E3.9974
G1 X122.921 Y121.113 E4.0245
G1 X122.593 Y122.031 E4.0642
G1 X122.329 Y122.643 E4.0914
G1 X120.923 Y125.391 E4.2170
G1 X119.000 Y127.465 E4.3321
G1 X115.454 Y129.634 E4.5014
G1 X112.732 Y130.400 E4.6165
G1 X101.217 Y130.400 E5.0853
G1 X99.901 Y130.229 E5.1393
G1 X98.011 Y129.729 E5.2189
G1 X96.758 Y129.212 E5.2741
G1 X95.258 Y128.347 E5.3446
G1 X94.863 Y128.095 E5.3636
G1 X93.651 Y127.239 E5.4240
G1 X93.211 Y126.891 E5.4469
G1 X92.155 Y125.956 E5.5043
G1 X91.755 Y125.562 E5.5272
G1 X90.754 Y124.458 E5.5878
G1 X90.450 Y124.090 E5.6072
G1 X89.823 Y123.255 E5.6497
G1 X89.610 Y122.948 E5.6650
G1 X89.081 Y122.123 E5.7049
G1 X88.854 Y121.733 E5.7233
G1 X88.182 Y120.451 E5.7821
G1 X87.947 Y119.933 E5.8053
G1 X87.419 Y118.578 E5.8645
G1 X87.255 Y118.082 E5.8858
G1 X86.916 Y116.855 E5.9376
G1 X86.818 Y116.426 E5.9555
G1 X86.609 Y115.301 E6.0021
G1 X86.541 Y114.801 E6.0227
G1 X86.421 Y113.380 E6.0807
G1 X86.402 Y112.893 E6.1006
G1 X86.414 Y111.737 E6.1476
G92 E0.0000
G1 E-3.0000 F5400
; feature ooze shield
G1 X96.885 Y112.196 F21000
G1 E0.0000 F5400
G92 E0.0000
G1 X96.891 Y112.098 E0.0040 F2700
G1 X96.978 Y111.244 E0.0390
G1 X96.995 Y111.138 E0.0433
G1 X97.110 Y110.579 E0.0665
G1 X97.133 Y110.487 E0.0704
G1 X97.334 Y109.823 E0.0987
G1 X97.371 Y109.719 E0.1032
G1 X97.676 Y108.992 E0.1352
G1 X97.730 Y108.882 E0.1402
G1 X98.131 Y108.171 E0.1735
G1 X98.180 Y108.091 E0.1773
G1 X98.434 Y107.722 E0.1955
G1 X98.490 Y107.647 E0.1993
G1 X99.010 Y107.017 E0.2326
G1 X99.096 Y106.925 E0.2377
G1 X99.698 Y106.350 E0.2716
G1 X99.793 Y106.269 E0.2767
G1 X100.685 Y105.598 E0.3221
G1 X101.338 Y105.380 E0.3502
G1 X108.659 Y105.380 E0.6482
G1 X109.309 Y105.596 E0.6761
G1 X110.155 Y106.226 E0.7190
G1 X110.233 Y106.291 E0.7232
G1 X110.645 Y106.664 E0.7458
G1 X110.707 Y106.726 E0.7494
G1 X111.174 Y107.226 E0.7772
G1 X111.240 Y107.304 E0.7813
G1 X111.618 Y107.797 E0.8066
G1 X111.671 Y107.871 E0.8104
G1 X112.017 Y108.413 E0.8365
G1 X112.072 Y108.511 E0.8411
