; G-Code generated by Simplify3D(R) Version 4.1.2
; Apr 18, 2021 at 8:01:31 PM
; Settings Summary
;   processName,V6
;   applyToModels,hook,hook(2),hook(3),hook(4),hook(5),hook(6)
;   profileName,HBot (modified)
;   profileVersion,2021-04-01 14:49:35
;   baseProfile,Default
;   printMaterial,PETG - SUNLU
;   printQuality,Medium
;   printExtruders,
;   extruderName,Extruder 1,Extruder 2 - support
;   extruderToolheadNumber,0,1
;   extruderDiameter,0.4,0.4
;   extruderAutoWidth,1,1
;   extruderWidth,0.48,0.48
;   extrusionMultiplier,1.02,1
;   extruderUseRetract,1,1
;   extruderRetractionDistance,3,1
;   extruderExtraRestartDistance,0,0
;   extruderRetractionZLift,0,0
;   extruderRetractionSpeed,5400,1800
;   extruderUseCoasting,1,1
;   extruderCoastingDistance,0.2,0.2
;   extruderUseWipe,1,1
;   extruderWipeDistance,0.4,0.4
;   primaryExtruder,0
;   layerHeight,0.2
;   topSolidLayers,4
;   bottomSolidLayers,4
;   perimeterOutlines,3
;   printPerimetersInsideOut,1
;   startPointOption,3
;   startPointOriginX,0
;   startPointOriginY,110
;   sequentialIslands,0
;   spiralVaseMode,0
;   firstLayerHeightPercentage,100
;   firstLayerWidthPercentage,100
;   firstLayerUnderspeed,0.5
;   useRaft,0
;   raftExtruder,0
;   raftTopLayers,3
;   raftBaseLayers,2
;   raftOffset,3
;   raftSeparationDistance,0.18
;   raftTopInfill,100
;   aboveRaftSpeedMultiplier,0.3
;   useSkirt,1
;   skirtExtruder,0
;   skirtLayers,1
;   skirtOutlines,3
;   skirtOffset,10
;   usePrimePillar,0
;   primePillarExtruder,999
;   primePillarWidth,12
;   primePillarLocation,7
;   primePillarSpeedMultiplier,1
;   useOozeShield,1
;   oozeShieldExtruder,999
;   oozeShieldOffset,1.4
;   oozeShieldOutlines,2
;   oozeShieldSidewallShape,0
;   oozeShieldSidewallAngle,30
;   oozeShieldSpeedMultiplier,1.5
;   infillExtruder,0
;   internalInfillPattern,Fast Honeycomb
;   externalInfillPattern,Rectilinear
;   infillPercentage,15
;   outlineOverlapPercentage,25
;   infillExtrusionWidthPercentage,100
;   minInfillLength,5
;   infillLayerInterval,1
;   internalInfillAngles,0
;   overlapInternalInfillAngles,0
;   externalInfillAngles,45,-45
;   generateSupport,0
;   supportExtruder,0
;   supportInfillPercentage,25
;   supportExtraInflation,0
;   supportBaseLayers,0
;   denseSupportExtruder,1
;   denseSupportLayers,10
;   denseSupportInfillPercentage,100
;   supportLayerInterval,1
;   supportHorizontalPartOffset,0
;   supportUpperSeparationLayers,0
;   supportLowerSeparationLayers,0
;   supportType,0
;   supportGridSpacing,2.5
;   maxOverhangAngle,45
;   supportAngles,0
;   temperatureName,Extruder 1,Heated Bed,Extruder 2 - support
;   temperatureNumber,0,1,1
;   temperatureSetpointCount,2,1,1
;   temperatureSetpointLayers,1,2,1,1
;   temperatureSetpointTemperatures,215,215,85,0
;   temperatureStabilizeAtStartup,1,1,1
;   temperatureHeatedBed,0,1,0
;   fanLayers,1,3,5
;   fanSpeeds,0,75,100
;   blipFanToFullPower,1
;   adjustSpeedForCooling,1
;   minSpeedLayerTime,15
;   minCoolingSpeedSlowdown,20
;   increaseFanForCooling,1
;   minFanLayerTime,15
;   maxCoolingFanSpeed,100
;   increaseFanForBridging,1
;   bridgingFanSpeed,100
;   use5D,1
;   relativeEdistances,0
;   allowEaxisZeroing,1
;   independentExtruderAxes,0
;   includeM10123,0
;   stickySupport,1
;   applyToolheadOffsets,0
;   gcodeXoffset,0
;   gcodeYoffset,0
;   gcodeZoffset,0
;   overrideMachineDefinition,1
;   machineTypeOverride,0
;   strokeXoverride,210
;   strokeYoverride,210
;   strokeZoverride,150
;   originOffsetXoverride,0
;   originOffsetYoverride,0
;   originOffsetZoverride,0
;   homeXdirOverride,1
;   homeYdirOverride,-1
;   homeZdirOverride,-1
;   flipXoverride,1
;   flipYoverride,-1
;   flipZoverride,1
;   toolheadOffsets,0,0|0,0|0,0|0,0|0,0|0,0
;   overrideFirmwareConfiguration,0
;   firmwareTypeOverride,RepRap (Marlin/Repetier/Sprinter)
;   GPXconfigOverride,r2
;   baudRateOverride,115200
;   overridePrinterModels,0
;   printerModelsOverride
;   startingGcode,;G28 is now included in bed.g G28 ; home all axes,G32 ; run bed.g -- probe bed and enable compensation
;   layerChangeGcode,
;   retractionGcode,
;   toolChangeGcode,
;   endingGcode,M0 ; call stop.g
;   exportFileFormat,gcode
;   celebration,0
;   celebrationSong,Random Song
;   postProcessing,
;   defaultSpeed,3600
;   outlineUnderspeed,0.5
;   solidInfillUnderspeed,0.8
;   supportUnderspeed,0.8
;   rapidXYspeed,21000
;   rapidZspeed,1200
;   minBridgingArea,50
;   bridgingExtraInflation,0
;   bridgingExtrusionMultiplier,0.96
;   bridgingSpeedMultiplier,1
;   useFixedBridgingAngle,0
;   fixedBridgingAngle,0
;   applyBridgingToPerimeters,0
;   filamentDiameters,1.75|1.75|1.75|1.75|1.75|1.75
;   filamentPricesPerKg,46|46|46|46|46|46
;   filamentDensities,1.25|1.25|1.25|1.25|1.25|1.25
;   useMinPrintHeight,0
;   minPrintHeight,0
;   useMaxPrintHeight,0
;   maxPrintHeight,12.79
;   useDiaphragm,0
;   diaphragmLayerInterval,20
;   robustSlicing,1
;   mergeAllIntoSolid,0
;   onlyRetractWhenCrossingOutline,1
;   retractBetweenLayers,0
;   useRetractionMinTravel,1
;   retractionMinTravel,3
;   retractWhileWiping,1
;   onlyWipeOutlines,1
;   avoidCrossingOutline,1
;   maxMovementDetourFactor,50
;   toolChangeRetractionDistance,7.5
;   toolChangeExtraRestartDistance,0
;   toolChangeRetractionSpeed,600
;   externalThinWallType,0
;   internalThinWallType,0
;   thinWallAllowedOverlapPercentage,10
;   singleExtrusionMinLength,1
;   singleExtrusionMinPrintingWidthPercentage,50
;   singleExtrusionMaxPrintingWidthPercentage,150
;   singleExtrusionEndpointExtension,0.2
;   horizontalSizeCompensation,0
G90
M82
M106 S0
M140 S85
M190 S85
G10 P0 S215 R{215-50}
G10 P1 S0 R{0-50}
M116 P0
;G28 is now included in bed.g G28 ; home all axes
G32 ; run bed.g -- probe bed and enable compensation
; process V6
; layer 1, Z = 0.200
T0
G92 E0.0000
G1 E-3.0000 F5400
; feature skirt
; tool H0.200 W0.480
G1 Z0.200 F1200
G1 X71.297 Y112.703 F21000
G1 E0.0000 F5400
G92 E0.0000
G1 X71.498 Y108.118 E0.1868 F1800
G1 X71.546 Y107.590 E0.2084
G1 X71.791 Y105.832 E0.2807
G1 X71.887 Y105.323 E0.3018
G1 X72.238 Y103.830 E0.3642
G1 X72.371 Y103.355 E0.3843
G1 X72.864 Y101.865 E0.4481
G1 X71.297 Y97.703 E0.6292
G1 X71.498 Y93.118 E0.8160
G1 X71.546 Y92.590 E0.8376
G1 X71.791 Y90.832 E0.9099
G1 X71.887 Y90.323 E0.9310
G1 X72.238 Y88.830 E0.9934
G1 X72.371 Y88.355 E1.0135
G1 X72.890 Y86.784 E1.0808
G1 X73.085 Y86.278 E1.1029
G1 X73.802 Y84.654 E1.1752
G1 X74.033 Y84.190 E1.1963
G1 X74.747 Y82.908 E1.2560
G1 X74.948 Y82.576 E1.2718
G1 X75.551 Y81.650 E1.3168
G1 X75.789 Y81.312 E1.3336
G1 X76.745 Y80.058 E1.3978
G1 X77.060 Y79.680 E1.4179
G1 X78.085 Y78.557 E1.4798
G1 X78.432 Y78.207 E1.4998
G1 X79.650 Y77.087 E1.5672
G1 X80.067 Y76.740 E1.5893
G1 X81.484 Y75.670 E1.6616
G1 X81.911 Y75.377 E1.6826
G1 X83.148 Y74.611 E1.7418
G1 X83.462 Y74.431 E1.7566
G1 X84.359 Y73.953 E1.7980
G1 X84.740 Y73.768 E1.8152
G1 X86.281 Y73.091 E1.8838
G1 X86.778 Y72.900 E1.9054
G1 X88.344 Y72.383 E1.9726
G1 X88.818 Y72.249 E1.9926
G1 X90.299 Y71.901 E2.0545
G1 X90.783 Y71.809 E2.0746
G1 X92.420 Y71.573 E2.1419
G1 X92.959 Y71.522 E2.1640
G1 X94.724 Y71.440 E2.2359
G1 X95.231 Y71.440 E2.2565
G1 X96.800 Y71.509 E2.3205
G1 X97.425 Y71.572 E2.3461
G1 X99.848 Y71.954 E2.4459
G1 X100.597 Y72.126 E2.4772
G1 X102.870 Y72.813 E2.5739
G1 X103.533 Y73.060 E2.6027
G1 X105.539 Y73.955 E2.6921
G1 X106.180 Y74.292 E2.7216
G1 X106.205 Y74.307 E2.7228
G1 X106.870 Y73.953 E2.7535
G1 X107.251 Y73.768 E2.7707
G1 X108.781 Y73.096 E2.8387
G1 X109.254 Y72.913 E2.8594
G1 X110.703 Y72.427 E2.9216
G1 X111.177 Y72.291 E2.9417
G1 X112.774 Y71.908 E3.0085
G1 X113.282 Y71.811 E3.0296
G1 X114.931 Y71.573 E3.0974
G1 X115.470 Y71.522 E3.1195
G1 X117.235 Y71.440 E3.1914
G1 X117.742 Y71.440 E3.2120
G1 X119.311 Y71.509 E3.2759
G1 X119.937 Y71.572 E3.3016
G1 X122.360 Y71.954 E3.4014
G1 X123.108 Y72.126 E3.4327
G1 X125.382 Y72.813 E3.5294
G1 X126.044 Y73.060 E3.5582
G1 X128.050 Y73.955 E3.6476
G1 X128.691 Y74.292 E3.6771
G1 X130.699 Y75.521 E3.7729
G1 X131.156 Y75.832 E3.7954
G1 X132.090 Y76.539 E3.8431
G1 X132.467 Y76.851 E3.8630
G1 X134.156 Y78.378 E3.9557
G1 X134.752 Y79.007 E3.9910
G1 X135.646 Y80.109 E4.0488
G1 X136.118 Y80.788 E4.0824
G1 X136.808 Y81.956 E4.1377
G1 X137.116 Y82.559 E4.1652
G1 X137.503 Y83.440 E4.2044
G1 X137.736 Y84.075 E4.2319
G1 X138.116 Y85.337 E4.2856
G1 X138.271 Y85.996 E4.3131
G1 X138.435 Y86.944 E4.3523
G1 X138.510 Y87.617 E4.3799
G1 X138.579 Y88.978 E4.4353
G1 X138.558 Y89.813 E4.4694
G1 X138.405 Y91.360 E4.5327
G1 X138.201 Y92.403 E4.5759
G1 X137.701 Y94.085 E4.6474
G1 X137.416 Y94.843 E4.6803
G1 X136.984 Y95.777 E4.7222
G1 X136.663 Y96.373 E4.7498
G1 X136.561 Y96.539 E4.7577
G1 X136.808 Y96.956 E4.7774
G1 X137.116 Y97.559 E4.8050
G1 X137.503 Y98.440 E4.8441
G1 X137.736 Y99.075 E4.8717
G1 X138.116 Y100.337 E4.9253
G1 X138.271 Y100.996 E4.9529
G1 X138.435 Y101.944 E4.9921
G1 X138.510 Y102.617 E5.0197
G1 X138.579 Y103.978 E5.0751
G1 X138.558 Y104.813 E5.1091
G1 X138.405 Y106.360 E5.1724
G1 X138.201 Y107.403 E5.2157
G1 X137.701 Y109.085 E5.2871
G1 X137.416 Y109.843 E5.3201
G1 X136.984 Y110.777 E5.3620
G1 X136.663 Y111.373 E5.3895
G1 X136.570 Y111.525 E5.3968
G1 X136.700 Y111.741 E5.4071
G1 X137.304 Y112.972 E5.4629
G1 X137.595 Y113.686 E5.4943
G1 X138.024 Y114.985 E5.5499
G1 X138.224 Y115.785 E5.5835
G1 X138.455 Y117.121 E5.6387
G1 X138.530 Y117.794 E5.6663
G1 X138.578 Y118.755 E5.7055
G1 X138.571 Y119.432 E5.7330
G1 X138.479 Y120.747 E5.7867
G1 X138.390 Y121.418 E5.8143
G1 X138.207 Y122.363 E5.8534
G1 X138.039 Y123.018 E5.8810
G1 X137.634 Y124.273 E5.9346
G1 X137.388 Y124.903 E5.9622
G1 X136.956 Y125.837 E6.0041
G1 X136.565 Y126.545 E6.0370
G1 X135.607 Y128.016 E6.1085
G1 X134.945 Y128.847 E6.1517
G1 X133.866 Y129.966 E6.2150
G1 X133.243 Y130.523 E6.2490
G1 X132.162 Y131.352 E6.3045
G1 X131.602 Y131.731 E6.3320
G1 X130.773 Y132.221 E6.3712
G1 X130.170 Y132.530 E6.3988
G1 X128.841 Y133.112 E6.4579
G1 X127.877 Y133.434 E6.4992
G1 X126.092 Y133.855 E6.5739
G1 X125.087 Y133.998 E6.6152
G1 X123.637 Y134.071 E6.6743
G1 X122.960 Y134.064 E6.7019
G1 X122.000 Y133.996 E6.7411
G1 X121.329 Y133.908 E6.7686
G1 X120.819 Y133.809 E6.7898
G1 X117.478 Y136.971 E6.9770
G1 X113.488 Y138.560 E7.1519
G1 X104.200 Y138.560 E7.5300
G1 X99.985 Y136.760 E7.7166
G1 X97.706 Y134.379 E7.8508
G1 X94.967 Y136.971 E8.0043
G1 X90.976 Y138.560 E8.1792
G1 X81.689 Y138.560 E8.5573
G1 X77.474 Y136.760 E8.7438
G1 X72.906 Y131.987 E9.0128
G1 X71.293 Y127.682 E9.2000
G1 X71.511 Y122.973 E9.3919
G1 X71.562 Y122.433 E9.4140
G1 X71.800 Y120.782 E9.4819
G1 X71.897 Y120.274 E9.5029
G1 X72.280 Y118.677 E9.5698
G1 X72.416 Y118.203 E9.5899
G1 X72.864 Y116.867 E9.6472
G1 X71.297 Y112.703 E9.8283
G1 X71.781 Y112.626 F21000
G92 E0.0000
G1 X71.977 Y108.150 E0.1824 F1800
G1 X72.023 Y107.645 E0.2030
G1 X72.265 Y105.910 E0.2744
G1 X72.356 Y105.422 E0.2946
G1 X72.703 Y103.950 E0.3561
G1 X72.831 Y103.496 E0.3753
G1 X73.342 Y101.946 E0.4418
G1 X73.397 Y101.805 E0.4479
G1 X73.326 Y101.731 E0.4521
G1 X71.781 Y97.626 E0.6307
G1 X71.977 Y93.150 E0.8130
G1 X72.023 Y92.645 E0.8337
G1 X72.265 Y90.910 E0.9050
G1 X72.356 Y90.422 E0.9252
G1 X72.703 Y88.950 E0.9868
G1 X72.831 Y88.496 E1.0060
G1 X73.342 Y86.946 E1.0724
G1 X73.529 Y86.461 E1.0936
G1 X74.237 Y84.858 E1.1649
G1 X74.458 Y84.414 E1.1851
G1 X75.162 Y83.149 E1.2440
G1 X75.354 Y82.831 E1.2592
G1 X75.948 Y81.919 E1.3035
G1 X76.177 Y81.596 E1.3196
G1 X77.120 Y80.358 E1.3830
G1 X77.422 Y79.996 E1.4021
G1 X78.432 Y78.888 E1.4632
G1 X78.765 Y78.554 E1.4824
G1 X79.967 Y77.449 E1.5488
G1 X80.365 Y77.116 E1.5700
G1 X81.764 Y76.059 E1.6414
G1 X82.173 Y75.779 E1.6615
G1 X83.394 Y75.024 E1.7200
G1 X83.695 Y74.851 E1.7341
G1 X84.577 Y74.381 E1.7748
G1 X84.941 Y74.204 E1.7913
G1 X86.464 Y73.535 E1.8590
G1 X86.939 Y73.352 E1.8797
G1 X88.485 Y72.842 E1.9460
G1 X88.939 Y72.714 E1.9652
G1 X90.398 Y72.370 E2.0262
G1 X90.862 Y72.283 E2.0454
G1 X92.477 Y72.050 E2.1119
G1 X92.993 Y72.001 E2.1330
G1 X94.735 Y71.920 E2.2040
G1 X95.221 Y71.920 E2.2237
G1 X96.765 Y71.988 E2.2867
G1 X97.364 Y72.048 E2.3112
G1 X99.757 Y72.426 E2.4098
G1 X100.474 Y72.590 E2.4397
G1 X102.717 Y73.268 E2.5351
G1 X103.351 Y73.504 E2.5627
G1 X105.329 Y74.387 E2.6509
G1 X105.942 Y74.710 E2.6791
G1 X106.189 Y74.860 E2.6908
G1 X106.206 Y74.851 E2.6916
G1 X107.088 Y74.381 E2.7323
G1 X107.453 Y74.203 E2.7488
G1 X108.964 Y73.539 E2.8160
G1 X109.417 Y73.364 E2.8358
G1 X110.846 Y72.886 E2.8971
G1 X111.299 Y72.756 E2.9163
G1 X112.875 Y72.378 E2.9823
G1 X113.361 Y72.284 E3.0025
G1 X114.988 Y72.050 E3.0694
G1 X115.504 Y72.001 E3.0905
G1 X117.246 Y71.920 E3.1615
G1 X117.732 Y71.920 E3.1813
G1 X119.276 Y71.988 E3.2442
G1 X119.875 Y72.048 E3.2687
G1 X122.269 Y72.426 E3.3673
G1 X122.985 Y72.590 E3.3973
G1 X125.228 Y73.268 E3.4927
G1 X125.862 Y73.504 E3.5202
G1 X127.840 Y74.387 E3.6084
G1 X128.454 Y74.710 E3.6366
G1 X130.438 Y75.924 E3.7313
G1 X130.876 Y76.222 E3.7529
G1 X131.792 Y76.916 E3.7997
G1 X132.152 Y77.214 E3.8187
G1 X133.821 Y78.722 E3.9103
G1 X134.391 Y79.323 E3.9440
G1 X135.262 Y80.398 E4.0003
G1 X135.713 Y81.048 E4.0325
G1 X136.387 Y82.188 E4.0865
G1 X136.683 Y82.765 E4.1128
G1 X137.057 Y83.619 E4.1508
G1 X137.281 Y84.227 E4.1772
G1 X137.652 Y85.462 E4.2297
G1 X137.801 Y86.092 E4.2560
G1 X137.960 Y87.012 E4.2940
G1 X138.031 Y87.656 E4.3204
G1 X138.098 Y88.984 E4.3745
G1 X138.079 Y89.784 E4.4071
G1 X137.930 Y91.290 E4.4688
G1 X137.734 Y92.288 E4.5102
G1 X137.246 Y93.932 E4.5800
G1 X136.973 Y94.658 E4.6115
G1 X136.554 Y95.563 E4.6521
G1 X136.248 Y96.133 E4.6785
G1 X136.000 Y96.533 E4.6976
G1 X136.387 Y97.188 E4.7286
G1 X136.683 Y97.765 E4.7550
G1 X137.057 Y98.619 E4.7929
G1 X137.281 Y99.227 E4.8193
G1 X137.652 Y100.462 E4.8718
G1 X137.801 Y101.092 E4.8982
G1 X137.960 Y102.012 E4.9362
G1 X138.031 Y102.656 E4.9626
G1 X138.098 Y103.984 E5.0167
G1 X138.079 Y104.784 E5.0493
G1 X137.930 Y106.290 E5.1109
G1 X137.734 Y107.288 E5.1523
G1 X137.246 Y108.932 E5.2221
G1 X136.973 Y109.658 E5.2537
G1 X136.554 Y110.563 E5.2942
G1 X136.248 Y111.133 E5.3206
G1 X136.007 Y111.522 E5.3392
G1 X136.279 Y111.971 E5.3606
G1 X136.866 Y113.169 E5.4149
G1 X137.145 Y113.852 E5.4449
G1 X137.562 Y115.118 E5.4992
G1 X137.754 Y115.884 E5.5313
G1 X137.979 Y117.189 E5.5852
G1 X138.051 Y117.833 E5.6116
G1 X138.098 Y118.765 E5.6496
G1 X138.092 Y119.413 E5.6760
G1 X138.001 Y120.699 E5.7285
G1 X137.916 Y121.341 E5.7549
G1 X137.739 Y122.257 E5.7929
G1 X137.578 Y122.885 E5.8192
G1 X137.182 Y124.111 E5.8717
G1 X136.946 Y124.715 E5.8981
G1 X136.528 Y125.620 E5.9387
G1 X136.153 Y126.298 E5.9702
G1 X135.217 Y127.735 E6.0400
G1 X134.584 Y128.530 E6.0814
G1 X133.533 Y129.620 E6.1430
G1 X132.936 Y130.153 E6.1756
G1 X131.882 Y130.963 E6.2297
G1 X131.345 Y131.326 E6.2561
G1 X130.541 Y131.800 E6.2941
G1 X129.965 Y132.096 E6.3205
G1 X128.668 Y132.664 E6.3781
G1 X127.746 Y132.972 E6.4177
G1 X126.003 Y133.383 E6.4906
G1 X125.041 Y133.519 E6.5302
G1 X123.627 Y133.591 E6.5878
G1 X122.979 Y133.584 E6.6142
G1 X122.048 Y133.519 E6.6522
G1 X121.406 Y133.434 E6.6785
G1 X120.668 Y133.291 E6.7091
G1 X117.215 Y136.559 E6.9027
G1 X113.395 Y138.080 E7.0700
G1 X104.299 Y138.080 E7.4404
G1 X100.264 Y136.357 E7.6190
G1 X97.723 Y133.702 E7.7686
G1 X94.704 Y136.559 E7.9378
G1 X90.884 Y138.080 E8.1052
G1 X81.787 Y138.080 E8.4755
G1 X77.753 Y136.357 E8.6541
G1 X73.321 Y131.726 E8.9151
G1 X71.777 Y127.606 E9.0942
G1 X71.990 Y123.006 E9.2817
G1 X72.039 Y122.490 E9.3028
G1 X72.273 Y120.861 E9.3698
G1 X72.366 Y120.375 E9.3899
G1 X72.744 Y118.799 E9.4559
G1 X72.874 Y118.346 E9.4751
G1 X73.355 Y116.912 E9.5366
G1 X73.396 Y116.805 E9.5413
G1 X73.326 Y116.731 E9.5455
G1 X71.781 Y112.626 E9.7241
G1 X72.265 Y112.548 F21000
G92 E0.0000
G1 X72.456 Y108.182 E0.1779 F1800
G1 X72.500 Y107.700 E0.1976
G1 X72.739 Y105.987 E0.2681
G1 X72.826 Y105.521 E0.2874
G1 X73.167 Y104.070 E0.3480
G1 X73.290 Y103.636 E0.3664
G1 X73.795 Y102.107 E0.4319
G1 X73.954 Y101.693 E0.4500
G1 X73.741 Y101.471 E0.4625
G1 X72.265 Y97.548 E0.6331
G1 X72.456 Y93.182 E0.8111
G1 X72.500 Y92.700 E0.8308
G1 X72.739 Y90.987 E0.9012
G1 X72.826 Y90.521 E0.9205
