; G-Code generated by Simplify3D(R) Version 4.1.2
; Apr 18, 2021 at 7:58:15 PM
; Settings Summary
;   processName,V6
;   applyToModels,bottom-side-v2
;   profileName,HBot (modified)
;   profileVersion,2021-04-01 14:49:35
;   baseProfile,Default
;   printMaterial,PETG - SUNLU
;   printQuality,Medium
;   printExtruders,
;   extruderName,Extruder 1,Extruder 2 - support
;   extruderToolheadNumber,0,1
;   extruderDiameter,0.4,0.4
;   extruderAutoWidth,1,1
;   extruderWidth,0.48,0.48
;   extrusionMultiplier,1.02,1
;   extruderUseRetract,1,1
;   extruderRetractionDistance,3,1
;   extruderExtraRestartDistance,0,0
;   extruderRetractionZLift,0,0
;   extruderRetractionSpeed,5400,1800
;   extruderUseCoasting,1,1
;   extruderCoastingDistance,0.2,0.2
;   extruderUseWipe,1,1
;   extruderWipeDistance,0.4,0.4
;   primaryExtruder,0
;   layerHeight,0.2
;   topSolidLayers,4
;   bottomSolidLayers,4
;   perimeterOutlines,3
;   printPerimetersInsideOut,1
;   startPointOption,3
;   startPointOriginX,0
;   startPointOriginY,110
;   sequentialIslands,0
;   spiralVaseMode,0
;   firstLayerHeightPercentage,100
;   firstLayerWidthPercentage,100
;   firstLayerUnderspeed,0.5
;   useRaft,0
;   raftExtruder,0
;   raftTopLayers,3
;   raftBaseLayers,2
;   raftOffset,3
;   raftSeparationDistance,0.18
;   raftTopInfill,100
;   aboveRaftSpeedMultiplier,0.3
;   useSkirt,1
;   skirtExtruder,0
;   skirtLayers,1
;   skirtOutlines,3
;   skirtOffset,10
;   usePrimePillar,0
;   primePillarExtruder,999
;   primePillarWidth,12
;   primePillarLocation,7
;   primePillarSpeedMultiplier,1
;   useOozeShield,1
;   oozeShieldExtruder,999
;   oozeShieldOffset,1.4
;   oozeShieldOutlines,2
;   oozeShieldSidewallShape,0
;   oozeShieldSidewallAngle,30
;   oozeShieldSpeedMultiplier,1.5
;   infillExtruder,0
;   internalInfillPattern,Fast Honeycomb
;   externalInfillPattern,Rectilinear
;   infillPercentage,15
;   outlineOverlapPercentage,25
;   infillExtrusionWidthPercentage,100
;   minInfillLength,5
;   infillLayerInterval,1
;   internalInfillAngles,0
;   overlapInternalInfillAngles,0
;   externalInfillAngles,45,-45
;   generateSupport,0
;   supportExtruder,0
;   supportInfillPercentage,25
;   supportExtraInflation,0
;   supportBaseLayers,0
;   denseSupportExtruder,1
;   denseSupportLayers,10
;   denseSupportInfillPercentage,100
;   supportLayerInterval,1
;   supportHorizontalPartOffset,0
;   supportUpperSeparationLayers,0
;   supportLowerSeparationLayers,0
;   supportType,0
;   supportGridSpacing,2.5
;   maxOverhangAngle,45
;   supportAngles,0
;   temperatureName,Extruder 1,Heated Bed,Extruder 2 - support
;   temperatureNumber,0,1,1
;   temperatureSetpointCount,2,1,1
;   temperatureSetpointLayers,1,2,1,1
;   temperatureSetpointTemperatures,215,215,85,0
;   temperatureStabilizeAtStartup,1,1,1
;   temperatureHeatedBed,0,1,0
;   fanLayers,1,3,5
;   fanSpeeds,0,75,100
;   blipFanToFullPower,1
;   adjustSpeedForCooling,1
;   minSpeedLayerTime,15
;   minCoolingSpeedSlowdown,20
;   increaseFanForCooling,1
;   minFanLayerTime,15
;   maxCoolingFanSpeed,100
;   increaseFanForBridging,1
;   bridgingFanSpeed,100
;   use5D,1
;   relativeEdistances,0
;   allowEaxisZeroing,1
;   independentExtruderAxes,0
;   includeM10123,0
;   stickySupport,1
;   applyToolheadOffsets,0
;   gcodeXoffset,0
;   gcodeYoffset,0
;   gcodeZoffset,0
;   overrideMachineDefinition,1
;   machineTypeOverride,0
;   strokeXoverride,210
;   strokeYoverride,210
;   strokeZoverride,150
;   originOffsetXoverride,0
;   originOffsetYoverride,0
;   originOffsetZoverride,0
;   homeXdirOverride,1
;   homeYdirOverride,-1
;   homeZdirOverride,-1
;   flipXoverride,1
;   flipYoverride,-1
;   flipZoverride,1
;   toolheadOffsets,0,0|0,0|0,0|0,0|0,0|0,0
;   overrideFirmwareConfiguration,0
;   firmwareTypeOverride,RepRap (Marlin/Repetier/Sprinter)
;   GPXconfigOverride,r2
;   baudRateOverride,115200
;   overridePrinterModels,0
;   printerModelsOverride
;   startingGcode,;G28 is now included in bed.g G28 ; home all axes,G32 ; run bed.g -- probe bed and enable compensation
;   layerChangeGcode,
;   retractionGcode,
;   toolChangeGcode,
;   endingGcode,M0 ; call stop.g
;   exportFileFormat,gcode
;   celebration,0
;   celebrationSong,Random Song
;   postProcessing,
;   defaultSpeed,3600
;   outlineUnderspeed,0.5
;   solidInfillUnderspeed,0.8
;   supportUnderspeed,0.8
;   rapidXYspeed,21000
;   rapidZspeed,1200
;   minBridgingArea,50
;   bridgingExtraInflation,0
;   bridgingExtrusionMultiplier,0.96
;   bridgingSpeedMultiplier,1
;   useFixedBridgingAngle,0
;   fixedBridgingAngle,0
;   applyBridgingToPerimeters,0
;   filamentDiameters,1.75|1.75|1.75|1.75|1.75|1.75
;   filamentPricesPerKg,46|46|46|46|46|46
;   filamentDensities,1.25|1.25|1.25|1.25|1.25|1.25
;   useMinPrintHeight,0
;   minPrintHeight,0
;   useMaxPrintHeight,0
;   maxPrintHeight,12.79
;   useDiaphragm,0
;   diaphragmLayerInterval,20
;   robustSlicing,1
;   mergeAllIntoSolid,0
;   onlyRetractWhenCrossingOutline,1
;   retractBetweenLayers,0
;   useRetractionMinTravel,1
;   retractionMinTravel,3
;   retractWhileWiping,1
;   onlyWipeOutlines,1
;   avoidCrossingOutline,1
;   maxMovementDetourFactor,5
;   toolChangeRetractionDistance,7.5
;   toolChangeExtraRestartDistance,0
;   toolChangeRetractionSpeed,600
;   externalThinWallType,1
;   internalThinWallType,1
;   thinWallAllowedOverlapPercentage,10
;   singleExtrusionMinLength,1
;   singleExtrusionMinPrintingWidthPercentage,50
;   singleExtrusionMaxPrintingWidthPercentage,150
;   singleExtrusionEndpointExtension,0.2
;   horizontalSizeCompensation,0
G90
M82
M106 S0
M140 S85
M190 S85
G10 P0 S215 R{215-50}
G10 P1 S0 R{0-50}
M116 P0
;G28 is now included in bed.g G28 ; home all axes
G32 ; run bed.g -- probe bed and enable compensation
; process V6
; layer 1, Z = 0.200
T0
G92 E0.0000
G1 E-3.0000 F5400
; feature skirt
; tool H0.200 W0.480
G1 Z0.200 F1200
G1 X54.782 Y114.188 F21000
G1 E0.0000 F5400
G92 E0.0000
G1 X54.798 Y103.626 E0.4300 F1800
G1 X54.801 Y103.438 E0.4376
G1 X54.895 Y100.766 E0.5465
G1 X54.905 Y100.574 E0.5543
G1 X55.291 Y95.011 E0.7813
G1 X57.121 Y91.170 E0.9545
G1 X61.592 Y87.000 E1.2034
G1 X65.550 Y85.440 E1.3766
G1 X138.505 Y85.440 E4.3467
G1 X139.101 Y85.472 E4.3710
G1 X140.364 Y85.607 E4.4227
G1 X140.914 Y85.693 E4.4453
G1 X142.457 Y86.016 E4.5095
G1 X143.078 Y86.183 E4.5357
G1 X144.511 Y86.659 E4.5972
G1 X144.988 Y86.843 E4.6180
G1 X145.942 Y87.259 E4.6603
G1 X146.344 Y87.455 E4.6785
G1 X147.539 Y88.095 E4.7337
G1 X148.061 Y88.413 E4.7586
G1 X149.322 Y89.277 E4.8208
G1 X149.733 Y89.588 E4.8418
G1 X151.680 Y91.204 E4.9448
G1 X153.195 Y93.168 E5.0458
G1 X154.682 Y96.353 E5.1889
G1 X155.213 Y98.750 E5.2889
G1 X155.213 Y111.250 E5.7977
G1 X154.682 Y113.647 E5.8977
G1 X153.195 Y116.832 E6.0408
G1 X151.680 Y118.796 E6.1418
G1 X149.733 Y120.412 E6.2448
G1 X149.322 Y120.723 E6.2658
G1 X148.061 Y121.587 E6.3280
G1 X147.539 Y121.905 E6.3529
G1 X146.323 Y122.556 E6.4090
G1 X145.879 Y122.770 E6.4291
G1 X144.793 Y123.234 E6.4772
G1 X144.286 Y123.422 E6.4992
G1 X142.817 Y123.889 E6.5619
G1 X142.226 Y124.042 E6.5868
G1 X140.864 Y124.316 E6.6433
G1 X140.356 Y124.394 E6.6643
G1 X139.103 Y124.528 E6.7156
G1 X138.506 Y124.560 E6.7399
G1 X65.138 Y124.560 E9.7267
G1 X61.018 Y122.852 E9.9083
G1 X56.484 Y118.311 E10.1695
G1 X54.782 Y114.188 E10.3511
G1 X55.262 Y114.093 F21000
G92 E0.0000
G1 X55.278 Y103.630 E0.4260 F1800
G1 X55.281 Y103.451 E0.4333
G1 X55.374 Y100.787 E0.5418
G1 X55.384 Y100.603 E0.5493
G1 X55.764 Y95.135 E0.7724
G1 X57.515 Y91.459 E0.9382
G1 X61.853 Y87.413 E1.1797
G1 X65.641 Y85.920 E1.3454
G1 X138.492 Y85.920 E4.3112
G1 X139.062 Y85.950 E4.3345
G1 X140.301 Y86.083 E4.3852
G1 X140.827 Y86.166 E4.4069
G1 X142.345 Y86.483 E4.4700
G1 X142.940 Y86.643 E4.4951
G1 X144.349 Y87.111 E4.5555
G1 X144.806 Y87.287 E4.5755
G1 X145.740 Y87.695 E4.6170
G1 X146.125 Y87.882 E4.6344
G1 X147.301 Y88.512 E4.6887
G1 X147.800 Y88.816 E4.7125
G1 X149.041 Y89.667 E4.7737
G1 X149.435 Y89.964 E4.7938
G1 X151.332 Y91.540 E4.8942
G1 X152.782 Y93.419 E4.9909
G1 X154.224 Y96.508 E5.1297
G1 X154.733 Y98.803 E5.2253
G1 X154.733 Y111.197 E5.7299
G1 X154.224 Y113.492 E5.8256
G1 X152.782 Y116.581 E5.9644
G1 X151.332 Y118.460 E6.0610
G1 X149.435 Y120.036 E6.1614
G1 X149.041 Y120.333 E6.1815
G1 X147.800 Y121.184 E6.2428
G1 X147.301 Y121.488 E6.2666
G1 X146.106 Y122.128 E6.3218
G1 X145.681 Y122.332 E6.3410
G1 X144.615 Y122.788 E6.3881
G1 X144.130 Y122.968 E6.4092
G1 X142.684 Y123.427 E6.4710
G1 X142.119 Y123.574 E6.4947
G1 X140.780 Y123.843 E6.5503
G1 X140.294 Y123.918 E6.5704
G1 X139.064 Y124.049 E6.6207
G1 X138.493 Y124.080 E6.6440
G1 X65.234 Y124.080 E9.6264
G1 X61.290 Y122.445 E9.8002
G1 X56.891 Y118.039 E10.0537
G1 X55.262 Y114.093 E10.2275
G1 X55.742 Y113.999 F21000
G92 E0.0000
G1 X55.758 Y103.635 E0.4219 F1800
G1 X55.761 Y103.464 E0.4289
G1 X55.854 Y100.808 E0.5371
G1 X55.863 Y100.632 E0.5442
G1 X56.236 Y95.259 E0.7635
G1 X57.909 Y91.748 E0.9218
G1 X62.113 Y87.826 E1.1559
G1 X65.732 Y86.400 E1.3142
G1 X138.479 Y86.400 E4.2758
G1 X139.024 Y86.429 E4.2980
G1 X140.238 Y86.559 E4.3477
G1 X140.741 Y86.638 E4.3684
G1 X142.233 Y86.950 E4.4305
G1 X142.801 Y87.103 E4.4545
G1 X144.187 Y87.563 E4.5139
G1 X144.624 Y87.731 E4.5330
G1 X145.539 Y88.131 E4.5736
G1 X145.907 Y88.310 E4.5903
G1 X147.063 Y88.929 E4.6436
G1 X147.540 Y89.219 E4.6664
G1 X148.761 Y90.056 E4.7266
G1 X149.137 Y90.340 E4.7458
G1 X150.985 Y91.875 E4.8436
G1 X152.370 Y93.670 E4.9359
G1 X153.767 Y96.664 E5.0704
G1 X154.253 Y98.855 E5.1618
G1 X154.253 Y111.145 E5.6621
G1 X153.767 Y113.336 E5.7535
G1 X152.370 Y116.330 E5.8880
G1 X150.985 Y118.125 E5.9803
G1 X149.137 Y119.660 E6.0781
G1 X148.761 Y119.944 E6.0973
G1 X147.540 Y120.781 E6.1575
G1 X147.063 Y121.071 E6.1803
G1 X145.889 Y121.700 E6.2345
G1 X145.483 Y121.895 E6.2528
G1 X144.437 Y122.342 E6.2991
G1 X143.974 Y122.514 E6.3192
G1 X142.552 Y122.966 E6.3800
G1 X142.011 Y123.106 E6.4027
G1 X140.696 Y123.370 E6.4573
G1 X140.232 Y123.442 E6.4765
G1 X139.026 Y123.571 E6.5258
G1 X138.480 Y123.600 E6.5481
G1 X65.329 Y123.600 E9.5261
G1 X61.563 Y122.038 E9.6921
G1 X57.298 Y117.768 E9.9378
G1 X55.742 Y113.999 E10.1038
G92 E0.0000
G1 E-3.0000 F5400
; feature ooze shield
G1 X66.225 Y111.876 F21000
G1 E0.0000 F5400
G92 E0.0000
G1 X66.237 Y103.778 E0.3297 F2700
G1 X66.238 Y103.743 E0.3311
G1 X66.322 Y101.305 E0.4304
G1 X66.324 Y101.269 E0.4319
G1 X66.550 Y98.020 E0.5645
G1 X67.771 Y96.880 E0.6325
G1 X138.200 Y96.880 E3.4997
G1 X138.317 Y96.886 E3.5044
G1 X138.763 Y96.936 E3.5227
G1 X138.854 Y96.950 E3.5265
G1 X139.662 Y97.112 E3.5600
G1 X139.784 Y97.144 E3.5651
G1 X140.559 Y97.397 E3.5983
G1 X140.647 Y97.430 E3.6021
G1 X141.057 Y97.606 E3.6203
G1 X141.141 Y97.646 E3.6241
G1 X141.860 Y98.031 E3.6573
G1 X141.966 Y98.096 E3.6624
G1 X142.634 Y98.563 E3.6956
G1 X142.708 Y98.620 E3.6994
G1 X143.376 Y99.178 E3.7348
G1 X143.773 Y100.031 E3.7731
G1 X143.773 Y109.969 E4.1777
G1 X143.376 Y110.822 E4.2160
G1 X142.708 Y111.380 E4.2514
G1 X142.634 Y111.437 E4.2552
G1 X141.966 Y111.904 E4.2884
G1 X141.860 Y111.969 E4.2935
G1 X141.141 Y112.354 E4.3266
G1 X141.057 Y112.394 E4.3304
G1 X140.647 Y112.570 E4.3486
G1 X140.559 Y112.603 E4.3524
G1 X139.784 Y112.856 E4.3856
G1 X139.664 Y112.888 E4.3907
G1 X138.865 Y113.049 E4.4239
G1 X138.773 Y113.063 E4.4277
G1 X138.317 Y113.114 E4.4463
G1 X138.200 Y113.120 E4.4511
G1 X67.467 Y113.120 E7.3306
G1 X66.225 Y111.876 E7.4022
G1 X66.706 Y111.678 F21000
G92 E0.0000
G1 X66.717 Y103.783 E0.3214 F2700
G1 X66.717 Y103.755 E0.3225
G1 X66.802 Y101.326 E0.4215
G1 X66.803 Y101.298 E0.4226
G1 X67.015 Y98.242 E0.5473
G1 X67.961 Y97.360 E0.6000
G1 X138.187 Y97.360 E3.4589
G1 X138.277 Y97.365 E3.4626
G1 X138.700 Y97.412 E3.4799
G1 X138.770 Y97.423 E3.4828
G1 X139.554 Y97.580 E3.5153
G1 X139.648 Y97.604 E3.5193
G1 X140.400 Y97.850 E3.5515
G1 X140.468 Y97.876 E3.5544
G1 X140.859 Y98.043 E3.5718
G1 X140.924 Y98.074 E3.5747
G1 X141.621 Y98.447 E3.6069
G1 X141.703 Y98.498 E3.6108
G1 X142.351 Y98.950 E3.6430
G1 X142.408 Y98.994 E3.6459
G1 X142.986 Y99.478 E3.6766
G1 X143.293 Y100.137 E3.7062
G1 X143.293 Y109.863 E4.1021
G1 X142.986 Y110.522 E4.1318
G1 X142.408 Y111.006 E4.1624
G1 X142.351 Y111.050 E4.1654
G1 X141.703 Y111.502 E4.1975
G1 X141.621 Y111.553 E4.2015
G1 X140.924 Y111.926 E4.2337
G1 X140.859 Y111.957 E4.2366
G1 X140.468 Y112.124 E4.2539
G1 X140.400 Y112.150 E4.2569
G1 X139.649 Y112.396 E4.2890
G1 X139.555 Y112.420 E4.2930
G1 X138.780 Y112.576 E4.3251
G1 X138.709 Y112.587 E4.3281
G1 X138.277 Y112.635 E4.3458
G1 X138.187 Y112.640 E4.3495
G1 X67.667 Y112.640 E7.2204
G1 X66.706 Y111.678 E7.2757
G92 E0.0000
G1 E-3.0000 F5400
; feature inner perimeter
G1 X68.587 Y110.760 F21000
G1 X68.595 Y105.110
G1 X69.637 Y101.489
G1 E0.0000 F5400
G92 E0.0000
G1 X69.715 Y100.200 E0.0526 F1350
G1 X70.752 Y100.200 E0.0948
G1 X70.834 Y100.527 E0.1085
G1 X70.492 Y100.711 E0.1243
G1 X70.233 Y100.902 E0.1374
G1 X69.779 Y101.349 E0.1634
G1 X69.637 Y101.489 F1350
G1 X69.853 Y103.902 F21000
G92 E0.0000
G1 X69.984 Y104.078 E0.0089 F1350
G1 X70.209 Y104.307 E0.0220
G1 X70.467 Y104.503 E0.0352
G1 X70.752 Y104.659 E0.0484
G1 X71.012 Y104.759 E0.0598
G1 X72.126 Y105.082 E0.1070
G1 X74.199 Y105.621 E0.1942
G1 X75.267 Y105.867 E0.2388
G1 X76.334 Y106.091 E0.2832
G1 X77.405 Y106.295 E0.3276
G1 X78.480 Y106.478 E0.3719
G1 X79.558 Y106.641 E0.4163
G1 X80.638 Y106.784 E0.4607
G1 X81.722 Y106.906 E0.5051
G1 X82.807 Y107.008 E0.5495
G1 X83.894 Y107.089 E0.5938
G1 X84.983 Y107.149 E0.6382
G1 X86.072 Y107.189 E0.6826
G1 X87.162 Y107.208 E0.7270
G1 X88.253 Y107.206 E0.7714
G1 X89.342 Y107.183 E0.8158
G1 X90.432 Y107.140 E0.8601
G1 X91.520 Y107.077 E0.9045
G1 X92.607 Y106.992 E0.9489
G1 X93.692 Y106.887 E0.9933
G1 X94.775 Y106.762 E1.0377
G1 X95.855 Y106.616 E1.0820
G1 X96.933 Y106.449 E1.1264
G1 X98.007 Y106.262 E1.1708
G1 X99.077 Y106.055 E1.2152
G1 X100.143 Y105.828 E1.2596
G1 X101.205 Y105.580 E1.3040
G1 X102.261 Y105.312 E1.3483
G1 X103.221 Y105.049 E1.3888
G1 X103.923 Y105.454 E1.4218
G1 X104.636 Y105.842 E1.4549
G1 X105.849 Y106.430 E1.5097
G1 X106.450 Y106.691 E1.5364
G1 X107.624 Y107.144 E1.5877
G1 X108.841 Y107.535 E1.6397
G1 X109.479 Y107.709 E1.6666
G1 X110.508 Y107.942 E1.7095
G1 X111.721 Y108.142 E1.7596
G1 X112.926 Y108.258 E1.8089
G1 X114.075 Y108.287 E1.8557
G1 X114.940 Y108.252 E1.8909
G1 X115.739 Y108.173 E1.9236
G1 X116.481 Y108.055 E1.9542
G1 X117.355 Y107.852 E1.9907
G1 X117.884 Y107.692 E2.0132
G1 X118.658 Y107.389 E2.0471
G1 X119.339 Y107.033 E2.0784
G1 X119.626 Y106.837 E2.0925
G1 X120.132 Y107.018 E2.1144
G1 X120.666 Y107.166 E2.1369
G1 X121.145 Y107.268 E2.1569
G1 X121.844 Y107.372 E2.1856
G1 X122.320 Y107.419 E2.2051
G1 X122.968 Y107.455 E2.2315
G1 X123.740 Y107.454 E2.2629
G1 X124.608 Y107.396 E2.2984
G1 X125.470 Y107.284 E2.3337
G1 X126.547 Y107.070 E2.3784
G1 X127.123 Y106.924 E2.4027
G1 X128.199 Y106.592 E2.4485
G1 X129.410 Y106.135 E2.5012
G1 X130.899 Y105.474 E2.5675
G1 X130.744 Y106.186 E2.5972
G1 X130.722 Y106.500 E2.6100
G1 X130.744 Y106.814 E2.6228
G1 X130.811 Y107.121 E2.6356
G1 X130.921 Y107.415 E2.6484
G1 X131.072 Y107.691 E2.6612
G1 X131.260 Y107.943 E2.6740
G1 X131.482 Y108.165 E2.6868
G1 X131.734 Y108.353 E2.6996
G1 X132.010 Y108.504 E2.7124
G1 X132.304 Y108.614 E2.7252
G1 X132.611 Y108.681 E2.7380
G1 X132.925 Y108.703 E2.7508
G1 X133.239 Y108.681 E2.7636
G1 X133.546 Y108.614 E2.7764
G1 X133.840 Y108.504 E2.7892
G1 X134.116 Y108.353 E2.8020
G1 X134.368 Y108.165 E2.8148
G1 X134.590 Y107.943 E2.8276
G1 X134.923 Y107.498 E2.8502
G1 X135.160 Y107.735 E2.8638
G1 X135.423 Y107.954 E2.8777
G1 X135.705 Y108.147 E2.8917
G1 X136.004 Y108.313 E2.9056
G1 X136.316 Y108.451 E2.9195
G1 X136.641 Y108.560 E2.9334
G1 X136.973 Y108.638 E2.9473
G1 X137.312 Y108.685 E2.9612
G1 X137.653 Y108.701 E2.9752
G1 X137.995 Y108.685 E2.9891
G1 X138.334 Y108.638 E3.0030
G1 X138.666 Y108.560 E3.0169
G1 X138.990 Y108.451 E3.0308
G1 X139.303 Y108.313 E3.0447
G1 X139.602 Y108.147 E3.0587
G1 X139.884 Y107.954 E3.0726
G1 X140.453 Y107.481 E3.1027
G1 X140.453 Y108.925 E3.1615
G1 X140.175 Y109.107 E3.1750
G1 X139.930 Y109.248 E3.1865
G1 X139.677 Y109.374 E3.1981
