; G-Code generated by Simplify3D(R) Version 4.1.2
; Apr 18, 2021 at 8:00:01 PM
; Settings Summary
;   processName,V6
;   applyToModels,front-mirrored
;   profileName,HBot (modified)
;   profileVersion,2021-04-01 14:49:35
;   baseProfile,Default
;   printMaterial,PETG - SUNLU
;   printQuality,Medium
;   printExtruders,
;   extruderName,Extruder 1,Extruder 2 - support
;   extruderToolheadNumber,0,1
;   extruderDiameter,0.4,0.4
;   extruderAutoWidth,1,1
;   extruderWidth,0.48,0.48
;   extrusionMultiplier,1.02,1
;   extruderUseRetract,1,1
;   extruderRetractionDistance,3,1
;   extruderExtraRestartDistance,0,0
;   extruderRetractionZLift,0,0
;   extruderRetractionSpeed,5400,1800
;   extruderUseCoasting,1,1
;   extruderCoastingDistance,0.2,0.2
;   extruderUseWipe,1,1
;   extruderWipeDistance,0.4,0.4
;   primaryExtruder,0
;   layerHeight,0.2
;   topSolidLayers,4
;   bottomSolidLayers,4
;   perimeterOutlines,3
;   printPerimetersInsideOut,1
;   startPointOption,3
;   startPointOriginX,0
;   startPointOriginY,110
;   sequentialIslands,0
;   spiralVaseMode,0
;   firstLayerHeightPercentage,100
;   firstLayerWidthPercentage,100
;   firstLayerUnderspeed,0.5
;   useRaft,0
;   raftExtruder,0
;   raftTopLayers,3
;   raftBaseLayers,2
;   raftOffset,3
;   raftSeparationDistance,0.18
;   raftTopInfill,100
;   aboveRaftSpeedMultiplier,0.3
;   useSkirt,1
;   skirtExtruder,0
;   skirtLayers,1
;   skirtOutlines,3
;   skirtOffset,10
;   usePrimePillar,0
;   primePillarExtruder,999
;   primePillarWidth,12
;   primePillarLocation,7
;   primePillarSpeedMultiplier,1
;   useOozeShield,1
;   oozeShieldExtruder,999
;   oozeShieldOffset,1.4
;   oozeShieldOutlines,2
;   oozeShieldSidewallShape,0
;   oozeShieldSidewallAngle,30
;   oozeShieldSpeedMultiplier,1.5
;   infillExtruder,0
;   internalInfillPattern,Fast Honeycomb
;   externalInfillPattern,Rectilinear
;   infillPercentage,15
;   outlineOverlapPercentage,25
;   infillExtrusionWidthPercentage,100
;   minInfillLength,5
;   infillLayerInterval,1
;   internalInfillAngles,0
;   overlapInternalInfillAngles,0
;   externalInfillAngles,45,-45
;   generateSupport,0
;   supportExtruder,0
;   supportInfillPercentage,25
;   supportExtraInflation,0
;   supportBaseLayers,0
;   denseSupportExtruder,1
;   denseSupportLayers,10
;   denseSupportInfillPercentage,100
;   supportLayerInterval,1
;   supportHorizontalPartOffset,0
;   supportUpperSeparationLayers,0
;   supportLowerSeparationLayers,0
;   supportType,0
;   supportGridSpacing,2.5
;   maxOverhangAngle,45
;   supportAngles,0
;   temperatureName,Extruder 1,Heated Bed,Extruder 2 - support
;   temperatureNumber,0,1,1
;   temperatureSetpointCount,2,1,1
;   temperatureSetpointLayers,1,2,1,1
;   temperatureSetpointTemperatures,215,215,85,0
;   temperatureStabilizeAtStartup,1,1,1
;   temperatureHeatedBed,0,1,0
;   fanLayers,1,3,5
;   fanSpeeds,0,75,100
;   blipFanToFullPower,1
;   adjustSpeedForCooling,1
;   minSpeedLayerTime,15
;   minCoolingSpeedSlowdown,20
;   increaseFanForCooling,1
;   minFanLayerTime,15
;   maxCoolingFanSpeed,100
;   increaseFanForBridging,1
;   bridgingFanSpeed,100
;   use5D,1
;   relativeEdistances,0
;   allowEaxisZeroing,1
;   independentExtruderAxes,0
;   includeM10123,0
;   stickySupport,1
;   applyToolheadOffsets,0
;   gcodeXoffset,0
;   gcodeYoffset,0
;   gcodeZoffset,0
;   overrideMachineDefinition,1
;   machineTypeOverride,0
;   strokeXoverride,210
;   strokeYoverride,210
;   strokeZoverride,150
;   originOffsetXoverride,0
;   originOffsetYoverride,0
;   originOffsetZoverride,0
;   homeXdirOverride,1
;   homeYdirOverride,-1
;   homeZdirOverride,-1
;   flipXoverride,1
;   flipYoverride,-1
;   flipZoverride,1
;   toolheadOffsets,0,0|0,0|0,0|0,0|0,0|0,0
;   overrideFirmwareConfiguration,0
;   firmwareTypeOverride,RepRap (Marlin/Repetier/Sprinter)
;   GPXconfigOverride,r2
;   baudRateOverride,115200
;   overridePrinterModels,0
;   printerModelsOverride
;   startingGcode,;G28 is now included in bed.g G28 ; home all axes,G32 ; run bed.g -- probe bed and enable compensation
;   layerChangeGcode,
;   retractionGcode,
;   toolChangeGcode,
;   endingGcode,M0 ; call stop.g
;   exportFileFormat,gcode
;   celebration,0
;   celebrationSong,Random Song
;   postProcessing,
;   defaultSpeed,3600
;   outlineUnderspeed,0.5
;   solidInfillUnderspeed,0.8
;   supportUnderspeed,0.8
;   rapidXYspeed,21000
;   rapidZspeed,1200
;   minBridgingArea,50
;   bridgingExtraInflation,0
;   bridgingExtrusionMultiplier,0.96
;   bridgingSpeedMultiplier,1
;   useFixedBridgingAngle,0
;   fixedBridgingAngle,0
;   applyBridgingToPerimeters,0
;   filamentDiameters,1.75|1.75|1.75|1.75|1.75|1.75
;   filamentPricesPerKg,46|46|46|46|46|46
;   filamentDensities,1.25|1.25|1.25|1.25|1.25|1.25
;   useMinPrintHeight,0
;   minPrintHeight,0
;   useMaxPrintHeight,0
;   maxPrintHeight,12.79
;   useDiaphragm,0
;   diaphragmLayerInterval,20
;   robustSlicing,1
;   mergeAllIntoSolid,0
;   onlyRetractWhenCrossingOutline,1
;   retractBetweenLayers,0
;   useRetractionMinTravel,1
;   retractionMinTravel,3
;   retractWhileWiping,1
;   onlyWipeOutlines,1
;   avoidCrossingOutline,1
;   maxMovementDetourFactor,50
;   toolChangeRetractionDistance,7.5
;   toolChangeExtraRestartDistance,0
;   toolChangeRetractionSpeed,600
;   externalThinWallType,1
;   internalThinWallType,1
;   thinWallAllowedOverlapPercentage,10
;   singleExtrusionMinLength,1
;   singleExtrusionMinPrintingWidthPercentage,50
;   singleExtrusionMaxPrintingWidthPercentage,150
;   singleExtrusionEndpointExtension,0.2
;   horizontalSizeCompensation,0
G90
M82
M106 S0
M140 S85
M190 S85
G10 P0 S215 R{215-50}
G10 P1 S0 R{0-50}
M116 P0
;G28 is now included in bed.g G28 ; home all axes
G32 ; run bed.g -- probe bed and enable compensation
; process V6
; layer 1, Z = 0.200
T0
G92 E0.0000
G1 E-3.0000 F5400
; feature skirt
; tool H0.200 W0.480
G1 Z0.200 F1200
G1 X49.666 Y109.603 F21000
G1 E0.0000 F5400
G92 E0.0000
G1 X49.666 Y100.397 E0.3748 F1800
G1 X49.956 Y98.615 E0.4483
G1 X50.769 Y96.174 E0.5530
G1 X51.608 Y94.575 E0.6265
G1 X52.973 Y92.755 E0.7192
G1 X53.282 Y92.379 E0.7390
G1 X54.059 Y91.510 E0.7864
G1 X54.435 Y91.130 E0.8082
G1 X55.569 Y90.084 E0.8710
G1 X56.070 Y89.673 E0.8974
G1 X57.377 Y88.721 E0.9632
G1 X57.923 Y88.370 E0.9896
G1 X59.332 Y87.576 E1.0555
G1 X59.915 Y87.291 E1.0819
G1 X61.406 Y86.664 E1.1477
G1 X62.019 Y86.448 E1.1742
G1 X63.551 Y86.005 E1.2391
G1 X64.139 Y85.869 E1.2637
G1 X65.558 Y85.620 E1.3223
G1 X66.169 Y85.547 E1.3474
G1 X67.656 Y85.451 E1.4080
G1 X68.013 Y85.440 E1.4226
G1 X142.980 Y85.440 E4.4745
G1 X143.326 Y85.451 E4.4886
G1 X144.799 Y85.542 E4.5487
G1 X145.456 Y85.622 E4.5757
G1 X147.142 Y85.929 E4.6454
G1 X147.905 Y86.124 E4.6775
G1 X150.013 Y86.825 E4.7679
G1 X150.820 Y87.165 E4.8036
G1 X152.679 Y88.126 E4.8888
G1 X153.438 Y88.598 E4.9251
G1 X156.362 Y90.760 E5.0732
G1 X158.068 Y92.792 E5.1812
G1 X159.737 Y96.138 E5.3334
G1 X160.333 Y98.671 E5.4394
G1 X160.333 Y111.327 E5.9546
G1 X159.738 Y113.858 E6.0605
G1 X158.072 Y117.202 E6.2126
G1 X156.369 Y119.234 E6.3205
G1 X153.433 Y121.407 E6.4692
G1 X152.621 Y121.908 E6.5080
G1 X150.547 Y122.954 E6.6026
G1 X149.735 Y123.287 E6.6383
G1 X147.844 Y123.893 E6.7192
G1 X147.147 Y124.068 E6.7484
G1 X145.506 Y124.370 E6.8164
G1 X144.866 Y124.451 E6.8426
G1 X143.423 Y124.547 E6.9015
G1 X143.047 Y124.560 E6.9168
G1 X67.486 Y124.550 E9.9929
G1 X66.840 Y124.513 E10.0192
G1 X65.074 Y124.307 E10.0917
G1 X64.385 Y124.184 E10.1201
G1 X62.790 Y123.793 E10.1870
G1 X62.170 Y123.602 E10.2134
G1 X60.676 Y123.046 E10.2783
G1 X60.123 Y122.806 E10.3028
G1 X58.842 Y122.165 E10.3612
G1 X58.322 Y121.869 E10.3855
G1 X56.983 Y121.009 E10.4503
G1 X56.457 Y120.627 E10.4768
G1 X55.186 Y119.585 E10.5437
G1 X54.676 Y119.110 E10.5720
G1 X53.451 Y117.820 E10.6444
G1 X53.032 Y117.325 E10.6709
G1 X51.608 Y115.426 E10.7675
G1 X50.769 Y113.826 E10.8410
G1 X49.956 Y111.386 E10.9457
G1 X49.666 Y109.603 E11.0193
G1 X50.147 Y109.564 F21000
G92 E0.0000
G1 X50.146 Y100.436 E0.3716 F1800
G1 X50.423 Y98.730 E0.4420
G1 X51.212 Y96.363 E0.5436
G1 X52.015 Y94.832 E0.6139
G1 X53.351 Y93.051 E0.7046
G1 X53.646 Y92.691 E0.7235
G1 X54.409 Y91.839 E0.7701
G1 X54.768 Y91.475 E0.7909
G1 X55.884 Y90.446 E0.8527
G1 X56.363 Y90.053 E0.8779
G1 X57.648 Y89.117 E0.9426
G1 X58.171 Y88.781 E0.9679
G1 X59.556 Y88.001 E1.0326
G1 X60.113 Y87.728 E1.0579
G1 X61.579 Y87.112 E1.1226
G1 X62.166 Y86.905 E1.1480
G1 X63.672 Y86.470 E1.2118
G1 X64.234 Y86.339 E1.2353
G1 X65.628 Y86.095 E1.2929
G1 X66.213 Y86.025 E1.3169
G1 X67.679 Y85.931 E1.3767
G1 X68.021 Y85.920 E1.3906
G1 X142.972 Y85.920 E4.4419
G1 X143.304 Y85.930 E4.4554
G1 X144.755 Y86.020 E4.5146
G1 X145.384 Y86.097 E4.5404
G1 X147.039 Y86.398 E4.6089
G1 X147.770 Y86.585 E4.6396
G1 X149.844 Y87.274 E4.7286
G1 X150.616 Y87.600 E4.7627
G1 X152.442 Y88.543 E4.8464
G1 X153.168 Y88.995 E4.8812
G1 X156.031 Y91.112 E5.0261
G1 X157.664 Y93.057 E5.1295
G1 X159.283 Y96.302 E5.2772
G1 X159.853 Y98.727 E5.3786
G1 X159.853 Y111.272 E5.8893
G1 X159.283 Y113.694 E5.9906
G1 X157.667 Y116.938 E6.1381
G1 X156.037 Y118.882 E6.2414
G1 X153.164 Y121.009 E6.3869
G1 X152.387 Y121.488 E6.4241
G1 X150.348 Y122.517 E6.5171
G1 X149.570 Y122.835 E6.5513
G1 X147.712 Y123.431 E6.6307
G1 X147.044 Y123.599 E6.6587
G1 X145.432 Y123.896 E6.7255
G1 X144.821 Y123.972 E6.7506
G1 X143.398 Y124.068 E6.8086
G1 X143.039 Y124.080 E6.8233
G1 X67.500 Y124.070 E9.8985
G1 X66.882 Y124.034 E9.9237
G1 X65.144 Y123.832 E9.9949
G1 X64.485 Y123.714 E10.0222
G1 X62.918 Y123.330 E10.0879
G1 X62.325 Y123.147 E10.1131
G1 X60.856 Y122.601 E10.1769
G1 X60.326 Y122.370 E10.2004
G1 X59.068 Y121.741 E10.2577
G1 X58.570 Y121.458 E10.2810
G1 X57.254 Y120.613 E10.3447
G1 X56.751 Y120.247 E10.3700
G1 X55.502 Y119.223 E10.4357
G1 X55.014 Y118.769 E10.4629
G1 X53.809 Y117.500 E10.5341
G1 X53.408 Y117.025 E10.5594
G1 X52.015 Y115.169 E10.6539
G1 X51.213 Y113.637 E10.7243
G1 X50.423 Y111.271 E10.8259
G1 X50.147 Y109.564 E10.8962
G1 X50.627 Y109.526 F21000
G92 E0.0000
G1 X50.626 Y100.475 E0.3685 F1800
G1 X50.891 Y98.845 E0.4357
G1 X51.656 Y96.552 E0.5341
G1 X52.422 Y95.089 E0.6013
G1 X53.729 Y93.347 E0.6900
G1 X54.011 Y93.004 E0.7081
G1 X54.759 Y92.168 E0.7537
G1 X55.102 Y91.820 E0.7736
G1 X56.199 Y90.808 E0.8344
G1 X56.657 Y90.433 E0.8585
G1 X57.920 Y89.514 E0.9221
G1 X58.419 Y89.193 E0.9462
G1 X59.779 Y88.426 E1.0098
G1 X60.312 Y88.165 E1.0339
G1 X61.752 Y87.560 E1.0975
G1 X62.312 Y87.362 E1.1217
G1 X63.793 Y86.934 E1.1845
G1 X64.330 Y86.810 E1.2069
G1 X65.698 Y86.570 E1.2635
G1 X66.257 Y86.503 E1.2864
G1 X67.702 Y86.410 E1.3453
G1 X68.029 Y86.400 E1.3586
G1 X142.965 Y86.400 E4.4093
G1 X143.282 Y86.410 E4.4222
G1 X144.711 Y86.498 E4.4805
G1 X145.312 Y86.571 E4.5052
G1 X146.936 Y86.867 E4.5724
G1 X147.635 Y87.046 E4.6017
G1 X149.675 Y87.724 E4.6893
G1 X150.413 Y88.035 E4.7218
G1 X152.204 Y88.961 E4.8039
G1 X152.898 Y89.393 E4.8372
G1 X155.700 Y91.464 E4.9791
G1 X157.260 Y93.322 E5.0778
G1 X158.828 Y96.467 E5.2209
G1 X159.374 Y98.782 E5.3177
G1 X159.373 Y111.216 E5.8239
G1 X158.829 Y113.530 E5.9207
G1 X157.263 Y116.673 E6.0636
G1 X155.706 Y118.530 E6.1623
G1 X152.895 Y120.611 E6.3047
G1 X152.152 Y121.069 E6.3402
G1 X150.148 Y122.080 E6.4316
G1 X149.405 Y122.384 E6.4643
G1 X147.580 Y122.970 E6.5423
G1 X146.942 Y123.130 E6.5691
G1 X145.359 Y123.421 E6.6346
G1 X144.775 Y123.495 E6.6586
G1 X143.374 Y123.589 E6.7157
G1 X143.031 Y123.600 E6.7297
G1 X67.514 Y123.590 E9.8040
G1 X66.923 Y123.556 E9.8281
G1 X65.214 Y123.357 E9.8982
G1 X64.585 Y123.244 E9.9242
G1 X63.046 Y122.867 E9.9887
G1 X62.479 Y122.693 E10.0128
G1 X61.035 Y122.155 E10.0756
G1 X60.529 Y121.935 E10.0980
G1 X59.294 Y121.318 E10.1542
G1 X58.819 Y121.047 E10.1765
G1 X57.525 Y120.217 E10.2391
G1 X57.044 Y119.867 E10.2633
G1 X55.818 Y118.862 E10.3278
G1 X55.351 Y118.427 E10.3538
G1 X54.167 Y117.180 E10.4239
G1 X53.784 Y116.726 E10.4480
G1 X52.422 Y114.911 E10.5404
G1 X51.656 Y113.449 E10.6076
G1 X50.891 Y111.156 E10.7060
G1 X50.627 Y109.526 E10.7732
G92 E0.0000
G1 E-3.0000 F5400
; feature ooze shield
G1 X61.106 Y108.661 F21000
G1 E0.0000 F5400
G92 E0.0000
G1 X61.106 Y101.339 E0.2981 F2700
G1 X61.324 Y100.686 E0.3261
G1 X61.975 Y99.818 E0.3703
G1 X62.034 Y99.747 E0.3740
G1 X62.327 Y99.420 E0.3919
G1 X62.392 Y99.354 E0.3957
G1 X62.977 Y98.805 E0.4284
G1 X63.072 Y98.726 E0.4334
G1 X63.729 Y98.239 E0.4666
G1 X63.832 Y98.172 E0.4717
G1 X64.541 Y97.764 E0.5049
G1 X64.651 Y97.710 E0.5099
G1 X65.402 Y97.387 E0.5432
G1 X65.518 Y97.345 E0.5482
G1 X66.301 Y97.111 E0.5815
G1 X66.421 Y97.083 E0.5865
G1 X67.226 Y96.942 E0.6198
G1 X67.348 Y96.927 E0.6248
G1 X68.134 Y96.882 E0.6569
G1 X68.196 Y96.880 E0.6594
G1 X142.803 Y96.880 E3.6967
G1 X142.863 Y96.882 E3.6991
G1 X143.624 Y96.924 E3.7302
G1 X143.742 Y96.938 E3.7350
G1 X144.538 Y97.073 E3.7679
G1 X144.683 Y97.108 E3.7739
G1 X145.800 Y97.465 E3.8217
G1 X145.965 Y97.533 E3.8289
G1 X147.020 Y98.078 E3.8773
G1 X147.172 Y98.174 E3.8846
G1 X148.448 Y99.135 E3.9496
G1 X148.893 Y100.029 E3.9903
G1 X148.893 Y109.971 E4.3950
G1 X148.449 Y110.864 E4.4356
G1 X147.182 Y111.820 E4.5002
G1 X147.032 Y111.914 E4.5075
G1 X145.977 Y112.462 E4.5558
G1 X145.812 Y112.531 E4.5631
G1 X144.700 Y112.887 E4.6107
G1 X144.556 Y112.923 E4.6167
G1 X143.761 Y113.060 E4.6496
G1 X143.647 Y113.073 E4.6542
G1 X142.922 Y113.118 E4.6838
G1 X142.856 Y113.120 E4.6865
G1 X67.818 Y113.110 E7.7413
G1 X67.696 Y113.103 E7.7463
G1 X66.883 Y113.009 E7.7796
G1 X66.761 Y112.987 E7.7846
G1 X65.965 Y112.799 E7.8180
G1 X65.847 Y112.764 E7.8230
G1 X65.078 Y112.485 E7.8562
G1 X64.965 Y112.436 E7.8612
G1 X64.234 Y112.071 E7.8945
G1 X64.129 Y112.010 E7.8995
G1 X63.444 Y111.563 E7.9328
G1 X63.345 Y111.490 E7.9378
G1 X62.717 Y110.966 E7.9711
G1 X62.627 Y110.881 E7.9761
G1 X62.064 Y110.288 E8.0094
G1 X61.985 Y110.194 E8.0144
G1 X61.324 Y109.314 E8.0592
G1 X61.106 Y108.661 E8.0872
G1 X61.587 Y108.583 F21000
G92 E0.0000
G1 X61.586 Y101.417 E0.2917 F2700
G1 X61.755 Y100.912 E0.3134
G1 X62.353 Y100.115 E0.3540
G1 X62.398 Y100.060 E0.3569
G1 X62.678 Y99.748 E0.3739
G1 X62.728 Y99.697 E0.3768
G1 X63.295 Y99.164 E0.4085
G1 X63.368 Y99.103 E0.4124
G1 X64.003 Y98.633 E0.4446
G1 X64.083 Y98.581 E0.4484
G1 X64.768 Y98.188 E0.4806
G1 X64.853 Y98.145 E0.4845
G1 X65.579 Y97.833 E0.5166
G1 X65.668 Y97.801 E0.5205
G1 X66.425 Y97.575 E0.5527
G1 X66.518 Y97.553 E0.5565
G1 X67.296 Y97.417 E0.5887
G1 X67.390 Y97.406 E0.5926
G1 X68.155 Y97.361 E0.6238
G1 X68.203 Y97.360 E0.6257
G1 X142.797 Y97.360 E3.6624
G1 X142.843 Y97.361 E3.6643
G1 X143.584 Y97.403 E3.6945
G1 X143.675 Y97.413 E3.6983
G1 X144.441 Y97.543 E3.7299
G1 X144.553 Y97.571 E3.7346
G1 X145.635 Y97.916 E3.7808
G1 X145.763 Y97.969 E3.7864
G1 X146.782 Y98.496 E3.8332
G1 X146.899 Y98.569 E3.8388
G1 X148.069 Y99.450 E3.8984
G1 X148.413 Y100.142 E3.9299
G1 X148.413 Y109.858 E4.3254
G1 X148.069 Y110.549 E4.3568
G1 X146.909 Y111.424 E4.4160
G1 X146.793 Y111.498 E4.4216
G1 X145.774 Y112.027 E4.4683
G1 X145.646 Y112.080 E4.4740
G1 X144.569 Y112.425 E4.5200
G1 X144.458 Y112.453 E4.5247
G1 X143.692 Y112.584 E4.5563
G1 X143.604 Y112.595 E4.5599
G1 X142.900 Y112.638 E4.5887
G1 X142.849 Y112.640 E4.5907
G1 X67.832 Y112.630 E7.6447
G1 X67.737 Y112.625 E7.6486
G1 X66.952 Y112.534 E7.6807
G1 X66.858 Y112.517 E7.6846
G1 X66.089 Y112.335 E7.7168
G1 X65.998 Y112.308 E7.7207
G1 X65.255 Y112.038 E7.7528
G1 X65.168 Y112.001 E7.7567
G1 X64.461 Y111.648 E7.7889
G1 X64.380 Y111.601 E7.7927
G1 X63.719 Y111.169 E7.8248
G1 X63.642 Y111.112 E7.8287
G1 X63.035 Y110.606 E7.8609
G1 X62.966 Y110.541 E7.8648
G1 X62.422 Y109.968 E7.8969
G1 X62.360 Y109.895 E7.9008
G1 X61.755 Y109.088 E7.9419
G1 X61.587 Y108.583 E7.9635
; feature inner perimeter
G1 X63.467 Y108.241 F21000
G1 X63.466 Y108.151
G1 X64.427 Y107.930
G92 E0.0000
G1 X64.427 Y107.418 E0.0208 F1350
G1 X64.727 Y107.322 E0.0337
G1 X64.911 Y107.581 E0.0466
G1 X65.136 Y107.846 E0.0608
G1 X65.382 Y108.091 E0.0749
G1 X65.647 Y108.315 E0.0890
G1 X65.929 Y108.516 E0.1031
G1 X66.227 Y108.694 E0.1172
G1 X66.539 Y108.847 E0.1314
G1 X66.862 Y108.973 E0.1455
G1 X67.194 Y109.072 E0.1596
G1 X67.534 Y109.143 E0.1738
