; G-Code generated by Simplify3D(R) Version 4.1.2
; Apr 18, 2021 at 8:00:28 PM
; Settings Summary
;   processName,V6
;   applyToModels,front
;   profileName,HBot (modified)
;   profileVersion,2021-04-01 14:49:35
;   baseProfile,Default
;   printMaterial,PETG - SUNLU
;   printQuality,Medium
;   printExtruders,
;   extruderName,Extruder 1,Extruder 2 - support
;   extruderToolheadNumber,0,1
;   extruderDiameter,0.4,0.4
;   extruderAutoWidth,1,1
;   extruderWidth,0.48,0.48
;   extrusionMultiplier,1.02,1
;   extruderUseRetract,1,1
;   extruderRetractionDistance,3,1
;   extruderExtraRestartDistance,0,0
;   extruderRetractionZLift,0,0
;   extruderRetractionSpeed,5400,1800
;   extruderUseCoasting,1,1
;   extruderCoastingDistance,0.2,0.2
;   extruderUseWipe,1,1
;   extruderWipeDistance,0.4,0.4
;   primaryExtruder,0
;   layerHeight,0.2
;   topSolidLayers,4
;   bottomSolidLayers,4
;   perimeterOutlines,3
;   printPerimetersInsideOut,1
;   startPointOption,3
;   startPointOriginX,0
;   startPointOriginY,110
;   sequentialIslands,0
;   spiralVaseMode,0
;   firstLayerHeightPercentage,100
;   firstLayerWidthPercentage,100
;   firstLayerUnderspeed,0.5
;   useRaft,0
;   raftExtruder,0
;   raftTopLayers,3
;   raftBaseLayers,2
;   raftOffset,3
;   raftSeparationDistance,0.18
;   raftTopInfill,100
;   aboveRaftSpeedMultiplier,0.3
;   useSkirt,1
;   skirtExtruder,0
;   skirtLayers,1
;   skirtOutlines,3
;   skirtOffset,10
;   usePrimePillar,0
;   primePillarExtruder,999
;   primePillarWidth,12
;   primePillarLocation,7
;   primePillarSpeedMultiplier,1
;   useOozeShield,1
;   oozeShieldExtruder,999
;   oozeShieldOffset,1.4
;   oozeShieldOutlines,2
;   oozeShieldSidewallShape,0
;   oozeShieldSidewallAngle,30
;   oozeShieldSpeedMultiplier,1.5
;   infillExtruder,0
;   internalInfillPattern,Fast Honeycomb
;   externalInfillPattern,Rectilinear
;   infillPercentage,15
;   outlineOverlapPercentage,25
;   infillExtrusionWidthPercentage,100
;   minInfillLength,5
;   infillLayerInterval,1
;   internalInfillAngles,0
;   overlapInternalInfillAngles,0
;   externalInfillAngles,45,-45
;   generateSupport,0
;   supportExtruder,0
;   supportInfillPercentage,25
;   supportExtraInflation,0
;   supportBaseLayers,0
;   denseSupportExtruder,1
;   denseSupportLayers,10
;   denseSupportInfillPercentage,100
;   supportLayerInterval,1
;   supportHorizontalPartOffset,0
;   supportUpperSeparationLayers,0
;   supportLowerSeparationLayers,0
;   supportType,0
;   supportGridSpacing,2.5
;   maxOverhangAngle,45
;   supportAngles,0
;   temperatureName,Extruder 1,Heated Bed,Extruder 2 - support
;   temperatureNumber,0,1,1
;   temperatureSetpointCount,2,1,1
;   temperatureSetpointLayers,1,2,1,1
;   temperatureSetpointTemperatures,215,215,85,0
;   temperatureStabilizeAtStartup,1,1,1
;   temperatureHeatedBed,0,1,0
;   fanLayers,1,3,5
;   fanSpeeds,0,75,100
;   blipFanToFullPower,1
;   adjustSpeedForCooling,1
;   minSpeedLayerTime,15
;   minCoolingSpeedSlowdown,20
;   increaseFanForCooling,1
;   minFanLayerTime,15
;   maxCoolingFanSpeed,100
;   increaseFanForBridging,1
;   bridgingFanSpeed,100
;   use5D,1
;   relativeEdistances,0
;   allowEaxisZeroing,1
;   independentExtruderAxes,0
;   includeM10123,0
;   stickySupport,1
;   applyToolheadOffsets,0
;   gcodeXoffset,0
;   gcodeYoffset,0
;   gcodeZoffset,0
;   overrideMachineDefinition,1
;   machineTypeOverride,0
;   strokeXoverride,210
;   strokeYoverride,210
;   strokeZoverride,150
;   originOffsetXoverride,0
;   originOffsetYoverride,0
;   originOffsetZoverride,0
;   homeXdirOverride,1
;   homeYdirOverride,-1
;   homeZdirOverride,-1
;   flipXoverride,1
;   flipYoverride,-1
;   flipZoverride,1
;   toolheadOffsets,0,0|0,0|0,0|0,0|0,0|0,0
;   overrideFirmwareConfiguration,0
;   firmwareTypeOverride,RepRap (Marlin/Repetier/Sprinter)
;   GPXconfigOverride,r2
;   baudRateOverride,115200
;   overridePrinterModels,0
;   printerModelsOverride
;   startingGcode,;G28 is now included in bed.g G28 ; home all axes,G32 ; run bed.g -- probe bed and enable compensation
;   layerChangeGcode,
;   retractionGcode,
;   toolChangeGcode,
;   endingGcode,M0 ; call stop.g
;   exportFileFormat,gcode
;   celebration,0
;   celebrationSong,Random Song
;   postProcessing,
;   defaultSpeed,3600
;   outlineUnderspeed,0.5
;   solidInfillUnderspeed,0.8
;   supportUnderspeed,0.8
;   rapidXYspeed,21000
;   rapidZspeed,1200
;   minBridgingArea,50
;   bridgingExtraInflation,0
;   bridgingExtrusionMultiplier,0.96
;   bridgingSpeedMultiplier,1
;   useFixedBridgingAngle,0
;   fixedBridgingAngle,0
;   applyBridgingToPerimeters,0
;   filamentDiameters,1.75|1.75|1.75|1.75|1.75|1.75
;   filamentPricesPerKg,46|46|46|46|46|46
;   filamentDensities,1.25|1.25|1.25|1.25|1.25|1.25
;   useMinPrintHeight,0
;   minPrintHeight,0
;   useMaxPrintHeight,0
;   maxPrintHeight,12.79
;   useDiaphragm,0
;   diaphragmLayerInterval,20
;   robustSlicing,1
;   mergeAllIntoSolid,0
;   onlyRetractWhenCrossingOutline,1
;   retractBetweenLayers,0
;   useRetractionMinTravel,1
;   retractionMinTravel,3
;   retractWhileWiping,1
;   onlyWipeOutlines,1
;   avoidCrossingOutline,1
;   maxMovementDetourFactor,50
;   toolChangeRetractionDistance,7.5
;   toolChangeExtraRestartDistance,0
;   toolChangeRetractionSpeed,600
;   externalThinWallType,1
;   internalThinWallType,1
;   thinWallAllowedOverlapPercentage,10
;   singleExtrusionMinLength,1
;   singleExtrusionMinPrintingWidthPercentage,50
;   singleExtrusionMaxPrintingWidthPercentage,150
;   singleExtrusionEndpointExtension,0.2
;   horizontalSizeCompensation,0
G90
M82
M106 S0
M140 S85
M190 S85
G10 P0 S215 R{215-50}
G10 P1 S0 R{0-50}
M116 P0
;G28 is now included in bed.g G28 ; home all axes
G32 ; run bed.g -- probe bed and enable compensation
; process V6
; layer 1, Z = 0.200
T0
G92 E0.0000
G1 E-3.0000 F5400
; feature skirt
; tool H0.200 W0.480
G1 Z0.200 F1200
G1 X49.648 Y109.604 F21000
G1 E0.0000 F5400
G92 E0.0000
G1 X49.648 Y100.398 E0.3748 F1800
G1 X49.937 Y98.616 E0.4483
G1 X50.751 Y96.176 E0.5530
G1 X51.589 Y94.576 E0.6265
G1 X53.014 Y92.677 E0.7232
G1 X53.432 Y92.181 E0.7496
G1 X54.664 Y90.884 E0.8224
G1 X55.192 Y90.395 E0.8517
G1 X56.549 Y89.291 E0.9229
G1 X57.154 Y88.862 E0.9531
G1 X58.842 Y87.826 E1.0337
G1 X59.543 Y87.461 E1.0659
G1 X61.292 Y86.702 E1.1436
G1 X61.963 Y86.461 E1.1726
G1 X63.529 Y86.007 E1.2389
G1 X64.121 Y85.870 E1.2637
G1 X65.543 Y85.620 E1.3225
G1 X66.155 Y85.547 E1.3476
G1 X67.640 Y85.453 E1.4081
G1 X67.996 Y85.442 E1.4226
G1 X143.039 Y85.442 E4.4777
G1 X143.506 Y85.461 E4.4967
G1 X145.394 Y85.619 E4.5738
G1 X146.135 Y85.731 E4.6044
G1 X147.790 Y86.097 E4.6733
G1 X148.463 Y86.290 E4.7018
G1 X150.181 Y86.902 E4.7761
G1 X150.878 Y87.205 E4.8070
G1 X152.667 Y88.132 E4.8891
G1 X153.422 Y88.602 E4.9253
G1 X156.343 Y90.761 E5.0731
G1 X158.049 Y92.793 E5.1811
G1 X159.718 Y96.139 E5.3334
G1 X160.314 Y98.672 E5.4393
G1 X160.314 Y111.330 E5.9546
G1 X159.718 Y113.863 E6.0606
G1 X158.049 Y117.209 E6.2128
G1 X156.343 Y119.241 E6.3208
G1 X153.420 Y121.403 E6.4688
G1 X152.662 Y121.875 E6.5051
G1 X150.803 Y122.836 E6.5903
G1 X149.995 Y123.177 E6.6260
G1 X147.886 Y123.878 E6.7165
G1 X147.123 Y124.073 E6.7486
G1 X145.439 Y124.379 E6.8183
G1 X144.781 Y124.459 E6.8452
G1 X143.307 Y124.551 E6.9054
G1 X142.961 Y124.562 E6.9195
G1 X68.089 Y124.562 E9.9675
G1 X67.886 Y124.558 E9.9758
G1 X66.987 Y124.525 E10.0124
G1 X66.496 Y124.486 E10.0325
G1 X65.008 Y124.300 E10.0935
G1 X64.414 Y124.193 E10.1181
G1 X63.091 Y123.881 E10.1734
G1 X62.623 Y123.749 E10.1932
G1 X61.516 Y123.384 E10.2407
G1 X61.018 Y123.192 E10.2624
G1 X59.606 Y122.572 E10.3252
G1 X59.029 Y122.278 E10.3515
G1 X57.654 Y121.472 E10.4164
G1 X57.150 Y121.140 E10.4410
G1 X55.997 Y120.286 E10.4994
G1 X55.533 Y119.902 E10.5239
G1 X54.416 Y118.872 E10.5858
G1 X54.041 Y118.491 E10.6075
G1 X53.263 Y117.623 E10.6550
G1 X52.955 Y117.247 E10.6748
G1 X51.589 Y115.427 E10.7674
G1 X50.751 Y113.827 E10.8410
G1 X49.937 Y111.387 E10.9457
G1 X49.648 Y109.604 E11.0192
G1 X50.128 Y109.566 F21000
G92 E0.0000
G1 X50.128 Y100.437 E0.3716 F1800
G1 X50.405 Y98.731 E0.4420
G1 X51.194 Y96.364 E0.5436
G1 X51.996 Y94.833 E0.6139
G1 X53.389 Y92.976 E0.7084
G1 X53.790 Y92.502 E0.7337
G1 X55.002 Y91.225 E0.8054
G1 X55.507 Y90.758 E0.8334
G1 X56.840 Y89.673 E0.9033
G1 X57.419 Y89.262 E0.9323
G1 X59.078 Y88.244 E1.0115
G1 X59.750 Y87.895 E1.0423
G1 X61.469 Y87.148 E1.1186
G1 X62.111 Y86.917 E1.1464
G1 X63.650 Y86.472 E1.2116
G1 X64.216 Y86.340 E1.2353
G1 X65.613 Y86.095 E1.2930
G1 X66.199 Y86.026 E1.3170
G1 X67.663 Y85.932 E1.3768
G1 X68.003 Y85.922 E1.3906
G1 X143.029 Y85.922 E4.4450
G1 X143.476 Y85.940 E4.4632
G1 X145.338 Y86.096 E4.5392
G1 X146.048 Y86.203 E4.5685
G1 X147.672 Y86.562 E4.6362
G1 X148.316 Y86.747 E4.6634
G1 X150.005 Y87.349 E4.7364
G1 X150.672 Y87.639 E4.7660
G1 X152.429 Y88.549 E4.8466
G1 X153.152 Y88.999 E4.8813
G1 X156.012 Y91.113 E5.0261
G1 X157.644 Y93.058 E5.1294
G1 X159.263 Y96.304 E5.2771
G1 X159.834 Y98.728 E5.3785
G1 X159.834 Y111.275 E5.8893
G1 X159.263 Y113.699 E5.9907
G1 X157.645 Y116.944 E6.1383
G1 X156.012 Y118.889 E6.2417
G1 X153.150 Y121.005 E6.3866
G1 X152.425 Y121.457 E6.4214
G1 X150.600 Y122.401 E6.5050
G1 X149.826 Y122.727 E6.5392
G1 X147.750 Y123.417 E6.6282
G1 X147.021 Y123.603 E6.6589
G1 X145.367 Y123.905 E6.7273
G1 X144.737 Y123.981 E6.7532
G1 X143.285 Y124.071 E6.8124
G1 X142.953 Y124.082 E6.8259
G1 X68.094 Y124.082 E9.8735
G1 X67.900 Y124.078 E9.8814
G1 X67.015 Y124.046 E9.9174
G1 X66.545 Y124.008 E9.9366
G1 X65.081 Y123.825 E9.9967
G1 X64.512 Y123.723 E10.0202
G1 X63.212 Y123.416 E10.0746
G1 X62.763 Y123.290 E10.0936
G1 X61.678 Y122.931 E10.1401
G1 X61.201 Y122.748 E10.1609
G1 X59.812 Y122.138 E10.2226
G1 X59.260 Y121.856 E10.2479
G1 X57.907 Y121.065 E10.3117
G1 X57.425 Y120.746 E10.3352
G1 X56.293 Y119.908 E10.3926
G1 X55.849 Y119.540 E10.4160
G1 X54.750 Y118.527 E10.4769
G1 X54.391 Y118.163 E10.4977
G1 X53.628 Y117.311 E10.5443
G1 X53.332 Y116.951 E10.5632
G1 X51.996 Y115.170 E10.6539
G1 X51.194 Y113.638 E10.7243
G1 X50.405 Y111.272 E10.8258
G1 X50.128 Y109.566 E10.8962
G1 X50.608 Y109.527 F21000
G92 E0.0000
G1 X50.608 Y100.476 E0.3685 F1800
G1 X50.872 Y98.846 E0.4357
G1 X51.637 Y96.553 E0.5341
G1 X52.403 Y95.090 E0.6013
G1 X53.765 Y93.275 E0.6937
G1 X54.148 Y92.822 E0.7178
G1 X55.339 Y91.567 E0.7883
G1 X55.822 Y91.120 E0.8151
G1 X57.130 Y90.056 E0.8837
G1 X57.684 Y89.663 E0.9114
G1 X59.315 Y88.662 E0.9893
G1 X59.956 Y88.328 E1.0187
G1 X61.646 Y87.595 E1.0937
G1 X62.260 Y87.374 E1.1202
G1 X63.771 Y86.936 E1.1843
G1 X64.312 Y86.811 E1.2069
G1 X65.683 Y86.570 E1.2636
G1 X66.242 Y86.504 E1.2865
G1 X67.686 Y86.412 E1.3454
G1 X68.011 Y86.402 E1.3586
G1 X143.019 Y86.402 E4.4123
G1 X143.446 Y86.419 E4.4296
G1 X145.282 Y86.573 E4.5046
G1 X145.960 Y86.676 E4.5326
G1 X147.554 Y87.028 E4.5990
G1 X148.169 Y87.204 E4.6251
G1 X149.828 Y87.795 E4.6968
G1 X150.465 Y88.072 E4.7251
G1 X152.192 Y88.967 E4.8042
G1 X152.882 Y89.397 E4.8373
G1 X155.681 Y91.466 E4.9790
G1 X157.240 Y93.323 E5.0777
G1 X158.809 Y96.468 E5.2208
G1 X159.354 Y98.784 E5.3177
G1 X159.354 Y111.219 E5.8239
G1 X158.809 Y113.535 E5.9208
G1 X157.241 Y116.679 E6.0638
G1 X155.681 Y118.537 E6.1626
G1 X152.880 Y120.608 E6.3044
G1 X152.187 Y121.039 E6.3376
G1 X150.396 Y121.966 E6.4197
G1 X149.657 Y122.278 E6.4524
G1 X147.615 Y122.956 E6.5400
G1 X146.918 Y123.134 E6.5692
G1 X145.295 Y123.430 E6.6364
G1 X144.693 Y123.503 E6.6611
G1 X143.262 Y123.592 E6.7194
G1 X142.946 Y123.602 E6.7323
G1 X68.098 Y123.602 E9.7794
G1 X67.913 Y123.598 E9.7870
G1 X67.043 Y123.567 E9.8224
G1 X66.594 Y123.531 E9.8407
G1 X65.153 Y123.351 E9.8999
G1 X64.610 Y123.253 E9.9223
G1 X63.332 Y122.951 E9.9758
G1 X62.904 Y122.831 E9.9939
G1 X61.839 Y122.479 E10.0395
G1 X61.383 Y122.304 E10.0594
G1 X60.018 Y121.704 E10.1201
G1 X59.490 Y121.435 E10.1442
G1 X58.161 Y120.657 E10.2069
G1 X57.700 Y120.353 E10.2294
G1 X56.589 Y119.530 E10.2857
G1 X56.165 Y119.179 E10.3081
G1 X55.084 Y118.182 E10.3680
G1 X54.741 Y117.834 E10.3879
G1 X53.992 Y116.998 E10.4336
G1 X53.710 Y116.654 E10.4517
G1 X52.403 Y114.912 E10.5403
G1 X51.637 Y113.450 E10.6075
G1 X50.872 Y111.157 E10.7059
G1 X50.608 Y109.527 E10.7732
G92 E0.0000
G1 E-3.0000 F5400
; feature ooze shield
G1 X61.088 Y108.662 F21000
G1 E0.0000 F5400
G92 E0.0000
G1 X61.088 Y101.340 E0.2981 F2700
G1 X61.305 Y100.688 E0.3261
G1 X61.966 Y99.807 E0.3709
G1 X62.045 Y99.713 E0.3759
G1 X62.608 Y99.120 E0.4092
G1 X62.698 Y99.036 E0.4142
G1 X63.338 Y98.502 E0.4481
G1 X63.463 Y98.413 E0.4544
G1 X64.481 Y97.787 E0.5030
G1 X64.618 Y97.717 E0.5093
G1 X65.384 Y97.388 E0.5432
G1 X65.498 Y97.347 E0.5482
G1 X66.282 Y97.113 E0.5815
G1 X66.402 Y97.084 E0.5865
G1 X67.208 Y96.943 E0.6198
G1 X67.331 Y96.929 E0.6248
G1 X68.116 Y96.883 E0.6569
G1 X68.177 Y96.882 E0.6594
G1 X142.800 Y96.882 E3.6973
G1 X142.892 Y96.886 E3.7010
G1 X144.057 Y96.987 E3.7486
G1 X144.207 Y97.011 E3.7548
G1 X144.973 Y97.190 E3.7868
G1 X145.083 Y97.222 E3.7915
G1 X145.826 Y97.483 E3.8236
G1 X145.962 Y97.542 E3.8296
G1 X147.002 Y98.081 E3.8773
G1 X147.153 Y98.176 E3.8845
G1 X148.429 Y99.136 E3.9496
G1 X148.874 Y100.030 E3.9902
G1 X148.874 Y109.973 E4.3950
G1 X148.429 Y110.867 E4.4356
G1 X147.153 Y111.828 E4.5007
G1 X147.001 Y111.923 E4.5079
G1 X145.947 Y112.468 E4.5563
G1 X145.781 Y112.537 E4.5636
G1 X144.663 Y112.893 E4.6113
G1 X144.519 Y112.928 E4.6174
G1 X143.724 Y113.064 E4.6502
G1 X143.606 Y113.077 E4.6551
G1 X142.843 Y113.120 E4.6862
G1 X142.784 Y113.122 E4.6886
G1 X68.192 Y113.122 E7.7252
G1 X68.162 Y113.121 E7.7265
G1 X67.753 Y113.109 E7.7431
G1 X67.661 Y113.103 E7.7469
G1 X66.864 Y113.010 E7.7795
G1 X66.743 Y112.989 E7.7846
G1 X65.962 Y112.804 E7.8172
G1 X65.873 Y112.779 E7.8210
G1 X65.455 Y112.641 E7.8389
G1 X65.369 Y112.609 E7.8426
G1 X64.632 Y112.292 E7.8753
G1 X64.522 Y112.237 E7.8803
G1 X63.813 Y111.830 E7.9136
G1 X63.710 Y111.762 E7.9186
G1 X63.053 Y111.276 E7.9519
G1 X62.958 Y111.197 E7.9569
G1 X62.373 Y110.648 E7.9896
G1 X62.308 Y110.582 E7.9933
G1 X62.015 Y110.254 E8.0112
G1 X61.957 Y110.183 E8.0150
G1 X61.305 Y109.315 E8.0592
G1 X61.088 Y108.662 E8.0872
G1 X61.568 Y108.584 F21000
G92 E0.0000
G1 X61.568 Y101.418 E0.2917 F2700
G1 X61.736 Y100.913 E0.3134
G1 X62.342 Y100.106 E0.3545
G1 X62.403 Y100.034 E0.3583
G1 X62.947 Y99.461 E0.3905
G1 X63.016 Y99.396 E0.3944
G1 X63.632 Y98.882 E0.4270
G1 X63.729 Y98.813 E0.4319
G1 X64.718 Y98.206 E0.4791
G1 X64.823 Y98.151 E0.4840
G1 X65.560 Y97.835 E0.5166
G1 X65.649 Y97.803 E0.5204
G1 X66.406 Y97.576 E0.5526
G1 X66.499 Y97.554 E0.5565
G1 X67.278 Y97.418 E0.5887
G1 X67.372 Y97.407 E0.5925
G1 X68.137 Y97.363 E0.6237
G1 X68.184 Y97.362 E0.6257
G1 X142.790 Y97.362 E3.6629
G1 X142.861 Y97.365 E3.6658
G1 X143.998 Y97.464 E3.7123
G1 X144.114 Y97.482 E3.7170
G1 X144.851 Y97.654 E3.7478
G1 X144.936 Y97.679 E3.7514
G1 X145.651 Y97.930 E3.7823
G1 X145.756 Y97.976 E3.7870
G1 X146.764 Y98.498 E3.8332
G1 X146.880 Y98.571 E3.8388
G1 X148.049 Y99.452 E3.8984
G1 X148.394 Y100.143 E3.9298
G1 X148.394 Y109.860 E4.3254
G1 X148.050 Y110.551 E4.3568
G1 X146.880 Y111.432 E4.4164
G1 X146.763 Y111.506 E4.4221
G1 X145.744 Y112.033 E4.4688
G1 X145.616 Y112.086 E4.4744
G1 X144.534 Y112.431 E4.5206
G1 X144.422 Y112.458 E4.5253
G1 X143.657 Y112.588 E4.5569
G1 X143.565 Y112.599 E4.5607
G1 X142.823 Y112.640 E4.5909
G1 X142.777 Y112.642 E4.5928
G1 X68.196 Y112.642 E7.6290
G1 X68.172 Y112.641 E7.6300
G1 X67.777 Y112.630 E7.6461
G1 X67.706 Y112.625 E7.6490
G1 X66.933 Y112.535 E7.6807
G1 X66.839 Y112.518 E7.6846
G1 X66.082 Y112.339 E7.7162
G1 X66.014 Y112.320 E7.7191
G1 X65.616 Y112.189 E7.7362
G1 X65.549 Y112.163 E7.7391
G1 X64.834 Y111.856 E7.7708
G1 X64.749 Y111.814 E7.7746
G1 X64.064 Y111.420 E7.8068
G1 X63.984 Y111.368 E7.8107
G1 X63.350 Y110.898 E7.8428
G1 X63.277 Y110.837 E7.8467
G1 X62.709 Y110.305 E7.8784
G1 X62.659 Y110.254 E7.8813
G1 X62.380 Y109.942 E7.8983
G1 X62.334 Y109.887 E7.9012
G1 X61.736 Y109.089 E7.9418
G1 X61.568 Y108.584 E7.9635
; feature inner perimeter
G1 X63.448 Y108.242 F21000
G1 X63.448 Y108.152
G1 X64.408 Y107.931
G92 E0.0000
G1 X64.408 Y107.419 E0.0208 F1350
G1 X64.708 Y107.323 E0.0337
