; G-Code generated by Simplify3D(R) Version 4.1.2
; Apr 30, 2021 at 7:20:38 PM
; Settings Summary
;   processName,V6
;   applyToModels,vorne
;   profileName,HBot (modified)
;   profileVersion,2021-04-01 14:49:35
;   baseProfile,Default
;   printMaterial,PETG - SUNLU
;   printQuality,Medium
;   printExtruders,
;   extruderName,Extruder 1,Extruder 2 - support
;   extruderToolheadNumber,0,1
;   extruderDiameter,0.4,0.4
;   extruderAutoWidth,1,1
;   extruderWidth,0.48,0.48
;   extrusionMultiplier,1.02,1
;   extruderUseRetract,1,1
;   extruderRetractionDistance,3,1
;   extruderExtraRestartDistance,0,0
;   extruderRetractionZLift,0,0
;   extruderRetractionSpeed,5400,1800
;   extruderUseCoasting,1,1
;   extruderCoastingDistance,0.2,0.2
;   extruderUseWipe,1,0
;   extruderWipeDistance,0.4,0.4
;   primaryExtruder,0
;   layerHeight,0.2
;   topSolidLayers,4
;   bottomSolidLayers,4
;   perimeterOutlines,3
;   printPerimetersInsideOut,1
;   startPointOption,3
;   startPointOriginX,0
;   startPointOriginY,110
;   sequentialIslands,0
;   spiralVaseMode,0
;   firstLayerHeightPercentage,100
;   firstLayerWidthPercentage,100
;   firstLayerUnderspeed,0.5
;   useRaft,0
;   raftExtruder,0
;   raftTopLayers,3
;   raftBaseLayers,2
;   raftOffset,3
;   raftSeparationDistance,0.18
;   raftTopInfill,100
;   aboveRaftSpeedMultiplier,0.3
;   useSkirt,1
;   skirtExtruder,0
;   skirtLayers,1
;   skirtOutlines,20
;   skirtOffset,0
;   usePrimePillar,0
;   primePillarExtruder,999
;   primePillarWidth,12
;   primePillarLocation,7
;   primePillarSpeedMultiplier,1
;   useOozeShield,0
;   oozeShieldExtruder,999
;   oozeShieldOffset,1.4
;   oozeShieldOutlines,2
;   oozeShieldSidewallShape,0
;   oozeShieldSidewallAngle,30
;   oozeShieldSpeedMultiplier,1.5
;   infillExtruder,0
;   internalInfillPattern,Rectilinear
;   externalInfillPattern,Rectilinear
;   infillPercentage,15
;   outlineOverlapPercentage,25
;   infillExtrusionWidthPercentage,100
;   minInfillLength,5
;   infillLayerInterval,1
;   internalInfillAngles,45,-45
;   overlapInternalInfillAngles,0
;   externalInfillAngles,45,-45
;   generateSupport,0
;   supportExtruder,0
;   supportInfillPercentage,25
;   supportExtraInflation,0
;   supportBaseLayers,0
;   denseSupportExtruder,1
;   denseSupportLayers,10
;   denseSupportInfillPercentage,100
;   supportLayerInterval,1
;   supportHorizontalPartOffset,0
;   supportUpperSeparationLayers,0
;   supportLowerSeparationLayers,0
;   supportType,0
;   supportGridSpacing,2.5
;   maxOverhangAngle,45
;   supportAngles,0
;   temperatureName,Extruder 1,Heated Bed,Extruder 2 - support
;   temperatureNumber,0,1,1
;   temperatureSetpointCount,2,1,1
;   temperatureSetpointLayers,1,2,1,1
;   temperatureSetpointTemperatures,215,215,85,0
;   temperatureStabilizeAtStartup,1,1,1
;   temperatureHeatedBed,0,1,0
;   fanLayers,1,3,5
;   fanSpeeds,0,60,85
;   blipFanToFullPower,1
;   adjustSpeedForCooling,1
;   minSpeedLayerTime,15
;   minCoolingSpeedSlowdown,20
;   increaseFanForCooling,1
;   minFanLayerTime,15
;   maxCoolingFanSpeed,100
;   increaseFanForBridging,1
;   bridgingFanSpeed,100
;   use5D,1
;   relativeEdistances,0
;   allowEaxisZeroing,1
;   independentExtruderAxes,0
;   includeM10123,0
;   stickySupport,1
;   applyToolheadOffsets,0
;   gcodeXoffset,0
;   gcodeYoffset,0
;   gcodeZoffset,0
;   overrideMachineDefinition,1
;   machineTypeOverride,0
;   strokeXoverride,210
;   strokeYoverride,210
;   strokeZoverride,150
;   originOffsetXoverride,0
;   originOffsetYoverride,0
;   originOffsetZoverride,0
;   homeXdirOverride,1
;   homeYdirOverride,-1
;   homeZdirOverride,-1
;   flipXoverride,1
;   flipYoverride,-1
;   flipZoverride,1
;   toolheadOffsets,0,0|0,0|0,0|0,0|0,0|0,0
;   overrideFirmwareConfiguration,0
;   firmwareTypeOverride,RepRap (Marlin/Repetier/Sprinter)
;   GPXconfigOverride,r2
;   baudRateOverride,115200
;   overridePrinterModels,0
;   printerModelsOverride
;   startingGcode,;G28 is now included in bed.g G28 ; home all axes,G32 ; run bed.g -- probe bed and enable compensation
;   layerChangeGcode,
;   retractionGcode,
;   toolChangeGcode,
;   endingGcode,M0 ; call stop.g
;   exportFileFormat,gcode
;   celebration,0
;   celebrationSong,Random Song
;   postProcessing,
;   defaultSpeed,3600
;   outlineUnderspeed,0.5
;   solidInfillUnderspeed,0.8
;   supportUnderspeed,0.8
;   rapidXYspeed,21000
;   rapidZspeed,1200
;   minBridgingArea,50
;   bridgingExtraInflation,0
;   bridgingExtrusionMultiplier,0.96
;   bridgingSpeedMultiplier,1
;   useFixedBridgingAngle,0
;   fixedBridgingAngle,0
;   applyBridgingToPerimeters,0
;   filamentDiameters,1.75|1.75|1.75|1.75|1.75|1.75
;   filamentPricesPerKg,46|46|46|46|46|46
;   filamentDensities,1.25|1.25|1.25|1.25|1.25|1.25
;   useMinPrintHeight,0
;   minPrintHeight,0
;   useMaxPrintHeight,0
;   maxPrintHeight,12.79
;   useDiaphragm,0
;   diaphragmLayerInterval,20
;   robustSlicing,1
;   mergeAllIntoSolid,0
;   onlyRetractWhenCrossingOutline,1
;   retractBetweenLayers,0
;   useRetractionMinTravel,1
;   retractionMinTravel,3
;   retractWhileWiping,1
;   onlyWipeOutlines,1
;   avoidCrossingOutline,1
;   maxMovementDetourFactor,50
;   toolChangeRetractionDistance,7.5
;   toolChangeExtraRestartDistance,0
;   toolChangeRetractionSpeed,600
;   externalThinWallType,0
;   internalThinWallType,2
;   thinWallAllowedOverlapPercentage,10
;   singleExtrusionMinLength,1
;   singleExtrusionMinPrintingWidthPercentage,50
;   singleExtrusionMaxPrintingWidthPercentage,150
;   singleExtrusionEndpointExtension,0.2
;   horizontalSizeCompensation,0
G90
M82
M106 S0
M140 S85
M190 S85
G10 P0 S215 R{215-50}
G10 P1 S0 R{0-50}
M116 P0
;G28 is now included in bed.g G28 ; home all axes
G32 ; run bed.g -- probe bed and enable compensation
; process V6
; layer 1, Z = 0.200
T0
G92 E0.0000
G1 E-3.0000 F5400
; feature skirt
; tool H0.200 W0.480
G1 Z0.200 F1200
G1 X53.867 Y109.836 F21000
G1 E0.0000 F5400
G92 E0.0000
G1 X53.867 Y100.164 E0.3937 F1800
G1 X54.827 Y97.282 E0.5174
G1 X56.318 Y95.295 E0.6186
G1 X56.668 Y94.880 E0.6406
G1 X57.475 Y94.031 E0.6883
G1 X57.768 Y93.748 E0.7049
G1 X58.330 Y93.250 E0.7355
G1 X58.646 Y92.994 E0.7520
G1 X59.588 Y92.296 E0.7998
G1 X60.042 Y91.999 E0.8218
G1 X61.115 Y91.383 E0.8722
G1 X61.600 Y91.140 E0.8943
G1 X62.740 Y90.651 E0.9448
G1 X63.250 Y90.466 E0.9669
G1 X64.432 Y90.114 E1.0171
G1 X64.960 Y89.989 E1.0392
G1 X66.184 Y89.774 E1.0898
G1 X66.723 Y89.711 E1.1119
G1 X67.821 Y89.648 E1.1566
G1 X68.092 Y89.640 E1.1677
G1 X142.968 Y89.640 E4.2159
G1 X143.361 Y89.656 E4.2319
G1 X144.892 Y89.785 E4.2945
G1 X145.540 Y89.886 E4.3212
G1 X146.839 Y90.183 E4.3754
G1 X147.468 Y90.374 E4.4022
G1 X149.023 Y90.967 E4.4699
G1 X149.619 Y91.245 E4.4967
G1 X150.784 Y91.888 E4.5509
G1 X151.335 Y92.246 E4.5776
G1 X154.166 Y94.378 E4.7219
G1 X156.133 Y98.324 E4.9014
G1 X156.133 Y111.607 E5.4422
G1 X154.282 Y115.455 E5.6160
G1 X151.828 Y117.414 E5.7438
G1 X151.286 Y117.787 E5.7706
G1 X149.795 Y118.667 E5.8411
G1 X149.084 Y119.009 E5.8732
G1 X147.407 Y119.650 E5.9463
G1 X146.649 Y119.868 E5.9784
G1 X144.950 Y120.206 E6.0490
G1 X144.298 Y120.289 E6.0757
G1 X143.168 Y120.353 E6.1218
G1 X142.904 Y120.360 E6.1325
G1 X67.605 Y120.350 E9.1980
G1 X67.064 Y120.318 E9.2200
G1 X65.835 Y120.175 E9.2704
G1 X65.301 Y120.081 E9.2925
G1 X64.099 Y119.798 E9.3428
G1 X63.579 Y119.643 E9.3648
G1 X62.416 Y119.221 E9.4152
G1 X61.918 Y119.007 E9.4373
G1 X60.809 Y118.453 E9.4877
G1 X60.339 Y118.183 E9.5098
G1 X59.303 Y117.505 E9.5602
G1 X58.867 Y117.182 E9.5823
G1 X57.917 Y116.390 E9.6327
G1 X57.522 Y116.019 E9.6548
G1 X56.668 Y115.120 E9.7052
G1 X56.318 Y114.705 E9.7273
G1 X54.827 Y112.718 E9.8284
G1 X53.867 Y109.836 E9.9521
G1 X54.346 Y109.758 F21000
G92 E0.0000
G1 X54.346 Y100.242 E0.3874 F1800
G1 X55.258 Y97.508 E0.5047
G1 X56.694 Y95.594 E0.6021
G1 X57.026 Y95.200 E0.6231
G1 X57.816 Y94.369 E0.6698
G1 X58.093 Y94.101 E0.6855
G1 X58.641 Y93.616 E0.7152
G1 X58.940 Y93.373 E0.7310
G1 X59.863 Y92.690 E0.7777
G1 X60.293 Y92.409 E0.7986
G1 X61.342 Y91.806 E0.8479
G1 X61.802 Y91.576 E0.8688
G1 X62.916 Y91.097 E0.9182
G1 X63.400 Y90.922 E0.9391
G1 X64.556 Y90.578 E0.9882
G1 X65.057 Y90.459 E1.0092
G1 X66.253 Y90.249 E1.0586
G1 X66.764 Y90.190 E1.0796
G1 X67.842 Y90.127 E1.1235
G1 X68.099 Y90.120 E1.1340
G1 X142.958 Y90.120 E4.1815
G1 X143.331 Y90.136 E4.1967
G1 X144.835 Y90.262 E4.2582
G1 X145.450 Y90.358 E4.2835
G1 X146.716 Y90.647 E4.3364
G1 X147.313 Y90.828 E4.3618
G1 X148.836 Y91.410 E4.4282
G1 X149.402 Y91.673 E4.4535
G1 X150.537 Y92.300 E4.5063
G1 X151.060 Y92.639 E4.5317
G1 X153.787 Y94.693 E4.6707
G1 X155.653 Y98.437 E4.8410
G1 X155.653 Y111.498 E5.3727
G1 X153.897 Y115.148 E5.5377
G1 X151.542 Y117.028 E5.6603
G1 X151.028 Y117.382 E5.6857
G1 X149.568 Y118.244 E5.7547
G1 X148.894 Y118.568 E5.7852
G1 X147.254 Y119.194 E5.8566
G1 X146.536 Y119.401 E5.8871
G1 X144.873 Y119.732 E5.9561
G1 X144.254 Y119.811 E5.9815
G1 X143.148 Y119.873 E6.0266
G1 X142.898 Y119.880 E6.0368
G1 X67.619 Y119.870 E9.1014
G1 X67.106 Y119.840 E9.1223
G1 X65.905 Y119.700 E9.1716
G1 X65.398 Y119.611 E9.1925
G1 X64.223 Y119.334 E9.2417
G1 X63.730 Y119.187 E9.2626
G1 X62.593 Y118.775 E9.3118
G1 X62.120 Y118.572 E9.3328
G1 X61.036 Y118.030 E9.3821
G1 X60.590 Y117.774 E9.4031
G1 X59.578 Y117.111 E9.4523
G1 X59.164 Y116.805 E9.4733
G1 X58.235 Y116.030 E9.5225
G1 X57.860 Y115.678 E9.5435
G1 X57.026 Y114.800 E9.5928
G1 X56.694 Y114.406 E9.6137
G1 X55.258 Y112.492 E9.7111
G1 X54.346 Y109.758 E9.8285
G1 X54.827 Y109.680 F21000
G92 E0.0000
G1 X54.827 Y100.320 E0.3810 F1800
G1 X55.689 Y97.733 E0.4920
G1 X57.070 Y95.893 E0.5857
G1 X57.384 Y95.521 E0.6055
G1 X58.157 Y94.707 E0.6512
G1 X58.419 Y94.453 E0.6661
G1 X58.951 Y93.983 E0.6950
G1 X59.235 Y93.753 E0.7099
G1 X60.137 Y93.084 E0.7556
G1 X60.544 Y92.818 E0.7754
G1 X61.569 Y92.229 E0.8235
G1 X62.005 Y92.011 E0.8433
G1 X63.093 Y91.544 E0.8915
G1 X63.551 Y91.378 E0.9114
G1 X64.680 Y91.041 E0.9593
G1 X65.154 Y90.930 E0.9792
G1 X66.322 Y90.724 E1.0275
G1 X66.806 Y90.668 E1.0473
G1 X67.862 Y90.607 E1.0904
G1 X68.106 Y90.600 E1.1003
G1 X142.948 Y90.600 E4.1471
G1 X143.301 Y90.615 E4.1615
G1 X144.777 Y90.739 E4.2218
G1 X145.359 Y90.830 E4.2458
G1 X146.592 Y91.111 E4.2973
G1 X147.157 Y91.283 E4.3213
G1 X148.649 Y91.852 E4.3864
G1 X149.184 Y92.101 E4.4104
G1 X150.290 Y92.712 E4.4618
G1 X150.785 Y93.033 E4.4858
G1 X153.408 Y95.009 E4.6195
G1 X155.173 Y98.550 E4.7806
G1 X155.173 Y111.388 E5.3032
G1 X153.512 Y114.842 E5.4593
G1 X151.255 Y116.642 E5.5768
G1 X150.770 Y116.977 E5.6008
G1 X149.342 Y117.820 E5.6683
G1 X148.704 Y118.127 E5.6971
G1 X147.102 Y118.739 E5.7669
G1 X146.422 Y118.935 E5.7957
G1 X144.796 Y119.258 E5.8632
G1 X144.211 Y119.332 E5.8872
G1 X143.127 Y119.393 E5.9314
G1 X142.891 Y119.400 E5.9410
G1 X67.633 Y119.390 E9.0048
G1 X67.148 Y119.362 E9.0246
G1 X65.974 Y119.225 E9.0727
G1 X65.495 Y119.141 E9.0925
G1 X64.347 Y118.870 E9.1405
G1 X63.880 Y118.731 E9.1604
G1 X62.769 Y118.328 E9.2085
G1 X62.322 Y118.136 E9.2283
G1 X61.263 Y117.607 E9.2765
G1 X60.841 Y117.364 E9.2963
G1 X59.852 Y116.717 E9.3444
G1 X59.461 Y116.427 E9.3642
G1 X58.554 Y115.670 E9.4123
G1 X58.199 Y115.337 E9.4322
G1 X57.384 Y114.479 E9.4803
G1 X57.070 Y114.107 E9.5002
G1 X55.689 Y112.267 E9.5938
G1 X54.827 Y109.680 E9.7048
G1 X55.306 Y109.602 F21000
G92 E0.0000
G1 X55.306 Y100.398 E0.3747 F1800
G1 X56.120 Y97.959 E0.4794
G1 X57.445 Y96.192 E0.5693
G1 X57.741 Y95.841 E0.5880
G1 X58.497 Y95.045 E0.6327
G1 X58.745 Y94.806 E0.6467
G1 X59.261 Y94.349 E0.6748
G1 X59.529 Y94.132 E0.6888
G1 X60.412 Y93.478 E0.7335
G1 X60.796 Y93.227 E0.7522
G1 X61.796 Y92.652 E0.7992
G1 X62.207 Y92.447 E0.8179
G1 X63.269 Y91.990 E0.8649
G1 X63.701 Y91.834 E0.8836
G1 X64.804 Y91.505 E0.9305
G1 X65.250 Y91.400 E0.9491
G1 X66.391 Y91.199 E0.9963
G1 X66.847 Y91.147 E1.0150
G1 X67.883 Y91.087 E1.0572
G1 X68.113 Y91.080 E1.0666
G1 X142.938 Y91.080 E4.1128
G1 X143.271 Y91.094 E4.1263
G1 X144.720 Y91.216 E4.1855
G1 X145.269 Y91.301 E4.2081
G1 X146.469 Y91.575 E4.2582
G1 X147.001 Y91.737 E4.2809
G1 X148.462 Y92.295 E4.3446
G1 X148.967 Y92.529 E4.3672
G1 X150.043 Y93.124 E4.4172
G1 X150.509 Y93.427 E4.4399
G1 X153.029 Y95.324 E4.5683
G1 X154.693 Y98.663 E4.7202
G1 X154.693 Y111.279 E5.2338
G1 X153.126 Y114.535 E5.3809
G1 X150.969 Y116.257 E5.4933
G1 X150.511 Y116.572 E5.5159
G1 X149.115 Y117.396 E5.5819
G1 X148.514 Y117.685 E5.6091
G1 X146.950 Y118.283 E5.6772
G1 X146.309 Y118.468 E5.7044
G1 X144.719 Y118.784 E5.7704
G1 X144.167 Y118.854 E5.7930
G1 X143.107 Y118.914 E5.8362
G1 X142.884 Y118.920 E5.8453
G1 X67.647 Y118.910 E8.9082
G1 X67.190 Y118.883 E8.9269
G1 X66.044 Y118.750 E8.9739
G1 X65.592 Y118.670 E8.9926
G1 X64.471 Y118.406 E9.0394
G1 X64.031 Y118.275 E9.0581
G1 X62.946 Y117.881 E9.1051
G1 X62.524 Y117.700 E9.1238
G1 X61.490 Y117.184 E9.1708
G1 X61.092 Y116.955 E9.1895
G1 X60.127 Y116.323 E9.2365
G1 X59.758 Y116.050 E9.2552
G1 X58.872 Y115.311 E9.3022
G1 X58.537 Y114.997 E9.3209
G1 X57.742 Y114.159 E9.3679
G1 X57.445 Y113.808 E9.3866
G1 X56.120 Y112.041 E9.4765
G1 X55.306 Y109.602 E9.5812
G1 X55.786 Y109.524 F21000
G92 E0.0000
G1 X55.786 Y100.476 E0.3684 F1800
G1 X56.550 Y98.185 E0.4667
G1 X57.821 Y96.491 E0.5529
G1 X58.099 Y96.161 E0.5704
G1 X58.838 Y95.383 E0.6141
G1 X59.071 Y95.158 E0.6273
G1 X59.572 Y94.715 E0.6545
G1 X59.823 Y94.512 E0.6677
G1 X60.686 Y93.872 E0.7114
G1 X61.047 Y93.636 E0.7290
G1 X62.024 Y93.075 E0.7748
G1 X62.409 Y92.882 E0.7924
G1 X63.446 Y92.437 E0.8383
G1 X63.851 Y92.290 E0.8559
G1 X64.928 Y91.969 E0.9016
G1 X65.347 Y91.870 E0.9191
G1 X66.460 Y91.675 E0.9651
G1 X66.889 Y91.625 E0.9827
G1 X67.904 Y91.566 E1.0241
G1 X68.119 Y91.560 E1.0329
G1 X142.928 Y91.560 E4.0784
G1 X143.241 Y91.573 E4.0911
G1 X144.663 Y91.693 E4.1492
G1 X145.179 Y91.773 E4.1705
G1 X146.346 Y92.039 E4.2192
G1 X146.846 Y92.191 E4.2405
G1 X148.275 Y92.737 E4.3028
G1 X148.749 Y92.957 E4.3240
G1 X149.796 Y93.536 E4.3727
G1 X150.234 Y93.820 E4.3940
G1 X152.650 Y95.639 E4.5171
G1 X154.213 Y98.776 E4.6598
G1 X154.213 Y111.169 E5.1643
G1 X152.741 Y114.228 E5.3025
G1 X150.683 Y115.871 E5.4097
G1 X150.253 Y116.167 E5.4310
G1 X148.889 Y116.972 E5.4955
G1 X148.324 Y117.244 E5.5210
G1 X146.797 Y117.827 E5.5875
G1 X146.195 Y118.001 E5.6130
G1 X144.641 Y118.310 E5.6775
G1 X144.123 Y118.376 E5.6988
G1 X143.087 Y118.434 E5.7410
G1 X142.878 Y118.440 E5.7496
G1 X67.662 Y118.430 E8.8116
G1 X67.231 Y118.405 E8.8292
G1 X66.113 Y118.275 E8.8750
G1 X65.688 Y118.200 E8.8926
G1 X64.594 Y117.942 E8.9383
G1 X64.181 Y117.819 E8.9559
G1 X63.122 Y117.435 E9.0017
G1 X62.726 Y117.265 E9.0193
G1 X61.718 Y116.761 E9.0652
G1 X61.344 Y116.546 E9.0827
G1 X60.401 Y115.929 E9.1286
G1 X60.055 Y115.672 E9.1462
G1 X59.190 Y114.951 E9.1920
G1 X58.876 Y114.656 E9.2096
G1 X58.099 Y113.839 E9.2555
G1 X57.821 Y113.509 E9.2730
G1 X56.550 Y111.815 E9.3592
G1 X55.786 Y109.524 E9.4575
G1 X56.267 Y109.446 F21000
G92 E0.0000
G1 X56.267 Y100.554 E0.3620 F1800
G1 X56.981 Y98.410 E0.4540
G1 X58.197 Y96.790 E0.5364
G1 X58.457 Y96.482 E0.5529
G1 X59.179 Y95.721 E0.5956
G1 X59.397 Y95.511 E0.6079
G1 X59.882 Y95.082 E0.6343
G1 X60.117 Y94.891 E0.6466
G1 X60.961 Y94.266 E0.6893
G1 X61.298 Y94.046 E0.7057
G1 X62.251 Y93.498 E0.7505
G1 X62.611 Y93.318 E0.7669
G1 X63.622 Y92.884 E0.8117
G1 X64.002 Y92.746 E0.8281
G1 X65.052 Y92.433 E0.8727
G1 X65.444 Y92.341 E0.8891
G1 X66.529 Y92.150 E0.9340
G1 X66.930 Y92.103 E0.9504
G1 X67.925 Y92.046 E0.9910
G1 X68.126 Y92.040 E0.9992
G1 X142.918 Y92.040 E4.0440
G1 X143.211 Y92.052 E4.0559
G1 X144.606 Y92.170 E4.1129
G1 X145.088 Y92.245 E4.1328
G1 X146.222 Y92.503 E4.1801
G1 X146.690 Y92.646 E4.2000
G1 X148.088 Y93.180 E4.2610
G1 X148.532 Y93.386 E4.2809
G1 X149.549 Y93.948 E4.3282
G1 X149.959 Y94.214 E4.3481
G1 X152.270 Y95.955 E4.4659
G1 X153.733 Y98.889 E4.5994
G1 X153.733 Y111.060 E5.0948
G1 X152.356 Y113.921 E5.2241
G1 X150.397 Y115.485 E5.3262
G1 X149.994 Y115.762 E5.3461
G1 X148.662 Y116.549 E5.4091
G1 X148.134 Y116.803 E5.4329
G1 X146.645 Y117.372 E5.4978
G1 X146.082 Y117.534 E5.5217
G1 X144.564 Y117.836 E5.5847
G1 X144.080 Y117.898 E5.6046
G1 X143.067 Y117.954 E5.6459
G1 X142.871 Y117.960 E5.6538
