; G-Code generated by Simplify3D(R) Version 4.1.2
; Apr 29, 2021 at 12:43:19 PM
; Settings Summary
;   processName,V6
;   applyToModels,vorne
;   profileName,HBot (modified)
;   profileVersion,2021-04-01 14:49:35
;   baseProfile,Default
;   printMaterial,PETG - SUNLU
;   printQuality,Medium
;   printExtruders,
;   extruderName,Extruder 1,Extruder 2 - support
;   extruderToolheadNumber,0,1
;   extruderDiameter,0.4,0.4
;   extruderAutoWidth,1,1
;   extruderWidth,0.48,0.48
;   extrusionMultiplier,1.02,1
;   extruderUseRetract,1,1
;   extruderRetractionDistance,3,1
;   extruderExtraRestartDistance,0,0
;   extruderRetractionZLift,0,0
;   extruderRetractionSpeed,5400,1800
;   extruderUseCoasting,1,1
;   extruderCoastingDistance,0.2,0.2
;   extruderUseWipe,1,1
;   extruderWipeDistance,0.4,0.4
;   primaryExtruder,0
;   layerHeight,0.2
;   topSolidLayers,4
;   bottomSolidLayers,4
;   perimeterOutlines,3
;   printPerimetersInsideOut,1
;   startPointOption,3
;   startPointOriginX,0
;   startPointOriginY,110
;   sequentialIslands,0
;   spiralVaseMode,0
;   firstLayerHeightPercentage,100
;   firstLayerWidthPercentage,100
;   firstLayerUnderspeed,0.5
;   useRaft,0
;   raftExtruder,0
;   raftTopLayers,3
;   raftBaseLayers,2
;   raftOffset,3
;   raftSeparationDistance,0.18
;   raftTopInfill,100
;   aboveRaftSpeedMultiplier,0.3
;   useSkirt,1
;   skirtExtruder,0
;   skirtLayers,1
;   skirtOutlines,3
;   skirtOffset,10
;   usePrimePillar,0
;   primePillarExtruder,999
;   primePillarWidth,12
;   primePillarLocation,7
;   primePillarSpeedMultiplier,1
;   useOozeShield,1
;   oozeShieldExtruder,999
;   oozeShieldOffset,1.4
;   oozeShieldOutlines,2
;   oozeShieldSidewallShape,0
;   oozeShieldSidewallAngle,30
;   oozeShieldSpeedMultiplier,1.5
;   infillExtruder,0
;   internalInfillPattern,Fast Honeycomb
;   externalInfillPattern,Rectilinear
;   infillPercentage,15
;   outlineOverlapPercentage,25
;   infillExtrusionWidthPercentage,100
;   minInfillLength,5
;   infillLayerInterval,1
;   internalInfillAngles,0
;   overlapInternalInfillAngles,0
;   externalInfillAngles,45,-45
;   generateSupport,0
;   supportExtruder,0
;   supportInfillPercentage,25
;   supportExtraInflation,0
;   supportBaseLayers,0
;   denseSupportExtruder,1
;   denseSupportLayers,10
;   denseSupportInfillPercentage,100
;   supportLayerInterval,1
;   supportHorizontalPartOffset,0
;   supportUpperSeparationLayers,0
;   supportLowerSeparationLayers,0
;   supportType,0
;   supportGridSpacing,2.5
;   maxOverhangAngle,45
;   supportAngles,0
;   temperatureName,Extruder 1,Heated Bed,Extruder 2 - support
;   temperatureNumber,0,1,1
;   temperatureSetpointCount,2,1,1
;   temperatureSetpointLayers,1,2,1,1
;   temperatureSetpointTemperatures,215,215,85,0
;   temperatureStabilizeAtStartup,1,1,1
;   temperatureHeatedBed,0,1,0
;   fanLayers,1,3,5
;   fanSpeeds,0,15,25
;   blipFanToFullPower,1
;   adjustSpeedForCooling,1
;   minSpeedLayerTime,15
;   minCoolingSpeedSlowdown,20
;   increaseFanForCooling,1
;   minFanLayerTime,15
;   maxCoolingFanSpeed,100
;   increaseFanForBridging,1
;   bridgingFanSpeed,100
;   use5D,1
;   relativeEdistances,0
;   allowEaxisZeroing,1
;   independentExtruderAxes,0
;   includeM10123,0
;   stickySupport,1
;   applyToolheadOffsets,0
;   gcodeXoffset,0
;   gcodeYoffset,0
;   gcodeZoffset,0
;   overrideMachineDefinition,1
;   machineTypeOverride,0
;   strokeXoverride,210
;   strokeYoverride,210
;   strokeZoverride,150
;   originOffsetXoverride,0
;   originOffsetYoverride,0
;   originOffsetZoverride,0
;   homeXdirOverride,1
;   homeYdirOverride,-1
;   homeZdirOverride,-1
;   flipXoverride,1
;   flipYoverride,-1
;   flipZoverride,1
;   toolheadOffsets,0,0|0,0|0,0|0,0|0,0|0,0
;   overrideFirmwareConfiguration,0
;   firmwareTypeOverride,RepRap (Marlin/Repetier/Sprinter)
;   GPXconfigOverride,r2
;   baudRateOverride,115200
;   overridePrinterModels,0
;   printerModelsOverride
;   startingGcode,;G28 is now included in bed.g G28 ; home all axes,G32 ; run bed.g -- probe bed and enable compensation
;   layerChangeGcode,
;   retractionGcode,
;   toolChangeGcode,
;   endingGcode,M0 ; call stop.g
;   exportFileFormat,gcode
;   celebration,0
;   celebrationSong,Random Song
;   postProcessing,
;   defaultSpeed,3600
;   outlineUnderspeed,0.5
;   solidInfillUnderspeed,0.8
;   supportUnderspeed,0.8
;   rapidXYspeed,21000
;   rapidZspeed,1200
;   minBridgingArea,50
;   bridgingExtraInflation,0
;   bridgingExtrusionMultiplier,0.96
;   bridgingSpeedMultiplier,1
;   useFixedBridgingAngle,0
;   fixedBridgingAngle,0
;   applyBridgingToPerimeters,0
;   filamentDiameters,1.75|1.75|1.75|1.75|1.75|1.75
;   filamentPricesPerKg,46|46|46|46|46|46
;   filamentDensities,1.25|1.25|1.25|1.25|1.25|1.25
;   useMinPrintHeight,0
;   minPrintHeight,0
;   useMaxPrintHeight,0
;   maxPrintHeight,12.79
;   useDiaphragm,0
;   diaphragmLayerInterval,20
;   robustSlicing,1
;   mergeAllIntoSolid,0
;   onlyRetractWhenCrossingOutline,1
;   retractBetweenLayers,0
;   useRetractionMinTravel,1
;   retractionMinTravel,3
;   retractWhileWiping,1
;   onlyWipeOutlines,1
;   avoidCrossingOutline,1
;   maxMovementDetourFactor,50
;   toolChangeRetractionDistance,7.5
;   toolChangeExtraRestartDistance,0
;   toolChangeRetractionSpeed,600
;   externalThinWallType,0
;   internalThinWallType,2
;   thinWallAllowedOverlapPercentage,10
;   singleExtrusionMinLength,1
;   singleExtrusionMinPrintingWidthPercentage,50
;   singleExtrusionMaxPrintingWidthPercentage,150
;   singleExtrusionEndpointExtension,0.2
;   horizontalSizeCompensation,0
G90
M82
M106 S0
M140 S85
M190 S85
G10 P0 S215 R{215-50}
G10 P1 S0 R{0-50}
M116 P0
;G28 is now included in bed.g G28 ; home all axes
G32 ; run bed.g -- probe bed and enable compensation
; process V6
; layer 1, Z = 0.200
T0
G92 E0.0000
G1 E-3.0000 F5400
; feature skirt
; tool H0.200 W0.480
G1 Z0.200 F1200
G1 X85.442 Y143.053 F21000
G1 E0.0000 F5400
G92 E0.0000
G1 X85.440 Y68.037 E3.0540 F1800
G1 X85.449 Y67.725 E3.0666
G1 X85.523 Y66.397 E3.1208
G1 X85.591 Y65.785 E3.1459
G1 X85.855 Y64.206 E3.2111
G1 X85.999 Y63.573 E3.2375
G1 X86.448 Y62.019 E3.3033
G1 X86.664 Y61.406 E3.3298
G1 X87.290 Y59.915 E3.3956
G1 X87.576 Y59.332 E3.4220
G1 X88.370 Y57.923 E3.4879
G1 X88.721 Y57.378 E3.5143
G1 X89.628 Y56.131 E3.5771
G1 X89.962 Y55.715 E3.5988
G1 X90.750 Y54.825 E3.6472
G1 X91.122 Y54.442 E3.6689
G1 X92.233 Y53.405 E3.7307
G1 X92.694 Y53.018 E3.7553
G1 X94.575 Y51.608 E3.8510
G1 X96.175 Y50.769 E3.9245
G1 X98.615 Y49.956 E4.0292
G1 X100.397 Y49.666 E4.1027
G1 X109.544 Y49.666 E4.4751
G1 X111.248 Y49.930 E4.5453
G1 X113.603 Y50.678 E4.6459
G1 X115.171 Y51.462 E4.7172
G1 X116.796 Y52.621 E4.7985
G1 X117.193 Y52.932 E4.8191
G1 X118.352 Y53.928 E4.8813
G1 X118.818 Y54.378 E4.9076
G1 X119.899 Y55.550 E4.9725
G1 X120.284 Y56.015 E4.9971
G1 X121.080 Y57.090 E5.0516
G1 X121.328 Y57.455 E5.0695
G1 X121.884 Y58.344 E5.1122
G1 X122.153 Y58.825 E5.1346
G1 X122.893 Y60.318 E5.2025
G1 X123.157 Y60.942 E5.2301
G1 X123.700 Y62.480 E5.2965
G1 X123.880 Y63.103 E5.3229
G1 X124.239 Y64.681 E5.3888
G1 X124.346 Y65.321 E5.4152
G1 X124.518 Y66.907 E5.4801
G1 X124.550 Y67.511 E5.5048
G1 X124.532 Y143.847 E8.6124
G1 X124.481 Y144.602 E8.6432
G1 X124.277 Y146.100 E8.7048
G1 X124.173 Y146.654 E8.7277
G1 X123.847 Y148.012 E8.7846
G1 X123.700 Y148.516 E8.8059
G1 X123.319 Y149.631 E8.8539
G1 X123.164 Y150.034 E8.8715
G1 X122.736 Y151.028 E8.9156
G1 X122.520 Y151.473 E8.9357
G1 X121.862 Y152.693 E8.9921
G1 X121.545 Y153.210 E9.0168
G1 X120.686 Y154.458 E9.0785
G1 X120.376 Y154.867 E9.0994
G1 X118.753 Y156.814 E9.2026
G1 X116.791 Y158.323 E9.3033
G1 X113.612 Y159.804 E9.4461
G1 X111.220 Y160.333 E9.5459
G1 X98.728 Y160.333 E10.0544
G1 X96.269 Y159.772 E10.1571
G1 X93.025 Y158.211 E10.3036
G1 X91.052 Y156.639 E10.4063
G1 X89.266 Y154.400 E10.5229
G1 X88.890 Y153.870 E10.5494
G1 X87.923 Y152.319 E10.6238
G1 X87.564 Y151.644 E10.6549
G1 X86.780 Y149.894 E10.7330
G1 X86.529 Y149.219 E10.7623
G1 X86.046 Y147.617 E10.8304
G1 X85.895 Y146.984 E10.8569
G1 X85.619 Y145.432 E10.9211
G1 X85.543 Y144.809 E10.9466
G1 X85.453 Y143.413 E11.0036
G1 X85.442 Y143.053 E11.0183
G1 X85.922 Y143.045 F21000
G92 E0.0000
G1 X85.920 Y68.043 E3.0534 F1800
G1 X85.928 Y67.745 E3.0655
G1 X86.001 Y66.437 E3.1189
G1 X86.066 Y65.851 E3.1429
G1 X86.326 Y64.298 E3.2069
G1 X86.464 Y63.693 E3.2322
G1 X86.905 Y62.165 E3.2969
G1 X87.112 Y61.579 E3.3223
G1 X87.728 Y60.113 E3.3870
G1 X88.001 Y59.556 E3.4123
G1 X88.781 Y58.171 E3.4770
G1 X89.117 Y57.649 E3.5022
G1 X90.010 Y56.422 E3.5640
G1 X90.329 Y56.024 E3.5848
G1 X91.102 Y55.151 E3.6322
G1 X91.458 Y54.785 E3.6530
G1 X92.551 Y53.765 E3.7139
G1 X92.993 Y53.395 E3.7374
G1 X94.832 Y52.015 E3.8310
G1 X96.363 Y51.212 E3.9013
G1 X98.730 Y50.423 E4.0029
G1 X100.436 Y50.147 E4.0733
G1 X109.507 Y50.147 E4.4426
G1 X111.138 Y50.399 E4.5098
G1 X113.422 Y51.124 E4.6073
G1 X114.923 Y51.874 E4.6756
G1 X116.508 Y53.005 E4.7549
G1 X116.888 Y53.304 E4.7746
G1 X118.028 Y54.283 E4.8358
G1 X118.475 Y54.714 E4.8610
G1 X119.538 Y55.866 E4.9248
G1 X119.906 Y56.311 E4.9483
G1 X120.688 Y57.368 E5.0019
G1 X120.926 Y57.717 E5.0191
G1 X121.471 Y58.589 E5.0609
G1 X121.728 Y59.049 E5.0824
G1 X122.457 Y60.519 E5.1492
G1 X122.709 Y61.115 E5.1755
G1 X123.243 Y62.627 E5.2408
G1 X123.415 Y63.223 E5.2661
G1 X123.768 Y64.774 E5.3308
G1 X123.870 Y65.387 E5.3561
G1 X124.039 Y66.946 E5.4200
G1 X124.070 Y67.524 E5.4435
G1 X124.052 Y143.831 E8.5500
G1 X124.003 Y144.553 E8.5795
G1 X123.803 Y146.023 E8.6399
G1 X123.703 Y146.553 E8.6618
G1 X123.383 Y147.889 E8.7178
G1 X123.243 Y148.371 E8.7382
G1 X122.868 Y149.467 E8.7853
G1 X122.719 Y149.853 E8.8022
G1 X122.299 Y150.829 E8.8454
G1 X122.093 Y151.255 E8.8647
G1 X121.446 Y152.454 E8.9202
G1 X121.143 Y152.949 E8.9438
G1 X120.297 Y154.176 E9.0045
G1 X120.000 Y154.568 E9.0245
G1 X118.418 Y156.466 E9.1251
G1 X116.541 Y157.911 E9.2215
G1 X113.457 Y159.347 E9.3600
G1 X111.167 Y159.853 E9.4555
G1 X98.782 Y159.853 E9.9597
G1 X96.428 Y159.316 E10.0580
G1 X93.282 Y157.802 E10.2001
G1 X91.394 Y156.297 E10.2984
G1 X89.650 Y154.112 E10.4122
G1 X89.290 Y153.604 E10.4376
G1 X88.339 Y152.079 E10.5107
G1 X87.995 Y151.433 E10.5405
G1 X87.224 Y149.711 E10.6173
G1 X86.984 Y149.065 E10.6454
G1 X86.510 Y147.492 E10.7123
G1 X86.365 Y146.886 E10.7376
G1 X86.094 Y145.361 E10.8007
G1 X86.022 Y144.765 E10.8251
G1 X85.933 Y143.390 E10.8812
G1 X85.922 Y143.045 E10.8953
G1 X86.402 Y143.038 F21000
G92 E0.0000
G1 X86.400 Y68.050 E3.0528 F1800
G1 X86.408 Y67.765 E3.0644
G1 X86.480 Y66.477 E3.1169
G1 X86.542 Y65.917 E3.1398
G1 X86.797 Y64.391 E3.2028
G1 X86.929 Y63.813 E3.2270
G1 X87.363 Y62.312 E3.2906
G1 X87.560 Y61.752 E3.3147
G1 X88.165 Y60.312 E3.3783
G1 X88.426 Y59.779 E3.4025
G1 X89.193 Y58.419 E3.4660
G1 X89.513 Y57.920 E3.4902
G1 X90.391 Y56.714 E3.5509
G1 X90.696 Y56.334 E3.5708
G1 X91.454 Y55.478 E3.6173
G1 X91.794 Y55.128 E3.6372
G1 X92.869 Y54.125 E3.6970
G1 X93.291 Y53.771 E3.7195
G1 X95.089 Y52.422 E3.8110
G1 X96.552 Y51.656 E3.8782
G1 X98.845 Y50.891 E3.9766
G1 X100.475 Y50.627 E4.0438
G1 X109.470 Y50.627 E4.4100
G1 X111.028 Y50.868 E4.4742
G1 X113.241 Y51.570 E4.5687
G1 X114.674 Y52.287 E4.6340
G1 X116.221 Y53.390 E4.7113
G1 X116.584 Y53.675 E4.7301
G1 X117.705 Y54.638 E4.7903
G1 X118.131 Y55.050 E4.8144
G1 X119.176 Y56.182 E4.8771
G1 X119.528 Y56.607 E4.8996
G1 X120.297 Y57.646 E4.9522
G1 X120.524 Y57.980 E4.9686
G1 X121.058 Y58.833 E5.0096
G1 X121.303 Y59.272 E5.0301
G1 X122.020 Y60.719 E5.0958
G1 X122.261 Y61.289 E5.1210
G1 X122.785 Y62.773 E5.1851
G1 X122.950 Y63.343 E5.2092
G1 X123.297 Y64.866 E5.2728
G1 X123.395 Y65.452 E5.2970
G1 X123.560 Y66.985 E5.3598
G1 X123.590 Y67.537 E5.3823
G1 X123.572 Y143.815 E8.4876
G1 X123.525 Y144.504 E8.5157
G1 X123.329 Y145.946 E8.5750
G1 X123.234 Y146.453 E8.5959
G1 X122.918 Y147.766 E8.6509
G1 X122.785 Y148.226 E8.6704
G1 X122.417 Y149.303 E8.7167
G1 X122.275 Y149.671 E8.7328
G1 X121.862 Y150.629 E8.7753
G1 X121.665 Y151.036 E8.7937
G1 X121.029 Y152.214 E8.8482
G1 X120.740 Y152.687 E8.8708
G1 X119.908 Y153.895 E8.9305
G1 X119.624 Y154.269 E8.9496
G1 X118.084 Y156.118 E9.0476
G1 X116.290 Y157.498 E9.1397
G1 X113.302 Y158.889 E9.2739
G1 X111.115 Y159.373 E9.3651
G1 X98.836 Y159.373 E9.8649
G1 X96.588 Y158.861 E9.9588
G1 X93.539 Y157.393 E10.0966
G1 X91.735 Y155.956 E10.1905
G1 X90.033 Y153.823 E10.3015
G1 X89.690 Y153.338 E10.3257
G1 X88.755 Y151.839 E10.3976
G1 X88.427 Y151.222 E10.4261
G1 X87.669 Y149.529 E10.5016
G1 X87.439 Y148.912 E10.5284
G1 X86.974 Y147.367 E10.5941
G1 X86.835 Y146.788 E10.6183
G1 X86.569 Y145.290 E10.6803
G1 X86.500 Y144.720 E10.7036
G1 X86.412 Y143.367 E10.7589
G1 X86.402 Y143.038 E10.7723
G92 E0.0000
G1 E-3.0000 F5400
; feature ooze shield
G1 X96.880 Y142.803 F21000
G1 E0.0000 F5400
G92 E0.0000
G1 X96.880 Y68.196 E3.0373 F2700
G1 X96.882 Y68.134 E3.0398
G1 X96.927 Y67.349 E3.0718
G1 X96.942 Y67.227 E3.0768
G1 X97.083 Y66.421 E3.1101
G1 X97.111 Y66.301 E3.1151
G1 X97.345 Y65.518 E3.1484
G1 X97.387 Y65.402 E3.1534
G1 X97.710 Y64.651 E3.1867
G1 X97.764 Y64.541 E3.1917
G1 X98.172 Y63.832 E3.2250
G1 X98.239 Y63.729 E3.2300
G1 X98.717 Y63.084 E3.2627
G1 X98.775 Y63.012 E3.2665
G1 X99.066 Y62.683 E3.2844
G1 X99.130 Y62.617 E3.2881
G1 X99.712 Y62.064 E3.3208
G1 X99.806 Y61.985 E3.3258
G1 X100.686 Y61.324 E3.3706
G1 X101.339 Y61.106 E3.3986
G1 X108.645 Y61.106 E3.6960
G1 X109.271 Y61.305 E3.7228
G1 X109.861 Y61.722 E3.7522
G1 X109.934 Y61.778 E3.7559
G1 X110.547 Y62.296 E3.7886
G1 X110.636 Y62.380 E3.7936
G1 X111.195 Y62.977 E3.8269
G1 X111.274 Y63.071 E3.8319
G1 X111.752 Y63.716 E3.8646
G1 X111.803 Y63.793 E3.8683
G1 X112.033 Y64.168 E3.8862
G1 X112.078 Y64.248 E3.8900
G1 X112.437 Y64.966 E3.9226
G1 X112.485 Y65.079 E3.9276
G1 X112.764 Y65.848 E3.9609
G1 X112.799 Y65.965 E3.9659
G1 X112.987 Y66.761 E3.9992
G1 X113.008 Y66.883 E4.0042
G1 X113.103 Y67.695 E4.0375
G1 X113.110 Y67.818 E4.0425
G1 X113.103 Y143.300 E7.1154
G1 X113.093 Y143.442 E7.1213
G1 X112.980 Y144.273 E7.1554
G1 X112.960 Y144.379 E7.1598
G1 X112.816 Y144.974 E7.1847
G1 X112.789 Y145.068 E7.1887
G1 X112.566 Y145.721 E7.2168
G1 X112.534 Y145.803 E7.2204
G1 X112.329 Y146.271 E7.2411
G1 X112.288 Y146.353 E7.2449
G1 X111.942 Y146.986 E7.2743
G1 X111.880 Y147.086 E7.2790
G1 X111.415 Y147.751 E7.3121
G1 X111.357 Y147.826 E7.3159
G1 X110.792 Y148.497 E7.3516
G1 X109.941 Y148.893 E7.3899
G1 X100.044 Y148.893 E7.7928
G1 X99.173 Y148.474 E7.8322
G1 X98.414 Y147.523 E7.8817
G1 X98.345 Y147.426 E7.8865
G1 X97.915 Y146.743 E7.9194
G1 X97.845 Y146.612 E7.9254
G1 X97.372 Y145.555 E7.9726
G1 X97.321 Y145.415 E7.9787
G1 X97.097 Y144.639 E8.0115
G1 X97.071 Y144.523 E8.0164
G1 X96.938 Y143.742 E8.0486
G1 X96.924 Y143.624 E8.0535
G1 X96.882 Y142.863 E8.0845
G1 X96.880 Y142.803 E8.0869
G1 X97.360 Y142.797 F21000
G92 E0.0000
G1 X97.360 Y68.203 E3.0367 F2700
G1 X97.361 Y68.155 E3.0387
G1 X97.406 Y67.390 E3.0699
G1 X97.417 Y67.296 E3.0737
G1 X97.553 Y66.518 E3.1059
G1 X97.575 Y66.425 E3.1098
G1 X97.801 Y65.668 E3.1419
G1 X97.833 Y65.579 E3.1458
G1 X98.145 Y64.853 E3.1780
G1 X98.188 Y64.768 E3.1818
G1 X98.581 Y64.083 E3.2140
G1 X98.633 Y64.003 E3.2179
G1 X99.096 Y63.378 E3.2496
G1 X99.141 Y63.322 E3.2525
G1 X99.419 Y63.009 E3.2695
G1 X99.468 Y62.957 E3.2724
G1 X100.033 Y62.422 E3.3041
G1 X100.105 Y62.360 E3.3080
G1 X100.912 Y61.755 E3.3490
G1 X101.417 Y61.587 E3.3707
G1 X108.571 Y61.587 E3.6619
G1 X109.055 Y61.740 E3.6826
G1 X109.576 Y62.108 E3.7085
G1 X109.632 Y62.151 E3.7114
G1 X110.226 Y62.654 E3.7431
G1 X110.295 Y62.719 E3.7470
G1 X110.836 Y63.295 E3.7792
G1 X110.897 Y63.368 E3.7830
G1 X111.360 Y63.994 E3.8147
G1 X111.400 Y64.053 E3.8176
G1 X111.619 Y64.410 E3.8347
G1 X111.653 Y64.472 E3.8376
G1 X112.001 Y65.168 E3.8692
G1 X112.039 Y65.255 E3.8731
G1 X112.308 Y65.998 E3.9053
G1 X112.335 Y66.089 E3.9091
G1 X112.517 Y66.858 E3.9413
G1 X112.533 Y66.952 E3.9452
G1 X112.624 Y67.737 E3.9773
G1 X112.630 Y67.832 E3.9812
G1 X112.623 Y143.283 E7.0529
G1 X112.615 Y143.394 E7.0574
G1 X112.506 Y144.196 E7.0903
G1 X112.491 Y144.278 E7.0938
G1 X112.352 Y144.851 E7.1177
G1 X112.331 Y144.923 E7.1208
G1 X112.115 Y145.556 E7.1480
