; G-Code generated by Simplify3D(R) Version 4.1.2
; Apr 29, 2021 at 6:37:50 PM
; Settings Summary
;   processName,V6
;   applyToModels,vorne(2)
;   profileName,HBot (modified)
;   profileVersion,2021-04-01 14:49:35
;   baseProfile,Default
;   printMaterial,PETG - SUNLU
;   printQuality,Medium
;   printExtruders,
;   extruderName,Extruder 1,Extruder 2 - support
;   extruderToolheadNumber,0,1
;   extruderDiameter,0.4,0.4
;   extruderAutoWidth,1,1
;   extruderWidth,0.48,0.48
;   extrusionMultiplier,1.02,1
;   extruderUseRetract,1,1
;   extruderRetractionDistance,3,1
;   extruderExtraRestartDistance,0,0
;   extruderRetractionZLift,0,0
;   extruderRetractionSpeed,5400,1800
;   extruderUseCoasting,1,1
;   extruderCoastingDistance,0.2,0.2
;   extruderUseWipe,1,1
;   extruderWipeDistance,0.4,0.4
;   primaryExtruder,0
;   layerHeight,0.2
;   topSolidLayers,4
;   bottomSolidLayers,4
;   perimeterOutlines,3
;   printPerimetersInsideOut,1
;   startPointOption,3
;   startPointOriginX,0
;   startPointOriginY,110
;   sequentialIslands,0
;   spiralVaseMode,0
;   firstLayerHeightPercentage,100
;   firstLayerWidthPercentage,100
;   firstLayerUnderspeed,0.5
;   useRaft,0
;   raftExtruder,0
;   raftTopLayers,3
;   raftBaseLayers,2
;   raftOffset,3
;   raftSeparationDistance,0.18
;   raftTopInfill,100
;   aboveRaftSpeedMultiplier,0.3
;   useSkirt,1
;   skirtExtruder,0
;   skirtLayers,1
;   skirtOutlines,15
;   skirtOffset,0
;   usePrimePillar,0
;   primePillarExtruder,999
;   primePillarWidth,12
;   primePillarLocation,7
;   primePillarSpeedMultiplier,1
;   useOozeShield,0
;   oozeShieldExtruder,999
;   oozeShieldOffset,1.4
;   oozeShieldOutlines,2
;   oozeShieldSidewallShape,0
;   oozeShieldSidewallAngle,30
;   oozeShieldSpeedMultiplier,1.5
;   infillExtruder,0
;   internalInfillPattern,Rectilinear
;   externalInfillPattern,Rectilinear
;   infillPercentage,15
;   outlineOverlapPercentage,25
;   infillExtrusionWidthPercentage,100
;   minInfillLength,5
;   infillLayerInterval,1
;   internalInfillAngles,45,-45
;   overlapInternalInfillAngles,0
;   externalInfillAngles,45,-45
;   generateSupport,0
;   supportExtruder,0
;   supportInfillPercentage,25
;   supportExtraInflation,0
;   supportBaseLayers,0
;   denseSupportExtruder,1
;   denseSupportLayers,10
;   denseSupportInfillPercentage,100
;   supportLayerInterval,1
;   supportHorizontalPartOffset,0
;   supportUpperSeparationLayers,0
;   supportLowerSeparationLayers,0
;   supportType,0
;   supportGridSpacing,2.5
;   maxOverhangAngle,45
;   supportAngles,0
;   temperatureName,Extruder 1,Heated Bed,Extruder 2 - support
;   temperatureNumber,0,1,1
;   temperatureSetpointCount,2,1,1
;   temperatureSetpointLayers,1,2,1,1
;   temperatureSetpointTemperatures,215,215,85,0
;   temperatureStabilizeAtStartup,1,1,1
;   temperatureHeatedBed,0,1,0
;   fanLayers,1,3,5
;   fanSpeeds,0,30,60
;   blipFanToFullPower,1
;   adjustSpeedForCooling,1
;   minSpeedLayerTime,15
;   minCoolingSpeedSlowdown,20
;   increaseFanForCooling,1
;   minFanLayerTime,15
;   maxCoolingFanSpeed,100
;   increaseFanForBridging,1
;   bridgingFanSpeed,100
;   use5D,1
;   relativeEdistances,0
;   allowEaxisZeroing,1
;   independentExtruderAxes,0
;   includeM10123,0
;   stickySupport,1
;   applyToolheadOffsets,0
;   gcodeXoffset,0
;   gcodeYoffset,0
;   gcodeZoffset,0
;   overrideMachineDefinition,1
;   machineTypeOverride,0
;   strokeXoverride,210
;   strokeYoverride,210
;   strokeZoverride,150
;   originOffsetXoverride,0
;   originOffsetYoverride,0
;   originOffsetZoverride,0
;   homeXdirOverride,1
;   homeYdirOverride,-1
;   homeZdirOverride,-1
;   flipXoverride,1
;   flipYoverride,-1
;   flipZoverride,1
;   toolheadOffsets,0,0|0,0|0,0|0,0|0,0|0,0
;   overrideFirmwareConfiguration,0
;   firmwareTypeOverride,RepRap (Marlin/Repetier/Sprinter)
;   GPXconfigOverride,r2
;   baudRateOverride,115200
;   overridePrinterModels,0
;   printerModelsOverride
;   startingGcode,;G28 is now included in bed.g G28 ; home all axes,G32 ; run bed.g -- probe bed and enable compensation
;   layerChangeGcode,
;   retractionGcode,
;   toolChangeGcode,
;   endingGcode,M0 ; call stop.g
;   exportFileFormat,gcode
;   celebration,0
;   celebrationSong,Random Song
;   postProcessing,
;   defaultSpeed,3600
;   outlineUnderspeed,0.5
;   solidInfillUnderspeed,0.8
;   supportUnderspeed,0.8
;   rapidXYspeed,21000
;   rapidZspeed,1200
;   minBridgingArea,50
;   bridgingExtraInflation,0
;   bridgingExtrusionMultiplier,0.96
;   bridgingSpeedMultiplier,1
;   useFixedBridgingAngle,0
;   fixedBridgingAngle,0
;   applyBridgingToPerimeters,0
;   filamentDiameters,1.75|1.75|1.75|1.75|1.75|1.75
;   filamentPricesPerKg,46|46|46|46|46|46
;   filamentDensities,1.25|1.25|1.25|1.25|1.25|1.25
;   useMinPrintHeight,0
;   minPrintHeight,0
;   useMaxPrintHeight,0
;   maxPrintHeight,12.79
;   useDiaphragm,0
;   diaphragmLayerInterval,20
;   robustSlicing,1
;   mergeAllIntoSolid,0
;   onlyRetractWhenCrossingOutline,1
;   retractBetweenLayers,0
;   useRetractionMinTravel,1
;   retractionMinTravel,3
;   retractWhileWiping,1
;   onlyWipeOutlines,1
;   avoidCrossingOutline,1
;   maxMovementDetourFactor,50
;   toolChangeRetractionDistance,7.5
;   toolChangeExtraRestartDistance,0
;   toolChangeRetractionSpeed,600
;   externalThinWallType,0
;   internalThinWallType,2
;   thinWallAllowedOverlapPercentage,10
;   singleExtrusionMinLength,1
;   singleExtrusionMinPrintingWidthPercentage,50
;   singleExtrusionMaxPrintingWidthPercentage,150
;   singleExtrusionEndpointExtension,0.2
;   horizontalSizeCompensation,0
G90
M82
M106 S0
M140 S85
M190 S85
G10 P0 S215 R{215-50}
G10 P1 S0 R{0-50}
M116 P0
;G28 is now included in bed.g G28 ; home all axes
G32 ; run bed.g -- probe bed and enable compensation
; process V6
; layer 1, Z = 0.200
T0
G92 E0.0000
G1 E-3.0000 F5400
; feature skirt
; tool H0.200 W0.480
G1 Z0.200 F1200
G1 X56.267 Y109.446 F21000
G1 E0.0000 F5400
G92 E0.0000
G1 X56.267 Y100.554 E0.3620 F1800
G1 X56.981 Y98.410 E0.4540
G1 X58.197 Y96.790 E0.5364
G1 X58.457 Y96.482 E0.5529
G1 X59.179 Y95.721 E0.5956
G1 X59.397 Y95.511 E0.6079
G1 X59.882 Y95.082 E0.6343
G1 X60.117 Y94.891 E0.6466
G1 X60.961 Y94.266 E0.6893
G1 X61.298 Y94.046 E0.7057
G1 X62.251 Y93.498 E0.7505
G1 X62.611 Y93.318 E0.7669
G1 X63.622 Y92.884 E0.8117
G1 X64.002 Y92.746 E0.8281
G1 X65.052 Y92.433 E0.8727
G1 X65.444 Y92.341 E0.8891
G1 X66.529 Y92.150 E0.9340
G1 X66.930 Y92.103 E0.9504
G1 X67.925 Y92.046 E0.9910
G1 X68.126 Y92.040 E0.9992
G1 X142.872 Y92.040 E4.0421
G1 X143.067 Y92.046 E4.0500
G1 X144.080 Y92.102 E4.0913
G1 X144.564 Y92.164 E4.1112
G1 X146.082 Y92.466 E4.1742
G1 X146.645 Y92.628 E4.1981
G1 X148.134 Y93.197 E4.2630
G1 X148.662 Y93.451 E4.2868
G1 X149.994 Y94.238 E4.3498
G1 X150.397 Y94.515 E4.3697
G1 X152.356 Y96.079 E4.4718
G1 X153.733 Y98.940 E4.6011
G1 X153.733 Y111.111 E5.0965
G1 X152.270 Y114.045 E5.2300
G1 X149.959 Y115.786 E5.3478
G1 X149.549 Y116.052 E5.3677
G1 X148.532 Y116.614 E5.4150
G1 X148.088 Y116.820 E5.4349
G1 X146.690 Y117.354 E5.4959
G1 X146.222 Y117.496 E5.5158
G1 X145.088 Y117.755 E5.5631
G1 X144.606 Y117.830 E5.5830
G1 X143.210 Y117.948 E5.6400
G1 X142.918 Y117.960 E5.6519
G1 X67.676 Y117.950 E8.7151
G1 X67.273 Y117.926 E8.7315
G1 X66.182 Y117.799 E8.7762
G1 X65.785 Y117.730 E8.7926
G1 X64.718 Y117.478 E8.8372
G1 X64.331 Y117.362 E8.8537
G1 X63.299 Y116.988 E8.8984
G1 X62.928 Y116.829 E8.9148
G1 X61.945 Y116.338 E8.9596
G1 X61.595 Y116.137 E8.9760
G1 X60.676 Y115.535 E9.0207
G1 X60.351 Y115.295 E9.0371
G1 X59.508 Y114.591 E9.0818
G1 X59.214 Y114.316 E9.0982
G1 X58.457 Y113.518 E9.1430
G1 X58.197 Y113.210 E9.1594
G1 X56.981 Y111.590 E9.2419
G1 X56.267 Y109.446 E9.3339
G1 X56.746 Y109.368 F21000
G92 E0.0000
G1 X56.746 Y100.632 E0.3557 F1800
G1 X57.412 Y98.636 E0.4413
G1 X58.572 Y97.089 E0.5200
G1 X58.815 Y96.802 E0.5353
G1 X59.520 Y96.059 E0.5770
G1 X59.723 Y95.864 E0.5885
G1 X60.192 Y95.448 E0.6140
G1 X60.411 Y95.271 E0.6255
G1 X61.235 Y94.660 E0.6672
G1 X61.549 Y94.455 E0.6825
G1 X62.478 Y93.921 E0.7261
G1 X62.814 Y93.753 E0.7414
G1 X63.799 Y93.330 E0.7851
G1 X64.152 Y93.202 E0.8004
G1 X65.176 Y92.897 E0.8438
G1 X65.541 Y92.811 E0.8591
G1 X66.599 Y92.625 E0.9028
G1 X66.972 Y92.582 E0.9181
G1 X67.946 Y92.525 E0.9578
G1 X68.133 Y92.520 E0.9655
G1 X142.865 Y92.520 E4.0078
G1 X143.047 Y92.525 E4.0152
G1 X144.036 Y92.581 E4.0556
G1 X144.487 Y92.638 E4.0741
G1 X145.968 Y92.933 E4.1356
G1 X146.493 Y93.084 E4.1578
G1 X147.944 Y93.638 E4.2210
G1 X148.436 Y93.875 E4.2433
G1 X149.736 Y94.643 E4.3047
G1 X150.111 Y94.901 E4.3232
G1 X151.971 Y96.386 E4.4202
G1 X153.253 Y99.050 E4.5405
G1 X153.253 Y110.998 E5.0269
G1 X151.891 Y113.730 E5.1512
G1 X149.683 Y115.393 E5.2637
G1 X149.302 Y115.640 E5.2823
G1 X148.314 Y116.186 E5.3282
G1 X147.901 Y116.378 E5.3467
G1 X146.535 Y116.900 E5.4063
G1 X146.099 Y117.032 E5.4248
G1 X144.998 Y117.283 E5.4708
G1 X144.549 Y117.353 E5.4893
G1 X143.180 Y117.469 E5.5452
G1 X142.908 Y117.480 E5.5563
G1 X67.690 Y117.470 E8.6185
G1 X67.315 Y117.448 E8.6338
G1 X66.252 Y117.324 E8.6773
G1 X65.882 Y117.259 E8.6926
G1 X64.842 Y117.014 E8.7361
G1 X64.482 Y116.906 E8.7514
G1 X63.476 Y116.542 E8.7950
G1 X63.130 Y116.394 E8.8103
G1 X62.172 Y115.914 E8.8539
G1 X61.846 Y115.727 E8.8692
G1 X60.950 Y115.141 E8.9128
G1 X60.648 Y114.917 E8.9281
G1 X59.826 Y114.232 E8.9717
G1 X59.553 Y113.975 E8.9869
G1 X58.815 Y113.198 E9.0306
G1 X58.572 Y112.911 E9.0459
G1 X57.412 Y111.364 E9.1246
G1 X56.746 Y109.368 E9.2102
G1 X57.227 Y109.290 F21000
G92 E0.0000
G1 X57.227 Y100.710 E0.3493 F1800
G1 X57.843 Y98.862 E0.4286
G1 X58.948 Y97.388 E0.5036
G1 X59.172 Y97.123 E0.5178
G1 X59.861 Y96.397 E0.5585
G1 X60.049 Y96.216 E0.5691
G1 X60.503 Y95.814 E0.5938
G1 X60.705 Y95.650 E0.6044
G1 X61.510 Y95.054 E0.6451
G1 X61.801 Y94.864 E0.6593
G1 X62.705 Y94.344 E0.7018
G1 X63.016 Y94.189 E0.7159
G1 X63.975 Y93.777 E0.7584
G1 X64.303 Y93.658 E0.7726
G1 X65.299 Y93.361 E0.8149
G1 X65.638 Y93.281 E0.8291
G1 X66.668 Y93.100 E0.8717
G1 X67.013 Y93.060 E0.8858
G1 X67.966 Y93.005 E0.9247
G1 X68.140 Y93.000 E0.9318
G1 X142.858 Y93.000 E3.9736
G1 X143.026 Y93.005 E3.9804
G1 X143.992 Y93.059 E4.0198
G1 X144.410 Y93.112 E4.0370
G1 X145.854 Y93.400 E4.0969
G1 X146.340 Y93.540 E4.1175
G1 X147.754 Y94.079 E4.1791
G1 X148.209 Y94.299 E4.1997
G1 X149.478 Y95.047 E4.2596
G1 X149.825 Y95.286 E4.2768
G1 X151.586 Y96.692 E4.3686
G1 X152.773 Y99.159 E4.4800
G1 X152.773 Y110.885 E4.9574
G1 X151.512 Y113.415 E5.0724
G1 X149.408 Y114.999 E5.1797
G1 X149.055 Y115.228 E5.1968
G1 X148.097 Y115.758 E5.2414
G1 X147.714 Y115.936 E5.2585
G1 X146.379 Y116.445 E5.3167
G1 X145.976 Y116.568 E5.3339
G1 X144.907 Y116.812 E5.3785
G1 X144.492 Y116.877 E5.3956
G1 X143.150 Y116.990 E5.4504
G1 X142.898 Y117.000 E5.4607
G1 X67.704 Y116.990 E8.5219
G1 X67.357 Y116.970 E8.5360
G1 X66.321 Y116.849 E8.5785
G1 X65.979 Y116.789 E8.5926
G1 X64.966 Y116.550 E8.6350
G1 X64.632 Y116.450 E8.6492
G1 X63.652 Y116.095 E8.6916
G1 X63.332 Y115.958 E8.7058
G1 X62.399 Y115.491 E8.7483
G1 X62.097 Y115.318 E8.7624
G1 X61.225 Y114.747 E8.8049
G1 X60.945 Y114.540 E8.8191
G1 X60.145 Y113.872 E8.8615
G1 X59.891 Y113.634 E8.8756
G1 X59.172 Y112.877 E8.9181
G1 X58.948 Y112.612 E8.9323
G1 X57.843 Y111.138 E9.0073
G1 X57.227 Y109.290 E9.0866
G1 X57.706 Y109.212 F21000
G92 E0.0000
G1 X57.706 Y100.788 E0.3430 F1800
G1 X58.273 Y99.088 E0.4159
G1 X59.324 Y97.687 E0.4872
G1 X59.530 Y97.443 E0.5002
G1 X60.202 Y96.735 E0.5399
G1 X60.375 Y96.569 E0.5497
G1 X60.813 Y96.181 E0.5736
G1 X61.000 Y96.029 E0.5833
G1 X61.784 Y95.448 E0.6231
G1 X62.052 Y95.273 E0.6361
G1 X62.932 Y94.768 E0.6774
G1 X63.218 Y94.624 E0.6904
G1 X64.152 Y94.223 E0.7318
G1 X64.453 Y94.114 E0.7448
G1 X65.423 Y93.825 E0.7861
G1 X65.735 Y93.752 E0.7991
G1 X66.737 Y93.575 E0.8405
G1 X67.055 Y93.539 E0.8535
G1 X67.987 Y93.485 E0.8916
G1 X68.147 Y93.480 E0.8981
G1 X142.851 Y93.480 E3.9393
G1 X143.006 Y93.484 E3.9456
G1 X143.948 Y93.537 E3.9840
G1 X144.333 Y93.586 E3.9998
G1 X145.741 Y93.866 E4.0583
G1 X146.188 Y93.995 E4.0772
G1 X147.564 Y94.521 E4.1372
G1 X147.983 Y94.722 E4.1561
G1 X149.219 Y95.452 E4.2145
G1 X149.538 Y95.672 E4.2303
G1 X151.201 Y96.999 E4.3169
G1 X152.293 Y99.269 E4.4195
G1 X152.293 Y110.772 E4.8878
G1 X151.133 Y113.099 E4.9936
G1 X149.133 Y114.606 E5.0956
G1 X148.808 Y114.817 E5.1114
G1 X147.879 Y115.330 E5.1546
G1 X147.528 Y115.493 E5.1703
G1 X146.223 Y115.991 E5.2272
G1 X145.852 Y116.104 E5.2430
G1 X144.817 Y116.340 E5.2862
G1 X144.435 Y116.400 E5.3019
G1 X143.120 Y116.510 E5.3556
G1 X142.888 Y116.520 E5.3651
G1 X67.718 Y116.510 E8.4253
G1 X67.399 Y116.491 E8.4383
G1 X66.391 Y116.374 E8.4796
G1 X66.076 Y116.318 E8.4927
G1 X65.089 Y116.086 E8.5339
G1 X64.783 Y115.994 E8.5469
G1 X63.829 Y115.649 E8.5883
G1 X63.535 Y115.522 E8.6013
G1 X62.626 Y115.068 E8.6426
G1 X62.348 Y114.909 E8.6557
G1 X61.499 Y114.353 E8.6970
G1 X61.242 Y114.163 E8.7100
G1 X60.463 Y113.512 E8.7513
G1 X60.230 Y113.294 E8.7643
G1 X59.530 Y112.557 E8.8057
G1 X59.324 Y112.313 E8.8187
G1 X58.273 Y110.912 E8.8900
G1 X57.706 Y109.212 E8.9629
G1 X58.187 Y109.135 F21000
G92 E0.0000
G1 X58.187 Y100.865 E0.3366 F1800
G1 X58.704 Y99.313 E0.4032
G1 X59.699 Y97.987 E0.4708
G1 X59.888 Y97.763 E0.4827
G1 X60.543 Y97.073 E0.5214
G1 X60.700 Y96.921 E0.5303
G1 X61.124 Y96.547 E0.5533
G1 X61.294 Y96.409 E0.5622
G1 X62.059 Y95.842 E0.6010
G1 X62.303 Y95.682 E0.6129
G1 X63.159 Y95.191 E0.6531
G1 X63.420 Y95.060 E0.6650
G1 X64.328 Y94.670 E0.7052
G1 X64.603 Y94.570 E0.7171
G1 X65.547 Y94.289 E0.7572
G1 X65.831 Y94.222 E0.7691
G1 X66.806 Y94.051 E0.8094
G1 X67.096 Y94.017 E0.8213
G1 X68.008 Y93.964 E0.8584
G1 X68.154 Y93.960 E0.8644
G1 X142.845 Y93.960 E3.9051
G1 X142.986 Y93.964 E3.9108
G1 X143.905 Y94.016 E3.9483
G1 X144.256 Y94.060 E3.9627
G1 X145.627 Y94.333 E4.0196
G1 X146.035 Y94.451 E4.0369
G1 X147.374 Y94.962 E4.0952
G1 X147.756 Y95.146 E4.1125
G1 X148.961 Y95.857 E4.1695
G1 X149.252 Y96.058 E4.1839
G1 X150.816 Y97.306 E4.2653
G1 X151.813 Y99.378 E4.3590
G1 X151.813 Y110.659 E4.8182
G1 X150.754 Y112.784 E4.9149
G1 X148.858 Y114.212 E5.0115
G1 X148.561 Y114.405 E5.0259
G1 X147.662 Y114.902 E5.0677
G1 X147.341 Y115.051 E5.0821
G1 X146.068 Y115.537 E5.1376
G1 X145.729 Y115.640 E5.1520
G1 X144.727 Y115.868 E5.1939
G1 X144.377 Y115.923 E5.2083
G1 X143.090 Y116.031 E5.2609
G1 X142.878 Y116.040 E5.2695
G1 X67.732 Y116.030 E8.3287
G1 X67.440 Y116.013 E8.3406
G1 X66.460 Y115.899 E8.3808
G1 X66.172 Y115.848 E8.3927
G1 X65.213 Y115.622 E8.4328
G1 X64.933 Y115.538 E8.4447
G1 X64.005 Y115.202 E8.4849
G1 X63.737 Y115.087 E8.4968
G1 X62.853 Y114.645 E8.5370
G1 X62.600 Y114.500 E8.5489
G1 X61.774 Y113.959 E8.5891
G1 X61.539 Y113.785 E8.6010
G1 X60.781 Y113.153 E8.6412
G1 X60.568 Y112.953 E8.6530
G1 X59.888 Y112.237 E8.6933
G1 X59.699 Y112.013 E8.7052
G1 X58.704 Y110.687 E8.7727
G1 X58.187 Y109.135 E8.8393
G1 X58.666 Y109.057 F21000
G92 E0.0000
G1 X58.666 Y100.943 E0.3303 F1800
G1 X59.135 Y99.539 E0.3906
G1 X60.075 Y98.286 E0.4543
G1 X60.245 Y98.084 E0.4651
G1 X60.884 Y97.412 E0.5028
G1 X61.026 Y97.274 E0.5109
G1 X61.434 Y96.913 E0.5331
G1 X61.588 Y96.788 E0.5411
G1 X62.333 Y96.236 E0.5789
G1 X62.554 Y96.092 E0.5897
G1 X63.386 Y95.614 E0.6287
G1 X63.623 Y95.496 E0.6395
G1 X64.505 Y95.117 E0.6786
G1 X64.754 Y95.027 E0.6893
G1 X65.671 Y94.753 E0.7283
G1 X65.928 Y94.692 E0.7391
G1 X66.875 Y94.526 E0.7782
G1 X67.138 Y94.495 E0.7890
G1 X68.029 Y94.444 E0.8253
G1 X68.161 Y94.440 E0.8307
G1 X142.838 Y94.440 E3.8708
G1 X142.966 Y94.444 E3.8760
G1 X143.861 Y94.494 E3.9125
G1 X144.179 Y94.534 E3.9256
G1 X145.514 Y94.800 E3.9810
G1 X145.883 Y94.906 E3.9966
G1 X147.184 Y95.403 E4.0533
G1 X147.530 Y95.570 E4.0689
G1 X148.702 Y96.262 E4.1244
G1 X148.966 Y96.443 E4.1374
G1 X150.431 Y97.613 E4.2137
G1 X151.333 Y99.488 E4.2984
G1 X151.333 Y110.546 E4.7486
G1 X150.375 Y112.468 E4.8361
G1 X148.582 Y113.818 E4.9274
G1 X148.314 Y113.993 E4.9405
G1 X147.444 Y114.473 E4.9809
G1 X147.154 Y114.608 E4.9939
G1 X145.912 Y115.082 E5.0480
G1 X145.606 Y115.176 E5.0611
G1 X144.636 Y115.397 E5.1016
G1 X144.320 Y115.446 E5.1146
G1 X143.060 Y115.552 E5.1661
G1 X142.868 Y115.560 E5.1739
