; G-Code generated by Simplify3D(R) Version 4.1.2
; May 1, 2020 at 7:44:58 PM
; Settings Summary
;   processName,Process1
;   applyToModels,center-gear-test,center-gear-test(2),center-gear-test(3),center-gear-test(4)
;   profileName,HBot
;   profileVersion,2019-10-26 23:38:43
;   baseProfile,Default
;   printMaterial,PETG - SUNLU
;   printQuality,Medium
;   printExtruders,
;   extruderName,Extruder 1
;   extruderToolheadNumber,0
;   extruderDiameter,0.4
;   extruderAutoWidth,1
;   extruderWidth,0.48
;   extrusionMultiplier,0.98
;   extruderUseRetract,1
;   extruderRetractionDistance,3
;   extruderExtraRestartDistance,0
;   extruderRetractionZLift,0
;   extruderRetractionSpeed,3600
;   extruderUseCoasting,1
;   extruderCoastingDistance,0.2
;   extruderUseWipe,1
;   extruderWipeDistance,5
;   primaryExtruder,0
;   layerHeight,0.2
;   topSolidLayers,3
;   bottomSolidLayers,3
;   perimeterOutlines,3
;   printPerimetersInsideOut,1
;   startPointOption,3
;   startPointOriginX,200
;   startPointOriginY,100
;   sequentialIslands,0
;   spiralVaseMode,0
;   firstLayerHeightPercentage,100
;   firstLayerWidthPercentage,150
;   firstLayerUnderspeed,0.5
;   useRaft,0
;   raftExtruder,0
;   raftTopLayers,3
;   raftBaseLayers,2
;   raftOffset,3
;   raftSeparationDistance,0.18
;   raftTopInfill,100
;   aboveRaftSpeedMultiplier,0.3
;   useSkirt,1
;   skirtExtruder,0
;   skirtLayers,1
;   skirtOutlines,8
;   skirtOffset,0
;   usePrimePillar,0
;   primePillarExtruder,999
;   primePillarWidth,12
;   primePillarLocation,7
;   primePillarSpeedMultiplier,1
;   useOozeShield,0
;   oozeShieldExtruder,999
;   oozeShieldOffset,2
;   oozeShieldOutlines,1
;   oozeShieldSidewallShape,1
;   oozeShieldSidewallAngle,30
;   oozeShieldSpeedMultiplier,1
;   infillExtruder,0
;   internalInfillPattern,Rectilinear
;   externalInfillPattern,Rectilinear
;   infillPercentage,20
;   outlineOverlapPercentage,25
;   infillExtrusionWidthPercentage,150
;   minInfillLength,5
;   infillLayerInterval,1
;   internalInfillAngles,45,-45
;   overlapInternalInfillAngles,0
;   externalInfillAngles,45,-45
;   generateSupport,1
;   supportExtruder,0
;   supportInfillPercentage,30
;   supportExtraInflation,0
;   supportBaseLayers,1
;   denseSupportExtruder,0
;   denseSupportLayers,0
;   denseSupportInfillPercentage,70
;   supportLayerInterval,1
;   supportHorizontalPartOffset,0.3
;   supportUpperSeparationLayers,1
;   supportLowerSeparationLayers,1
;   supportType,0
;   supportGridSpacing,4
;   maxOverhangAngle,25
;   supportAngles,0
;   temperatureName,Extruder 1,Heated Bed
;   temperatureNumber,0,1
;   temperatureSetpointCount,1,1
;   temperatureSetpointLayers,1,1
;   temperatureSetpointTemperatures,225,75
;   temperatureStabilizeAtStartup,1,1
;   temperatureHeatedBed,0,1
;   fanLayers,1,2
;   fanSpeeds,0,20
;   blipFanToFullPower,1
;   adjustSpeedForCooling,1
;   minSpeedLayerTime,15
;   minCoolingSpeedSlowdown,20
;   increaseFanForCooling,1
;   minFanLayerTime,45
;   maxCoolingFanSpeed,35
;   increaseFanForBridging,1
;   bridgingFanSpeed,80
;   use5D,1
;   relativeEdistances,0
;   allowEaxisZeroing,1
;   independentExtruderAxes,0
;   includeM10123,0
;   stickySupport,1
;   applyToolheadOffsets,0
;   gcodeXoffset,0
;   gcodeYoffset,0
;   gcodeZoffset,0
;   overrideMachineDefinition,1
;   machineTypeOverride,0
;   strokeXoverride,200
;   strokeYoverride,200
;   strokeZoverride,150
;   originOffsetXoverride,0
;   originOffsetYoverride,0
;   originOffsetZoverride,0
;   homeXdirOverride,-1
;   homeYdirOverride,-1
;   homeZdirOverride,-1
;   flipXoverride,1
;   flipYoverride,-1
;   flipZoverride,1
;   toolheadOffsets,0,0|0,0|0,0|0,0|0,0|0,0
;   overrideFirmwareConfiguration,1
;   firmwareTypeOverride,RepRap (Marlin/Repetier/Sprinter)
;   GPXconfigOverride,r2
;   baudRateOverride,115200
;   overridePrinterModels,0
;   printerModelsOverride
;   startingGcode,G28 ; home all axes,G32 ; run bed.g -- probe bed and enable compensation
;   layerChangeGcode,
;   retractionGcode,
;   toolChangeGcode,
;   endingGcode,M0 ; call stop.g
;   exportFileFormat,gcode
;   celebration,0
;   celebrationSong,Random Song
;   postProcessing,
;   defaultSpeed,3600
;   outlineUnderspeed,0.5
;   solidInfillUnderspeed,0.8
;   supportUnderspeed,0.8
;   rapidXYspeed,18000
;   rapidZspeed,1200
;   minBridgingArea,50
;   bridgingExtraInflation,0
;   bridgingExtrusionMultiplier,0.96
;   bridgingSpeedMultiplier,1
;   useFixedBridgingAngle,0
;   fixedBridgingAngle,0
;   applyBridgingToPerimeters,0
;   filamentDiameters,1.75|1.75|1.75|1.75|1.75|1.75
;   filamentPricesPerKg,46|46|46|46|46|46
;   filamentDensities,1.25|1.25|1.25|1.25|1.25|1.25
;   useMinPrintHeight,0
;   minPrintHeight,0.2
;   useMaxPrintHeight,0
;   maxPrintHeight,0
;   useDiaphragm,0
;   diaphragmLayerInterval,20
;   robustSlicing,1
;   mergeAllIntoSolid,0
;   onlyRetractWhenCrossingOutline,1
;   retractBetweenLayers,0
;   useRetractionMinTravel,1
;   retractionMinTravel,3
;   retractWhileWiping,1
;   onlyWipeOutlines,1
;   avoidCrossingOutline,1
;   maxMovementDetourFactor,5
;   toolChangeRetractionDistance,12
;   toolChangeExtraRestartDistance,-0.5
;   toolChangeRetractionSpeed,600
;   externalThinWallType,0
;   internalThinWallType,2
;   thinWallAllowedOverlapPercentage,10
;   singleExtrusionMinLength,1
;   singleExtrusionMinPrintingWidthPercentage,50
;   singleExtrusionMaxPrintingWidthPercentage,150
;   singleExtrusionEndpointExtension,0.2
;   horizontalSizeCompensation,-0.1
G90
M82
M106 S255
G4 P500
M106 S89
M140 S75
M190 S75
M104 S225 T0
M109 S225 T0
G28 ; home all axes
G32 ; run bed.g -- probe bed and enable compensation
; process Process1
; layer 1, Z = 0.200
T0
G92 E0.0000
G1 E-3.0000 F3600
; feature skirt
; tool H0.200 W0.720
G1 Z0.200 F1200
G1 X99.921 Y93.632 F18000
G1 E0.0000 F3600
G92 E0.0000
G1 X99.846 Y94.244 E0.0362 F1627
G1 X99.766 Y94.557 E0.0551
G1 X99.538 Y95.130 E0.0913
G1 X99.381 Y95.412 E0.1102
G1 X99.016 Y95.909 E0.1464
G1 X98.793 Y96.143 E0.1654
G1 X98.283 Y96.556 E0.2039
G1 X97.932 Y96.757 E0.2276
G1 X97.144 Y97.054 E0.2771
G1 X96.748 Y97.135 E0.3008
G1 X96.091 Y97.162 E0.3393
G1 X95.999 Y97.154 E0.3447
G1 X95.947 Y97.376 E0.3582
G1 X95.835 Y97.679 E0.3771
G1 X95.549 Y98.225 E0.4133
G1 X95.364 Y98.490 E0.4322
G1 X94.921 Y98.976 E0.4708
G1 X94.605 Y99.227 E0.4945
G1 X93.870 Y99.640 E0.5439
G1 X93.491 Y99.779 E0.5676
G1 X92.806 Y99.912 E0.6085
G1 X92.403 Y99.925 E0.6322
G1 X91.567 Y99.818 E0.6817
G1 X91.179 Y99.703 E0.7054
G1 X90.587 Y99.418 E0.7440
G1 X90.316 Y99.242 E0.7629
G1 X89.815 Y98.817 E0.8014
G1 X89.553 Y98.510 E0.8252
G1 X89.094 Y97.755 E0.8770
G1 X88.925 Y97.300 E0.9055
G1 X88.899 Y97.144 E0.9147
G1 X88.662 Y97.165 E0.9287
G1 X88.340 Y97.152 E0.9476
G1 X87.692 Y97.042 E0.9862
G1 X87.310 Y96.911 E1.0099
G1 X86.530 Y96.496 E1.0617
G1 X86.152 Y96.191 E1.0902
G1 X85.558 Y95.483 E1.1444
G1 X85.323 Y95.059 E1.1729
G1 X85.038 Y94.180 E1.2271
G1 X84.979 Y93.698 E1.2556
G1 X85.043 Y92.777 E1.3098
G1 X85.169 Y92.308 E1.3382
G1 X85.574 Y91.477 E1.3925
G1 X85.866 Y91.090 E1.4209
G1 X86.551 Y90.472 E1.4751
G1 X86.693 Y90.387 E1.4848
G1 X86.661 Y90.310 E1.4896
G1 X86.494 Y89.717 E1.5258
G1 X86.447 Y89.397 E1.5448
G1 X86.437 Y88.781 E1.5809
G1 X86.472 Y88.460 E1.5999
G1 X86.618 Y87.860 E1.6361
G1 X86.734 Y87.559 E1.6550
G1 X87.045 Y86.981 E1.6936
G1 X87.291 Y86.660 E1.7173
G1 X87.904 Y86.082 E1.7667
G1 X88.239 Y85.855 E1.7904
G1 X88.834 Y85.577 E1.8290
G1 X89.142 Y85.479 E1.8479
G1 X89.749 Y85.369 E1.8841
G1 X90.071 Y85.352 E1.9030
G1 X90.686 Y85.398 E1.9392
G1 X91.002 Y85.464 E1.9582
G1 X91.585 Y85.664 E1.9943
G1 X91.875 Y85.808 E2.0133
G1 X92.388 Y86.150 E2.0495
G1 X92.450 Y86.204 E2.0543
G1 X92.576 Y86.095 E2.0641
G1 X93.375 Y85.634 E2.1182
G1 X93.833 Y85.476 E2.1467
G1 X94.668 Y85.359 E2.1961
G1 X94.991 Y85.355 E2.2151
G1 X95.458 Y85.410 E2.2426
G1 X95.771 Y85.488 E2.2616
G1 X96.556 Y85.794 E2.3110
G1 X96.966 Y86.054 E2.3395
G1 X97.639 Y86.688 E2.3937
G1 X97.922 Y87.082 E2.4222
G1 X98.290 Y87.885 E2.4740
G1 X98.398 Y88.275 E2.4977
G1 X98.471 Y88.928 E2.5363
G1 X98.465 Y89.251 E2.5552
G1 X98.376 Y89.860 E2.5914
G1 X98.289 Y90.171 E2.6103
G1 X98.199 Y90.382 E2.6238
G1 X98.278 Y90.429 E2.6292
G1 X98.762 Y90.812 E2.6654
G1 X98.988 Y91.043 E2.6843
G1 X99.359 Y91.535 E2.7205
G1 X99.519 Y91.816 E2.7394
G1 X99.753 Y92.386 E2.7756
G1 X99.837 Y92.698 E2.7945
G1 X99.919 Y93.309 E2.8307
G1 X99.921 Y93.632 E2.8497
G1 X99.200 Y93.590 F18000
G92 E0.0000
G1 X99.137 Y94.110 E0.0308 F1627
G1 X99.079 Y94.334 E0.0443
G1 X98.886 Y94.821 E0.0750
G1 X98.774 Y95.023 E0.0886
G1 X98.463 Y95.445 E0.1193
G1 X98.304 Y95.612 E0.1329
G1 X97.874 Y95.960 E0.1653
G1 X97.624 Y96.104 E0.1823
G1 X96.943 Y96.360 E0.2249
G1 X96.661 Y96.418 E0.2419
G1 X96.108 Y96.441 E0.2743
G1 X95.878 Y96.420 E0.2879
G1 X95.394 Y96.314 E0.3169
G1 X95.397 Y96.432 E0.3238
G1 X95.374 Y96.660 E0.3373
G1 X95.256 Y97.169 E0.3680
G1 X95.176 Y97.386 E0.3815
G1 X94.933 Y97.850 E0.4122
G1 X94.800 Y98.039 E0.4258
G1 X94.428 Y98.448 E0.4582
G1 X94.202 Y98.628 E0.4752
G1 X93.568 Y98.984 E0.5179
G1 X93.297 Y99.083 E0.5348
G1 X92.726 Y99.194 E0.5689
G1 X92.437 Y99.204 E0.5859
G1 X91.716 Y99.111 E0.6285
G1 X91.439 Y99.029 E0.6455
G1 X90.940 Y98.789 E0.6779
G1 X90.747 Y98.664 E0.6915
G1 X90.325 Y98.306 E0.7239
G1 X90.138 Y98.086 E0.7408
G1 X89.745 Y97.440 E0.7852
G1 X89.624 Y97.115 E0.8056
G1 X89.496 Y96.334 E0.8520
G1 X89.497 Y96.312 E0.8533
G1 X89.391 Y96.350 E0.8599
G1 X89.167 Y96.398 E0.8733
G1 X88.646 Y96.444 E0.9040
G1 X88.415 Y96.435 E0.9176
G1 X87.870 Y96.342 E0.9500
G1 X87.597 Y96.249 E0.9669
G1 X86.929 Y95.893 E1.0113
G1 X86.659 Y95.675 E1.0317
G1 X86.155 Y95.074 E1.0777
G1 X85.987 Y94.770 E1.0981
G1 X85.744 Y94.023 E1.1442
G1 X85.702 Y93.679 E1.1645
G1 X85.756 Y92.896 E1.2106
G1 X85.846 Y92.561 E1.2309
G1 X86.190 Y91.855 E1.2770
G1 X86.399 Y91.578 E1.2973
G1 X86.982 Y91.053 E1.3433
G1 X87.277 Y90.876 E1.3635
G1 X87.689 Y90.724 E1.3893
G1 X87.432 Y90.284 E1.4193
G1 X87.342 Y90.072 E1.4328
G1 X87.200 Y89.567 E1.4636
G1 X87.167 Y89.338 E1.4771
G1 X87.157 Y88.814 E1.5079
G1 X87.183 Y88.585 E1.5214
G1 X87.307 Y88.075 E1.5522
G1 X87.389 Y87.860 E1.5657
G1 X87.652 Y87.373 E1.5981
G1 X87.827 Y87.145 E1.6151
G1 X88.357 Y86.645 E1.6578
G1 X88.595 Y86.483 E1.6747
G1 X89.097 Y86.249 E1.7072
G1 X89.317 Y86.179 E1.7207
G1 X89.832 Y86.085 E1.7514
G1 X90.063 Y86.073 E1.7650
G1 X90.586 Y86.113 E1.7957
G1 X90.812 Y86.160 E1.8093
G1 X91.307 Y86.330 E1.8400
G1 X91.514 Y86.433 E1.8536
G1 X91.950 Y86.723 E1.8843
G1 X92.124 Y86.874 E1.8978
G1 X92.463 Y87.256 E1.9278
G1 X92.735 Y86.910 E1.9536
G1 X92.995 Y86.684 E1.9738
G1 X93.675 Y86.292 E2.0198
G1 X94.002 Y86.179 E2.0401
G1 X94.723 Y86.078 E2.0828
G1 X94.953 Y86.076 E2.0964
G1 X95.328 Y86.119 E2.1185
G1 X95.552 Y86.175 E2.1320
G1 X96.230 Y86.440 E2.1747
G1 X96.523 Y86.625 E2.1951
G1 X97.094 Y87.164 E2.2411
G1 X97.296 Y87.446 E2.2615
G1 X97.612 Y88.133 E2.3059
G1 X97.689 Y88.412 E2.3228
G1 X97.750 Y88.961 E2.3553
G1 X97.746 Y89.192 E2.3688
G1 X97.670 Y89.710 E2.3995
G1 X97.608 Y89.933 E2.4131
G1 X97.403 Y90.414 E2.4438
G1 X97.288 Y90.612 E2.4572
G1 X97.216 Y90.705 E2.4641
G1 X97.670 Y90.904 E2.4932
G1 X97.868 Y91.023 E2.5067
G1 X98.279 Y91.348 E2.5375
G1 X98.441 Y91.513 E2.5510
G1 X98.756 Y91.931 E2.5818
G1 X98.870 Y92.132 E2.5953
G1 X99.069 Y92.617 E2.6261
G1 X99.129 Y92.840 E2.6396
G1 X99.199 Y93.359 E2.6704
G1 X99.200 Y93.590 E2.6839
G1 X98.480 Y93.548 F18000
G92 E0.0000
G1 X98.428 Y93.977 E0.0253 F1627
G1 X98.393 Y94.111 E0.0335
G1 X98.234 Y94.512 E0.0588
G1 X98.167 Y94.633 E0.0669
G1 X97.911 Y94.981 E0.0923
G1 X97.815 Y95.082 E0.1004
G1 X97.466 Y95.364 E0.1267
G1 X97.316 Y95.450 E0.1369
G1 X96.743 Y95.666 E0.1728
G1 X96.574 Y95.701 E0.1830
G1 X96.125 Y95.719 E0.2093
G1 X95.987 Y95.707 E0.2175
G1 X95.544 Y95.610 E0.2440
G1 X95.377 Y95.543 E0.2546
G1 X94.890 Y95.246 E0.2881
G1 X94.819 Y95.226 E0.2924
G1 X94.719 Y95.238 E0.2983
G1 X94.645 Y95.278 E0.3032
G1 X94.584 Y95.336 E0.3082
G1 X94.542 Y95.428 E0.3141
G1 X94.538 Y95.530 E0.3201
G1 X94.634 Y95.803 E0.3371
G1 X94.664 Y95.969 E0.3470
G1 X94.676 Y96.406 E0.3726
G1 X94.662 Y96.542 E0.3807
G1 X94.565 Y96.963 E0.4060
G1 X94.517 Y97.092 E0.4141
G1 X94.317 Y97.475 E0.4394
G1 X94.237 Y97.588 E0.4476
G1 X93.935 Y97.920 E0.4739
G1 X93.799 Y98.028 E0.4841
G1 X93.266 Y98.328 E0.5200
G1 X93.103 Y98.388 E0.5301
G1 X92.645 Y98.477 E0.5575
G1 X92.472 Y98.482 E0.5677
G1 X91.865 Y98.404 E0.6036
G1 X91.699 Y98.355 E0.6137
G1 X91.294 Y98.160 E0.6401
G1 X91.178 Y98.085 E0.6482
G1 X90.835 Y97.794 E0.6746
G1 X90.723 Y97.662 E0.6847
G1 X90.396 Y97.125 E0.7217
G1 X90.323 Y96.930 E0.7339
G1 X90.218 Y96.288 E0.7720
G1 X90.225 Y96.074 E0.7846
G1 X90.362 Y95.501 E0.8192
G1 X90.359 Y95.445 E0.8224
G1 X90.340 Y95.381 E0.8264
G1 X90.286 Y95.295 E0.8323
G1 X90.182 Y95.238 E0.8393
G1 X90.098 Y95.228 E0.8442
G1 X89.996 Y95.243 E0.8503
G1 X89.753 Y95.429 E0.8683
G1 X89.605 Y95.510 E0.8781
G1 X89.193 Y95.656 E0.9038
G1 X89.059 Y95.685 E0.9118
G1 X88.629 Y95.723 E0.9371
G1 X88.491 Y95.717 E0.9453
G1 X88.048 Y95.642 E0.9716
G1 X87.884 Y95.586 E0.9818
G1 X87.328 Y95.290 E1.0187
G1 X87.166 Y95.159 E1.0309
G1 X86.751 Y94.664 E1.0689
G1 X86.650 Y94.482 E1.0811
G1 X86.450 Y93.867 E1.1190
G1 X86.425 Y93.660 E1.1312
G1 X86.470 Y93.015 E1.1692
G1 X86.524 Y92.814 E1.1814
G1 X86.807 Y92.233 E1.2193
G1 X86.932 Y92.067 E1.2315
G1 X87.412 Y91.635 E1.2694
G1 X87.589 Y91.528 E1.2815
G1 X88.185 Y91.309 E1.3188
G1 X88.386 Y91.276 E1.3307
G1 X88.692 Y91.284 E1.3487
G1 X88.805 Y91.242 E1.3557
G1 X88.870 Y91.164 E1.3617
G1 X88.899 Y91.103 E1.3656
G1 X88.918 Y91.004 E1.3716
G1 X88.885 Y90.907 E1.3775
G1 X88.854 Y90.861 E1.3808
G1 X88.420 Y90.489 E1.4143
G1 X88.305 Y90.351 E1.4249
G1 X88.076 Y89.960 E1.4515
G1 X88.022 Y89.833 E1.4596
G1 X87.906 Y89.417 E1.4849
G1 X87.886 Y89.280 E1.4931
G1 X87.878 Y88.848 E1.5184
G1 X87.893 Y88.710 E1.5265
G1 X87.995 Y88.290 E1.5519
G1 X88.045 Y88.161 E1.5600
G1 X88.258 Y87.766 E1.5863
G1 X88.364 Y87.629 E1.5965
G1 X88.809 Y87.209 E1.6324
G1 X88.952 Y87.111 E1.6426
G1 X89.359 Y86.921 E1.6689
G1 X89.491 Y86.879 E1.6771
G1 X89.916 Y86.802 E1.7024
G1 X90.054 Y86.795 E1.7105
G1 X90.485 Y86.827 E1.7359
G1 X90.621 Y86.855 E1.7440
G1 X91.029 Y86.996 E1.7693
G1 X91.153 Y87.057 E1.7774
G1 X91.513 Y87.297 E1.8028
G1 X91.617 Y87.388 E1.8109
G1 X91.918 Y87.726 E1.8375
G1 X92.014 Y87.878 E1.8480
G1 X92.233 Y88.405 E1.8815
G1 X92.279 Y88.463 E1.8858
G1 X92.367 Y88.512 E1.8918
G1 X92.450 Y88.523 E1.8967
G1 X92.517 Y88.515 E1.9006
G1 X92.611 Y88.476 E1.9066
G1 X92.685 Y88.382 E1.9136
G1 X92.773 Y88.088 E1.9316
G1 X92.867 Y87.908 E1.9436
G1 X93.259 Y87.409 E1.9808
G1 X93.415 Y87.274 E1.9929
G1 X93.974 Y86.951 E2.0308
G1 X94.171 Y86.883 E2.0430
G1 X94.777 Y86.798 E2.0789
G1 X94.915 Y86.796 E2.0870
G1 X95.199 Y86.829 E2.1038
G1 X95.333 Y86.863 E2.1119
G1 X95.903 Y87.085 E2.1478
G1 X96.079 Y87.197 E2.1600
G1 X96.550 Y87.640 E2.1980
G1 X96.671 Y87.809 E2.2102
G1 X96.933 Y88.381 E2.2471
G1 X96.980 Y88.548 E2.2573
G1 X97.029 Y88.995 E2.2836
G1 X97.027 Y89.133 E2.2917
G1 X96.964 Y89.560 E2.3171
G1 X96.927 Y89.694 E2.3252
G1 X96.758 Y90.091 E2.3505
G1 X96.689 Y90.209 E2.3586
G1 X96.423 Y90.556 E2.3842
G1 X96.301 Y90.672 E2.3941
G1 X96.048 Y90.847 E2.4121
G1 X96.003 Y90.938 E2.4181
G1 X95.986 Y91.021 E2.4230
G1 X96.008 Y91.137 E2.4300
G1 X96.073 Y91.215 E2.4360
G1 X96.128 Y91.254 E2.4399
G1 X96.181 Y91.273 E2.4432
G1 X96.750 Y91.319 E2.4767
G1 X96.924 Y91.363 E2.4873
G1 X97.339 Y91.545 E2.5138
G1 X97.458 Y91.616 E2.5219
G1 X97.797 Y91.884 E2.5473
G1 X97.893 Y91.983 E2.5554
G1 X98.153 Y92.328 E2.5807
G1 X98.222 Y92.448 E2.5889
G1 X98.386 Y92.848 E2.6142
G1 X98.422 Y92.982 E2.6223
G1 X98.479 Y93.410 E2.6477
G1 X98.480 Y93.548 E2.6558
G1 X97.760 Y93.506 F18000
G92 E0.0000
G1 X97.719 Y93.843 E0.0199 F1627
G1 X97.707 Y93.888 E0.0226
G1 X97.582 Y94.204 E0.0426
G1 X97.559 Y94.244 E0.0453
G1 X97.358 Y94.518 E0.0652
G1 X97.326 Y94.551 E0.0679
G1 X97.058 Y94.768 E0.0882
G1 X97.008 Y94.797 E0.0916
G1 X96.543 Y94.972 E0.1207
G1 X96.487 Y94.984 E0.1241
G1 X96.141 Y94.998 E0.1443
G1 X96.095 Y94.994 E0.1470
G1 X95.757 Y94.920 E0.1674
