; G-Code generated by Simplify3D(R) Version 4.1.2
; Apr 30, 2020 at 12:59:48 AM
; Settings Summary
;   processName,Process1
;   applyToModels,connector-prototype
;   profileName,HBot
;   profileVersion,2019-10-26 23:38:43
;   baseProfile,Default
;   printMaterial,PETG - SUNLU
;   printQuality,Medium
;   printExtruders,
;   extruderName,Extruder 1
;   extruderToolheadNumber,0
;   extruderDiameter,0.4
;   extruderAutoWidth,1
;   extruderWidth,0.48
;   extrusionMultiplier,0.98
;   extruderUseRetract,1
;   extruderRetractionDistance,3
;   extruderExtraRestartDistance,0
;   extruderRetractionZLift,0
;   extruderRetractionSpeed,3600
;   extruderUseCoasting,1
;   extruderCoastingDistance,0.2
;   extruderUseWipe,1
;   extruderWipeDistance,5
;   primaryExtruder,0
;   layerHeight,0.2
;   topSolidLayers,3
;   bottomSolidLayers,3
;   perimeterOutlines,3
;   printPerimetersInsideOut,1
;   startPointOption,3
;   startPointOriginX,200
;   startPointOriginY,100
;   sequentialIslands,0
;   spiralVaseMode,0
;   firstLayerHeightPercentage,100
;   firstLayerWidthPercentage,150
;   firstLayerUnderspeed,0.5
;   useRaft,0
;   raftExtruder,0
;   raftTopLayers,3
;   raftBaseLayers,2
;   raftOffset,3
;   raftSeparationDistance,0.18
;   raftTopInfill,100
;   aboveRaftSpeedMultiplier,0.3
;   useSkirt,1
;   skirtExtruder,0
;   skirtLayers,1
;   skirtOutlines,8
;   skirtOffset,0
;   usePrimePillar,0
;   primePillarExtruder,999
;   primePillarWidth,12
;   primePillarLocation,7
;   primePillarSpeedMultiplier,1
;   useOozeShield,0
;   oozeShieldExtruder,999
;   oozeShieldOffset,2
;   oozeShieldOutlines,1
;   oozeShieldSidewallShape,1
;   oozeShieldSidewallAngle,30
;   oozeShieldSpeedMultiplier,1
;   infillExtruder,0
;   internalInfillPattern,Rectilinear
;   externalInfillPattern,Rectilinear
;   infillPercentage,20
;   outlineOverlapPercentage,25
;   infillExtrusionWidthPercentage,150
;   minInfillLength,5
;   infillLayerInterval,1
;   internalInfillAngles,45,-45
;   overlapInternalInfillAngles,0
;   externalInfillAngles,45,-45
;   generateSupport,1
;   supportExtruder,0
;   supportInfillPercentage,30
;   supportExtraInflation,0
;   supportBaseLayers,1
;   denseSupportExtruder,0
;   denseSupportLayers,0
;   denseSupportInfillPercentage,70
;   supportLayerInterval,1
;   supportHorizontalPartOffset,0.3
;   supportUpperSeparationLayers,1
;   supportLowerSeparationLayers,1
;   supportType,0
;   supportGridSpacing,4
;   maxOverhangAngle,25
;   supportAngles,0
;   temperatureName,Extruder 1,Heated Bed
;   temperatureNumber,0,1
;   temperatureSetpointCount,1,1
;   temperatureSetpointLayers,1,1
;   temperatureSetpointTemperatures,225,75
;   temperatureStabilizeAtStartup,1,1
;   temperatureHeatedBed,0,1
;   fanLayers,1,2
;   fanSpeeds,0,20
;   blipFanToFullPower,1
;   adjustSpeedForCooling,1
;   minSpeedLayerTime,15
;   minCoolingSpeedSlowdown,20
;   increaseFanForCooling,1
;   minFanLayerTime,45
;   maxCoolingFanSpeed,35
;   increaseFanForBridging,1
;   bridgingFanSpeed,80
;   use5D,1
;   relativeEdistances,0
;   allowEaxisZeroing,1
;   independentExtruderAxes,0
;   includeM10123,0
;   stickySupport,1
;   applyToolheadOffsets,0
;   gcodeXoffset,0
;   gcodeYoffset,0
;   gcodeZoffset,0
;   overrideMachineDefinition,1
;   machineTypeOverride,0
;   strokeXoverride,200
;   strokeYoverride,200
;   strokeZoverride,150
;   originOffsetXoverride,0
;   originOffsetYoverride,0
;   originOffsetZoverride,0
;   homeXdirOverride,-1
;   homeYdirOverride,-1
;   homeZdirOverride,-1
;   flipXoverride,1
;   flipYoverride,-1
;   flipZoverride,1
;   toolheadOffsets,0,0|0,0|0,0|0,0|0,0|0,0
;   overrideFirmwareConfiguration,1
;   firmwareTypeOverride,RepRap (Marlin/Repetier/Sprinter)
;   GPXconfigOverride,r2
;   baudRateOverride,115200
;   overridePrinterModels,0
;   printerModelsOverride
;   startingGcode,G28 ; home all axes,G32 ; run bed.g -- probe bed and enable compensation
;   layerChangeGcode,
;   retractionGcode,
;   toolChangeGcode,
;   endingGcode,M0 ; call stop.g
;   exportFileFormat,gcode
;   celebration,0
;   celebrationSong,Random Song
;   postProcessing,
;   defaultSpeed,3600
;   outlineUnderspeed,0.5
;   solidInfillUnderspeed,0.8
;   supportUnderspeed,0.8
;   rapidXYspeed,18000
;   rapidZspeed,1200
;   minBridgingArea,50
;   bridgingExtraInflation,0
;   bridgingExtrusionMultiplier,0.96
;   bridgingSpeedMultiplier,1
;   useFixedBridgingAngle,0
;   fixedBridgingAngle,0
;   applyBridgingToPerimeters,0
;   filamentDiameters,1.75|1.75|1.75|1.75|1.75|1.75
;   filamentPricesPerKg,46|46|46|46|46|46
;   filamentDensities,1.25|1.25|1.25|1.25|1.25|1.25
;   useMinPrintHeight,0
;   minPrintHeight,0.2
;   useMaxPrintHeight,0
;   maxPrintHeight,0
;   useDiaphragm,0
;   diaphragmLayerInterval,20
;   robustSlicing,1
;   mergeAllIntoSolid,0
;   onlyRetractWhenCrossingOutline,1
;   retractBetweenLayers,0
;   useRetractionMinTravel,1
;   retractionMinTravel,3
;   retractWhileWiping,1
;   onlyWipeOutlines,1
;   avoidCrossingOutline,1
;   maxMovementDetourFactor,5
;   toolChangeRetractionDistance,12
;   toolChangeExtraRestartDistance,-0.5
;   toolChangeRetractionSpeed,600
;   externalThinWallType,0
;   internalThinWallType,2
;   thinWallAllowedOverlapPercentage,10
;   singleExtrusionMinLength,1
;   singleExtrusionMinPrintingWidthPercentage,50
;   singleExtrusionMaxPrintingWidthPercentage,150
;   singleExtrusionEndpointExtension,0.2
;   horizontalSizeCompensation,-0.1
G90
M82
M106 S255
G4 P500
M106 S89
M140 S75
M190 S75
M104 S225 T0
M109 S225 T0
G28 ; home all axes
G32 ; run bed.g -- probe bed and enable compensation
; process Process1
; layer 1, Z = 0.200
T0
G92 E0.0000
G1 E-3.0000 F3600
; feature skirt
; tool H0.200 W0.720
G1 Z0.200 F1200
G1 X132.140 Y99.534 F18000
G1 E0.0000 F3600
G92 E0.0000
G1 X132.140 Y100.537 E0.0588 F982
G1 X132.048 Y101.239 E0.1003
G1 X131.723 Y102.451 E0.1740
G1 X131.452 Y103.105 E0.2155
G1 X130.951 Y103.974 E0.2744
G1 X130.618 Y104.432 E0.3076
G1 X129.995 Y105.124 E0.3622
G1 X129.574 Y105.503 E0.3954
G1 X128.820 Y106.051 E0.4501
G1 X128.329 Y106.334 E0.4834
G1 X127.412 Y106.742 E0.5423
G1 X126.730 Y106.944 E0.5840
G1 X125.625 Y107.117 E0.6496
G1 X125.206 Y107.150 E0.6743
G1 X74.791 Y107.150 E3.6322
G1 X74.369 Y107.117 E3.6570
G1 X73.267 Y106.943 E3.7225
G1 X72.587 Y106.742 E3.7641
G1 X71.671 Y106.334 E3.8229
G1 X71.180 Y106.051 E3.8561
G1 X70.426 Y105.503 E3.9108
G1 X70.006 Y105.124 E3.9440
G1 X69.382 Y104.431 E3.9987
G1 X69.049 Y103.973 E4.0319
G1 X68.583 Y103.167 E4.0866
G1 X68.353 Y102.649 E4.1198
G1 X68.065 Y101.763 E4.1745
G1 X67.948 Y101.210 E4.2077
G1 X67.850 Y100.283 E4.2623
G1 X67.850 Y99.717 E4.2956
G1 X67.948 Y98.790 E4.3502
G1 X68.065 Y98.237 E4.3834
G1 X68.353 Y97.351 E4.4381
G1 X68.583 Y96.833 E4.4713
G1 X69.049 Y96.027 E4.5260
G1 X69.382 Y95.569 E4.5592
G1 X70.006 Y94.876 E4.6139
G1 X70.426 Y94.497 E4.6471
G1 X71.180 Y93.949 E4.7018
G1 X71.671 Y93.666 E4.7350
G1 X72.587 Y93.258 E4.7938
G1 X73.267 Y93.057 E4.8354
G1 X74.369 Y92.883 E4.9009
G1 X74.791 Y92.850 E4.9257
G1 X125.209 Y92.850 E7.8838
G1 X125.631 Y92.883 E7.9086
G1 X126.733 Y93.057 E7.9741
G1 X127.413 Y93.258 E8.0157
G1 X128.330 Y93.666 E8.0746
G1 X128.820 Y93.950 E8.1078
G1 X129.574 Y94.497 E8.1625
G1 X129.994 Y94.876 E8.1957
G1 X130.666 Y95.621 E8.2545
G1 X131.067 Y96.205 E8.2960
G1 X131.636 Y97.323 E8.3697
G1 X131.873 Y97.991 E8.4112
G1 X132.081 Y98.972 E8.4701
G1 X132.140 Y99.534 E8.5033
G1 X131.420 Y99.572 F18000
G92 E0.0000
G1 X131.420 Y100.490 E0.0538 F982
G1 X131.340 Y101.098 E0.0898
G1 X131.040 Y102.219 E0.1579
G1 X130.805 Y102.786 E0.1939
G1 X130.346 Y103.581 E0.2478
G1 X130.058 Y103.978 E0.2766
G1 X129.485 Y104.614 E0.3268
G1 X129.120 Y104.942 E0.3556
G1 X128.427 Y105.446 E0.4059
G1 X128.002 Y105.691 E0.4346
G1 X127.163 Y106.065 E0.4886
G1 X126.572 Y106.240 E0.5247
G1 X125.541 Y106.402 E0.5859
G1 X125.178 Y106.430 E0.6073
G1 X74.819 Y106.430 E3.5619
G1 X74.453 Y106.401 E3.5834
G1 X73.426 Y106.239 E3.6444
G1 X72.837 Y106.065 E3.6805
G1 X71.998 Y105.691 E3.7344
G1 X71.573 Y105.446 E3.7632
G1 X70.880 Y104.943 E3.8134
G1 X70.516 Y104.615 E3.8422
G1 X69.942 Y103.977 E3.8925
G1 X69.654 Y103.581 E3.9212
G1 X69.226 Y102.839 E3.9715
G1 X69.026 Y102.391 E4.0002
G1 X68.762 Y101.577 E4.0505
G1 X68.660 Y101.097 E4.0793
G1 X68.570 Y100.245 E4.1295
G1 X68.570 Y99.755 E4.1583
G1 X68.660 Y98.903 E4.2085
G1 X68.762 Y98.423 E4.2373
G1 X69.026 Y97.609 E4.2875
G1 X69.226 Y97.161 E4.3163
G1 X69.654 Y96.419 E4.3666
G1 X69.942 Y96.022 E4.3953
G1 X70.516 Y95.385 E4.4456
G1 X70.880 Y95.057 E4.4744
G1 X71.573 Y94.554 E4.5246
G1 X71.998 Y94.309 E4.5534
G1 X72.837 Y93.935 E4.6073
G1 X73.426 Y93.761 E4.6433
G1 X74.453 Y93.599 E4.7044
G1 X74.819 Y93.570 E4.7259
G1 X125.181 Y93.570 E7.6807
G1 X125.547 Y93.599 E7.7022
G1 X126.574 Y93.761 E7.7632
G1 X127.163 Y93.935 E7.7993
G1 X128.003 Y94.309 E7.8532
G1 X128.427 Y94.554 E7.8820
G1 X129.120 Y95.058 E7.9322
G1 X129.485 Y95.386 E7.9610
G1 X130.099 Y96.068 E8.0148
G1 X130.446 Y96.574 E8.0508
G1 X130.973 Y97.608 E8.1189
G1 X131.178 Y98.186 E8.1549
G1 X131.369 Y99.084 E8.2088
G1 X131.420 Y99.572 E8.2376
G1 X130.700 Y99.610 F18000
G92 E0.0000
G1 X130.700 Y100.442 E0.0489 F982
G1 X130.632 Y100.957 E0.0793
G1 X130.357 Y101.987 E0.1419
G1 X130.158 Y102.467 E0.1723
G1 X129.741 Y103.188 E0.2212
G1 X129.497 Y103.524 E0.2456
G1 X128.975 Y104.104 E0.2914
G1 X128.666 Y104.382 E0.3157
G1 X128.034 Y104.841 E0.3616
G1 X127.675 Y105.049 E0.3859
G1 X126.913 Y105.388 E0.4348
G1 X126.413 Y105.536 E0.4654
G1 X125.457 Y105.686 E0.5222
G1 X125.149 Y105.710 E0.5403
G1 X74.847 Y105.710 E3.4916
G1 X74.538 Y105.686 E3.5098
G1 X73.585 Y105.535 E3.5664
G1 X73.086 Y105.388 E3.5969
G1 X72.325 Y105.049 E3.6458
G1 X71.965 Y104.841 E3.6702
G1 X71.334 Y104.382 E3.7160
G1 X71.025 Y104.105 E3.7403
G1 X70.502 Y103.524 E3.7862
G1 X70.259 Y103.188 E3.8105
G1 X69.868 Y102.512 E3.8563
G1 X69.699 Y102.133 E3.8807
G1 X69.458 Y101.390 E3.9265
G1 X69.372 Y100.984 E3.9508
G1 X69.290 Y100.208 E3.9967
G1 X69.290 Y99.792 E4.0210
G1 X69.372 Y99.016 E4.0668
G1 X69.458 Y98.610 E4.0912
G1 X69.699 Y97.867 E4.1370
G1 X69.868 Y97.488 E4.1613
G1 X70.259 Y96.812 E4.2071
G1 X70.502 Y96.476 E4.2315
G1 X71.025 Y95.895 E4.2773
G1 X71.334 Y95.618 E4.3017
G1 X71.965 Y95.159 E4.3475
G1 X72.325 Y94.951 E4.3719
G1 X73.086 Y94.612 E4.4207
G1 X73.585 Y94.465 E4.4513
G1 X74.538 Y94.314 E4.5079
G1 X74.847 Y94.290 E4.5261
G1 X125.153 Y94.290 E7.4775
G1 X125.462 Y94.314 E7.4957
G1 X126.415 Y94.465 E7.5524
G1 X126.914 Y94.612 E7.5829
G1 X127.675 Y94.951 E7.6318
G1 X128.035 Y95.159 E7.6561
G1 X128.666 Y95.618 E7.7019
G1 X128.975 Y95.896 E7.7263
G1 X129.532 Y96.515 E7.7752
G1 X129.826 Y96.943 E7.8056
G1 X130.310 Y97.893 E7.8682
G1 X130.484 Y98.382 E7.8987
G1 X130.657 Y99.197 E7.9475
G1 X130.700 Y99.610 E7.9719
G1 X129.980 Y99.647 F18000
G92 E0.0000
G1 X129.980 Y100.395 E0.0439 F982
G1 X129.925 Y100.816 E0.0688
G1 X129.673 Y101.755 E0.1258
G1 X129.511 Y102.148 E0.1507
G1 X129.137 Y102.796 E0.1946
G1 X128.937 Y103.070 E0.2146
G1 X128.465 Y103.595 E0.2559
G1 X128.213 Y103.822 E0.2759
G1 X127.642 Y104.237 E0.3173
G1 X127.348 Y104.406 E0.3372
G1 X126.664 Y104.711 E0.3811
G1 X126.254 Y104.832 E0.4062
G1 X125.373 Y104.970 E0.4585
G1 X125.121 Y104.990 E0.4733
G1 X74.875 Y104.990 E3.4213
G1 X74.622 Y104.970 E3.4362
G1 X73.744 Y104.831 E3.4884
G1 X73.336 Y104.711 E3.5133
G1 X72.652 Y104.406 E3.5572
G1 X72.358 Y104.237 E3.5772
G1 X71.787 Y103.822 E3.6185
G1 X71.535 Y103.595 E3.6385
G1 X71.063 Y103.070 E3.6799
G1 X70.863 Y102.795 E3.6998
G1 X70.511 Y102.185 E3.7412
G1 X70.372 Y101.874 E3.7611
G1 X70.154 Y101.203 E3.8025
G1 X70.084 Y100.871 E3.8224
G1 X70.010 Y100.170 E3.8638
G1 X70.010 Y99.830 E3.8837
G1 X70.084 Y99.129 E3.9251
G1 X70.154 Y98.797 E3.9450
G1 X70.372 Y98.126 E3.9864
G1 X70.511 Y97.815 E4.0064
G1 X70.863 Y97.205 E4.0477
G1 X71.063 Y96.930 E4.0677
G1 X71.535 Y96.405 E4.1091
G1 X71.787 Y96.178 E4.1290
G1 X72.358 Y95.763 E4.1704
G1 X72.652 Y95.594 E4.1903
G1 X73.336 Y95.289 E4.2342
G1 X73.744 Y95.169 E4.2592
G1 X74.622 Y95.030 E4.3114
G1 X74.875 Y95.010 E4.3262
G1 X125.125 Y95.010 E7.2744
G1 X125.378 Y95.030 E7.2893
G1 X126.256 Y95.169 E7.3415
G1 X126.664 Y95.289 E7.3664
G1 X127.348 Y95.594 E7.4104
G1 X127.642 Y95.764 E7.4303
G1 X128.213 Y96.178 E7.4717
G1 X128.465 Y96.405 E7.4916
G1 X128.966 Y96.961 E7.5355
G1 X129.206 Y97.311 E7.5604
G1 X129.648 Y98.178 E7.6174
G1 X129.789 Y98.578 E7.6424
G1 X129.945 Y99.310 E7.6863
G1 X129.980 Y99.647 E7.7062
G1 X129.260 Y99.685 F18000
G92 E0.0000
G1 X129.260 Y100.348 E0.0389 F982
G1 X129.217 Y100.676 E0.0583
G1 X128.990 Y101.523 E0.1098
G1 X128.864 Y101.829 E0.1292
G1 X128.532 Y102.403 E0.1681
G1 X128.377 Y102.617 E0.1836
G1 X127.955 Y103.085 E0.2205
G1 X127.759 Y103.261 E0.2360
G1 X127.249 Y103.632 E0.2730
G1 X127.020 Y103.764 E0.2885
G1 X126.414 Y104.034 E0.3274
G1 X126.096 Y104.128 E0.3469
G1 X125.289 Y104.255 E0.3948
G1 X125.093 Y104.270 E0.4063
G1 X74.904 Y104.270 E3.3510
G1 X74.707 Y104.255 E3.3626
G1 X73.903 Y104.128 E3.4103
G1 X73.585 Y104.034 E3.4298
G1 X72.980 Y103.764 E3.4687
G1 X72.751 Y103.632 E3.4842
G1 X72.241 Y103.262 E3.5211
G1 X72.045 Y103.085 E3.5366
G1 X71.623 Y102.617 E3.5736
G1 X71.468 Y102.403 E3.5891
G1 X71.153 Y101.857 E3.6260
G1 X71.046 Y101.616 E3.6416
G1 X70.851 Y101.017 E3.6785
G1 X70.796 Y100.759 E3.6940
G1 X70.730 Y100.132 E3.7310
G1 X70.730 Y99.868 E3.7465
G1 X70.796 Y99.241 E3.7834
G1 X70.851 Y98.983 E3.7989
G1 X71.046 Y98.384 E3.8359
G1 X71.153 Y98.143 E3.8514
G1 X71.468 Y97.597 E3.8883
G1 X71.623 Y97.383 E3.9038
G1 X72.045 Y96.915 E3.9408
G1 X72.241 Y96.738 E3.9563
G1 X72.751 Y96.368 E3.9933
G1 X72.980 Y96.236 E4.0088
G1 X73.585 Y95.966 E4.0477
G1 X73.903 Y95.872 E4.0671
G1 X74.707 Y95.745 E4.1148
G1 X74.904 Y95.730 E4.1264
G1 X125.096 Y95.730 E7.0713
G1 X125.293 Y95.745 E7.0829
G1 X126.097 Y95.872 E7.1306
G1 X126.414 Y95.966 E7.1500
G1 X127.021 Y96.236 E7.1889
G1 X127.249 Y96.368 E7.2044
G1 X127.759 Y96.738 E7.2414
G1 X127.955 Y96.915 E7.2569
G1 X128.399 Y97.408 E7.2958
G1 X128.586 Y97.680 E7.3152
G1 X128.985 Y98.462 E7.3667
G1 X129.095 Y98.774 E7.3861
G1 X129.233 Y99.423 E7.4250
G1 X129.260 Y99.685 E7.4405
G1 X128.540 Y99.723 F18000
G92 E0.0000
G1 X128.540 Y100.301 E0.0339 F982
G1 X128.509 Y100.535 E0.0478
G1 X128.307 Y101.291 E0.0937
G1 X128.216 Y101.510 E0.1076
G1 X127.927 Y102.010 E0.1415
G1 X127.816 Y102.163 E0.1526
G1 X127.445 Y102.575 E0.1851
G1 X127.305 Y102.701 E0.1962
G1 X126.857 Y103.027 E0.2287
G1 X126.693 Y103.121 E0.2398
G1 X126.165 Y103.357 E0.2737
G1 X125.937 Y103.424 E0.2876
G1 X125.205 Y103.539 E0.3311
G1 X125.065 Y103.550 E0.3393
G1 X74.932 Y103.550 E3.2807
G1 X74.791 Y103.539 E3.2890
G1 X74.062 Y103.424 E3.3323
G1 X73.835 Y103.357 E3.3462
G1 X73.307 Y103.121 E3.3801
G1 X73.143 Y103.027 E3.3912
G1 X72.695 Y102.701 E3.4237
G1 X72.555 Y102.575 E3.4348
G1 X72.183 Y102.163 E3.4673
G1 X72.073 Y102.010 E3.4784
G1 X71.795 Y101.530 E3.5109
G1 X71.719 Y101.358 E3.5220
G1 X71.547 Y100.830 E3.5545
G1 X71.508 Y100.646 E3.5656
G1 X71.450 Y100.094 E3.5981
G1 X71.450 Y99.906 E3.6092
G1 X71.508 Y99.354 E3.6417
G1 X71.547 Y99.170 E3.6528
G1 X71.719 Y98.642 E3.6853
G1 X71.795 Y98.470 E3.6964
G1 X72.073 Y97.990 E3.7289
G1 X72.183 Y97.837 E3.7400
G1 X72.555 Y97.425 E3.7725
G1 X72.695 Y97.299 E3.7836
G1 X73.143 Y96.973 E3.8161
G1 X73.307 Y96.879 E3.8272
G1 X73.835 Y96.643 E3.8611
G1 X74.062 Y96.576 E3.8750
G1 X74.791 Y96.461 E3.9183
G1 X74.932 Y96.450 E3.9266
G1 X125.068 Y96.450 E6.8681
G1 X125.209 Y96.461 E6.8764
G1 X125.938 Y96.576 E6.9197
G1 X126.165 Y96.643 E6.9336
G1 X126.693 Y96.879 E6.9675
G1 X126.857 Y96.973 E6.9786
G1 X127.305 Y97.299 E7.0111
G1 X127.445 Y97.425 E7.0222
G1 X127.832 Y97.855 E7.0561
G1 X127.966 Y98.049 E7.0700
G1 X128.322 Y98.747 E7.1159
G1 X128.400 Y98.970 E7.1298
G1 X128.521 Y99.535 E7.1637
G1 X128.540 Y99.723 E7.1748
G1 X127.820 Y99.761 F18000
G92 E0.0000
G1 X127.820 Y100.254 E0.0289 F982
G1 X127.802 Y100.394 E0.0372
G1 X127.623 Y101.060 E0.0777
G1 X127.569 Y101.190 E0.0860
G1 X127.323 Y101.618 E0.1149
G1 X127.256 Y101.709 E0.1216
G1 X126.936 Y102.065 E0.1497
G1 X126.851 Y102.141 E0.1563
G1 X126.464 Y102.422 E0.1844
