; G-Code generated by Simplify3D(R) Version 4.1.2
; May 1, 2020 at 8:45:07 PM
; Settings Summary
;   processName,Process1
;   applyToModels,square-gear-test,square-gear-test(2)
;   profileName,HBot
;   profileVersion,2019-10-26 23:38:43
;   baseProfile,Default
;   printMaterial,PETG - SUNLU
;   printQuality,Medium
;   printExtruders,
;   extruderName,Extruder 1
;   extruderToolheadNumber,0
;   extruderDiameter,0.4
;   extruderAutoWidth,1
;   extruderWidth,0.48
;   extrusionMultiplier,0.98
;   extruderUseRetract,1
;   extruderRetractionDistance,3
;   extruderExtraRestartDistance,0
;   extruderRetractionZLift,0
;   extruderRetractionSpeed,3600
;   extruderUseCoasting,1
;   extruderCoastingDistance,0.2
;   extruderUseWipe,1
;   extruderWipeDistance,5
;   primaryExtruder,0
;   layerHeight,0.2
;   topSolidLayers,3
;   bottomSolidLayers,3
;   perimeterOutlines,3
;   printPerimetersInsideOut,1
;   startPointOption,3
;   startPointOriginX,200
;   startPointOriginY,100
;   sequentialIslands,0
;   spiralVaseMode,0
;   firstLayerHeightPercentage,100
;   firstLayerWidthPercentage,150
;   firstLayerUnderspeed,0.5
;   useRaft,0
;   raftExtruder,0
;   raftTopLayers,3
;   raftBaseLayers,2
;   raftOffset,3
;   raftSeparationDistance,0.18
;   raftTopInfill,100
;   aboveRaftSpeedMultiplier,0.3
;   useSkirt,1
;   skirtExtruder,0
;   skirtLayers,1
;   skirtOutlines,8
;   skirtOffset,0
;   usePrimePillar,0
;   primePillarExtruder,999
;   primePillarWidth,12
;   primePillarLocation,7
;   primePillarSpeedMultiplier,1
;   useOozeShield,0
;   oozeShieldExtruder,999
;   oozeShieldOffset,2
;   oozeShieldOutlines,1
;   oozeShieldSidewallShape,1
;   oozeShieldSidewallAngle,30
;   oozeShieldSpeedMultiplier,1
;   infillExtruder,0
;   internalInfillPattern,Rectilinear
;   externalInfillPattern,Rectilinear
;   infillPercentage,20
;   outlineOverlapPercentage,25
;   infillExtrusionWidthPercentage,150
;   minInfillLength,5
;   infillLayerInterval,1
;   internalInfillAngles,45,-45
;   overlapInternalInfillAngles,0
;   externalInfillAngles,45,-45
;   generateSupport,1
;   supportExtruder,0
;   supportInfillPercentage,30
;   supportExtraInflation,0
;   supportBaseLayers,1
;   denseSupportExtruder,0
;   denseSupportLayers,0
;   denseSupportInfillPercentage,70
;   supportLayerInterval,1
;   supportHorizontalPartOffset,0.3
;   supportUpperSeparationLayers,1
;   supportLowerSeparationLayers,1
;   supportType,0
;   supportGridSpacing,4
;   maxOverhangAngle,25
;   supportAngles,0
;   temperatureName,Extruder 1,Heated Bed
;   temperatureNumber,0,1
;   temperatureSetpointCount,1,1
;   temperatureSetpointLayers,1,1
;   temperatureSetpointTemperatures,225,75
;   temperatureStabilizeAtStartup,1,1
;   temperatureHeatedBed,0,1
;   fanLayers,1,2
;   fanSpeeds,0,20
;   blipFanToFullPower,1
;   adjustSpeedForCooling,1
;   minSpeedLayerTime,15
;   minCoolingSpeedSlowdown,20
;   increaseFanForCooling,1
;   minFanLayerTime,45
;   maxCoolingFanSpeed,35
;   increaseFanForBridging,1
;   bridgingFanSpeed,80
;   use5D,1
;   relativeEdistances,0
;   allowEaxisZeroing,1
;   independentExtruderAxes,0
;   includeM10123,0
;   stickySupport,1
;   applyToolheadOffsets,0
;   gcodeXoffset,0
;   gcodeYoffset,0
;   gcodeZoffset,0
;   overrideMachineDefinition,1
;   machineTypeOverride,0
;   strokeXoverride,200
;   strokeYoverride,200
;   strokeZoverride,150
;   originOffsetXoverride,0
;   originOffsetYoverride,0
;   originOffsetZoverride,0
;   homeXdirOverride,-1
;   homeYdirOverride,-1
;   homeZdirOverride,-1
;   flipXoverride,1
;   flipYoverride,-1
;   flipZoverride,1
;   toolheadOffsets,0,0|0,0|0,0|0,0|0,0|0,0
;   overrideFirmwareConfiguration,1
;   firmwareTypeOverride,RepRap (Marlin/Repetier/Sprinter)
;   GPXconfigOverride,r2
;   baudRateOverride,115200
;   overridePrinterModels,0
;   printerModelsOverride
;   startingGcode,G28 ; home all axes,G32 ; run bed.g -- probe bed and enable compensation
;   layerChangeGcode,
;   retractionGcode,
;   toolChangeGcode,
;   endingGcode,M0 ; call stop.g
;   exportFileFormat,gcode
;   celebration,0
;   celebrationSong,Random Song
;   postProcessing,
;   defaultSpeed,3600
;   outlineUnderspeed,0.5
;   solidInfillUnderspeed,0.8
;   supportUnderspeed,0.8
;   rapidXYspeed,18000
;   rapidZspeed,1200
;   minBridgingArea,50
;   bridgingExtraInflation,0
;   bridgingExtrusionMultiplier,0.96
;   bridgingSpeedMultiplier,1
;   useFixedBridgingAngle,0
;   fixedBridgingAngle,0
;   applyBridgingToPerimeters,0
;   filamentDiameters,1.75|1.75|1.75|1.75|1.75|1.75
;   filamentPricesPerKg,46|46|46|46|46|46
;   filamentDensities,1.25|1.25|1.25|1.25|1.25|1.25
;   useMinPrintHeight,0
;   minPrintHeight,0.2
;   useMaxPrintHeight,0
;   maxPrintHeight,0
;   useDiaphragm,0
;   diaphragmLayerInterval,20
;   robustSlicing,1
;   mergeAllIntoSolid,0
;   onlyRetractWhenCrossingOutline,1
;   retractBetweenLayers,0
;   useRetractionMinTravel,1
;   retractionMinTravel,3
;   retractWhileWiping,1
;   onlyWipeOutlines,1
;   avoidCrossingOutline,1
;   maxMovementDetourFactor,5
;   toolChangeRetractionDistance,12
;   toolChangeExtraRestartDistance,-0.5
;   toolChangeRetractionSpeed,600
;   externalThinWallType,0
;   internalThinWallType,2
;   thinWallAllowedOverlapPercentage,10
;   singleExtrusionMinLength,1
;   singleExtrusionMinPrintingWidthPercentage,50
;   singleExtrusionMaxPrintingWidthPercentage,150
;   singleExtrusionEndpointExtension,0.2
;   horizontalSizeCompensation,-0.1
G90
M82
M106 S0
M140 S75
M190 S75
M104 S225 T0
M109 S225 T0
G28 ; home all axes
G32 ; run bed.g -- probe bed and enable compensation
; process Process1
; layer 1, Z = 0.200
T0
G92 E0.0000
G1 E-3.0000 F3600
; feature skirt
; tool H0.200 W0.720
G1 Z0.200 F1200
G1 X119.057 Y96.489 F18000
G1 E0.0000 F3600
G92 E0.0000
G1 X118.971 Y97.370 E0.0520 F1800
G1 X118.664 Y98.515 E0.1215
G1 X118.298 Y99.322 E0.1735
G1 X117.866 Y99.969 E0.2191
G1 X117.906 Y100.015 E0.2227
G1 X118.438 Y100.936 E0.2851
G1 X118.896 Y102.283 E0.3686
G1 X119.040 Y103.157 E0.4205
G1 X119.040 Y104.254 E0.4849
G1 X118.948 Y104.956 E0.5264
G1 X118.687 Y105.929 E0.5856
G1 X118.549 Y106.263 E0.6067
G1 X118.769 Y106.794 E0.6405
G1 X118.970 Y107.657 E0.6925
G1 X119.057 Y108.989 E0.7708
G1 X118.971 Y109.870 E0.8227
G1 X118.687 Y110.929 E0.8871
G1 X118.549 Y111.263 E0.9082
G1 X118.769 Y111.794 E0.9420
G1 X118.970 Y112.657 E0.9940
G1 X119.057 Y113.989 E1.0723
G1 X118.971 Y114.870 E1.1243
G1 X118.687 Y115.929 E1.1886
G1 X118.549 Y116.263 E1.2098
G1 X118.769 Y116.794 E1.2435
G1 X118.970 Y117.657 E1.2955
G1 X119.057 Y118.989 E1.3738
G1 X118.971 Y119.870 E1.4258
G1 X118.687 Y120.929 E1.4901
G1 X118.555 Y121.246 E1.5102
G1 X118.772 Y121.822 E1.5463
G1 X119.050 Y123.218 E1.6298
G1 X119.050 Y124.282 E1.6922
G1 X118.772 Y125.678 E1.7757
G1 X118.550 Y126.267 E1.8126
G1 X118.896 Y127.283 E1.8756
G1 X119.040 Y128.157 E1.9276
G1 X119.040 Y129.254 E1.9920
G1 X118.948 Y129.956 E2.0335
G1 X118.664 Y131.015 E2.0978
G1 X118.298 Y131.822 E2.1498
G1 X117.508 Y133.005 E2.2333
G1 X116.755 Y133.758 E2.2957
G1 X115.572 Y134.548 E2.3792
G1 X114.765 Y134.914 E2.4312
G1 X113.707 Y135.197 E2.4955
G1 X113.005 Y135.290 E2.5370
G1 X111.907 Y135.290 E2.6014
G1 X111.033 Y135.146 E2.6534
G1 X110.012 Y134.799 E2.7167
G1 X109.679 Y134.937 E2.7378
G1 X108.621 Y135.220 E2.8021
G1 X107.739 Y135.307 E2.8540
G1 X106.408 Y135.220 E2.9323
G1 X105.545 Y135.019 E2.9843
G1 X105.013 Y134.799 E3.0181
G1 X104.679 Y134.937 E3.0393
G1 X103.621 Y135.220 E3.1036
G1 X102.739 Y135.307 E3.1555
G1 X101.408 Y135.220 E3.2338
G1 X100.545 Y135.019 E3.2858
G1 X100.013 Y134.799 E3.3196
G1 X99.679 Y134.937 E3.3408
G1 X98.621 Y135.220 E3.4051
G1 X97.739 Y135.307 E3.4571
G1 X96.408 Y135.220 E3.5353
G1 X95.545 Y135.019 E3.5873
G1 X95.002 Y134.794 E3.6218
G1 X94.789 Y134.900 E3.6358
G1 X93.941 Y135.157 E3.6877
G1 X92.854 Y135.300 E3.7521
G1 X92.146 Y135.300 E3.7936
G1 X91.146 Y135.168 E3.8528
G1 X90.462 Y134.985 E3.8943
G1 X90.000 Y134.793 E3.9237
G1 X89.455 Y135.019 E3.9583
G1 X88.592 Y135.220 E4.0103
G1 X87.261 Y135.307 E4.0885
G1 X86.379 Y135.220 E4.1405
G1 X85.235 Y134.914 E4.2100
G1 X84.428 Y134.548 E4.2620
G1 X83.244 Y133.757 E4.3455
G1 X82.492 Y133.005 E4.4079
G1 X81.702 Y131.822 E4.4914
G1 X81.336 Y131.015 E4.5434
G1 X81.029 Y129.870 E4.6129
G1 X80.943 Y128.989 E4.6649
G1 X81.030 Y127.657 E4.7432
G1 X81.231 Y126.795 E4.7951
G1 X81.451 Y126.263 E4.8289
G1 X81.313 Y125.929 E4.8501
G1 X81.029 Y124.870 E4.9144
G1 X80.943 Y123.989 E4.9664
G1 X81.030 Y122.657 E5.0447
G1 X81.231 Y121.795 E5.0966
G1 X81.451 Y121.263 E5.1304
G1 X81.313 Y120.929 E5.1516
G1 X81.029 Y119.870 E5.2159
G1 X80.943 Y118.989 E5.2679
G1 X81.030 Y117.657 E5.3462
G1 X81.231 Y116.795 E5.3982
G1 X81.451 Y116.263 E5.4319
G1 X81.313 Y115.929 E5.4531
G1 X81.029 Y114.870 E5.5174
G1 X80.943 Y113.989 E5.5694
G1 X81.030 Y112.657 E5.6477
G1 X81.231 Y111.795 E5.6997
G1 X81.456 Y111.252 E5.7341
G1 X81.350 Y111.039 E5.7481
G1 X81.093 Y110.191 E5.8000
G1 X80.950 Y109.104 E5.8644
G1 X80.950 Y108.396 E5.9059
G1 X81.082 Y107.397 E5.9650
G1 X81.265 Y106.713 E6.0066
G1 X81.456 Y106.252 E6.0358
G1 X81.104 Y105.217 E6.1000
G1 X80.960 Y104.343 E6.1519
G1 X80.960 Y103.246 E6.2163
G1 X81.052 Y102.544 E6.2578
G1 X81.336 Y101.485 E6.3222
G1 X81.702 Y100.678 E6.3741
G1 X82.155 Y100.000 E6.4220
G1 X81.702 Y99.322 E6.4699
G1 X81.336 Y98.515 E6.5218
G1 X81.029 Y97.370 E6.5913
G1 X80.943 Y96.489 E6.6433
G1 X81.030 Y95.157 E6.7216
G1 X81.231 Y94.295 E6.7736
G1 X81.451 Y93.763 E6.8073
G1 X81.313 Y93.429 E6.8285
G1 X81.029 Y92.370 E6.8929
G1 X80.943 Y91.489 E6.9448
G1 X81.030 Y90.157 E7.0231
G1 X81.231 Y89.295 E7.0751
G1 X81.451 Y88.763 E7.1089
G1 X81.313 Y88.429 E7.1300
G1 X81.029 Y87.370 E7.1944
G1 X80.943 Y86.489 E7.2463
G1 X81.030 Y85.157 E7.3246
G1 X81.231 Y84.295 E7.3766
G1 X81.451 Y83.763 E7.4104
G1 X81.313 Y83.429 E7.4316
G1 X81.029 Y82.370 E7.4959
G1 X80.943 Y81.489 E7.5478
G1 X81.030 Y80.157 E7.6261
G1 X81.231 Y79.294 E7.6781
G1 X81.456 Y78.752 E7.7125
G1 X81.350 Y78.539 E7.7265
G1 X81.093 Y77.691 E7.7785
G1 X80.950 Y76.604 E7.8428
G1 X80.950 Y75.896 E7.8843
G1 X81.082 Y74.897 E7.9435
G1 X81.265 Y74.213 E7.9850
G1 X81.456 Y73.752 E8.0143
G1 X81.104 Y72.717 E8.0784
G1 X80.960 Y71.843 E8.1304
G1 X80.960 Y70.746 E8.1947
G1 X81.052 Y70.044 E8.2363
G1 X81.336 Y68.985 E8.3006
G1 X81.702 Y68.178 E8.3526
G1 X82.443 Y67.068 E8.4309
G1 X83.049 Y66.422 E8.4829
G1 X83.989 Y65.701 E8.5524
G1 X84.770 Y65.283 E8.6043
G1 X86.033 Y64.854 E8.6826
G1 X86.907 Y64.710 E8.7346
G1 X88.093 Y64.710 E8.8042
G1 X88.967 Y64.854 E8.8561
G1 X90.002 Y65.206 E8.9203
G1 X90.462 Y65.015 E8.9495
G1 X91.146 Y64.832 E8.9910
G1 X92.146 Y64.700 E9.0502
G1 X92.854 Y64.700 E9.0917
G1 X93.941 Y64.843 E9.1561
G1 X94.789 Y65.100 E9.2080
G1 X95.002 Y65.206 E9.2220
G1 X95.544 Y64.981 E9.2564
G1 X96.407 Y64.780 E9.3084
G1 X97.739 Y64.693 E9.3867
G1 X98.621 Y64.780 E9.4387
G1 X99.680 Y65.064 E9.5030
G1 X100.013 Y65.201 E9.5242
G1 X100.544 Y64.981 E9.5579
G1 X101.407 Y64.780 E9.6099
G1 X102.739 Y64.693 E9.6882
G1 X103.621 Y64.780 E9.7402
G1 X104.680 Y65.064 E9.8045
G1 X105.013 Y65.201 E9.8257
G1 X105.544 Y64.981 E9.8595
G1 X106.407 Y64.780 E9.9114
G1 X107.739 Y64.693 E9.9897
G1 X108.621 Y64.780 E10.0417
G1 X109.680 Y65.064 E10.1061
G1 X110.013 Y65.201 E10.1272
G1 X110.545 Y64.981 E10.1610
G1 X111.407 Y64.780 E10.2129
G1 X112.827 Y64.687 E10.2964
G1 X113.882 Y64.826 E10.3589
G1 X115.230 Y65.283 E10.4424
G1 X116.011 Y65.701 E10.4943
G1 X116.881 Y66.368 E10.5587
G1 X117.382 Y66.869 E10.6002
G1 X118.050 Y67.739 E10.6646
G1 X118.467 Y68.520 E10.7165
G1 X118.896 Y69.783 E10.7948
G1 X119.040 Y70.657 E10.8467
G1 X119.040 Y71.754 E10.9111
G1 X118.948 Y72.456 E10.9526
G1 X118.664 Y73.515 E11.0170
G1 X118.550 Y73.766 E11.0332
G1 X118.769 Y74.294 E11.0667
G1 X118.970 Y75.157 E11.1187
G1 X119.057 Y76.489 E11.1970
G1 X118.971 Y77.370 E11.2489
G1 X118.687 Y78.429 E11.3132
G1 X118.549 Y78.763 E11.3344
G1 X118.769 Y79.295 E11.3682
G1 X118.970 Y80.157 E11.4202
G1 X119.057 Y81.489 E11.4985
G1 X118.971 Y82.370 E11.5504
G1 X118.687 Y83.429 E11.6148
G1 X118.549 Y83.763 E11.6360
G1 X118.769 Y84.294 E11.6697
G1 X118.970 Y85.157 E11.7217
G1 X119.057 Y86.489 E11.8000
G1 X118.971 Y87.370 E11.8519
G1 X118.687 Y88.429 E11.9163
G1 X118.555 Y88.746 E11.9364
G1 X118.772 Y89.322 E11.9725
G1 X119.050 Y90.718 E12.0560
G1 X119.050 Y91.782 E12.1184
G1 X118.772 Y93.178 E12.2019
G1 X118.550 Y93.767 E12.2389
G1 X118.769 Y94.295 E12.2724
G1 X118.970 Y95.157 E12.3244
G1 X119.057 Y96.489 E12.4026
G1 X118.335 Y96.477 F18000
G92 E0.0000
G1 X118.260 Y97.241 E0.0450 F1800
G1 X117.983 Y98.272 E0.1077
G1 X117.667 Y98.971 E0.1527
G1 X116.960 Y100.028 E0.2273
G1 X117.318 Y100.436 E0.2591
G1 X117.779 Y101.234 E0.3132
G1 X118.195 Y102.459 E0.3891
G1 X118.320 Y103.216 E0.4341
G1 X118.320 Y104.207 E0.4922
G1 X118.240 Y104.815 E0.5282
G1 X118.003 Y105.697 E0.5818
G1 X117.769 Y106.263 E0.6177
G1 X118.081 Y107.015 E0.6655
G1 X118.255 Y107.763 E0.7105
G1 X118.335 Y108.977 E0.7819
G1 X118.260 Y109.741 E0.8270
G1 X118.003 Y110.698 E0.8851
G1 X117.769 Y111.263 E0.9210
G1 X118.081 Y112.015 E0.9688
G1 X118.255 Y112.763 E1.0138
G1 X118.335 Y113.977 E1.0852
G1 X118.260 Y114.741 E1.1302
G1 X118.003 Y115.698 E1.1883
G1 X117.769 Y116.263 E1.2242
G1 X118.081 Y117.015 E1.2720
G1 X118.255 Y117.763 E1.3171
G1 X118.335 Y118.977 E1.3884
G1 X118.260 Y119.741 E1.4335
G1 X118.003 Y120.698 E1.4916
G1 X117.776 Y121.248 E1.5265
G1 X117.807 Y121.303 E1.5302
G1 X118.077 Y122.021 E1.5753
G1 X118.330 Y123.289 E1.6511
G1 X118.330 Y124.211 E1.7052
G1 X118.077 Y125.479 E1.7811
G1 X117.807 Y126.198 E1.8261
G1 X117.782 Y126.242 E1.8291
G1 X118.195 Y127.459 E1.9045
G1 X118.320 Y128.216 E1.9495
G1 X118.320 Y129.207 E2.0077
G1 X118.240 Y129.815 E2.0437
G1 X117.983 Y130.772 E2.1018
G1 X117.667 Y131.471 E2.1468
G1 X116.948 Y132.546 E2.2227
G1 X116.296 Y133.198 E2.2768
G1 X115.221 Y133.917 E2.3527
G1 X114.522 Y134.233 E2.3977
G1 X113.566 Y134.490 E2.4558
G1 X112.957 Y134.570 E2.4918
G1 X111.966 Y134.570 E2.5499
G1 X111.209 Y134.445 E2.5950
G1 X110.058 Y134.054 E2.6663
G1 X110.001 Y134.024 E2.6700
G1 X109.447 Y134.253 E2.7052
G1 X108.491 Y134.510 E2.7633
G1 X107.727 Y134.585 E2.8083
G1 X106.514 Y134.506 E2.8797
G1 X105.766 Y134.331 E2.9247
G1 X105.013 Y134.019 E2.9726
G1 X104.447 Y134.253 E3.0085
G1 X103.491 Y134.510 E3.0665
G1 X102.727 Y134.585 E3.1116
G1 X101.514 Y134.506 E3.1829
G1 X100.766 Y134.331 E3.2280
G1 X100.013 Y134.019 E3.2758
G1 X99.447 Y134.253 E3.3117
G1 X98.491 Y134.510 E3.3698
G1 X97.727 Y134.585 E3.4148
G1 X96.514 Y134.506 E3.4862
G1 X95.766 Y134.331 E3.5312
G1 X94.977 Y134.004 E3.5814
G1 X94.523 Y134.228 E3.6110
G1 X93.789 Y134.450 E3.6561
G1 X92.807 Y134.580 E3.7142
G1 X92.193 Y134.580 E3.7502
G1 X91.287 Y134.460 E3.8038
G1 X90.694 Y134.302 E3.8398
G1 X90.000 Y134.014 E3.8839
G1 X89.234 Y134.331 E3.9325
G1 X88.486 Y134.505 E3.9776
G1 X87.273 Y134.585 E4.0489
G1 X86.509 Y134.510 E4.0940
G1 X85.478 Y134.233 E4.1566
G1 X84.779 Y133.917 E4.2016
G1 X83.703 Y133.198 E4.2775
G1 X83.052 Y132.546 E4.3316
G1 X82.333 Y131.471 E4.4075
G1 X82.016 Y130.772 E4.4525
G1 X81.740 Y129.741 E4.5151
G1 X81.665 Y128.977 E4.5601
G1 X81.744 Y127.763 E4.6315
G1 X81.919 Y127.016 E4.6765
G1 X82.231 Y126.263 E4.7244
G1 X81.997 Y125.697 E4.7603
G1 X81.740 Y124.741 E4.8184
G1 X81.665 Y123.977 E4.8634
G1 X81.744 Y122.763 E4.9348
G1 X81.919 Y122.016 E4.9798
G1 X82.231 Y121.263 E5.0276
G1 X81.997 Y120.697 E5.0635
G1 X81.740 Y119.741 E5.1216
G1 X81.665 Y118.977 E5.1666
G1 X81.744 Y117.763 E5.2380
G1 X81.919 Y117.016 E5.2831
G1 X82.231 Y116.263 E5.3309
G1 X81.997 Y115.697 E5.3668
G1 X81.740 Y114.741 E5.4249
G1 X81.665 Y113.977 E5.4699
G1 X81.744 Y112.763 E5.5413
G1 X81.919 Y112.016 E5.5863
G1 X82.246 Y111.227 E5.6364
G1 X82.022 Y110.773 E5.6661
G1 X81.799 Y110.039 E5.7111
G1 X81.670 Y109.057 E5.7692
G1 X81.670 Y108.443 E5.8052
G1 X81.789 Y107.538 E5.8588
G1 X81.948 Y106.945 E5.8948
G1 X82.232 Y106.260 E5.9383
G1 X82.196 Y106.193 E5.9428
G1 X81.805 Y105.041 E6.0141
G1 X81.680 Y104.284 E6.0592
G1 X81.680 Y103.293 E6.1173
G1 X81.760 Y102.685 E6.1533
G1 X82.017 Y101.728 E6.2114
G1 X82.333 Y101.029 E6.2564
