; G-Code generated by Simplify3D(R) Version 4.1.2
; Apr 29, 2020 at 3:43:27 PM
; Settings Summary
;   processName,Process1
;   applyToModels,connector(2)
;   profileName,HBot
;   profileVersion,2019-10-26 23:38:43
;   baseProfile,Default
;   printMaterial,PETG - SUNLU
;   printQuality,High
;   printExtruders,
;   extruderName,Extruder 1
;   extruderToolheadNumber,0
;   extruderDiameter,0.4
;   extruderAutoWidth,1
;   extruderWidth,0.48
;   extrusionMultiplier,0.98
;   extruderUseRetract,1
;   extruderRetractionDistance,3
;   extruderExtraRestartDistance,0
;   extruderRetractionZLift,0
;   extruderRetractionSpeed,3600
;   extruderUseCoasting,1
;   extruderCoastingDistance,0.2
;   extruderUseWipe,1
;   extruderWipeDistance,5
;   primaryExtruder,0
;   layerHeight,0.1
;   topSolidLayers,4
;   bottomSolidLayers,4
;   perimeterOutlines,3
;   printPerimetersInsideOut,1
;   startPointOption,3
;   startPointOriginX,200
;   startPointOriginY,100
;   sequentialIslands,0
;   spiralVaseMode,0
;   firstLayerHeightPercentage,100
;   firstLayerWidthPercentage,150
;   firstLayerUnderspeed,0.5
;   useRaft,0
;   raftExtruder,0
;   raftTopLayers,3
;   raftBaseLayers,2
;   raftOffset,3
;   raftSeparationDistance,0.18
;   raftTopInfill,100
;   aboveRaftSpeedMultiplier,0.3
;   useSkirt,1
;   skirtExtruder,0
;   skirtLayers,1
;   skirtOutlines,8
;   skirtOffset,0
;   usePrimePillar,0
;   primePillarExtruder,999
;   primePillarWidth,12
;   primePillarLocation,7
;   primePillarSpeedMultiplier,1
;   useOozeShield,0
;   oozeShieldExtruder,999
;   oozeShieldOffset,2
;   oozeShieldOutlines,1
;   oozeShieldSidewallShape,1
;   oozeShieldSidewallAngle,30
;   oozeShieldSpeedMultiplier,1
;   infillExtruder,0
;   internalInfillPattern,Rectilinear
;   externalInfillPattern,Rectilinear
;   infillPercentage,30
;   outlineOverlapPercentage,25
;   infillExtrusionWidthPercentage,150
;   minInfillLength,5
;   infillLayerInterval,1
;   internalInfillAngles,45,-45
;   overlapInternalInfillAngles,0
;   externalInfillAngles,45,-45
;   generateSupport,0
;   supportExtruder,0
;   supportInfillPercentage,40
;   supportExtraInflation,0
;   supportBaseLayers,1
;   denseSupportExtruder,0
;   denseSupportLayers,0
;   denseSupportInfillPercentage,70
;   supportLayerInterval,1
;   supportHorizontalPartOffset,0.3
;   supportUpperSeparationLayers,1
;   supportLowerSeparationLayers,1
;   supportType,0
;   supportGridSpacing,4
;   maxOverhangAngle,25
;   supportAngles,0
;   temperatureName,Extruder 1,Heated Bed
;   temperatureNumber,0,1
;   temperatureSetpointCount,1,1
;   temperatureSetpointLayers,1,1
;   temperatureSetpointTemperatures,225,75
;   temperatureStabilizeAtStartup,1,1
;   temperatureHeatedBed,0,1
;   fanLayers,1,2
;   fanSpeeds,0,20
;   blipFanToFullPower,1
;   adjustSpeedForCooling,1
;   minSpeedLayerTime,15
;   minCoolingSpeedSlowdown,20
;   increaseFanForCooling,1
;   minFanLayerTime,45
;   maxCoolingFanSpeed,35
;   increaseFanForBridging,1
;   bridgingFanSpeed,80
;   use5D,1
;   relativeEdistances,0
;   allowEaxisZeroing,1
;   independentExtruderAxes,0
;   includeM10123,0
;   stickySupport,1
;   applyToolheadOffsets,0
;   gcodeXoffset,0
;   gcodeYoffset,0
;   gcodeZoffset,0
;   overrideMachineDefinition,1
;   machineTypeOverride,0
;   strokeXoverride,200
;   strokeYoverride,200
;   strokeZoverride,150
;   originOffsetXoverride,0
;   originOffsetYoverride,0
;   originOffsetZoverride,0
;   homeXdirOverride,-1
;   homeYdirOverride,-1
;   homeZdirOverride,-1
;   flipXoverride,1
;   flipYoverride,-1
;   flipZoverride,1
;   toolheadOffsets,0,0|0,0|0,0|0,0|0,0|0,0
;   overrideFirmwareConfiguration,1
;   firmwareTypeOverride,RepRap (Marlin/Repetier/Sprinter)
;   GPXconfigOverride,r2
;   baudRateOverride,115200
;   overridePrinterModels,0
;   printerModelsOverride
;   startingGcode,G28 ; home all axes,G32 ; run bed.g -- probe bed and enable compensation
;   layerChangeGcode,
;   retractionGcode,
;   toolChangeGcode,
;   endingGcode,M0 ; call stop.g
;   exportFileFormat,gcode
;   celebration,0
;   celebrationSong,Random Song
;   postProcessing,
;   defaultSpeed,3600
;   outlineUnderspeed,0.5
;   solidInfillUnderspeed,0.8
;   supportUnderspeed,0.8
;   rapidXYspeed,18000
;   rapidZspeed,1200
;   minBridgingArea,50
;   bridgingExtraInflation,0
;   bridgingExtrusionMultiplier,0.96
;   bridgingSpeedMultiplier,1
;   useFixedBridgingAngle,0
;   fixedBridgingAngle,0
;   applyBridgingToPerimeters,0
;   filamentDiameters,1.75|1.75|1.75|1.75|1.75|1.75
;   filamentPricesPerKg,46|46|46|46|46|46
;   filamentDensities,1.25|1.25|1.25|1.25|1.25|1.25
;   useMinPrintHeight,0
;   minPrintHeight,0.2
;   useMaxPrintHeight,0
;   maxPrintHeight,0
;   useDiaphragm,0
;   diaphragmLayerInterval,20
;   robustSlicing,1
;   mergeAllIntoSolid,0
;   onlyRetractWhenCrossingOutline,1
;   retractBetweenLayers,0
;   useRetractionMinTravel,1
;   retractionMinTravel,3
;   retractWhileWiping,1
;   onlyWipeOutlines,1
;   avoidCrossingOutline,1
;   maxMovementDetourFactor,5
;   toolChangeRetractionDistance,12
;   toolChangeExtraRestartDistance,-0.5
;   toolChangeRetractionSpeed,600
;   externalThinWallType,0
;   internalThinWallType,2
;   thinWallAllowedOverlapPercentage,10
;   singleExtrusionMinLength,1
;   singleExtrusionMinPrintingWidthPercentage,50
;   singleExtrusionMaxPrintingWidthPercentage,150
;   singleExtrusionEndpointExtension,0.2
;   horizontalSizeCompensation,-0.1
G90
M82
M106 S255
G4 P500
M106 S89
M140 S75
M190 S75
M104 S225 T0
M109 S225 T0
G28 ; home all axes
G32 ; run bed.g -- probe bed and enable compensation
; process Process1
; layer 1, Z = 0.100
T0
G92 E0.0000
G1 E-3.0000 F3600
; feature skirt
; tool H0.100 W0.720
G1 Z0.100 F1200
G1 X118.162 Y102.550 F18000
G1 E0.0000 F3600
G92 E0.0000
G1 X118.016 Y103.940 E0.0410 F1161
G1 X117.796 Y104.761 E0.0659
G1 X117.257 Y105.973 E0.1048
G1 X116.887 Y106.576 E0.1256
G1 X116.256 Y107.356 E0.1550
G1 X115.856 Y107.756 E0.1716
G1 X115.076 Y108.387 E0.2011
G1 X114.472 Y108.757 E0.2218
G1 X113.261 Y109.296 E0.2607
G1 X112.440 Y109.516 E0.2857
G1 X111.050 Y109.662 E0.3267
G1 X110.201 Y109.618 E0.3516
G1 X108.835 Y109.327 E0.3926
G1 X108.043 Y109.024 E0.4175
G1 X106.900 Y108.364 E0.4562
G1 X106.343 Y107.938 E0.4767
G1 X105.197 Y106.800 E0.5241
G1 X94.812 Y106.800 E0.8288
G1 X93.959 Y107.653 E0.8642
G1 X93.749 Y107.842 E0.8724
G1 X93.133 Y108.341 E0.8957
G1 X92.657 Y108.650 E0.9124
G1 X91.826 Y109.074 E0.9397
G1 X91.297 Y109.277 E0.9563
G1 X90.398 Y109.518 E0.9837
G1 X89.839 Y109.606 E1.0003
G1 X88.909 Y109.655 E1.0276
G1 X88.343 Y109.625 E1.0442
G1 X87.353 Y109.468 E1.0736
G1 X86.674 Y109.267 E1.0944
G1 X85.462 Y108.728 E1.1333
G1 X84.750 Y108.265 E1.1582
G1 X83.764 Y107.378 E1.1971
G1 X83.304 Y106.839 E1.2179
G1 X82.719 Y105.939 E1.2494
G1 X82.415 Y105.300 E1.2702
G1 X82.005 Y104.038 E1.3091
G1 X81.872 Y103.199 E1.3340
G1 X81.872 Y101.801 E1.3750
G1 X82.005 Y100.962 E1.3999
G1 X82.317 Y100.000 E1.4296
G1 X82.027 Y99.106 E1.4572
G1 X81.898 Y98.410 E1.4779
G1 X81.845 Y97.409 E1.5074
G1 X81.875 Y96.843 E1.5240
G1 X82.021 Y95.923 E1.5513
G1 X82.167 Y95.376 E1.5679
G1 X82.526 Y94.440 E1.5973
G1 X82.864 Y93.818 E1.6181
G1 X83.602 Y92.802 E1.6549
G1 X84.089 Y92.289 E1.6757
G1 X84.868 Y91.658 E1.7051
G1 X85.343 Y91.349 E1.7217
G1 X86.174 Y90.926 E1.7491
G1 X86.703 Y90.723 E1.7657
G1 X87.671 Y90.464 E1.7951
G1 X88.372 Y90.372 E1.8158
G1 X89.698 Y90.372 E1.8547
G1 X90.538 Y90.505 E1.8797
G1 X91.800 Y90.915 E1.9186
G1 X92.439 Y91.219 E1.9393
G1 X93.277 Y91.763 E1.9687
G1 X93.711 Y92.114 E1.9850
G1 X94.803 Y93.200 E2.0302
G1 X105.188 Y93.200 E2.3349
G1 X106.041 Y92.347 E2.3703
G1 X106.251 Y92.158 E2.3785
G1 X106.867 Y91.659 E2.4018
G1 X107.343 Y91.350 E2.4184
G1 X108.174 Y90.926 E2.4458
G1 X108.703 Y90.723 E2.4624
G1 X109.602 Y90.482 E2.4897
G1 X110.161 Y90.394 E2.5063
G1 X111.091 Y90.345 E2.5337
G1 X111.657 Y90.375 E2.5503
G1 X112.647 Y90.532 E2.5797
G1 X113.326 Y90.733 E2.6005
G1 X114.538 Y91.272 E2.6394
G1 X115.250 Y91.735 E2.6643
G1 X116.236 Y92.622 E2.7032
G1 X116.696 Y93.161 E2.7240
G1 X117.281 Y94.061 E2.7555
G1 X117.585 Y94.700 E2.7762
G1 X117.995 Y95.962 E2.8151
G1 X118.128 Y96.801 E2.8401
G1 X118.128 Y98.199 E2.8811
G1 X117.995 Y99.039 E2.9060
G1 X117.690 Y99.977 E2.9350
G1 X117.827 Y100.335 E2.9462
G1 X118.118 Y101.701 E2.9872
G1 X118.162 Y102.550 E3.0121
G1 X117.440 Y102.531 F18000
G92 E0.0000
G1 X117.306 Y103.808 E0.0377 F1161
G1 X117.116 Y104.520 E0.0593
G1 X116.618 Y105.637 E0.0952
G1 X116.298 Y106.160 E0.1132
G1 X115.720 Y106.873 E0.1401
G1 X115.373 Y107.220 E0.1545
G1 X114.660 Y107.798 E0.1814
G1 X114.136 Y108.118 E0.1994
G1 X113.020 Y108.615 E0.2353
G1 X112.308 Y108.806 E0.2569
G1 X111.031 Y108.940 E0.2945
G1 X110.296 Y108.902 E0.3161
G1 X109.040 Y108.635 E0.3538
G1 X108.354 Y108.372 E0.3754
G1 X107.300 Y107.764 E0.4110
G1 X106.817 Y107.395 E0.4289
G1 X105.494 Y106.080 E0.4836
G1 X94.513 Y106.080 E0.8057
G1 X93.463 Y107.131 E0.8493
G1 X93.281 Y107.294 E0.8565
G1 X92.709 Y107.758 E0.8781
G1 X92.297 Y108.026 E0.8925
G1 X91.533 Y108.415 E0.9177
G1 X91.075 Y108.591 E0.9321
G1 X90.248 Y108.812 E0.9572
G1 X89.763 Y108.889 E0.9716
G1 X88.909 Y108.934 E0.9967
G1 X88.419 Y108.908 E1.0111
G1 X87.512 Y108.765 E1.0380
G1 X86.924 Y108.590 E1.0560
G1 X85.807 Y108.093 E1.0918
G1 X85.189 Y107.692 E1.1135
G1 X84.281 Y106.874 E1.1493
G1 X83.882 Y106.408 E1.1673
G1 X83.349 Y105.586 E1.1960
G1 X83.085 Y105.032 E1.2140
G1 X82.707 Y103.870 E1.2499
G1 X82.592 Y103.142 E1.2715
G1 X82.592 Y101.858 E1.3092
G1 X82.707 Y101.130 E1.3308
G1 X83.074 Y100.000 E1.3657
G1 X82.726 Y98.928 E1.3987
G1 X82.614 Y98.325 E1.4167
G1 X82.566 Y97.409 E1.4436
G1 X82.592 Y96.919 E1.4580
G1 X82.726 Y96.073 E1.4832
G1 X82.853 Y95.599 E1.4975
G1 X83.182 Y94.742 E1.5245
G1 X83.474 Y94.203 E1.5425
G1 X84.157 Y93.264 E1.5765
G1 X84.579 Y92.819 E1.5945
G1 X85.292 Y92.241 E1.6214
G1 X85.704 Y91.974 E1.6358
G1 X86.467 Y91.585 E1.6610
G1 X86.925 Y91.409 E1.6754
G1 X87.811 Y91.172 E1.7023
G1 X88.420 Y91.092 E1.7203
G1 X89.642 Y91.092 E1.7561
G1 X90.369 Y91.207 E1.7777
G1 X91.532 Y91.585 E1.8136
G1 X92.086 Y91.849 E1.8316
G1 X92.853 Y92.347 E1.8584
G1 X93.230 Y92.651 E1.8726
G1 X94.506 Y93.920 E1.9254
G1 X105.487 Y93.920 E2.2476
G1 X106.537 Y92.869 E2.2911
G1 X106.719 Y92.706 E2.2983
G1 X107.291 Y92.242 E2.3199
G1 X107.703 Y91.974 E2.3343
G1 X108.467 Y91.585 E2.3595
G1 X108.925 Y91.409 E2.3739
G1 X109.752 Y91.188 E2.3990
G1 X110.237 Y91.111 E2.4134
G1 X111.091 Y91.066 E2.4385
G1 X111.581 Y91.092 E2.4529
G1 X112.488 Y91.235 E2.4798
G1 X113.076 Y91.410 E2.4978
G1 X114.193 Y91.907 E2.5337
G1 X114.811 Y92.308 E2.5553
G1 X115.719 Y93.126 E2.5911
G1 X116.118 Y93.592 E2.6091
G1 X116.651 Y94.414 E2.6379
G1 X116.915 Y94.968 E2.6559
G1 X117.293 Y96.130 E2.6917
G1 X117.408 Y96.858 E2.7133
G1 X117.408 Y98.142 E2.7510
G1 X117.293 Y98.870 E2.7726
G1 X116.927 Y99.997 E2.8074
G1 X117.135 Y100.540 E2.8245
G1 X117.402 Y101.795 E2.8621
G1 X117.440 Y102.531 E2.8837
G1 X116.718 Y102.512 F18000
G92 E0.0000
G1 X116.596 Y103.676 E0.0343 F1161
G1 X116.435 Y104.278 E0.0526
G1 X115.980 Y105.301 E0.0855
G1 X115.708 Y105.743 E0.1007
G1 X115.184 Y106.391 E0.1251
G1 X114.891 Y106.684 E0.1373
G1 X114.243 Y107.209 E0.1617
G1 X113.801 Y107.480 E0.1770
G1 X112.779 Y107.935 E0.2098
G1 X112.177 Y108.096 E0.2281
G1 X111.012 Y108.218 E0.2624
G1 X110.390 Y108.186 E0.2807
G1 X109.245 Y107.942 E0.3150
G1 X108.664 Y107.720 E0.3333
G1 X107.700 Y107.163 E0.3659
G1 X107.291 Y106.851 E0.3810
G1 X105.791 Y105.360 E0.4431
G1 X94.215 Y105.360 E0.7827
G1 X92.967 Y106.608 E0.8344
G1 X92.813 Y106.747 E0.8405
G1 X92.285 Y107.175 E0.8605
G1 X91.936 Y107.402 E0.8727
G1 X91.240 Y107.756 E0.8956
G1 X90.852 Y107.905 E0.9078
G1 X90.098 Y108.107 E0.9307
G1 X89.688 Y108.172 E0.9429
G1 X88.909 Y108.213 E0.9657
G1 X88.494 Y108.191 E0.9779
G1 X87.671 Y108.061 E1.0024
G1 X87.174 Y107.913 E1.0176
G1 X86.151 Y107.458 E1.0504
G1 X85.629 Y107.119 E1.0687
G1 X84.798 Y106.371 E1.1015
G1 X84.460 Y105.976 E1.1167
G1 X83.978 Y105.234 E1.1427
G1 X83.755 Y104.765 E1.1579
G1 X83.409 Y103.701 E1.1907
G1 X83.312 Y103.086 E1.2090
G1 X83.312 Y101.914 E1.2434
G1 X83.409 Y101.299 E1.2617
G1 X83.755 Y100.235 E1.2945
G1 X83.867 Y100.000 E1.3021
G1 X83.755 Y99.765 E1.3098
G1 X83.425 Y98.751 E1.3410
G1 X83.331 Y98.240 E1.3563
G1 X83.287 Y97.409 E1.3807
G1 X83.309 Y96.994 E1.3929
G1 X83.431 Y96.223 E1.4158
G1 X83.538 Y95.822 E1.4280
G1 X83.837 Y95.044 E1.4524
G1 X84.085 Y94.588 E1.4676
G1 X84.711 Y93.725 E1.4989
G1 X85.069 Y93.349 E1.5141
G1 X85.716 Y92.824 E1.5386
G1 X86.064 Y92.598 E1.5508
G1 X86.760 Y92.244 E1.5737
G1 X87.148 Y92.095 E1.5859
G1 X87.952 Y91.879 E1.6103
G1 X88.467 Y91.812 E1.6255
G1 X89.585 Y91.812 E1.6583
G1 X90.201 Y91.909 E1.6766
G1 X91.265 Y92.255 E1.7094
G1 X91.734 Y92.478 E1.7246
G1 X92.430 Y92.931 E1.7490
G1 X92.748 Y93.188 E1.7610
G1 X94.209 Y94.640 E1.8214
G1 X105.785 Y94.640 E2.1610
G1 X107.033 Y93.392 E2.2128
G1 X107.187 Y93.253 E2.2189
G1 X107.715 Y92.825 E2.2388
G1 X108.064 Y92.598 E2.2510
G1 X108.760 Y92.244 E2.2740
G1 X109.148 Y92.095 E2.2861
G1 X109.902 Y91.893 E2.3090
G1 X110.312 Y91.828 E2.3212
G1 X111.091 Y91.787 E2.3441
G1 X111.506 Y91.809 E2.3563
G1 X112.329 Y91.939 E2.3807
G1 X112.826 Y92.087 E2.3960
G1 X113.849 Y92.542 E2.4288
G1 X114.371 Y92.881 E2.4471
G1 X115.202 Y93.629 E2.4799
G1 X115.540 Y94.024 E2.4951
G1 X116.022 Y94.766 E2.5211
G1 X116.245 Y95.235 E2.5363
G1 X116.591 Y96.299 E2.5691
G1 X116.688 Y96.914 E2.5874
G1 X116.688 Y98.086 E2.6217
G1 X116.591 Y98.701 E2.6400
G1 X116.245 Y99.765 E2.6728
G1 X116.129 Y100.008 E2.6807
G1 X116.219 Y100.163 E2.6860
G1 X116.442 Y100.745 E2.7043
G1 X116.686 Y101.890 E2.7386
G1 X116.718 Y102.512 E2.7569
G1 X115.996 Y102.493 F18000
G92 E0.0000
G1 X115.886 Y103.545 E0.0310 F1161
G1 X115.754 Y104.037 E0.0460
G1 X115.341 Y104.965 E0.0758
G1 X115.119 Y105.327 E0.0882
G1 X114.648 Y105.908 E0.1102
G1 X114.408 Y106.148 E0.1201
G1 X113.827 Y106.619 E0.1421
G1 X113.465 Y106.841 E0.1545
G1 X112.538 Y107.254 E0.1843
G1 X112.045 Y107.386 E0.1993
G1 X110.993 Y107.496 E0.2303
G1 X110.484 Y107.470 E0.2452
G1 X109.450 Y107.250 E0.2762
G1 X108.975 Y107.068 E0.2912
G1 X108.100 Y106.563 E0.3208
G1 X107.766 Y106.308 E0.3331
G1 X106.088 Y104.640 E0.4025
G1 X93.917 Y104.640 E0.7596
G1 X92.471 Y106.086 E0.8196
G1 X92.345 Y106.199 E0.8245
G1 X91.861 Y106.592 E0.8428
G1 X91.576 Y106.777 E0.8528
G1 X90.946 Y107.098 E0.8735
G1 X90.629 Y107.219 E0.8835
G1 X89.948 Y107.402 E0.9042
G1 X89.613 Y107.455 E0.9141
G1 X88.909 Y107.492 E0.9348
G1 X88.569 Y107.474 E0.9448
G1 X87.830 Y107.357 E0.9667
G1 X87.423 Y107.237 E0.9792
G1 X86.496 Y106.824 E1.0090
G1 X86.069 Y106.546 E1.0239
G1 X85.314 Y105.867 E1.0537
G1 X85.039 Y105.544 E1.0662
G1 X84.608 Y104.881 E1.0893
G1 X84.425 Y104.498 E1.1018
G1 X84.112 Y103.533 E1.1316
G1 X84.032 Y103.029 E1.1465
G1 X84.032 Y101.971 E1.1776
G1 X84.112 Y101.467 E1.1925
G1 X84.425 Y100.503 E1.2223
G1 X84.608 Y100.120 E1.2347
G1 X84.685 Y100.000 E1.2389
G1 X84.608 Y99.880 E1.2431
G1 X84.425 Y99.497 E1.2555
G1 X84.125 Y98.573 E1.2841
G1 X84.047 Y98.155 E1.2965
G1 X84.008 Y97.409 E1.3185
G1 X84.026 Y97.069 E1.3284
G1 X84.136 Y96.373 E1.3491
G1 X84.224 Y96.045 E1.3591
G1 X84.492 Y95.346 E1.3810
G1 X84.695 Y94.973 E1.3935
G1 X85.266 Y94.187 E1.4220
G1 X85.558 Y93.878 E1.4345
G1 X86.140 Y93.408 E1.4564
G1 X86.425 Y93.223 E1.4664
G1 X87.054 Y92.902 E1.4871
G1 X87.371 Y92.781 E1.4970
G1 X88.093 Y92.587 E1.5190
G1 X88.514 Y92.532 E1.5314
G1 X89.529 Y92.532 E1.5612
G1 X90.032 Y92.611 E1.5761
G1 X90.998 Y92.925 E1.6059
G1 X91.381 Y93.108 E1.6184
G1 X92.007 Y93.514 E1.6403
G1 X92.267 Y93.725 E1.6501
G1 X93.912 Y95.360 E1.7181
G1 X106.083 Y95.360 E2.0752
G1 X107.529 Y93.914 E2.1352
G1 X107.655 Y93.801 E2.1401
G1 X108.139 Y93.408 E2.1584
G1 X108.424 Y93.223 E2.1684
G1 X109.054 Y92.902 E2.1891
G1 X109.371 Y92.781 E2.1991
G1 X110.052 Y92.598 E2.2198
G1 X110.387 Y92.545 E2.2297
G1 X111.091 Y92.508 E2.2504
G1 X111.431 Y92.526 E2.2604
G1 X112.170 Y92.643 E2.2823
G1 X112.577 Y92.763 E2.2948
G1 X113.504 Y93.176 E2.3246
G1 X113.931 Y93.454 E2.3395
G1 X114.686 Y94.133 E2.3693
G1 X114.961 Y94.456 E2.3817
