; G-Code generated by Simplify3D(R) Version 4.1.2
; Apr 30, 2020 at 3:05:32 AM
; Settings Summary
;   processName,Process1
;   applyToModels,test,test(2)
;   profileName,HBot
;   profileVersion,2019-10-26 23:38:43
;   baseProfile,Default
;   printMaterial,PETG - SUNLU
;   printQuality,Medium
;   printExtruders,
;   extruderName,Extruder 1
;   extruderToolheadNumber,0
;   extruderDiameter,0.4
;   extruderAutoWidth,1
;   extruderWidth,0.48
;   extrusionMultiplier,0.98
;   extruderUseRetract,1
;   extruderRetractionDistance,3
;   extruderExtraRestartDistance,0
;   extruderRetractionZLift,0
;   extruderRetractionSpeed,3600
;   extruderUseCoasting,1
;   extruderCoastingDistance,0.2
;   extruderUseWipe,1
;   extruderWipeDistance,5
;   primaryExtruder,0
;   layerHeight,0.2
;   topSolidLayers,3
;   bottomSolidLayers,3
;   perimeterOutlines,3
;   printPerimetersInsideOut,1
;   startPointOption,3
;   startPointOriginX,200
;   startPointOriginY,100
;   sequentialIslands,0
;   spiralVaseMode,0
;   firstLayerHeightPercentage,100
;   firstLayerWidthPercentage,150
;   firstLayerUnderspeed,0.5
;   useRaft,0
;   raftExtruder,0
;   raftTopLayers,3
;   raftBaseLayers,2
;   raftOffset,3
;   raftSeparationDistance,0.18
;   raftTopInfill,100
;   aboveRaftSpeedMultiplier,0.3
;   useSkirt,1
;   skirtExtruder,0
;   skirtLayers,1
;   skirtOutlines,8
;   skirtOffset,0
;   usePrimePillar,0
;   primePillarExtruder,999
;   primePillarWidth,12
;   primePillarLocation,7
;   primePillarSpeedMultiplier,1
;   useOozeShield,0
;   oozeShieldExtruder,999
;   oozeShieldOffset,2
;   oozeShieldOutlines,1
;   oozeShieldSidewallShape,1
;   oozeShieldSidewallAngle,30
;   oozeShieldSpeedMultiplier,1
;   infillExtruder,0
;   internalInfillPattern,Rectilinear
;   externalInfillPattern,Rectilinear
;   infillPercentage,20
;   outlineOverlapPercentage,25
;   infillExtrusionWidthPercentage,150
;   minInfillLength,5
;   infillLayerInterval,1
;   internalInfillAngles,45,-45
;   overlapInternalInfillAngles,0
;   externalInfillAngles,45,-45
;   generateSupport,1
;   supportExtruder,0
;   supportInfillPercentage,30
;   supportExtraInflation,0
;   supportBaseLayers,1
;   denseSupportExtruder,0
;   denseSupportLayers,0
;   denseSupportInfillPercentage,70
;   supportLayerInterval,1
;   supportHorizontalPartOffset,0.3
;   supportUpperSeparationLayers,1
;   supportLowerSeparationLayers,1
;   supportType,0
;   supportGridSpacing,4
;   maxOverhangAngle,25
;   supportAngles,0
;   temperatureName,Extruder 1,Heated Bed
;   temperatureNumber,0,1
;   temperatureSetpointCount,1,1
;   temperatureSetpointLayers,1,1
;   temperatureSetpointTemperatures,225,75
;   temperatureStabilizeAtStartup,1,1
;   temperatureHeatedBed,0,1
;   fanLayers,1,2
;   fanSpeeds,0,20
;   blipFanToFullPower,1
;   adjustSpeedForCooling,1
;   minSpeedLayerTime,15
;   minCoolingSpeedSlowdown,20
;   increaseFanForCooling,1
;   minFanLayerTime,45
;   maxCoolingFanSpeed,35
;   increaseFanForBridging,1
;   bridgingFanSpeed,80
;   use5D,1
;   relativeEdistances,0
;   allowEaxisZeroing,1
;   independentExtruderAxes,0
;   includeM10123,0
;   stickySupport,1
;   applyToolheadOffsets,0
;   gcodeXoffset,0
;   gcodeYoffset,0
;   gcodeZoffset,0
;   overrideMachineDefinition,1
;   machineTypeOverride,0
;   strokeXoverride,200
;   strokeYoverride,200
;   strokeZoverride,150
;   originOffsetXoverride,0
;   originOffsetYoverride,0
;   originOffsetZoverride,0
;   homeXdirOverride,-1
;   homeYdirOverride,-1
;   homeZdirOverride,-1
;   flipXoverride,1
;   flipYoverride,-1
;   flipZoverride,1
;   toolheadOffsets,0,0|0,0|0,0|0,0|0,0|0,0
;   overrideFirmwareConfiguration,1
;   firmwareTypeOverride,RepRap (Marlin/Repetier/Sprinter)
;   GPXconfigOverride,r2
;   baudRateOverride,115200
;   overridePrinterModels,0
;   printerModelsOverride
;   startingGcode,G28 ; home all axes,G32 ; run bed.g -- probe bed and enable compensation
;   layerChangeGcode,
;   retractionGcode,
;   toolChangeGcode,
;   endingGcode,M0 ; call stop.g
;   exportFileFormat,gcode
;   celebration,0
;   celebrationSong,Random Song
;   postProcessing,
;   defaultSpeed,3600
;   outlineUnderspeed,0.5
;   solidInfillUnderspeed,0.8
;   supportUnderspeed,0.8
;   rapidXYspeed,18000
;   rapidZspeed,1200
;   minBridgingArea,50
;   bridgingExtraInflation,0
;   bridgingExtrusionMultiplier,0.96
;   bridgingSpeedMultiplier,1
;   useFixedBridgingAngle,0
;   fixedBridgingAngle,0
;   applyBridgingToPerimeters,0
;   filamentDiameters,1.75|1.75|1.75|1.75|1.75|1.75
;   filamentPricesPerKg,46|46|46|46|46|46
;   filamentDensities,1.25|1.25|1.25|1.25|1.25|1.25
;   useMinPrintHeight,0
;   minPrintHeight,0.2
;   useMaxPrintHeight,0
;   maxPrintHeight,0
;   useDiaphragm,0
;   diaphragmLayerInterval,20
;   robustSlicing,1
;   mergeAllIntoSolid,0
;   onlyRetractWhenCrossingOutline,1
;   retractBetweenLayers,0
;   useRetractionMinTravel,1
;   retractionMinTravel,3
;   retractWhileWiping,1
;   onlyWipeOutlines,1
;   avoidCrossingOutline,1
;   maxMovementDetourFactor,5
;   toolChangeRetractionDistance,12
;   toolChangeExtraRestartDistance,-0.5
;   toolChangeRetractionSpeed,600
;   externalThinWallType,0
;   internalThinWallType,2
;   thinWallAllowedOverlapPercentage,10
;   singleExtrusionMinLength,1
;   singleExtrusionMinPrintingWidthPercentage,50
;   singleExtrusionMaxPrintingWidthPercentage,150
;   singleExtrusionEndpointExtension,0.2
;   horizontalSizeCompensation,-0.1
G90
M82
M106 S0
M140 S75
M190 S75
M104 S225 T0
M109 S225 T0
G28 ; home all axes
G32 ; run bed.g -- probe bed and enable compensation
; process Process1
; layer 1, Z = 0.200
T0
G92 E0.0000
G1 E-3.0000 F3600
; feature skirt
; tool H0.200 W0.720
G1 Z0.200 F1200
G1 X117.420 Y86.943 F18000
G1 E0.0000 F3600
G92 E0.0000
G1 X117.420 Y113.057 E1.5321 F1800
G1 X117.414 Y113.181 E1.5394
G1 X117.359 Y113.741 E1.5724
G1 X117.310 Y113.984 E1.5870
G1 X117.131 Y114.577 E1.6233
G1 X117.036 Y114.806 E1.6378
G1 X116.744 Y115.352 E1.6742
G1 X116.606 Y115.558 E1.6887
G1 X116.213 Y116.038 E1.7251
G1 X116.038 Y116.213 E1.7397
G1 X115.558 Y116.606 E1.7760
G1 X115.352 Y116.744 E1.7906
G1 X114.806 Y117.036 E1.8269
G1 X114.577 Y117.131 E1.8415
G1 X113.984 Y117.310 E1.8778
G1 X113.741 Y117.359 E1.8924
G1 X113.181 Y117.414 E1.9254
G1 X113.057 Y117.420 E1.9326
G1 X86.943 Y117.420 E3.4648
G1 X86.819 Y117.414 E3.4720
G1 X86.259 Y117.359 E3.5051
G1 X86.016 Y117.310 E3.5196
G1 X85.423 Y117.131 E3.5560
G1 X85.194 Y117.036 E3.5705
G1 X84.648 Y116.744 E3.6069
G1 X84.442 Y116.606 E3.6214
G1 X83.962 Y116.213 E3.6578
G1 X83.787 Y116.038 E3.6723
G1 X83.394 Y115.558 E3.7087
G1 X83.256 Y115.352 E3.7232
G1 X82.964 Y114.806 E3.7596
G1 X82.869 Y114.577 E3.7741
G1 X82.690 Y113.984 E3.8105
G1 X82.641 Y113.741 E3.8250
G1 X82.586 Y113.180 E3.8581
G1 X82.580 Y113.056 E3.8653
G1 X82.590 Y86.690 E5.4123
G1 X82.614 Y86.444 E5.4268
G1 X82.735 Y85.835 E5.4632
G1 X82.807 Y85.599 E5.4777
G1 X83.044 Y85.026 E5.5141
G1 X83.161 Y84.808 E5.5286
G1 X83.505 Y84.292 E5.5649
G1 X83.662 Y84.101 E5.5795
G1 X84.125 Y83.638 E5.6179
G1 X84.370 Y83.447 E5.6361
G1 X85.112 Y83.003 E5.6868
G1 X85.394 Y82.878 E5.7049
G1 X86.016 Y82.690 E5.7431
G1 X86.259 Y82.641 E5.7576
G1 X86.819 Y82.586 E5.7906
G1 X86.943 Y82.580 E5.7979
G1 X113.057 Y82.580 E7.3300
G1 X113.181 Y82.586 E7.3373
G1 X113.741 Y82.641 E7.3703
G1 X113.984 Y82.690 E7.3848
G1 X114.577 Y82.869 E7.4212
G1 X114.806 Y82.964 E7.4357
G1 X115.352 Y83.256 E7.4721
G1 X115.558 Y83.394 E7.4866
G1 X116.038 Y83.787 E7.5230
G1 X116.213 Y83.962 E7.5375
G1 X116.606 Y84.442 E7.5739
G1 X116.744 Y84.648 E7.5885
G1 X117.036 Y85.194 E7.6248
G1 X117.131 Y85.423 E7.6393
G1 X117.310 Y86.016 E7.6757
G1 X117.359 Y86.259 E7.6902
G1 X117.414 Y86.819 E7.7233
G1 X117.420 Y86.943 E7.7305
G1 X116.700 Y86.961 F18000
G92 E0.0000
G1 X116.700 Y113.039 E1.5301 F1800
G1 X116.696 Y113.128 E1.5352
G1 X116.646 Y113.635 E1.5652
G1 X116.611 Y113.808 E1.5755
G1 X116.452 Y114.334 E1.6078
G1 X116.384 Y114.497 E1.6181
G1 X116.125 Y114.982 E1.6504
G1 X116.027 Y115.129 E1.6607
G1 X115.678 Y115.553 E1.6930
G1 X115.553 Y115.678 E1.7033
G1 X115.129 Y116.027 E1.7356
G1 X114.982 Y116.125 E1.7459
G1 X114.497 Y116.384 E1.7782
G1 X114.334 Y116.452 E1.7885
G1 X113.808 Y116.611 E1.8208
G1 X113.635 Y116.646 E1.8311
G1 X113.128 Y116.696 E1.8610
G1 X113.039 Y116.700 E1.8662
G1 X86.961 Y116.700 E3.3963
G1 X86.872 Y116.696 E3.4015
G1 X86.365 Y116.646 E3.4314
G1 X86.192 Y116.611 E3.4418
G1 X85.666 Y116.452 E3.4740
G1 X85.503 Y116.384 E3.4844
G1 X85.018 Y116.125 E3.5166
G1 X84.871 Y116.027 E3.5270
G1 X84.447 Y115.678 E3.5592
G1 X84.322 Y115.553 E3.5696
G1 X83.973 Y115.129 E3.6018
G1 X83.875 Y114.982 E3.6122
G1 X83.616 Y114.497 E3.6444
G1 X83.548 Y114.334 E3.6548
G1 X83.389 Y113.808 E3.6870
G1 X83.354 Y113.635 E3.6974
G1 X83.304 Y113.127 E3.7273
G1 X83.300 Y113.038 E3.7325
G1 X83.310 Y86.725 E5.2763
G1 X83.327 Y86.549 E5.2867
G1 X83.434 Y86.011 E5.3189
G1 X83.485 Y85.841 E5.3293
G1 X83.696 Y85.334 E5.3615
G1 X83.779 Y85.178 E5.3719
G1 X84.084 Y84.722 E5.4041
G1 X84.196 Y84.585 E5.4145
G1 X84.602 Y84.179 E5.4482
G1 X84.778 Y84.042 E5.4612
G1 X85.444 Y83.644 E5.5068
G1 X85.645 Y83.555 E5.5197
G1 X86.192 Y83.389 E5.5532
G1 X86.365 Y83.354 E5.5636
G1 X86.872 Y83.304 E5.5935
G1 X86.961 Y83.300 E5.5987
G1 X113.039 Y83.300 E7.1287
G1 X113.128 Y83.304 E7.1339
G1 X113.635 Y83.354 E7.1638
G1 X113.808 Y83.389 E7.1742
G1 X114.334 Y83.548 E7.2064
G1 X114.497 Y83.616 E7.2168
G1 X114.982 Y83.875 E7.2490
G1 X115.129 Y83.973 E7.2594
G1 X115.553 Y84.322 E7.2916
G1 X115.678 Y84.447 E7.3020
G1 X116.027 Y84.871 E7.3342
G1 X116.125 Y85.018 E7.3446
G1 X116.384 Y85.503 E7.3768
G1 X116.452 Y85.666 E7.3872
G1 X116.611 Y86.192 E7.4194
G1 X116.646 Y86.365 E7.4298
G1 X116.696 Y86.872 E7.4597
G1 X116.700 Y86.961 E7.4649
G1 X115.980 Y86.978 F18000
G92 E0.0000
G1 X115.980 Y113.022 E1.5280 F1800
G1 X115.977 Y113.075 E1.5311
G1 X115.933 Y113.529 E1.5579
G1 X115.912 Y113.633 E1.5641
G1 X115.773 Y114.091 E1.5922
G1 X115.732 Y114.189 E1.5984
G1 X115.507 Y114.611 E1.6265
G1 X115.448 Y114.699 E1.6327
G1 X115.144 Y115.069 E1.6608
G1 X115.069 Y115.144 E1.6670
G1 X114.699 Y115.448 E1.6951
G1 X114.611 Y115.507 E1.7013
G1 X114.189 Y115.732 E1.7294
G1 X114.091 Y115.773 E1.7356
G1 X113.633 Y115.912 E1.7637
G1 X113.529 Y115.933 E1.7699
G1 X113.075 Y115.977 E1.7967
G1 X113.022 Y115.980 E1.7998
G1 X86.978 Y115.980 E3.3278
G1 X86.925 Y115.977 E3.3309
G1 X86.471 Y115.933 E3.3577
G1 X86.367 Y115.912 E3.3640
G1 X85.909 Y115.773 E3.3920
G1 X85.811 Y115.732 E3.3983
G1 X85.389 Y115.507 E3.4263
G1 X85.301 Y115.448 E3.4325
G1 X84.931 Y115.144 E3.4606
G1 X84.856 Y115.069 E3.4668
G1 X84.552 Y114.699 E3.4949
G1 X84.493 Y114.611 E3.5012
G1 X84.268 Y114.189 E3.5292
G1 X84.227 Y114.091 E3.5354
G1 X84.088 Y113.633 E3.5635
G1 X84.067 Y113.529 E3.5697
G1 X84.023 Y113.074 E3.5966
G1 X84.020 Y113.021 E3.5997
G1 X84.030 Y86.761 E5.1404
G1 X84.040 Y86.655 E5.1466
G1 X84.133 Y86.186 E5.1747
G1 X84.164 Y86.084 E5.1809
G1 X84.347 Y85.642 E5.2090
G1 X84.397 Y85.549 E5.2152
G1 X84.663 Y85.151 E5.2433
G1 X84.730 Y85.069 E5.2495
G1 X85.080 Y84.719 E5.2785
G1 X85.185 Y84.637 E5.2864
G1 X85.776 Y84.284 E5.3267
G1 X85.896 Y84.231 E5.3345
G1 X86.367 Y84.088 E5.3633
G1 X86.471 Y84.067 E5.3695
G1 X86.925 Y84.023 E5.3963
G1 X86.978 Y84.020 E5.3994
G1 X113.022 Y84.020 E6.9274
G1 X113.075 Y84.023 E6.9305
G1 X113.529 Y84.067 E6.9573
G1 X113.633 Y84.088 E6.9636
G1 X114.091 Y84.227 E6.9916
G1 X114.189 Y84.268 E6.9979
G1 X114.611 Y84.493 E7.0259
G1 X114.699 Y84.552 E7.0322
G1 X115.069 Y84.856 E7.0602
G1 X115.144 Y84.931 E7.0665
G1 X115.448 Y85.301 E7.0945
G1 X115.507 Y85.389 E7.1008
G1 X115.732 Y85.811 E7.1288
G1 X115.773 Y85.909 E7.1351
G1 X115.912 Y86.367 E7.1631
G1 X115.933 Y86.471 E7.1694
G1 X115.977 Y86.925 E7.1962
G1 X115.980 Y86.978 E7.1993
G1 X115.260 Y86.996 F18000
G92 E0.0000
G1 X115.260 Y113.004 E1.5259 F1800
G1 X115.259 Y113.022 E1.5269
G1 X115.220 Y113.423 E1.5506
G1 X115.213 Y113.458 E1.5527
G1 X115.094 Y113.848 E1.5766
G1 X115.081 Y113.881 E1.5787
G1 X114.889 Y114.241 E1.6026
G1 X114.869 Y114.270 E1.6047
G1 X114.610 Y114.585 E1.6286
G1 X114.585 Y114.610 E1.6307
G1 X114.270 Y114.869 E1.6546
G1 X114.241 Y114.889 E1.6567
G1 X113.881 Y115.081 E1.6806
G1 X113.848 Y115.094 E1.6827
G1 X113.458 Y115.213 E1.7066
G1 X113.423 Y115.220 E1.7087
G1 X113.022 Y115.259 E1.7324
G1 X113.004 Y115.260 E1.7334
G1 X86.996 Y115.260 E3.2593
G1 X86.978 Y115.259 E3.2604
G1 X86.576 Y115.220 E3.2841
G1 X86.542 Y115.213 E3.2861
G1 X86.152 Y115.094 E3.3101
G1 X86.119 Y115.081 E3.3121
G1 X85.759 Y114.889 E3.3361
G1 X85.730 Y114.869 E3.3381
G1 X85.415 Y114.610 E3.3621
G1 X85.390 Y114.585 E3.3641
G1 X85.131 Y114.270 E3.3881
G1 X85.111 Y114.241 E3.3901
G1 X84.919 Y113.881 E3.4140
G1 X84.906 Y113.848 E3.4161
G1 X84.787 Y113.458 E3.4400
G1 X84.780 Y113.423 E3.4421
G1 X84.741 Y113.022 E3.4658
G1 X84.740 Y113.004 E3.4669
G1 X84.750 Y86.796 E5.0045
G1 X84.753 Y86.761 E5.0066
G1 X84.833 Y86.361 E5.0305
G1 X84.843 Y86.327 E5.0326
G1 X84.999 Y85.950 E5.0565
G1 X85.016 Y85.919 E5.0586
G1 X85.242 Y85.580 E5.0825
G1 X85.265 Y85.553 E5.0846
G1 X85.558 Y85.260 E5.1089
G1 X85.593 Y85.232 E5.1115
G1 X86.107 Y84.925 E5.1467
G1 X86.148 Y84.907 E5.1492
G1 X86.542 Y84.787 E5.1734
G1 X86.577 Y84.780 E5.1755
G1 X86.978 Y84.741 E5.1992
G1 X86.996 Y84.740 E5.2002
G1 X113.004 Y84.740 E6.7261
G1 X113.022 Y84.741 E6.7272
G1 X113.423 Y84.780 E6.7509
G1 X113.458 Y84.787 E6.7529
G1 X113.848 Y84.906 E6.7769
G1 X113.881 Y84.919 E6.7789
G1 X114.241 Y85.111 E6.8028
G1 X114.270 Y85.131 E6.8049
G1 X114.585 Y85.390 E6.8288
G1 X114.610 Y85.415 E6.8309
G1 X114.869 Y85.730 E6.8548
G1 X114.889 Y85.759 E6.8569
G1 X115.081 Y86.119 E6.8808
G1 X115.094 Y86.152 E6.8829
G1 X115.213 Y86.542 E6.9068
G1 X115.220 Y86.576 E6.9089
G1 X115.259 Y86.978 E6.9326
G1 X115.260 Y86.996 E6.9336
G92 E0.0000
G1 E-3.0000 F3600
G1 X150.527 Y86.890 F18000
G1 X150.540 Y87.023
G1 X156.300 Y86.873
G1 E0.0000 F3600
G92 E0.0000
G1 X156.300 Y113.127 E1.5404 F1800
G1 X156.287 Y113.392 E1.5560
G1 X156.211 Y114.164 E1.6015
G1 X156.108 Y114.684 E1.6326
G1 X155.845 Y115.548 E1.6856
G1 X155.642 Y116.039 E1.7167
G1 X155.216 Y116.835 E1.7697
G1 X154.922 Y117.276 E1.8008
G1 X154.349 Y117.973 E1.8537
G1 X153.974 Y118.349 E1.8849
G1 X153.276 Y118.922 E1.9379
G1 X152.834 Y119.217 E1.9690
G1 X152.039 Y119.642 E2.0220
G1 X151.549 Y119.845 E2.0531
G1 X150.684 Y120.108 E2.1061
G1 X150.164 Y120.211 E2.1372
G1 X149.393 Y120.287 E2.1827
G1 X149.128 Y120.300 E2.1982
G1 X122.872 Y120.300 E3.7387
G1 X122.607 Y120.287 E3.7542
G1 X121.836 Y120.211 E3.7997
G1 X121.316 Y120.108 E3.8308
G1 X120.452 Y119.845 E3.8838
G1 X119.962 Y119.642 E3.9149
G1 X119.165 Y119.217 E3.9679
G1 X118.724 Y118.922 E3.9990
G1 X118.026 Y118.349 E4.0520
G1 X118.000 Y118.323 E4.0542
G1 X117.974 Y118.349 E4.0563
G1 X117.276 Y118.922 E4.1093
G1 X116.835 Y119.217 E4.1405
G1 X116.038 Y119.642 E4.1934
G1 X115.548 Y119.845 E4.2246
G1 X114.684 Y120.108 E4.2775
G1 X114.164 Y120.211 E4.3087
G1 X113.393 Y120.287 E4.3541
G1 X113.128 Y120.300 E4.3697
G1 X86.872 Y120.300 E5.9101
G1 X86.607 Y120.287 E5.9257
G1 X85.836 Y120.211 E5.9711
G1 X85.316 Y120.108 E6.0023
G1 X84.452 Y119.845 E6.0552
G1 X83.962 Y119.642 E6.0864
G1 X83.165 Y119.217 E6.1393
G1 X82.724 Y118.922 E6.1705
G1 X82.026 Y118.349 E6.2235
G1 X81.651 Y117.974 E6.2546
G1 X81.078 Y117.276 E6.3076
G1 X80.783 Y116.835 E6.3387
G1 X80.358 Y116.039 E6.3917
G1 X80.155 Y115.548 E6.4228
G1 X79.892 Y114.684 E6.4758
G1 X79.789 Y114.164 E6.5069
G1 X79.713 Y113.391 E6.5525
G1 X79.700 Y113.125 E6.5681
G1 X79.710 Y86.548 E8.1274
G1 X79.762 Y86.020 E8.1585
G1 X79.938 Y85.135 E8.2115
G1 X80.092 Y84.627 E8.2426
G1 X80.437 Y83.793 E8.2956
G1 X80.687 Y83.325 E8.3267
G1 X81.189 Y82.575 E8.3796
G1 X81.525 Y82.164 E8.4108
G1 X82.214 Y81.476 E8.4679
G1 X82.740 Y81.066 E8.5070
G1 X83.785 Y80.441 E8.5785
G1 X84.389 Y80.174 E8.6172
G1 X85.316 Y79.892 E8.6741
G1 X85.836 Y79.789 E8.7052
G1 X86.607 Y79.713 E8.7506
G1 X86.872 Y79.700 E8.7662
G1 X113.128 Y79.700 E10.3067
G1 X113.393 Y79.713 E10.3222
G1 X114.164 Y79.789 E10.3677
G1 X114.684 Y79.892 E10.3988
G1 X115.548 Y80.155 E10.4518
