; G-Code generated by Simplify3D(R) Version 4.1.2
; Apr 29, 2020 at 2:23:13 PM
; Settings Summary
;   processName,Process1
;   applyToModels,test
;   profileName,HBot
;   profileVersion,2019-10-26 23:38:43
;   baseProfile,Default
;   printMaterial,PETG - SUNLU
;   printQuality,High
;   printExtruders,
;   extruderName,Extruder 1
;   extruderToolheadNumber,0
;   extruderDiameter,0.4
;   extruderAutoWidth,1
;   extruderWidth,0.48
;   extrusionMultiplier,0.98
;   extruderUseRetract,1
;   extruderRetractionDistance,3
;   extruderExtraRestartDistance,0
;   extruderRetractionZLift,0
;   extruderRetractionSpeed,3600
;   extruderUseCoasting,1
;   extruderCoastingDistance,0.2
;   extruderUseWipe,1
;   extruderWipeDistance,5
;   primaryExtruder,0
;   layerHeight,0.1
;   topSolidLayers,4
;   bottomSolidLayers,4
;   perimeterOutlines,3
;   printPerimetersInsideOut,1
;   startPointOption,3
;   startPointOriginX,200
;   startPointOriginY,100
;   sequentialIslands,0
;   spiralVaseMode,0
;   firstLayerHeightPercentage,100
;   firstLayerWidthPercentage,150
;   firstLayerUnderspeed,0.5
;   useRaft,0
;   raftExtruder,0
;   raftTopLayers,3
;   raftBaseLayers,2
;   raftOffset,3
;   raftSeparationDistance,0.18
;   raftTopInfill,100
;   aboveRaftSpeedMultiplier,0.3
;   useSkirt,1
;   skirtExtruder,0
;   skirtLayers,1
;   skirtOutlines,8
;   skirtOffset,0
;   usePrimePillar,0
;   primePillarExtruder,999
;   primePillarWidth,12
;   primePillarLocation,7
;   primePillarSpeedMultiplier,1
;   useOozeShield,0
;   oozeShieldExtruder,999
;   oozeShieldOffset,2
;   oozeShieldOutlines,1
;   oozeShieldSidewallShape,1
;   oozeShieldSidewallAngle,30
;   oozeShieldSpeedMultiplier,1
;   infillExtruder,0
;   internalInfillPattern,Rectilinear
;   externalInfillPattern,Rectilinear
;   infillPercentage,30
;   outlineOverlapPercentage,25
;   infillExtrusionWidthPercentage,150
;   minInfillLength,5
;   infillLayerInterval,1
;   internalInfillAngles,45,-45
;   overlapInternalInfillAngles,0
;   externalInfillAngles,45,-45
;   generateSupport,0
;   supportExtruder,0
;   supportInfillPercentage,40
;   supportExtraInflation,0
;   supportBaseLayers,1
;   denseSupportExtruder,0
;   denseSupportLayers,0
;   denseSupportInfillPercentage,70
;   supportLayerInterval,1
;   supportHorizontalPartOffset,0.3
;   supportUpperSeparationLayers,1
;   supportLowerSeparationLayers,1
;   supportType,0
;   supportGridSpacing,4
;   maxOverhangAngle,25
;   supportAngles,0
;   temperatureName,Extruder 1,Heated Bed
;   temperatureNumber,0,1
;   temperatureSetpointCount,1,1
;   temperatureSetpointLayers,1,1
;   temperatureSetpointTemperatures,225,75
;   temperatureStabilizeAtStartup,1,1
;   temperatureHeatedBed,0,1
;   fanLayers,1,2
;   fanSpeeds,0,20
;   blipFanToFullPower,1
;   adjustSpeedForCooling,1
;   minSpeedLayerTime,15
;   minCoolingSpeedSlowdown,20
;   increaseFanForCooling,1
;   minFanLayerTime,45
;   maxCoolingFanSpeed,35
;   increaseFanForBridging,1
;   bridgingFanSpeed,80
;   use5D,1
;   relativeEdistances,0
;   allowEaxisZeroing,1
;   independentExtruderAxes,0
;   includeM10123,0
;   stickySupport,1
;   applyToolheadOffsets,0
;   gcodeXoffset,0
;   gcodeYoffset,0
;   gcodeZoffset,0
;   overrideMachineDefinition,1
;   machineTypeOverride,0
;   strokeXoverride,200
;   strokeYoverride,200
;   strokeZoverride,150
;   originOffsetXoverride,0
;   originOffsetYoverride,0
;   originOffsetZoverride,0
;   homeXdirOverride,-1
;   homeYdirOverride,-1
;   homeZdirOverride,-1
;   flipXoverride,1
;   flipYoverride,-1
;   flipZoverride,1
;   toolheadOffsets,0,0|0,0|0,0|0,0|0,0|0,0
;   overrideFirmwareConfiguration,1
;   firmwareTypeOverride,RepRap (Marlin/Repetier/Sprinter)
;   GPXconfigOverride,r2
;   baudRateOverride,115200
;   overridePrinterModels,0
;   printerModelsOverride
;   startingGcode,G28 ; home all axes,G32 ; run bed.g -- probe bed and enable compensation
;   layerChangeGcode,
;   retractionGcode,
;   toolChangeGcode,
;   endingGcode,M0 ; call stop.g
;   exportFileFormat,gcode
;   celebration,0
;   celebrationSong,Random Song
;   postProcessing,
;   defaultSpeed,3600
;   outlineUnderspeed,0.5
;   solidInfillUnderspeed,0.8
;   supportUnderspeed,0.8
;   rapidXYspeed,18000
;   rapidZspeed,1200
;   minBridgingArea,50
;   bridgingExtraInflation,0
;   bridgingExtrusionMultiplier,0.96
;   bridgingSpeedMultiplier,1
;   useFixedBridgingAngle,0
;   fixedBridgingAngle,0
;   applyBridgingToPerimeters,0
;   filamentDiameters,1.75|1.75|1.75|1.75|1.75|1.75
;   filamentPricesPerKg,46|46|46|46|46|46
;   filamentDensities,1.25|1.25|1.25|1.25|1.25|1.25
;   useMinPrintHeight,0
;   minPrintHeight,0.2
;   useMaxPrintHeight,0
;   maxPrintHeight,0
;   useDiaphragm,0
;   diaphragmLayerInterval,20
;   robustSlicing,1
;   mergeAllIntoSolid,0
;   onlyRetractWhenCrossingOutline,1
;   retractBetweenLayers,0
;   useRetractionMinTravel,1
;   retractionMinTravel,3
;   retractWhileWiping,1
;   onlyWipeOutlines,1
;   avoidCrossingOutline,1
;   maxMovementDetourFactor,50
;   toolChangeRetractionDistance,12
;   toolChangeExtraRestartDistance,-0.5
;   toolChangeRetractionSpeed,600
;   externalThinWallType,0
;   internalThinWallType,2
;   thinWallAllowedOverlapPercentage,10
;   singleExtrusionMinLength,1
;   singleExtrusionMinPrintingWidthPercentage,50
;   singleExtrusionMaxPrintingWidthPercentage,150
;   singleExtrusionEndpointExtension,0.2
;   horizontalSizeCompensation,-0.1
G90
M82
M106 S255
G4 P500
M106 S53
M140 S75
M190 S75
M104 S225 T0
M109 S225 T0
G28 ; home all axes
G32 ; run bed.g -- probe bed and enable compensation
; process Process1
; layer 1, Z = 0.100
T0
G92 E0.0000
G1 E-3.0000 F3600
; feature skirt
; tool H0.100 W0.720
G1 Z0.100 F1200
G1 X120.300 Y86.872 F18000
G1 E0.0000 F3600
G92 E0.0000
G1 X120.300 Y113.128 E0.7702 F1800
G1 X120.287 Y113.393 E0.7780
G1 X120.211 Y114.164 E0.8007
G1 X120.108 Y114.684 E0.8163
G1 X119.845 Y115.548 E0.8428
G1 X119.642 Y116.038 E0.8584
G1 X119.217 Y116.835 E0.8848
G1 X118.922 Y117.276 E0.9004
G1 X118.349 Y117.974 E0.9269
G1 X117.974 Y118.349 E0.9425
G1 X117.276 Y118.922 E0.9690
G1 X116.835 Y119.217 E0.9845
G1 X116.038 Y119.642 E1.0110
G1 X115.548 Y119.845 E1.0266
G1 X114.684 Y120.108 E1.0531
G1 X114.164 Y120.211 E1.0686
G1 X113.393 Y120.287 E1.0913
G1 X113.128 Y120.300 E1.0991
G1 X86.872 Y120.300 E1.8694
G1 X86.607 Y120.287 E1.8771
G1 X85.836 Y120.211 E1.8999
G1 X85.316 Y120.108 E1.9154
G1 X84.452 Y119.845 E1.9419
G1 X83.962 Y119.642 E1.9575
G1 X83.165 Y119.217 E1.9840
G1 X82.724 Y118.922 E1.9995
G1 X82.026 Y118.349 E2.0260
G1 X81.651 Y117.974 E2.0416
G1 X81.078 Y117.276 E2.0681
G1 X80.783 Y116.835 E2.0836
G1 X80.358 Y116.039 E2.1101
G1 X80.155 Y115.548 E2.1257
G1 X79.892 Y114.684 E2.1522
G1 X79.789 Y114.164 E2.1677
G1 X79.713 Y113.391 E2.1905
G1 X79.700 Y113.125 E2.1983
G1 X79.710 Y86.548 E2.9780
G1 X79.762 Y86.020 E2.9935
G1 X79.938 Y85.135 E3.0200
G1 X80.092 Y84.627 E3.0356
G1 X80.437 Y83.793 E3.0621
G1 X80.687 Y83.325 E3.0776
G1 X81.189 Y82.575 E3.1041
G1 X81.525 Y82.164 E3.1197
G1 X82.214 Y81.476 E3.1483
G1 X82.740 Y81.066 E3.1678
G1 X83.785 Y80.441 E3.2035
G1 X84.389 Y80.174 E3.2229
G1 X85.316 Y79.892 E3.2513
G1 X85.836 Y79.789 E3.2669
G1 X86.607 Y79.713 E3.2896
G1 X86.872 Y79.700 E3.2974
G1 X113.128 Y79.700 E4.0676
G1 X113.393 Y79.713 E4.0754
G1 X114.164 Y79.789 E4.0981
G1 X114.684 Y79.892 E4.1137
G1 X115.548 Y80.155 E4.1402
G1 X116.039 Y80.358 E4.1557
G1 X116.835 Y80.783 E4.1822
G1 X117.276 Y81.078 E4.1978
G1 X117.974 Y81.651 E4.2243
G1 X118.349 Y82.026 E4.2398
G1 X118.922 Y82.724 E4.2663
G1 X119.217 Y83.165 E4.2819
G1 X119.642 Y83.962 E4.3084
G1 X119.845 Y84.452 E4.3240
G1 X120.108 Y85.316 E4.3504
G1 X120.211 Y85.836 E4.3660
G1 X120.287 Y86.607 E4.3887
G1 X120.300 Y86.872 E4.3965
G1 X119.580 Y86.890 F18000
G92 E0.0000
G1 X119.580 Y113.110 E0.7692 F1800
G1 X119.569 Y113.340 E0.7759
G1 X119.498 Y114.058 E0.7971
G1 X119.408 Y114.509 E0.8106
G1 X119.167 Y115.305 E0.8350
G1 X118.991 Y115.730 E0.8485
G1 X118.599 Y116.464 E0.8729
G1 X118.343 Y116.846 E0.8864
G1 X117.815 Y117.490 E0.9108
G1 X117.490 Y117.815 E0.9243
G1 X116.846 Y118.343 E0.9487
G1 X116.464 Y118.599 E0.9622
G1 X115.730 Y118.991 E0.9866
G1 X115.305 Y119.167 E1.0001
G1 X114.509 Y119.408 E1.0245
G1 X114.058 Y119.498 E1.0380
G1 X113.340 Y119.569 E1.0592
G1 X113.110 Y119.580 E1.0659
G1 X86.890 Y119.580 E1.8351
G1 X86.660 Y119.569 E1.8419
G1 X85.942 Y119.498 E1.8630
G1 X85.491 Y119.408 E1.8765
G1 X84.695 Y119.167 E1.9009
G1 X84.270 Y118.991 E1.9144
G1 X83.536 Y118.599 E1.9388
G1 X83.154 Y118.343 E1.9523
G1 X82.510 Y117.815 E1.9767
G1 X82.185 Y117.490 E1.9902
G1 X81.657 Y116.846 E2.0146
G1 X81.401 Y116.464 E2.0281
G1 X81.009 Y115.730 E2.0525
G1 X80.833 Y115.305 E2.0660
G1 X80.592 Y114.509 E2.0904
G1 X80.502 Y114.058 E2.1039
G1 X80.431 Y113.338 E2.1252
G1 X80.420 Y113.108 E2.1319
G1 X80.430 Y86.583 E2.9100
G1 X80.475 Y86.126 E2.9235
G1 X80.637 Y85.310 E2.9479
G1 X80.771 Y84.870 E2.9614
G1 X81.089 Y84.101 E2.9858
G1 X81.306 Y83.696 E2.9993
G1 X81.768 Y83.004 E3.0237
G1 X82.060 Y82.648 E3.0372
G1 X82.692 Y82.016 E3.0634
G1 X83.147 Y81.661 E3.0804
G1 X84.117 Y81.082 E3.1135
G1 X84.640 Y80.850 E3.1303
G1 X85.491 Y80.592 E3.1564
G1 X85.942 Y80.502 E3.1699
G1 X86.660 Y80.431 E3.1910
G1 X86.890 Y80.420 E3.1978
G1 X113.110 Y80.420 E3.9670
G1 X113.340 Y80.431 E3.9737
G1 X114.058 Y80.502 E3.9949
G1 X114.509 Y80.592 E4.0084
G1 X115.305 Y80.833 E4.0328
G1 X115.730 Y81.009 E4.0463
G1 X116.464 Y81.401 E4.0707
G1 X116.846 Y81.657 E4.0842
G1 X117.490 Y82.185 E4.1086
G1 X117.815 Y82.510 E4.1221
G1 X118.343 Y83.154 E4.1465
G1 X118.599 Y83.536 E4.1600
G1 X118.991 Y84.270 E4.1844
G1 X119.167 Y84.695 E4.1979
G1 X119.408 Y85.491 E4.2223
G1 X119.498 Y85.942 E4.2358
G1 X119.569 Y86.660 E4.2570
G1 X119.580 Y86.890 E4.2637
G1 X118.860 Y86.907 F18000
G92 E0.0000
G1 X118.860 Y113.093 E0.7682 F1800
G1 X118.850 Y113.287 E0.7739
G1 X118.785 Y113.952 E0.7935
G1 X118.709 Y114.334 E0.8049
G1 X118.488 Y115.063 E0.8272
G1 X118.339 Y115.422 E0.8386
G1 X117.980 Y116.093 E0.8610
G1 X117.764 Y116.417 E0.8724
G1 X117.281 Y117.006 E0.8947
G1 X117.006 Y117.281 E0.9061
G1 X116.417 Y117.764 E0.9285
G1 X116.093 Y117.980 E0.9399
G1 X115.422 Y118.339 E0.9622
G1 X115.063 Y118.488 E0.9736
G1 X114.334 Y118.709 E0.9960
G1 X113.952 Y118.785 E1.0074
G1 X113.287 Y118.850 E1.0270
G1 X113.093 Y118.860 E1.0327
G1 X86.907 Y118.860 E1.8009
G1 X86.713 Y118.850 E1.8066
G1 X86.048 Y118.785 E1.8262
G1 X85.666 Y118.709 E1.8376
G1 X84.937 Y118.488 E1.8599
G1 X84.578 Y118.339 E1.8714
G1 X83.907 Y117.980 E1.8937
G1 X83.583 Y117.764 E1.9051
G1 X82.994 Y117.281 E1.9275
G1 X82.719 Y117.006 E1.9389
G1 X82.236 Y116.417 E1.9612
G1 X82.020 Y116.093 E1.9726
G1 X81.661 Y115.422 E1.9950
G1 X81.512 Y115.063 E2.0064
G1 X81.291 Y114.334 E2.0287
G1 X81.215 Y113.952 E2.0401
G1 X81.149 Y113.285 E2.0598
G1 X81.140 Y113.090 E2.0655
G1 X81.150 Y86.619 E2.8421
G1 X81.188 Y86.232 E2.8535
G1 X81.336 Y85.485 E2.8758
G1 X81.449 Y85.113 E2.8872
G1 X81.741 Y84.409 E2.9096
G1 X81.924 Y84.066 E2.9210
G1 X82.347 Y83.433 E2.9433
G1 X82.594 Y83.133 E2.9547
G1 X83.169 Y82.557 E2.9786
G1 X83.555 Y82.256 E2.9929
G1 X84.449 Y81.722 E3.0235
G1 X84.891 Y81.526 E3.0377
G1 X85.666 Y81.291 E3.0614
G1 X86.048 Y81.215 E3.0728
G1 X86.713 Y81.150 E3.0925
G1 X86.907 Y81.140 E3.0982
G1 X113.093 Y81.140 E3.8663
G1 X113.287 Y81.150 E3.8720
G1 X113.952 Y81.215 E3.8916
G1 X114.334 Y81.291 E3.9031
G1 X115.063 Y81.512 E3.9254
G1 X115.422 Y81.661 E3.9368
G1 X116.093 Y82.020 E3.9591
G1 X116.417 Y82.236 E3.9706
G1 X117.006 Y82.719 E3.9929
G1 X117.281 Y82.994 E4.0043
G1 X117.764 Y83.583 E4.0267
G1 X117.980 Y83.907 E4.0381
G1 X118.339 Y84.578 E4.0604
G1 X118.488 Y84.937 E4.0718
G1 X118.709 Y85.666 E4.0942
G1 X118.785 Y86.048 E4.1056
G1 X118.850 Y86.713 E4.1252
G1 X118.860 Y86.907 E4.1309
G1 X118.140 Y86.925 F18000
G92 E0.0000
G1 X118.140 Y113.075 E0.7671 F1800
G1 X118.132 Y113.234 E0.7718
G1 X118.072 Y113.847 E0.7898
G1 X118.010 Y114.159 E0.7992
G1 X117.809 Y114.820 E0.8194
G1 X117.687 Y115.114 E0.8288
G1 X117.362 Y115.723 E0.8490
G1 X117.185 Y115.988 E0.8584
G1 X116.747 Y116.522 E0.8786
G1 X116.522 Y116.747 E0.8880
G1 X115.988 Y117.185 E0.9083
G1 X115.723 Y117.362 E0.9176
G1 X115.114 Y117.687 E0.9379
G1 X114.820 Y117.809 E0.9472
G1 X114.159 Y118.010 E0.9674
G1 X113.847 Y118.072 E0.9768
G1 X113.234 Y118.132 E0.9949
G1 X113.075 Y118.140 E0.9995
G1 X86.925 Y118.140 E1.7666
G1 X86.766 Y118.132 E1.7713
G1 X86.153 Y118.072 E1.7894
G1 X85.841 Y118.010 E1.7987
G1 X85.180 Y117.809 E1.8190
G1 X84.886 Y117.687 E1.8283
G1 X84.277 Y117.362 E1.8486
G1 X84.012 Y117.185 E1.8579
G1 X83.478 Y116.747 E1.8782
G1 X83.253 Y116.522 E1.8875
G1 X82.815 Y115.988 E1.9078
G1 X82.638 Y115.723 E1.9171
G1 X82.313 Y115.114 E1.9374
G1 X82.191 Y114.820 E1.9467
G1 X81.990 Y114.159 E1.9670
G1 X81.928 Y113.847 E1.9763
G1 X81.868 Y113.233 E1.9944
G1 X81.860 Y113.073 E1.9991
G1 X81.870 Y86.654 E2.7741
G1 X81.901 Y86.338 E2.7834
G1 X82.036 Y85.660 E2.8037
G1 X82.128 Y85.356 E2.8130
G1 X82.392 Y84.718 E2.8333
G1 X82.542 Y84.437 E2.8426
G1 X82.926 Y83.863 E2.8629
G1 X83.128 Y83.617 E2.8722
G1 X83.647 Y83.097 E2.8938
G1 X83.963 Y82.852 E2.9055
G1 X84.780 Y82.363 E2.9334
G1 X85.143 Y82.202 E2.9451
G1 X85.841 Y81.990 E2.9665
G1 X86.153 Y81.928 E2.9758
G1 X86.766 Y81.868 E2.9939
G1 X86.925 Y81.860 E2.9986
G1 X113.075 Y81.860 E3.7657
G1 X113.234 Y81.868 E3.7703
G1 X113.847 Y81.928 E3.7884
G1 X114.159 Y81.990 E3.7977
G1 X114.820 Y82.191 E3.8180
G1 X115.114 Y82.313 E3.8273
G1 X115.723 Y82.638 E3.8476
G1 X115.988 Y82.815 E3.8569
G1 X116.522 Y83.253 E3.8772
G1 X116.747 Y83.478 E3.8865
G1 X117.185 Y84.012 E3.9068
G1 X117.362 Y84.277 E3.9161
G1 X117.687 Y84.886 E3.9364
G1 X117.809 Y85.180 E3.9457
G1 X118.010 Y85.841 E3.9660
G1 X118.072 Y86.153 E3.9753
G1 X118.132 Y86.766 E3.9934
G1 X118.140 Y86.925 E3.9981
G1 X117.420 Y86.943 F18000
G92 E0.0000
G1 X117.420 Y113.057 E0.7661 F1800
G1 X117.414 Y113.181 E0.7697
G1 X117.359 Y113.741 E0.7862
G1 X117.310 Y113.984 E0.7935
G1 X117.131 Y114.577 E0.8117
G1 X117.036 Y114.806 E0.8189
G1 X116.744 Y115.352 E0.8371
G1 X116.606 Y115.558 E0.8444
G1 X116.213 Y116.038 E0.8626
G1 X116.038 Y116.213 E0.8698
G1 X115.558 Y116.606 E0.8880
G1 X115.352 Y116.744 E0.8953
G1 X114.806 Y117.036 E0.9135
G1 X114.577 Y117.131 E0.9207
G1 X113.984 Y117.310 E0.9389
G1 X113.741 Y117.359 E0.9462
G1 X113.181 Y117.414 E0.9627
G1 X113.057 Y117.420 E0.9663
G1 X86.943 Y117.420 E1.7324
G1 X86.819 Y117.414 E1.7360
G1 X86.259 Y117.359 E1.7525
G1 X86.016 Y117.310 E1.7598
G1 X85.423 Y117.131 E1.7780
G1 X85.194 Y117.036 E1.7852
G1 X84.648 Y116.744 E1.8034
G1 X84.442 Y116.606 E1.8107
G1 X83.962 Y116.213 E1.8289
G1 X83.787 Y116.038 E1.8361
G1 X83.394 Y115.558 E1.8543
G1 X83.256 Y115.352 E1.8616
G1 X82.964 Y114.806 E1.8798
G1 X82.869 Y114.577 E1.8870
G1 X82.690 Y113.984 E1.9052
G1 X82.641 Y113.741 E1.9125
G1 X82.586 Y113.180 E1.9290
G1 X82.580 Y113.056 E1.9327
G1 X82.590 Y86.690 E2.7061
G1 X82.614 Y86.444 E2.7134
G1 X82.735 Y85.835 E2.7316
G1 X82.807 Y85.599 E2.7388
G1 X83.044 Y85.026 E2.7570
G1 X83.161 Y84.808 E2.7643
G1 X83.505 Y84.292 E2.7825
G1 X83.662 Y84.101 E2.7897
G1 X84.125 Y83.638 E2.8089
G1 X84.370 Y83.447 E2.8181
G1 X85.112 Y83.003 E2.8434
G1 X85.394 Y82.878 E2.8525
G1 X86.016 Y82.690 E2.8715
G1 X86.259 Y82.641 E2.8788
G1 X86.819 Y82.586 E2.8953
G1 X86.943 Y82.580 E2.8989
G1 X113.057 Y82.580 E3.6650
G1 X113.181 Y82.586 E3.6686
G1 X113.741 Y82.641 E3.6852
G1 X113.984 Y82.690 E3.6924
G1 X114.577 Y82.869 E3.7106
G1 X114.806 Y82.964 E3.7179
G1 X115.352 Y83.256 E3.7361
G1 X115.558 Y83.394 E3.7433
G1 X116.038 Y83.787 E3.7615
G1 X116.213 Y83.962 E3.7688
G1 X116.606 Y84.442 E3.7870
G1 X116.744 Y84.648 E3.7942
G1 X117.036 Y85.194 E3.8124
G1 X117.131 Y85.423 E3.8197
G1 X117.310 Y86.016 E3.8379
G1 X117.359 Y86.259 E3.8451
G1 X117.414 Y86.819 E3.8616
G1 X117.420 Y86.943 E3.8653
G1 X116.700 Y86.961 F18000
G92 E0.0000
G1 X116.700 Y113.039 E0.7650 F1800
G1 X116.696 Y113.128 E0.7676
G1 X116.646 Y113.635 E0.7826
G1 X116.611 Y113.808 E0.7878
G1 X116.452 Y114.334 E0.8039
G1 X116.384 Y114.497 E0.8091
G1 X116.125 Y114.982 E0.8252
G1 X116.027 Y115.129 E0.8304
