; G-Code generated by Simplify3D(R) Version 4.1.2
; Jun 13, 2020 at 10:47:35 PM
; Settings Summary
;   processName,Process1
;   applyToModels,polster-klemme,polster-klemme(2),polster-klemme(3),polster-klemme(4)
;   profileName,HBot (modified)
;   profileVersion,2019-10-26 23:38:43
;   baseProfile,Default
;   printMaterial,PETG - SUNLU
;   printQuality,Medium
;   printExtruders,
;   extruderName,Extruder 1
;   extruderToolheadNumber,0
;   extruderDiameter,0.4
;   extruderAutoWidth,1
;   extruderWidth,0.48
;   extrusionMultiplier,0.98
;   extruderUseRetract,1
;   extruderRetractionDistance,4
;   extruderExtraRestartDistance,0
;   extruderRetractionZLift,0
;   extruderRetractionSpeed,3600
;   extruderUseCoasting,1
;   extruderCoastingDistance,0.2
;   extruderUseWipe,1
;   extruderWipeDistance,5
;   primaryExtruder,0
;   layerHeight,0.2
;   topSolidLayers,4
;   bottomSolidLayers,4
;   perimeterOutlines,4
;   printPerimetersInsideOut,1
;   startPointOption,3
;   startPointOriginX,200
;   startPointOriginY,100
;   sequentialIslands,0
;   spiralVaseMode,0
;   firstLayerHeightPercentage,100
;   firstLayerWidthPercentage,100
;   firstLayerUnderspeed,0.5
;   useRaft,0
;   raftExtruder,0
;   raftTopLayers,3
;   raftBaseLayers,2
;   raftOffset,3
;   raftSeparationDistance,0.18
;   raftTopInfill,100
;   aboveRaftSpeedMultiplier,0.3
;   useSkirt,1
;   skirtExtruder,0
;   skirtLayers,1
;   skirtOutlines,4
;   skirtOffset,5
;   usePrimePillar,0
;   primePillarExtruder,999
;   primePillarWidth,12
;   primePillarLocation,7
;   primePillarSpeedMultiplier,1
;   useOozeShield,0
;   oozeShieldExtruder,999
;   oozeShieldOffset,0.9
;   oozeShieldOutlines,2
;   oozeShieldSidewallShape,0
;   oozeShieldSidewallAngle,30
;   oozeShieldSpeedMultiplier,1.5
;   infillExtruder,0
;   internalInfillPattern,Rectilinear
;   externalInfillPattern,Rectilinear
;   infillPercentage,20
;   outlineOverlapPercentage,25
;   infillExtrusionWidthPercentage,100
;   minInfillLength,5
;   infillLayerInterval,1
;   internalInfillAngles,45,-45
;   overlapInternalInfillAngles,0
;   externalInfillAngles,45,-45
;   generateSupport,0
;   supportExtruder,0
;   supportInfillPercentage,30
;   supportExtraInflation,0
;   supportBaseLayers,1
;   denseSupportExtruder,0
;   denseSupportLayers,0
;   denseSupportInfillPercentage,70
;   supportLayerInterval,1
;   supportHorizontalPartOffset,0.3
;   supportUpperSeparationLayers,1
;   supportLowerSeparationLayers,1
;   supportType,0
;   supportGridSpacing,4
;   maxOverhangAngle,25
;   supportAngles,0
;   temperatureName,Extruder 1,Heated Bed
;   temperatureNumber,0,1
;   temperatureSetpointCount,2,1
;   temperatureSetpointLayers,1,2,1
;   temperatureSetpointTemperatures,235,225,75
;   temperatureStabilizeAtStartup,1,1
;   temperatureHeatedBed,0,1
;   fanLayers,1,5,10
;   fanSpeeds,0,5,20
;   blipFanToFullPower,1
;   adjustSpeedForCooling,1
;   minSpeedLayerTime,15
;   minCoolingSpeedSlowdown,20
;   increaseFanForCooling,0
;   minFanLayerTime,45
;   maxCoolingFanSpeed,35
;   increaseFanForBridging,1
;   bridgingFanSpeed,85
;   use5D,1
;   relativeEdistances,0
;   allowEaxisZeroing,1
;   independentExtruderAxes,0
;   includeM10123,0
;   stickySupport,1
;   applyToolheadOffsets,0
;   gcodeXoffset,0
;   gcodeYoffset,0
;   gcodeZoffset,0
;   overrideMachineDefinition,1
;   machineTypeOverride,0
;   strokeXoverride,210
;   strokeYoverride,210
;   strokeZoverride,150
;   originOffsetXoverride,0
;   originOffsetYoverride,0
;   originOffsetZoverride,0
;   homeXdirOverride,-1
;   homeYdirOverride,-1
;   homeZdirOverride,-1
;   flipXoverride,1
;   flipYoverride,-1
;   flipZoverride,1
;   toolheadOffsets,0,0|0,0|0,0|0,0|0,0|0,0
;   overrideFirmwareConfiguration,1
;   firmwareTypeOverride,RepRap (Marlin/Repetier/Sprinter)
;   GPXconfigOverride,r2
;   baudRateOverride,115200
;   overridePrinterModels,0
;   printerModelsOverride
;   startingGcode,G28 ; home all axes,G32 ; run bed.g -- probe bed and enable compensation
;   layerChangeGcode,
;   retractionGcode,
;   toolChangeGcode,
;   endingGcode,M0 ; call stop.g
;   exportFileFormat,gcode
;   celebration,0
;   celebrationSong,Random Song
;   postProcessing,
;   defaultSpeed,3600
;   outlineUnderspeed,0.5
;   solidInfillUnderspeed,0.8
;   supportUnderspeed,0.8
;   rapidXYspeed,18000
;   rapidZspeed,1200
;   minBridgingArea,50
;   bridgingExtraInflation,0
;   bridgingExtrusionMultiplier,0.96
;   bridgingSpeedMultiplier,1
;   useFixedBridgingAngle,0
;   fixedBridgingAngle,0
;   applyBridgingToPerimeters,0
;   filamentDiameters,1.75|1.75|1.75|1.75|1.75|1.75
;   filamentPricesPerKg,46|46|46|46|46|46
;   filamentDensities,1.25|1.25|1.25|1.25|1.25|1.25
;   useMinPrintHeight,0
;   minPrintHeight,20
;   useMaxPrintHeight,0
;   maxPrintHeight,15
;   useDiaphragm,0
;   diaphragmLayerInterval,20
;   robustSlicing,1
;   mergeAllIntoSolid,0
;   onlyRetractWhenCrossingOutline,1
;   retractBetweenLayers,0
;   useRetractionMinTravel,1
;   retractionMinTravel,3
;   retractWhileWiping,1
;   onlyWipeOutlines,1
;   avoidCrossingOutline,1
;   maxMovementDetourFactor,5
;   toolChangeRetractionDistance,12
;   toolChangeExtraRestartDistance,-0.5
;   toolChangeRetractionSpeed,600
;   externalThinWallType,0
;   internalThinWallType,2
;   thinWallAllowedOverlapPercentage,10
;   singleExtrusionMinLength,1
;   singleExtrusionMinPrintingWidthPercentage,50
;   singleExtrusionMaxPrintingWidthPercentage,150
;   singleExtrusionEndpointExtension,0.2
;   horizontalSizeCompensation,-0.1
G90
M82
M106 S0
M140 S75
M190 S75
M104 S235 T0
M109 S235 T0
G28 ; home all axes
G32 ; run bed.g -- probe bed and enable compensation
; process Process1
; layer 1, Z = 0.200
T0
G92 E0.0000
G1 E-4.0000 F3600
; feature skirt
; tool H0.200 W0.480
G1 Z0.200 F1200
G1 X133.080 Y70.506 F18000
G1 E0.0000 F3600
G92 E0.0000
G1 X133.080 Y139.409 E2.6951 F1800
G1 X133.064 Y139.737 E2.7079
G1 X132.979 Y140.602 E2.7419
G1 X132.851 Y141.246 E2.7676
G1 X132.552 Y142.230 E2.8078
G1 X132.301 Y142.836 E2.8335
G1 X131.816 Y143.744 E2.8737
G1 X131.451 Y144.289 E2.8994
G1 X130.799 Y145.085 E2.9397
G1 X130.334 Y145.549 E2.9653
G1 X129.539 Y146.201 E3.0056
G1 X128.994 Y146.566 E3.0312
G1 X128.087 Y147.051 E3.0714
G1 X127.480 Y147.302 E3.0971
G1 X126.496 Y147.601 E3.1374
G1 X125.852 Y147.729 E3.1630
G1 X124.987 Y147.814 E3.1970
G1 X124.659 Y147.830 E3.2099
G1 X121.341 Y147.830 E3.3397
G1 X121.013 Y147.814 E3.3525
G1 X120.148 Y147.729 E3.3865
G1 X119.504 Y147.601 E3.4122
G1 X118.437 Y147.277 E3.4558
G1 X117.684 Y146.942 E3.4880
G1 X117.024 Y146.546 E3.5182
G1 X116.994 Y146.566 E3.5196
G1 X116.087 Y147.051 E3.5598
G1 X115.480 Y147.302 E3.5855
G1 X114.496 Y147.601 E3.6257
G1 X113.852 Y147.729 E3.6514
G1 X112.987 Y147.814 E3.6854
G1 X112.659 Y147.830 E3.6982
G1 X109.341 Y147.830 E3.8280
G1 X109.013 Y147.814 E3.8408
G1 X108.148 Y147.729 E3.8748
G1 X107.504 Y147.601 E3.9005
G1 X106.437 Y147.277 E3.9441
G1 X105.684 Y146.942 E3.9764
G1 X105.024 Y146.546 E4.0065
G1 X104.994 Y146.566 E4.0079
G1 X104.087 Y147.051 E4.0481
G1 X103.480 Y147.302 E4.0738
G1 X102.496 Y147.601 E4.1141
G1 X101.852 Y147.729 E4.1397
G1 X100.987 Y147.814 E4.1737
G1 X100.659 Y147.830 E4.1866
G1 X97.341 Y147.830 E4.3163
G1 X97.013 Y147.814 E4.3292
G1 X96.148 Y147.729 E4.3632
G1 X95.504 Y147.601 E4.3889
G1 X94.443 Y147.279 E4.4322
G1 X93.696 Y146.948 E4.4642
G1 X93.023 Y146.546 E4.4948
G1 X92.994 Y146.566 E4.4962
G1 X92.087 Y147.051 E4.5365
G1 X91.480 Y147.302 E4.5621
G1 X90.496 Y147.601 E4.6024
G1 X89.852 Y147.729 E4.6281
G1 X88.987 Y147.814 E4.6621
G1 X88.659 Y147.830 E4.6749
G1 X85.341 Y147.830 E4.8047
G1 X85.013 Y147.814 E4.8175
G1 X84.148 Y147.729 E4.8515
G1 X83.504 Y147.601 E4.8772
G1 X82.443 Y147.279 E4.9206
G1 X81.696 Y146.948 E4.9525
G1 X80.515 Y146.242 E5.0063
G1 X79.865 Y145.735 E5.0386
G1 X79.074 Y144.945 E5.0823
G1 X78.658 Y144.437 E5.1080
G1 X78.089 Y143.586 E5.1480
G1 X77.780 Y143.007 E5.1737
G1 X77.352 Y141.974 E5.2174
G1 X77.132 Y141.178 E5.2497
G1 X76.955 Y139.974 E5.2973
G1 X76.920 Y139.489 E5.3164
G1 X76.920 Y70.591 E8.0112
G1 X76.936 Y70.263 E8.0241
G1 X77.021 Y69.398 E8.0581
G1 X77.149 Y68.754 E8.0837
G1 X77.448 Y67.770 E8.1240
G1 X77.699 Y67.164 E8.1496
G1 X78.184 Y66.256 E8.1899
G1 X78.549 Y65.711 E8.2156
G1 X79.201 Y64.915 E8.2558
G1 X79.665 Y64.451 E8.2815
G1 X80.461 Y63.799 E8.3217
G1 X81.006 Y63.434 E8.3474
G1 X81.988 Y62.909 E8.3909
G1 X82.757 Y62.613 E8.4232
G1 X84.094 Y62.280 E8.4770
G1 X84.895 Y62.181 E8.5086
G1 X88.645 Y62.170 E8.6553
G1 X88.982 Y62.186 E8.6685
G1 X89.852 Y62.271 E8.7027
G1 X90.496 Y62.399 E8.7283
G1 X91.480 Y62.698 E8.7686
G1 X92.086 Y62.949 E8.7943
G1 X93.001 Y63.438 E8.8348
G1 X93.006 Y63.434 E8.8351
G1 X93.988 Y62.909 E8.8786
G1 X94.757 Y62.613 E8.9109
G1 X96.094 Y62.280 E8.9647
G1 X96.895 Y62.181 E8.9963
G1 X100.645 Y62.170 E9.1430
G1 X100.982 Y62.186 E9.1562
G1 X101.852 Y62.271 E9.1904
G1 X102.496 Y62.399 E9.2160
G1 X103.480 Y62.698 E9.2563
G1 X104.086 Y62.949 E9.2820
G1 X105.001 Y63.438 E9.3225
G1 X105.006 Y63.434 E9.3228
G1 X105.988 Y62.909 E9.3663
G1 X106.757 Y62.613 E9.3985
G1 X108.094 Y62.280 E9.4524
G1 X108.895 Y62.181 E9.4840
G1 X112.645 Y62.170 E9.6307
G1 X112.982 Y62.186 E9.6439
G1 X113.852 Y62.271 E9.6781
G1 X114.496 Y62.399 E9.7037
G1 X115.480 Y62.698 E9.7440
G1 X116.087 Y62.949 E9.7696
G1 X116.996 Y63.435 E9.8100
G1 X117.000 Y63.438 E9.8102
G1 X117.006 Y63.434 E9.8105
G1 X117.988 Y62.909 E9.8540
G1 X118.757 Y62.613 E9.8863
G1 X120.094 Y62.280 E9.9401
G1 X120.895 Y62.181 E9.9717
G1 X124.645 Y62.170 E10.1184
G1 X124.982 Y62.186 E10.1316
G1 X125.852 Y62.271 E10.1658
G1 X126.496 Y62.399 E10.1914
G1 X127.480 Y62.698 E10.2317
G1 X128.087 Y62.949 E10.2574
G1 X128.996 Y63.435 E10.2977
G1 X129.542 Y63.800 E10.3234
G1 X130.333 Y64.450 E10.3634
G1 X130.797 Y64.913 E10.3891
G1 X131.502 Y65.773 E10.4326
G1 X131.940 Y66.463 E10.4645
G1 X132.564 Y67.780 E10.5215
G1 X132.852 Y68.725 E10.5602
G1 X133.044 Y70.013 E10.6111
G1 X133.080 Y70.506 E10.6304
G1 X132.600 Y70.523 F18000
G92 E0.0000
G1 X132.600 Y139.397 E2.6939 F1800
G1 X132.585 Y139.701 E2.7058
G1 X132.503 Y140.531 E2.7385
G1 X132.384 Y141.129 E2.7623
G1 X132.100 Y142.068 E2.8007
G1 X131.866 Y142.631 E2.8245
G1 X131.404 Y143.496 E2.8629
G1 X131.065 Y144.003 E2.8867
G1 X130.442 Y144.762 E2.9251
G1 X130.012 Y145.193 E2.9490
G1 X129.253 Y145.815 E2.9873
G1 X128.747 Y146.154 E3.0112
G1 X127.881 Y146.616 E3.0495
G1 X127.318 Y146.850 E3.0734
G1 X126.379 Y147.134 E3.1118
G1 X125.781 Y147.253 E3.1356
G1 X124.951 Y147.335 E3.1682
G1 X124.647 Y147.350 E3.1801
G1 X121.353 Y147.350 E3.3090
G1 X121.049 Y147.335 E3.3209
G1 X120.219 Y147.253 E3.3535
G1 X119.621 Y147.134 E3.3774
G1 X118.605 Y146.826 E3.4189
G1 X117.906 Y146.516 E3.4488
G1 X117.010 Y145.978 E3.4897
G1 X116.747 Y146.154 E3.5021
G1 X115.881 Y146.616 E3.5405
G1 X115.318 Y146.850 E3.5643
G1 X114.379 Y147.134 E3.6027
G1 X113.781 Y147.253 E3.6265
G1 X112.951 Y147.335 E3.6591
G1 X112.647 Y147.350 E3.6710
G1 X109.353 Y147.350 E3.7999
G1 X109.049 Y147.335 E3.8118
G1 X108.219 Y147.253 E3.8444
G1 X107.621 Y147.134 E3.8683
G1 X106.605 Y146.826 E3.9098
G1 X105.906 Y146.516 E3.9397
G1 X105.010 Y145.978 E3.9806
G1 X104.747 Y146.154 E3.9930
G1 X103.881 Y146.616 E4.0314
G1 X103.318 Y146.850 E4.0552
G1 X102.379 Y147.134 E4.0936
G1 X101.781 Y147.253 E4.1174
G1 X100.951 Y147.335 E4.1501
G1 X100.647 Y147.350 E4.1620
G1 X97.353 Y147.350 E4.2908
G1 X97.049 Y147.335 E4.3027
G1 X96.219 Y147.253 E4.3354
G1 X95.621 Y147.134 E4.3592
G1 X94.610 Y146.828 E4.4005
G1 X93.917 Y146.521 E4.4302
G1 X93.009 Y145.978 E4.4715
G1 X92.747 Y146.154 E4.4839
G1 X91.881 Y146.616 E4.5223
G1 X91.318 Y146.850 E4.5461
G1 X90.379 Y147.134 E4.5845
G1 X89.781 Y147.253 E4.6083
G1 X88.951 Y147.335 E4.6409
G1 X88.647 Y147.350 E4.6528
G1 X85.353 Y147.350 E4.7817
G1 X85.049 Y147.335 E4.7936
G1 X84.219 Y147.253 E4.8262
G1 X83.621 Y147.134 E4.8501
G1 X82.610 Y146.828 E4.8914
G1 X81.917 Y146.521 E4.9210
G1 X80.787 Y145.845 E4.9726
G1 X80.183 Y145.375 E5.0025
G1 X79.431 Y144.622 E5.0441
G1 X79.044 Y144.151 E5.0679
G1 X78.501 Y143.339 E5.1061
G1 X78.214 Y142.802 E5.1300
G1 X77.807 Y141.818 E5.1716
G1 X77.603 Y141.079 E5.2016
G1 X77.433 Y139.922 E5.2474
G1 X77.400 Y139.471 E5.2650
G1 X77.400 Y70.603 E7.9587
G1 X77.415 Y70.299 E7.9706
G1 X77.497 Y69.469 E8.0033
G1 X77.616 Y68.871 E8.0271
G1 X77.901 Y67.932 E8.0655
G1 X78.134 Y67.369 E8.0893
G1 X78.596 Y66.503 E8.1277
G1 X78.935 Y65.997 E8.1515
G1 X79.557 Y65.238 E8.1899
G1 X79.988 Y64.807 E8.2138
G1 X80.747 Y64.185 E8.2521
G1 X81.253 Y63.846 E8.2760
G1 X82.188 Y63.347 E8.3174
G1 X82.902 Y63.072 E8.3474
G1 X84.182 Y62.753 E8.3989
G1 X84.925 Y62.660 E8.4282
G1 X88.634 Y62.650 E8.5733
G1 X88.947 Y62.664 E8.5856
G1 X89.781 Y62.747 E8.6184
G1 X90.379 Y62.865 E8.6422
G1 X91.318 Y63.150 E8.6806
G1 X91.881 Y63.384 E8.7044
G1 X92.818 Y63.884 E8.7460
G1 X93.002 Y64.014 E8.7548
G1 X93.253 Y63.846 E8.7666
G1 X94.188 Y63.347 E8.8081
G1 X94.902 Y63.072 E8.8380
G1 X96.182 Y62.753 E8.8896
G1 X96.925 Y62.660 E8.9189
G1 X100.634 Y62.650 E9.0639
G1 X100.947 Y62.664 E9.0762
G1 X101.781 Y62.747 E9.1090
G1 X102.379 Y62.865 E9.1328
G1 X103.318 Y63.150 E9.1712
G1 X103.881 Y63.384 E9.1950
G1 X104.818 Y63.884 E9.2366
G1 X105.002 Y64.014 E9.2454
G1 X105.253 Y63.846 E9.2572
G1 X106.188 Y63.347 E9.2987
G1 X106.902 Y63.072 E9.3286
G1 X108.182 Y62.753 E9.3802
G1 X108.925 Y62.660 E9.4095
G1 X112.634 Y62.650 E9.5546
G1 X112.947 Y62.664 E9.5668
G1 X113.781 Y62.747 E9.5996
G1 X114.379 Y62.865 E9.6234
G1 X115.318 Y63.150 E9.6618
G1 X115.881 Y63.384 E9.6857
G1 X116.749 Y63.848 E9.7242
G1 X117.000 Y64.015 E9.7360
G1 X117.253 Y63.846 E9.7479
G1 X118.188 Y63.347 E9.7893
G1 X118.902 Y63.072 E9.8193
G1 X120.182 Y62.753 E9.8709
G1 X120.925 Y62.660 E9.9002
G1 X124.634 Y62.650 E10.0452
G1 X124.947 Y62.664 E10.0575
G1 X125.781 Y62.747 E10.0903
G1 X126.379 Y62.865 E10.1141
G1 X127.318 Y63.150 E10.1525
G1 X127.881 Y63.384 E10.1763
G1 X128.749 Y63.848 E10.2148
G1 X129.255 Y64.186 E10.2386
G1 X130.010 Y64.806 E10.2768
G1 X130.441 Y65.236 E10.3007
G1 X131.113 Y66.055 E10.3421
G1 X131.519 Y66.695 E10.3717
G1 X132.116 Y67.954 E10.4262
G1 X132.382 Y68.830 E10.4621
G1 X132.566 Y70.067 E10.5109
G1 X132.600 Y70.523 E10.5289
G1 X132.120 Y70.541 F18000
G92 E0.0000
G1 X132.120 Y139.386 E2.6928 F1800
G1 X132.106 Y139.666 E2.7038
G1 X132.028 Y140.461 E2.7350
G1 X131.918 Y141.012 E2.7570
G1 X131.647 Y141.906 E2.7935
G1 X131.432 Y142.425 E2.8155
G1 X130.992 Y143.249 E2.8521
G1 X130.679 Y143.717 E2.8740
G1 X130.086 Y144.439 E2.9106
G1 X129.689 Y144.837 E2.9326
G1 X128.967 Y145.429 E2.9691
G1 X128.500 Y145.741 E2.9911
G1 X127.676 Y146.182 E3.0276
G1 X127.156 Y146.397 E3.0496
G1 X126.262 Y146.668 E3.0862
G1 X125.711 Y146.778 E3.1082
G1 X124.916 Y146.856 E3.1394
G1 X124.635 Y146.870 E3.1504
G1 X121.365 Y146.870 E3.2783
G1 X121.084 Y146.856 E3.2893
G1 X120.289 Y146.778 E3.3206
G1 X119.738 Y146.668 E3.3425
G1 X118.773 Y146.375 E3.3820
G1 X118.127 Y146.089 E3.4096
G1 X116.993 Y145.408 E3.4614
G1 X116.967 Y145.429 E3.4627
G1 X116.500 Y145.741 E3.4847
G1 X115.676 Y146.182 E3.5212
G1 X115.156 Y146.397 E3.5432
G1 X114.262 Y146.668 E3.5798
G1 X113.711 Y146.778 E3.6017
G1 X112.916 Y146.856 E3.6330
G1 X112.635 Y146.870 E3.6440
G1 X109.365 Y146.870 E3.7719
G1 X109.084 Y146.856 E3.7829
G1 X108.289 Y146.778 E3.8141
G1 X107.738 Y146.668 E3.8361
G1 X106.773 Y146.375 E3.8756
G1 X106.127 Y146.089 E3.9032
G1 X104.993 Y145.408 E3.9549
G1 X104.967 Y145.429 E3.9563
G1 X104.500 Y145.741 E3.9782
G1 X103.676 Y146.182 E4.0148
G1 X103.156 Y146.397 E4.0368
G1 X102.262 Y146.668 E4.0733
G1 X101.711 Y146.778 E4.0953
G1 X100.916 Y146.856 E4.1266
G1 X100.635 Y146.870 E4.1375
G1 X97.365 Y146.870 E4.2655
G1 X97.084 Y146.856 E4.2765
G1 X96.289 Y146.778 E4.3077
G1 X95.738 Y146.668 E4.3297
G1 X94.778 Y146.377 E4.3689
G1 X94.138 Y146.094 E4.3963
G1 X93.058 Y145.448 E4.4455
G1 X92.999 Y145.402 E4.4484
G1 X92.967 Y145.429 E4.4501
G1 X92.500 Y145.741 E4.4720
G1 X91.676 Y146.182 E4.5086
G1 X91.156 Y146.397 E4.5306
G1 X90.262 Y146.668 E4.5671
G1 X89.711 Y146.778 E4.5891
G1 X88.916 Y146.856 E4.6204
G1 X88.635 Y146.870 E4.6313
G1 X85.365 Y146.870 E4.7593
