; G-Code generated by Simplify3D(R) Version 4.1.2
; Jun 13, 2020 at 7:17:00 PM
; Settings Summary
;   processName,Process1
;   applyToModels,halterung-oben-v2
;   profileName,HBot (modified)
;   profileVersion,2019-10-26 23:38:43
;   baseProfile,Default
;   printMaterial,PETG - SUNLU
;   printQuality,Medium
;   printExtruders,
;   extruderName,Extruder 1
;   extruderToolheadNumber,0
;   extruderDiameter,0.4
;   extruderAutoWidth,1
;   extruderWidth,0.48
;   extrusionMultiplier,0.98
;   extruderUseRetract,1
;   extruderRetractionDistance,4
;   extruderExtraRestartDistance,0
;   extruderRetractionZLift,0
;   extruderRetractionSpeed,3600
;   extruderUseCoasting,1
;   extruderCoastingDistance,0.2
;   extruderUseWipe,1
;   extruderWipeDistance,5
;   primaryExtruder,0
;   layerHeight,0.2
;   topSolidLayers,4
;   bottomSolidLayers,4
;   perimeterOutlines,4
;   printPerimetersInsideOut,1
;   startPointOption,3
;   startPointOriginX,200
;   startPointOriginY,100
;   sequentialIslands,0
;   spiralVaseMode,0
;   firstLayerHeightPercentage,100
;   firstLayerWidthPercentage,100
;   firstLayerUnderspeed,0.5
;   useRaft,0
;   raftExtruder,0
;   raftTopLayers,3
;   raftBaseLayers,2
;   raftOffset,3
;   raftSeparationDistance,0.18
;   raftTopInfill,100
;   aboveRaftSpeedMultiplier,0.3
;   useSkirt,1
;   skirtExtruder,0
;   skirtLayers,1
;   skirtOutlines,4
;   skirtOffset,5
;   usePrimePillar,0
;   primePillarExtruder,999
;   primePillarWidth,12
;   primePillarLocation,7
;   primePillarSpeedMultiplier,1
;   useOozeShield,0
;   oozeShieldExtruder,999
;   oozeShieldOffset,0.9
;   oozeShieldOutlines,2
;   oozeShieldSidewallShape,0
;   oozeShieldSidewallAngle,30
;   oozeShieldSpeedMultiplier,1.5
;   infillExtruder,0
;   internalInfillPattern,Rectilinear
;   externalInfillPattern,Rectilinear
;   infillPercentage,20
;   outlineOverlapPercentage,25
;   infillExtrusionWidthPercentage,100
;   minInfillLength,5
;   infillLayerInterval,1
;   internalInfillAngles,45,-45
;   overlapInternalInfillAngles,0
;   externalInfillAngles,45,-45
;   generateSupport,0
;   supportExtruder,0
;   supportInfillPercentage,30
;   supportExtraInflation,0
;   supportBaseLayers,1
;   denseSupportExtruder,0
;   denseSupportLayers,0
;   denseSupportInfillPercentage,70
;   supportLayerInterval,1
;   supportHorizontalPartOffset,0.3
;   supportUpperSeparationLayers,1
;   supportLowerSeparationLayers,1
;   supportType,0
;   supportGridSpacing,4
;   maxOverhangAngle,25
;   supportAngles,0
;   temperatureName,Extruder 1,Heated Bed
;   temperatureNumber,0,1
;   temperatureSetpointCount,2,1
;   temperatureSetpointLayers,1,2,1
;   temperatureSetpointTemperatures,235,225,75
;   temperatureStabilizeAtStartup,1,1
;   temperatureHeatedBed,0,1
;   fanLayers,1,5,10
;   fanSpeeds,0,5,20
;   blipFanToFullPower,1
;   adjustSpeedForCooling,1
;   minSpeedLayerTime,15
;   minCoolingSpeedSlowdown,20
;   increaseFanForCooling,0
;   minFanLayerTime,45
;   maxCoolingFanSpeed,35
;   increaseFanForBridging,1
;   bridgingFanSpeed,85
;   use5D,1
;   relativeEdistances,0
;   allowEaxisZeroing,1
;   independentExtruderAxes,0
;   includeM10123,0
;   stickySupport,1
;   applyToolheadOffsets,0
;   gcodeXoffset,0
;   gcodeYoffset,0
;   gcodeZoffset,0
;   overrideMachineDefinition,1
;   machineTypeOverride,0
;   strokeXoverride,200
;   strokeYoverride,200
;   strokeZoverride,150
;   originOffsetXoverride,0
;   originOffsetYoverride,0
;   originOffsetZoverride,0
;   homeXdirOverride,-1
;   homeYdirOverride,-1
;   homeZdirOverride,-1
;   flipXoverride,1
;   flipYoverride,-1
;   flipZoverride,1
;   toolheadOffsets,0,0|0,0|0,0|0,0|0,0|0,0
;   overrideFirmwareConfiguration,1
;   firmwareTypeOverride,RepRap (Marlin/Repetier/Sprinter)
;   GPXconfigOverride,r2
;   baudRateOverride,115200
;   overridePrinterModels,0
;   printerModelsOverride
;   startingGcode,G28 ; home all axes,G32 ; run bed.g -- probe bed and enable compensation
;   layerChangeGcode,
;   retractionGcode,
;   toolChangeGcode,
;   endingGcode,M0 ; call stop.g
;   exportFileFormat,gcode
;   celebration,0
;   celebrationSong,Random Song
;   postProcessing,
;   defaultSpeed,3600
;   outlineUnderspeed,0.5
;   solidInfillUnderspeed,0.8
;   supportUnderspeed,0.8
;   rapidXYspeed,18000
;   rapidZspeed,1200
;   minBridgingArea,50
;   bridgingExtraInflation,0
;   bridgingExtrusionMultiplier,0.96
;   bridgingSpeedMultiplier,1
;   useFixedBridgingAngle,0
;   fixedBridgingAngle,0
;   applyBridgingToPerimeters,0
;   filamentDiameters,1.75|1.75|1.75|1.75|1.75|1.75
;   filamentPricesPerKg,46|46|46|46|46|46
;   filamentDensities,1.25|1.25|1.25|1.25|1.25|1.25
;   useMinPrintHeight,0
;   minPrintHeight,20
;   useMaxPrintHeight,0
;   maxPrintHeight,15
;   useDiaphragm,0
;   diaphragmLayerInterval,20
;   robustSlicing,1
;   mergeAllIntoSolid,0
;   onlyRetractWhenCrossingOutline,1
;   retractBetweenLayers,0
;   useRetractionMinTravel,1
;   retractionMinTravel,3
;   retractWhileWiping,1
;   onlyWipeOutlines,1
;   avoidCrossingOutline,1
;   maxMovementDetourFactor,5
;   toolChangeRetractionDistance,12
;   toolChangeExtraRestartDistance,-0.5
;   toolChangeRetractionSpeed,600
;   externalThinWallType,0
;   internalThinWallType,2
;   thinWallAllowedOverlapPercentage,10
;   singleExtrusionMinLength,1
;   singleExtrusionMinPrintingWidthPercentage,50
;   singleExtrusionMaxPrintingWidthPercentage,150
;   singleExtrusionEndpointExtension,0.2
;   horizontalSizeCompensation,-0.1
G90
M82
M106 S0
M140 S75
M190 S75
M104 S235 T0
M109 S235 T0
G28 ; home all axes
G32 ; run bed.g -- probe bed and enable compensation
; process Process1
; layer 1, Z = 0.200
T0
G92 E0.0000
G1 E-4.0000 F3600
; feature skirt
; tool H0.200 W0.480
G1 Z0.200 F1200
G1 X185.384 Y103.448 F18000
G1 E0.0000 F3600
G92 E0.0000
G1 X181.799 Y111.199 E0.3340 F1800
G1 X18.209 Y111.199 E6.7327
G1 X14.616 Y103.470 E7.0660
G1 X17.233 Y100.367 E7.2248
G1 X17.244 Y100.347 E7.2257
G1 X17.271 Y100.281 E7.2285
G1 X17.293 Y100.212 E7.2313
G1 X17.308 Y100.142 E7.2341
G1 X17.317 Y100.071 E7.2369
G1 X17.321 Y100.000 E7.2397
G1 X17.317 Y99.929 E7.2425
G1 X17.308 Y99.858 E7.2453
G1 X17.293 Y99.788 E7.2481
G1 X17.271 Y99.719 E7.2509
G1 X17.244 Y99.653 E7.2537
G1 X17.233 Y99.633 E7.2546
G1 X14.618 Y96.555 E7.4126
G1 X18.192 Y88.809 E7.7462
G1 X24.871 Y88.796 E8.0074
G1 X25.248 Y88.877 E8.0225
G1 X25.429 Y88.885 E8.0296
G1 X26.574 Y89.163 E8.0757
G1 X27.310 Y89.436 E8.1064
G1 X28.525 Y90.058 E8.1598
G1 X29.280 Y90.586 E8.1958
G1 X30.133 Y91.377 E8.2414
G1 X30.565 Y91.866 E8.2669
G1 X30.914 Y92.347 E8.2901
G1 X31.251 Y92.728 E8.3100
G1 X31.687 Y93.164 E8.3341
G1 X32.150 Y93.572 E8.3583
G1 X32.638 Y93.950 E8.3824
G1 X33.148 Y94.296 E8.4065
G1 X33.679 Y94.610 E8.4306
G1 X34.228 Y94.890 E8.4548
G1 X34.795 Y95.135 E8.4789
G1 X35.375 Y95.343 E8.5030
G1 X35.967 Y95.515 E8.5271
G1 X36.569 Y95.650 E8.5512
G1 X37.178 Y95.746 E8.5754
G1 X37.792 Y95.804 E8.5995
G1 X37.963 Y95.810 E8.6062
G1 X162.310 Y95.795 E13.4699
G1 X162.821 Y95.746 E13.4900
G1 X163.431 Y95.650 E13.5141
G1 X164.033 Y95.515 E13.5382
G1 X164.625 Y95.343 E13.5623
G1 X165.205 Y95.135 E13.5865
G1 X165.771 Y94.890 E13.6106
G1 X166.321 Y94.610 E13.6347
G1 X166.852 Y94.296 E13.6588
G1 X167.362 Y93.950 E13.6830
G1 X167.850 Y93.572 E13.7071
G1 X168.312 Y93.164 E13.7312
G1 X168.749 Y92.728 E13.7554
G1 X169.085 Y92.347 E13.7752
G1 X169.435 Y91.866 E13.7985
G1 X169.867 Y91.378 E13.8240
G1 X170.727 Y90.580 E13.8699
G1 X171.489 Y90.048 E13.9062
G1 X172.763 Y89.400 E13.9621
G1 X173.637 Y89.098 E13.9983
G1 X174.849 Y88.860 E14.0466
G1 X175.501 Y88.797 E14.0722
G1 X181.800 Y88.809 E14.3186
G1 X185.381 Y96.533 E14.6516
G1 X182.767 Y99.633 E14.8102
G1 X182.756 Y99.653 E14.8111
G1 X182.729 Y99.719 E14.8139
G1 X182.707 Y99.787 E14.8167
G1 X182.692 Y99.857 E14.8195
G1 X182.683 Y99.929 E14.8223
G1 X182.679 Y100.000 E14.8251
G1 X182.683 Y100.071 E14.8279
G1 X182.692 Y100.143 E14.8307
G1 X182.707 Y100.212 E14.8335
G1 X182.729 Y100.280 E14.8363
G1 X182.756 Y100.347 E14.8391
G1 X182.767 Y100.367 E14.8400
G1 X185.384 Y103.448 E14.9982
G1 X184.820 Y103.525 F18000
G92 E0.0000
G1 X181.492 Y110.719 E0.3100 F1800
G1 X18.515 Y110.719 E6.6847
G1 X15.181 Y103.546 E6.9941
G1 X17.634 Y100.636 E7.1430
G1 X17.679 Y100.550 E7.1468
G1 X17.723 Y100.445 E7.1512
G1 X17.757 Y100.337 E7.1556
G1 X17.781 Y100.226 E7.1601
G1 X17.796 Y100.113 E7.1645
G1 X17.801 Y100.000 E7.1690
G1 X17.796 Y99.887 E7.1734
G1 X17.781 Y99.774 E7.1778
G1 X17.757 Y99.663 E7.1823
G1 X17.723 Y99.555 E7.1867
G1 X17.679 Y99.450 E7.1912
G1 X17.634 Y99.363 E7.1950
G1 X15.182 Y96.477 E7.3431
G1 X18.500 Y89.288 E7.6528
G1 X24.820 Y89.276 E7.9000
G1 X25.186 Y89.354 E7.9146
G1 X25.360 Y89.362 E7.9214
G1 X26.433 Y89.623 E7.9646
G1 X27.117 Y89.876 E7.9932
G1 X28.277 Y90.470 E8.0441
G1 X28.978 Y90.960 E8.0776
G1 X29.789 Y91.713 E8.1209
G1 X30.191 Y92.166 E8.1446
G1 X30.539 Y92.647 E8.1678
G1 X30.901 Y93.057 E8.1892
G1 X31.359 Y93.514 E8.2145
G1 X31.844 Y93.942 E8.2398
G1 X32.355 Y94.338 E8.2651
G1 X32.891 Y94.702 E8.2904
G1 X33.448 Y95.031 E8.3157
G1 X34.024 Y95.324 E8.3410
G1 X34.618 Y95.581 E8.3663
G1 X35.227 Y95.800 E8.3916
G1 X35.848 Y95.980 E8.4169
G1 X36.479 Y96.122 E8.4422
G1 X37.118 Y96.223 E8.4675
G1 X37.762 Y96.284 E8.4928
G1 X37.955 Y96.290 E8.5004
G1 X162.333 Y96.275 E13.3653
G1 X162.882 Y96.223 E13.3868
G1 X163.521 Y96.121 E13.4121
G1 X164.152 Y95.981 E13.4374
G1 X164.773 Y95.800 E13.4627
G1 X165.382 Y95.581 E13.4880
G1 X165.976 Y95.324 E13.5133
G1 X166.552 Y95.031 E13.5386
G1 X167.109 Y94.702 E13.5640
G1 X167.644 Y94.338 E13.5892
G1 X168.156 Y93.942 E13.6146
G1 X168.641 Y93.514 E13.6399
G1 X169.099 Y93.057 E13.6652
G1 X169.461 Y92.647 E13.6865
G1 X169.809 Y92.166 E13.7098
G1 X170.211 Y91.713 E13.7335
G1 X171.029 Y90.954 E13.7771
G1 X171.736 Y90.460 E13.8108
G1 X172.951 Y89.842 E13.8642
G1 X173.762 Y89.563 E13.8977
G1 X174.918 Y89.335 E13.9438
G1 X175.524 Y89.277 E13.9676
G1 X181.493 Y89.288 E14.2011
G1 X184.817 Y96.457 E14.5102
G1 X182.366 Y99.364 E14.6589
G1 X182.321 Y99.450 E14.6627
G1 X182.277 Y99.555 E14.6671
G1 X182.243 Y99.663 E14.6716
G1 X182.219 Y99.774 E14.6760
G1 X182.204 Y99.887 E14.6805
G1 X182.199 Y100.000 E14.6849
G1 X182.204 Y100.113 E14.6893
G1 X182.219 Y100.226 E14.6938
G1 X182.243 Y100.337 E14.6982
G1 X182.277 Y100.445 E14.7026
G1 X182.321 Y100.550 E14.7071
G1 X182.366 Y100.637 E14.7109
G1 X184.820 Y103.525 E14.8592
G1 X184.255 Y103.602 F18000
G92 E0.0000
G1 X181.185 Y110.239 E0.2860 F1800
G1 X18.821 Y110.239 E6.6367
G1 X15.745 Y103.621 E6.9222
G1 X18.029 Y100.912 E7.0607
G1 X18.043 Y100.891 E7.0617
G1 X18.115 Y100.753 E7.0678
G1 X18.174 Y100.609 E7.0739
G1 X18.221 Y100.461 E7.0800
G1 X18.254 Y100.309 E7.0861
G1 X18.275 Y100.155 E7.0921
G1 X18.281 Y100.000 E7.0982
G1 X18.275 Y99.845 E7.1043
G1 X18.254 Y99.691 E7.1104
G1 X18.221 Y99.539 E7.1165
G1 X18.174 Y99.391 E7.1225
G1 X18.115 Y99.247 E7.1286
G1 X18.042 Y99.107 E7.1348
G1 X18.029 Y99.087 E7.1357
G1 X15.747 Y96.400 E7.2736
G1 X18.807 Y89.768 E7.5593
G1 X24.770 Y89.756 E7.7925
G1 X25.124 Y89.832 E7.8067
G1 X25.292 Y89.840 E7.8133
G1 X26.293 Y90.082 E7.8535
G1 X26.923 Y90.316 E7.8799
G1 X28.029 Y90.882 E7.9285
G1 X28.676 Y91.334 E7.9593
G1 X29.446 Y92.049 E8.0004
G1 X29.816 Y92.467 E8.0222
G1 X30.164 Y92.947 E8.0454
G1 X30.551 Y93.386 E8.0683
G1 X31.030 Y93.865 E8.0948
G1 X31.538 Y94.312 E8.1213
G1 X32.073 Y94.727 E8.1478
G1 X32.634 Y95.107 E8.1743
G1 X33.216 Y95.452 E8.2007
G1 X33.820 Y95.759 E8.2272
G1 X34.441 Y96.028 E8.2537
G1 X35.078 Y96.257 E8.2802
G1 X35.729 Y96.446 E8.3067
G1 X36.389 Y96.593 E8.3332
G1 X37.058 Y96.699 E8.3596
G1 X37.732 Y96.763 E8.3861
G1 X37.948 Y96.770 E8.3946
G1 X162.356 Y96.755 E13.2606
G1 X162.942 Y96.699 E13.2837
G1 X163.611 Y96.593 E13.3102
G1 X164.271 Y96.446 E13.3366
G1 X164.922 Y96.257 E13.3631
G1 X165.559 Y96.028 E13.3896
G1 X166.180 Y95.759 E13.4161
G1 X166.783 Y95.452 E13.4426
G1 X167.367 Y95.107 E13.4691
G1 X167.926 Y94.727 E13.4955
G1 X168.462 Y94.312 E13.5220
G1 X168.970 Y93.865 E13.5485
G1 X169.449 Y93.386 E13.5750
G1 X169.836 Y92.948 E13.5979
G1 X170.184 Y92.467 E13.6211
G1 X170.554 Y92.049 E13.6429
G1 X171.331 Y91.329 E13.6843
G1 X171.983 Y90.873 E13.7155
G1 X173.139 Y90.285 E13.7662
G1 X173.887 Y90.027 E13.7971
G1 X174.988 Y89.811 E13.8410
G1 X175.546 Y89.757 E13.8630
G1 X181.186 Y89.768 E14.0836
G1 X184.253 Y96.381 E14.3687
G1 X181.971 Y99.088 E14.5072
G1 X181.957 Y99.109 E14.5082
G1 X181.885 Y99.247 E14.5142
G1 X181.826 Y99.391 E14.5203
G1 X181.779 Y99.539 E14.5264
G1 X181.746 Y99.691 E14.5325
G1 X181.725 Y99.845 E14.5386
G1 X181.719 Y100.000 E14.5446
G1 X181.725 Y100.155 E14.5507
G1 X181.746 Y100.309 E14.5568
G1 X181.779 Y100.461 E14.5629
G1 X181.826 Y100.609 E14.5689
G1 X181.885 Y100.753 E14.5750
G1 X181.958 Y100.893 E14.5812
G1 X181.971 Y100.913 E14.5822
G1 X184.255 Y103.602 E14.7201
G1 X183.691 Y103.679 F18000
G92 E0.0000
G1 X180.878 Y109.759 E0.2620 F1800
G1 X19.127 Y109.759 E6.5887
G1 X16.309 Y103.696 E6.8502
G1 X18.417 Y101.197 E6.9781
G1 X18.459 Y101.131 E6.9812
G1 X18.550 Y100.956 E6.9889
G1 X18.626 Y100.774 E6.9966
G1 X18.685 Y100.585 E7.0043
G1 X18.728 Y100.393 E7.0120
G1 X18.753 Y100.197 E7.0198
G1 X18.762 Y100.000 E7.0275
G1 X18.753 Y99.803 E7.0352
G1 X18.728 Y99.607 E7.0429
G1 X18.685 Y99.415 E7.0506
G1 X18.626 Y99.226 E7.0583
G1 X18.550 Y99.044 E7.0661
G1 X18.458 Y98.867 E7.0739
G1 X18.416 Y98.801 E7.0769
G1 X16.311 Y96.323 E7.2041
G1 X19.115 Y90.247 E7.4658
G1 X24.720 Y90.236 E7.6851
G1 X25.062 Y90.309 E7.6988
G1 X25.223 Y90.317 E7.7051
G1 X26.152 Y90.542 E7.7425
G1 X26.730 Y90.757 E7.7666
G1 X27.781 Y91.294 E7.8128
G1 X28.373 Y91.709 E7.8410
G1 X29.102 Y92.385 E7.8799
G1 X29.441 Y92.768 E7.8999
G1 X29.789 Y93.248 E7.9231
G1 X30.201 Y93.715 E7.9475
G1 X30.702 Y94.215 E7.9751
G1 X31.232 Y94.682 E8.0028
G1 X31.791 Y95.115 E8.0304
G1 X32.376 Y95.513 E8.0581
G1 X32.985 Y95.873 E8.0858
G1 X33.615 Y96.193 E8.1134
G1 X34.265 Y96.474 E8.1411
G1 X34.930 Y96.714 E8.1688
G1 X35.609 Y96.911 E8.1964
G1 X36.299 Y97.065 E8.2241
G1 X36.998 Y97.176 E8.2517
G1 X37.702 Y97.242 E8.2794
G1 X37.940 Y97.250 E8.2887
G1 X162.378 Y97.235 E13.1560
G1 X163.002 Y97.176 E13.1805
G1 X163.701 Y97.065 E13.2082
G1 X164.391 Y96.911 E13.2358
G1 X165.070 Y96.714 E13.2635
G1 X165.736 Y96.474 E13.2911
G1 X166.385 Y96.194 E13.3188
G1 X167.015 Y95.873 E13.3465
G1 X167.624 Y95.513 E13.3741
G1 X168.209 Y95.116 E13.4018
G1 X168.768 Y94.682 E13.4295
G1 X169.298 Y94.215 E13.4571
G1 X169.799 Y93.715 E13.4848
G1 X170.211 Y93.248 E13.5091
G1 X170.559 Y92.768 E13.5323
G1 X170.898 Y92.385 E13.5523
G1 X171.633 Y91.703 E13.5916
G1 X172.231 Y91.286 E13.6201
G1 X173.327 Y90.728 E13.6682
G1 X174.012 Y90.492 E13.6965
G1 X175.057 Y90.286 E13.7382
G1 X175.569 Y90.237 E13.7583
G1 X180.880 Y90.247 E13.9660
G1 X183.689 Y96.306 E14.2272
G1 X181.583 Y98.803 E14.3550
G1 X181.541 Y98.869 E14.3580
G1 X181.450 Y99.044 E14.3658
G1 X181.374 Y99.226 E14.3735
G1 X181.315 Y99.415 E14.3812
G1 X181.272 Y99.607 E14.3889
G1 X181.247 Y99.803 E14.3966
G1 X181.238 Y100.000 E14.4044
G1 X181.247 Y100.197 E14.4121
G1 X181.272 Y100.393 E14.4198
G1 X181.315 Y100.585 E14.4275
G1 X181.374 Y100.774 E14.4352
G1 X181.450 Y100.956 E14.4429
G1 X181.542 Y101.133 E14.4508
G1 X181.584 Y101.199 E14.4538
G1 X183.691 Y103.679 E14.5811
G92 E0.0000
G1 E-4.0000 F3600
; feature inner perimeter
G1 X177.048 Y104.279 F18000
G1 X176.791 Y103.873
G1 X176.661 Y103.625
G1 X57.829 Y102.715
G1 X38.203 Y102.714
G1 X37.860 Y102.730
G1 X37.358 Y102.714
G1 X36.311 Y102.615
G1 X35.880 Y102.547
G1 X30.765 Y102.508
G1 E0.0000 F3600
G92 E0.0000
G1 X30.686 Y102.839 E0.0133 F1350
G1 X25.230 Y102.839 E0.2267
G1 X25.375 Y102.378 E0.2456
G1 X25.549 Y101.596 E0.2770
G1 X25.654 Y100.801 E0.3083
G1 X25.689 Y100.000 E0.3397
G1 X25.644 Y98.982 E0.3795
G1 X26.821 Y100.019 E0.4409
G1 X27.724 Y100.718 E0.4856
G1 X28.668 Y101.360 E0.5302
G1 X29.652 Y101.941 E0.5749
G1 X30.587 Y102.417 E0.6160
G1 X30.765 Y102.508 F1350
G1 X35.632 Y102.508 F18000
G1 X36.311 Y102.615
G1 X37.358 Y102.714
G1 X37.860 Y102.730
G1 X38.203 Y102.714
G1 X161.592 Y102.721
G1 X162.638 Y102.714
G1 X163.689 Y102.615
G1 X164.368 Y102.508
