; G-Code generated by Simplify3D(R) Version 4.1.2
; Jun 13, 2020 at 10:41:59 PM
; Settings Summary
;   processName,Process1
;   applyToModels,polster-halter
;   profileName,HBot (modified)
;   profileVersion,2019-10-26 23:38:43
;   baseProfile,Default
;   printMaterial,PETG - SUNLU
;   printQuality,Medium
;   printExtruders,
;   extruderName,Extruder 1
;   extruderToolheadNumber,0
;   extruderDiameter,0.4
;   extruderAutoWidth,1
;   extruderWidth,0.48
;   extrusionMultiplier,0.98
;   extruderUseRetract,1
;   extruderRetractionDistance,4
;   extruderExtraRestartDistance,0
;   extruderRetractionZLift,0
;   extruderRetractionSpeed,3600
;   extruderUseCoasting,1
;   extruderCoastingDistance,0.2
;   extruderUseWipe,1
;   extruderWipeDistance,5
;   primaryExtruder,0
;   layerHeight,0.2
;   topSolidLayers,4
;   bottomSolidLayers,4
;   perimeterOutlines,4
;   printPerimetersInsideOut,1
;   startPointOption,3
;   startPointOriginX,200
;   startPointOriginY,100
;   sequentialIslands,0
;   spiralVaseMode,0
;   firstLayerHeightPercentage,100
;   firstLayerWidthPercentage,100
;   firstLayerUnderspeed,0.5
;   useRaft,0
;   raftExtruder,0
;   raftTopLayers,3
;   raftBaseLayers,2
;   raftOffset,3
;   raftSeparationDistance,0.18
;   raftTopInfill,100
;   aboveRaftSpeedMultiplier,0.3
;   useSkirt,0
;   skirtExtruder,0
;   skirtLayers,1
;   skirtOutlines,4
;   skirtOffset,5
;   usePrimePillar,0
;   primePillarExtruder,999
;   primePillarWidth,12
;   primePillarLocation,7
;   primePillarSpeedMultiplier,1
;   useOozeShield,0
;   oozeShieldExtruder,999
;   oozeShieldOffset,0.9
;   oozeShieldOutlines,2
;   oozeShieldSidewallShape,0
;   oozeShieldSidewallAngle,30
;   oozeShieldSpeedMultiplier,1.5
;   infillExtruder,0
;   internalInfillPattern,Rectilinear
;   externalInfillPattern,Rectilinear
;   infillPercentage,20
;   outlineOverlapPercentage,25
;   infillExtrusionWidthPercentage,100
;   minInfillLength,5
;   infillLayerInterval,1
;   internalInfillAngles,45,-45
;   overlapInternalInfillAngles,0
;   externalInfillAngles,45,-45
;   generateSupport,0
;   supportExtruder,0
;   supportInfillPercentage,30
;   supportExtraInflation,0
;   supportBaseLayers,1
;   denseSupportExtruder,0
;   denseSupportLayers,0
;   denseSupportInfillPercentage,70
;   supportLayerInterval,1
;   supportHorizontalPartOffset,0.3
;   supportUpperSeparationLayers,1
;   supportLowerSeparationLayers,1
;   supportType,0
;   supportGridSpacing,4
;   maxOverhangAngle,25
;   supportAngles,0
;   temperatureName,Extruder 1,Heated Bed
;   temperatureNumber,0,1
;   temperatureSetpointCount,2,1
;   temperatureSetpointLayers,1,2,1
;   temperatureSetpointTemperatures,235,225,75
;   temperatureStabilizeAtStartup,1,1
;   temperatureHeatedBed,0,1
;   fanLayers,1,5,10
;   fanSpeeds,0,5,20
;   blipFanToFullPower,1
;   adjustSpeedForCooling,1
;   minSpeedLayerTime,15
;   minCoolingSpeedSlowdown,20
;   increaseFanForCooling,0
;   minFanLayerTime,45
;   maxCoolingFanSpeed,35
;   increaseFanForBridging,1
;   bridgingFanSpeed,85
;   use5D,1
;   relativeEdistances,0
;   allowEaxisZeroing,1
;   independentExtruderAxes,0
;   includeM10123,0
;   stickySupport,1
;   applyToolheadOffsets,0
;   gcodeXoffset,0
;   gcodeYoffset,0
;   gcodeZoffset,0
;   overrideMachineDefinition,1
;   machineTypeOverride,0
;   strokeXoverride,210
;   strokeYoverride,210
;   strokeZoverride,150
;   originOffsetXoverride,0
;   originOffsetYoverride,0
;   originOffsetZoverride,0
;   homeXdirOverride,-1
;   homeYdirOverride,-1
;   homeZdirOverride,-1
;   flipXoverride,1
;   flipYoverride,-1
;   flipZoverride,1
;   toolheadOffsets,0,0|0,0|0,0|0,0|0,0|0,0
;   overrideFirmwareConfiguration,1
;   firmwareTypeOverride,RepRap (Marlin/Repetier/Sprinter)
;   GPXconfigOverride,r2
;   baudRateOverride,115200
;   overridePrinterModels,0
;   printerModelsOverride
;   startingGcode,G28 ; home all axes,G32 ; run bed.g -- probe bed and enable compensation
;   layerChangeGcode,
;   retractionGcode,
;   toolChangeGcode,
;   endingGcode,M0 ; call stop.g
;   exportFileFormat,gcode
;   celebration,0
;   celebrationSong,Random Song
;   postProcessing,
;   defaultSpeed,3600
;   outlineUnderspeed,0.5
;   solidInfillUnderspeed,0.8
;   supportUnderspeed,0.8
;   rapidXYspeed,18000
;   rapidZspeed,1200
;   minBridgingArea,50
;   bridgingExtraInflation,0
;   bridgingExtrusionMultiplier,0.96
;   bridgingSpeedMultiplier,1
;   useFixedBridgingAngle,0
;   fixedBridgingAngle,0
;   applyBridgingToPerimeters,0
;   filamentDiameters,1.75|1.75|1.75|1.75|1.75|1.75
;   filamentPricesPerKg,46|46|46|46|46|46
;   filamentDensities,1.25|1.25|1.25|1.25|1.25|1.25
;   useMinPrintHeight,0
;   minPrintHeight,20
;   useMaxPrintHeight,0
;   maxPrintHeight,15
;   useDiaphragm,0
;   diaphragmLayerInterval,20
;   robustSlicing,1
;   mergeAllIntoSolid,0
;   onlyRetractWhenCrossingOutline,1
;   retractBetweenLayers,0
;   useRetractionMinTravel,1
;   retractionMinTravel,3
;   retractWhileWiping,1
;   onlyWipeOutlines,1
;   avoidCrossingOutline,1
;   maxMovementDetourFactor,5
;   toolChangeRetractionDistance,12
;   toolChangeExtraRestartDistance,-0.5
;   toolChangeRetractionSpeed,600
;   externalThinWallType,0
;   internalThinWallType,2
;   thinWallAllowedOverlapPercentage,10
;   singleExtrusionMinLength,1
;   singleExtrusionMinPrintingWidthPercentage,50
;   singleExtrusionMaxPrintingWidthPercentage,150
;   singleExtrusionEndpointExtension,0.2
;   horizontalSizeCompensation,-0.1
G90
M82
M106 S0
M140 S75
M190 S75
M104 S235 T0
M109 S235 T0
G28 ; home all axes
G32 ; run bed.g -- probe bed and enable compensation
; process Process1
; layer 1, Z = 0.200
T0
G92 E0.0000
G1 E-4.0000 F3600
; feature inner perimeter
; tool H0.200 W0.480
G1 Z0.200 F1200
G1 X204.808 Y84.777 F18000
G1 E0.0000 F3600
G92 E0.0000
G1 X205.192 Y84.777 E0.0150 F1350
G1 X205.573 Y84.739 E0.0300
G1 X205.948 Y84.662 E0.0450
G1 X206.314 Y84.547 E0.0599
G1 X206.666 Y84.396 E0.0749
G1 X207.001 Y84.210 E0.0899
G1 X207.315 Y83.991 E0.1049
G1 X207.606 Y83.741 E0.1199
G1 X208.220 Y83.095 E0.1547
G1 X208.220 Y126.905 E1.8683
G1 X207.606 Y126.259 E1.9032
G1 X207.315 Y126.009 E1.9181
G1 X207.001 Y125.790 E1.9331
G1 X206.666 Y125.604 E1.9481
G1 X206.314 Y125.453 E1.9631
G1 X205.948 Y125.338 E1.9781
G1 X205.573 Y125.261 E1.9931
G1 X205.192 Y125.223 E2.0081
G1 X204.808 Y125.223 E2.0230
G1 X204.427 Y125.261 E2.0380
G1 X204.052 Y125.338 E2.0530
G1 X203.686 Y125.453 E2.0680
G1 X203.334 Y125.604 E2.0830
G1 X202.999 Y125.790 E2.0980
G1 X202.685 Y126.009 E2.1130
G1 X202.394 Y126.259 E2.1279
G1 X202.130 Y126.536 E2.1429
G1 X201.896 Y126.839 E2.1579
G1 X201.693 Y127.164 E2.1729
G1 X201.524 Y127.508 E2.1879
G1 X201.391 Y127.868 E2.2029
G1 X201.295 Y128.239 E2.2179
G1 X201.237 Y128.617 E2.2329
G1 X201.218 Y129.000 E2.2478
G1 X201.237 Y129.383 E2.2628
G1 X201.295 Y129.761 E2.2778
G1 X201.414 Y130.220 E2.2963
G1 X177.336 Y130.220 E3.2381
G1 X177.455 Y129.761 E3.2566
G1 X177.513 Y129.383 E3.2716
G1 X177.532 Y129.000 E3.2866
G1 X177.513 Y128.617 E3.3016
G1 X177.455 Y128.239 E3.3166
G1 X177.359 Y127.868 E3.3316
G1 X177.226 Y127.508 E3.3466
G1 X177.057 Y127.164 E3.3615
G1 X176.854 Y126.839 E3.3765
G1 X176.620 Y126.536 E3.3915
G1 X176.356 Y126.259 E3.4065
G1 X176.065 Y126.009 E3.4215
G1 X175.751 Y125.790 E3.4365
G1 X175.416 Y125.604 E3.4515
G1 X175.064 Y125.453 E3.4665
G1 X174.698 Y125.338 E3.4814
G1 X174.323 Y125.261 E3.4964
G1 X173.942 Y125.223 E3.5114
G1 X173.558 Y125.223 E3.5264
G1 X173.177 Y125.261 E3.5414
G1 X172.802 Y125.338 E3.5564
G1 X172.436 Y125.453 E3.5714
G1 X172.084 Y125.604 E3.5863
G1 X171.749 Y125.790 E3.6013
G1 X171.435 Y126.009 E3.6163
G1 X171.144 Y126.259 E3.6313
G1 X170.880 Y126.536 E3.6463
G1 X170.646 Y126.839 E3.6613
G1 X170.443 Y127.164 E3.6763
G1 X170.274 Y127.508 E3.6912
G1 X170.141 Y127.868 E3.7062
G1 X170.045 Y128.239 E3.7212
G1 X169.987 Y128.617 E3.7362
G1 X169.968 Y129.000 E3.7512
G1 X169.987 Y129.383 E3.7662
G1 X170.045 Y129.761 E3.7812
G1 X170.164 Y130.220 E3.7997
G1 X146.086 Y130.220 E4.7415
G1 X146.205 Y129.761 E4.7600
G1 X146.263 Y129.383 E4.7750
G1 X146.282 Y129.000 E4.7900
G1 X146.263 Y128.617 E4.8050
G1 X146.205 Y128.239 E4.8199
G1 X146.109 Y127.868 E4.8349
G1 X145.976 Y127.508 E4.8499
G1 X145.807 Y127.164 E4.8649
G1 X145.604 Y126.839 E4.8799
G1 X145.370 Y126.536 E4.8949
G1 X145.106 Y126.259 E4.9099
G1 X144.815 Y126.009 E4.9248
G1 X144.501 Y125.790 E4.9398
G1 X144.166 Y125.604 E4.9548
G1 X143.814 Y125.453 E4.9698
G1 X143.448 Y125.338 E4.9848
G1 X143.073 Y125.261 E4.9998
G1 X142.692 Y125.223 E5.0148
G1 X142.308 Y125.223 E5.0297
G1 X141.927 Y125.261 E5.0447
G1 X141.552 Y125.338 E5.0597
G1 X141.186 Y125.453 E5.0747
G1 X140.834 Y125.604 E5.0897
G1 X140.499 Y125.790 E5.1047
G1 X140.185 Y126.009 E5.1197
G1 X139.894 Y126.259 E5.1347
G1 X139.630 Y126.536 E5.1496
G1 X139.396 Y126.839 E5.1646
G1 X139.193 Y127.164 E5.1796
G1 X139.024 Y127.508 E5.1946
G1 X138.891 Y127.868 E5.2096
G1 X138.795 Y128.239 E5.2246
G1 X138.737 Y128.617 E5.2396
G1 X138.718 Y129.000 E5.2545
G1 X138.737 Y129.383 E5.2695
G1 X138.795 Y129.761 E5.2845
G1 X138.914 Y130.220 E5.3030
G1 X71.086 Y130.220 E7.9561
G1 X71.205 Y129.761 E7.9746
G1 X71.263 Y129.383 E7.9896
G1 X71.282 Y129.000 E8.0046
G1 X71.263 Y128.617 E8.0195
G1 X71.205 Y128.239 E8.0345
G1 X71.109 Y127.868 E8.0495
G1 X70.976 Y127.508 E8.0645
G1 X70.807 Y127.164 E8.0795
G1 X70.604 Y126.839 E8.0945
G1 X70.370 Y126.536 E8.1095
G1 X70.106 Y126.259 E8.1244
G1 X69.815 Y126.009 E8.1394
G1 X69.501 Y125.790 E8.1544
G1 X69.166 Y125.604 E8.1694
G1 X68.814 Y125.453 E8.1844
G1 X68.448 Y125.338 E8.1994
G1 X68.073 Y125.261 E8.2144
G1 X67.692 Y125.223 E8.2293
G1 X67.308 Y125.223 E8.2443
G1 X66.927 Y125.261 E8.2593
G1 X66.552 Y125.338 E8.2743
G1 X66.186 Y125.453 E8.2893
G1 X65.834 Y125.604 E8.3043
G1 X65.499 Y125.790 E8.3193
G1 X65.185 Y126.009 E8.3342
G1 X64.894 Y126.259 E8.3492
G1 X64.630 Y126.536 E8.3642
G1 X64.396 Y126.839 E8.3792
G1 X64.193 Y127.164 E8.3942
G1 X64.024 Y127.508 E8.4092
G1 X63.891 Y127.868 E8.4242
G1 X63.795 Y128.239 E8.4392
G1 X63.737 Y128.617 E8.4541
G1 X63.718 Y129.000 E8.4691
G1 X63.737 Y129.383 E8.4841
G1 X63.795 Y129.761 E8.4991
G1 X63.914 Y130.220 E8.5176
G1 X39.836 Y130.220 E9.4594
G1 X39.955 Y129.761 E9.4779
G1 X40.013 Y129.383 E9.4929
G1 X40.032 Y129.000 E9.5079
G1 X40.013 Y128.617 E9.5229
G1 X39.955 Y128.239 E9.5379
G1 X39.859 Y127.868 E9.5529
G1 X39.726 Y127.508 E9.5678
G1 X39.557 Y127.165 E9.5828
G1 X39.354 Y126.839 E9.5978
G1 X39.120 Y126.536 E9.6128
G1 X38.856 Y126.259 E9.6278
G1 X38.565 Y126.009 E9.6428
G1 X38.251 Y125.790 E9.6578
G1 X37.916 Y125.604 E9.6727
G1 X37.563 Y125.453 E9.6877
G1 X37.198 Y125.338 E9.7027
G1 X36.823 Y125.261 E9.7177
G1 X36.442 Y125.223 E9.7327
G1 X36.058 Y125.223 E9.7477
G1 X35.677 Y125.261 E9.7627
G1 X35.302 Y125.338 E9.7777
G1 X34.936 Y125.453 E9.7926
G1 X34.584 Y125.604 E9.8076
G1 X34.249 Y125.790 E9.8226
G1 X33.935 Y126.009 E9.8376
G1 X33.644 Y126.259 E9.8526
G1 X33.380 Y126.536 E9.8676
G1 X33.146 Y126.839 E9.8826
G1 X32.943 Y127.164 E9.8975
G1 X32.774 Y127.508 E9.9125
G1 X32.641 Y127.868 E9.9275
G1 X32.545 Y128.239 E9.9425
G1 X32.487 Y128.617 E9.9575
G1 X32.468 Y129.000 E9.9725
G1 X32.487 Y129.383 E9.9875
G1 X32.545 Y129.761 E10.0024
G1 X32.664 Y130.220 E10.0210
G1 X8.586 Y130.220 E10.9628
G1 X8.705 Y129.761 E10.9813
G1 X8.763 Y129.383 E10.9963
G1 X8.782 Y129.000 E11.0113
G1 X8.763 Y128.617 E11.0262
G1 X8.705 Y128.239 E11.0412
G1 X8.609 Y127.868 E11.0562
G1 X8.476 Y127.508 E11.0712
G1 X8.307 Y127.165 E11.0862
G1 X8.104 Y126.839 E11.1012
G1 X7.870 Y126.536 E11.1162
G1 X7.606 Y126.259 E11.1311
G1 X7.315 Y126.009 E11.1461
G1 X7.001 Y125.790 E11.1611
G1 X6.666 Y125.604 E11.1761
G1 X6.314 Y125.453 E11.1911
G1 X5.948 Y125.338 E11.2061
G1 X5.573 Y125.261 E11.2211
G1 X5.192 Y125.223 E11.2361
G1 X4.808 Y125.223 E11.2510
G1 X4.427 Y125.261 E11.2660
G1 X4.052 Y125.338 E11.2810
G1 X3.686 Y125.453 E11.2960
G1 X3.334 Y125.604 E11.3110
G1 X2.999 Y125.790 E11.3260
G1 X2.685 Y126.009 E11.3410
G1 X2.394 Y126.259 E11.3559
G1 X1.780 Y126.905 E11.3908
G1 X1.780 Y83.095 E13.1043
G1 X2.394 Y83.741 E13.1392
G1 X2.685 Y83.991 E13.1542
G1 X2.999 Y84.210 E13.1692
G1 X3.334 Y84.396 E13.1842
G1 X3.686 Y84.547 E13.1992
G1 X4.052 Y84.662 E13.2141
G1 X4.427 Y84.739 E13.2291
G1 X4.808 Y84.777 E13.2441
G1 X5.192 Y84.777 E13.2591
G1 X5.573 Y84.739 E13.2741
G1 X5.948 Y84.662 E13.2891
G1 X6.314 Y84.547 E13.3041
G1 X6.666 Y84.396 E13.3190
G1 X7.001 Y84.210 E13.3340
G1 X7.315 Y83.991 E13.3490
G1 X7.606 Y83.741 E13.3640
G1 X7.870 Y83.464 E13.3790
G1 X8.104 Y83.161 E13.3940
G1 X8.307 Y82.835 E13.4090
G1 X8.476 Y82.492 E13.4239
G1 X8.609 Y82.132 E13.4389
G1 X8.705 Y81.761 E13.4539
G1 X8.763 Y81.383 E13.4689
G1 X8.782 Y81.000 E13.4839
G1 X8.763 Y80.617 E13.4989
G1 X8.705 Y80.239 E13.5139
G1 X8.586 Y79.780 E13.5324
G1 X32.664 Y79.780 E14.4742
G1 X32.545 Y80.239 E14.4927
G1 X32.487 Y80.617 E14.5077
G1 X32.468 Y81.000 E14.5227
G1 X32.487 Y81.383 E14.5377
G1 X32.545 Y81.761 E14.5526
G1 X32.641 Y82.132 E14.5676
G1 X32.774 Y82.491 E14.5826
G1 X32.943 Y82.835 E14.5976
G1 X33.146 Y83.161 E14.6126
G1 X33.380 Y83.464 E14.6276
G1 X33.644 Y83.741 E14.6426
G1 X33.935 Y83.991 E14.6575
G1 X34.249 Y84.210 E14.6725
G1 X34.584 Y84.396 E14.6875
G1 X34.936 Y84.547 E14.7025
G1 X35.302 Y84.662 E14.7175
G1 X35.677 Y84.739 E14.7325
G1 X36.058 Y84.777 E14.7475
G1 X36.442 Y84.777 E14.7624
G1 X36.823 Y84.739 E14.7774
G1 X37.198 Y84.662 E14.7924
G1 X37.563 Y84.547 E14.8074
G1 X37.916 Y84.396 E14.8224
G1 X38.251 Y84.210 E14.8374
G1 X38.565 Y83.991 E14.8524
G1 X38.856 Y83.741 E14.8674
G1 X39.120 Y83.464 E14.8823
G1 X39.354 Y83.161 E14.8973
G1 X39.557 Y82.835 E14.9123
G1 X39.726 Y82.492 E14.9273
G1 X39.859 Y82.132 E14.9423
G1 X39.955 Y81.761 E14.9573
G1 X40.013 Y81.383 E14.9723
G1 X40.032 Y81.000 E14.9872
G1 X40.013 Y80.617 E15.0022
G1 X39.955 Y80.239 E15.0172
G1 X39.836 Y79.780 E15.0357
G1 X63.914 Y79.780 E15.9775
G1 X63.795 Y80.239 E15.9961
G1 X63.737 Y80.617 E16.0110
G1 X63.718 Y81.000 E16.0260
G1 X63.737 Y81.383 E16.0410
G1 X63.795 Y81.761 E16.0560
G1 X63.891 Y82.132 E16.0710
G1 X64.024 Y82.492 E16.0860
G1 X64.193 Y82.836 E16.1010
G1 X64.396 Y83.161 E16.1159
G1 X64.630 Y83.464 E16.1309
G1 X64.894 Y83.741 E16.1459
G1 X65.185 Y83.991 E16.1609
G1 X65.499 Y84.210 E16.1759
G1 X65.834 Y84.396 E16.1909
G1 X66.186 Y84.547 E16.2059
G1 X66.552 Y84.662 E16.2208
G1 X66.927 Y84.739 E16.2358
G1 X67.308 Y84.777 E16.2508
G1 X67.692 Y84.777 E16.2658
G1 X68.073 Y84.739 E16.2808
G1 X68.448 Y84.662 E16.2958
G1 X68.814 Y84.547 E16.3108
G1 X69.166 Y84.396 E16.3257
G1 X69.501 Y84.210 E16.3407
G1 X69.815 Y83.991 E16.3557
G1 X70.106 Y83.741 E16.3707
G1 X70.370 Y83.464 E16.3857
G1 X70.604 Y83.161 E16.4007
G1 X70.807 Y82.836 E16.4157
G1 X70.976 Y82.492 E16.4306
G1 X71.109 Y82.132 E16.4456
G1 X71.205 Y81.761 E16.4606
G1 X71.263 Y81.383 E16.4756
G1 X71.282 Y81.000 E16.4906
G1 X71.263 Y80.617 E16.5056
G1 X71.205 Y80.239 E16.5206
G1 X71.086 Y79.780 E16.5391
G1 X138.914 Y79.780 E19.1921
G1 X138.795 Y80.239 E19.2106
G1 X138.737 Y80.617 E19.2256
G1 X138.718 Y81.000 E19.2406
G1 X138.737 Y81.383 E19.2556
G1 X138.795 Y81.761 E19.2706
G1 X138.891 Y82.132 E19.2856
G1 X139.024 Y82.492 E19.3005
G1 X139.193 Y82.836 E19.3155
G1 X139.396 Y83.161 E19.3305
G1 X139.630 Y83.464 E19.3455
G1 X139.894 Y83.741 E19.3605
G1 X140.185 Y83.991 E19.3755
G1 X140.499 Y84.210 E19.3905
G1 X140.834 Y84.396 E19.4054
G1 X141.186 Y84.547 E19.4204
G1 X141.552 Y84.662 E19.4354
G1 X141.920 Y84.737 E19.4501
G1 X142.306 Y84.777 E19.4653
G1 X142.692 Y84.777 E19.4804
G1 X143.073 Y84.739 E19.4954
G1 X143.448 Y84.662 E19.5104
G1 X143.814 Y84.547 E19.5253
G1 X144.166 Y84.396 E19.5403
G1 X144.501 Y84.210 E19.5553
G1 X144.815 Y83.991 E19.5703
G1 X145.106 Y83.741 E19.5853
G1 X145.370 Y83.464 E19.6003
G1 X145.604 Y83.161 E19.6153
G1 X145.807 Y82.835 E19.6302
G1 X145.976 Y82.492 E19.6452
G1 X146.109 Y82.132 E19.6602
G1 X146.205 Y81.761 E19.6752
G1 X146.263 Y81.383 E19.6902
G1 X146.282 Y81.000 E19.7052
G1 X146.263 Y80.617 E19.7202
G1 X146.205 Y80.239 E19.7351
G1 X146.086 Y79.780 E19.7537
G1 X170.164 Y79.780 E20.6955
G1 X170.045 Y80.239 E20.7140
