; G-Code generated by Simplify3D(R) Version 4.1.2
; Jun 11, 2020 at 11:48:45 PM
; Settings Summary
;   processName,Process1
;   applyToModels,rippe
;   profileName,HBot (modified)
;   profileVersion,2019-10-26 23:38:43
;   baseProfile,Default
;   printMaterial,PETG - SUNLU
;   printQuality,Medium
;   printExtruders,
;   extruderName,Extruder 1
;   extruderToolheadNumber,0
;   extruderDiameter,0.4
;   extruderAutoWidth,1
;   extruderWidth,0.48
;   extrusionMultiplier,0.98
;   extruderUseRetract,1
;   extruderRetractionDistance,4
;   extruderExtraRestartDistance,0
;   extruderRetractionZLift,0
;   extruderRetractionSpeed,3600
;   extruderUseCoasting,1
;   extruderCoastingDistance,0.2
;   extruderUseWipe,1
;   extruderWipeDistance,5
;   primaryExtruder,0
;   layerHeight,0.2
;   topSolidLayers,4
;   bottomSolidLayers,4
;   perimeterOutlines,4
;   printPerimetersInsideOut,1
;   startPointOption,3
;   startPointOriginX,200
;   startPointOriginY,100
;   sequentialIslands,0
;   spiralVaseMode,0
;   firstLayerHeightPercentage,100
;   firstLayerWidthPercentage,100
;   firstLayerUnderspeed,0.5
;   useRaft,0
;   raftExtruder,0
;   raftTopLayers,3
;   raftBaseLayers,2
;   raftOffset,3
;   raftSeparationDistance,0.18
;   raftTopInfill,100
;   aboveRaftSpeedMultiplier,0.3
;   useSkirt,1
;   skirtExtruder,0
;   skirtLayers,1
;   skirtOutlines,4
;   skirtOffset,5
;   usePrimePillar,0
;   primePillarExtruder,999
;   primePillarWidth,12
;   primePillarLocation,7
;   primePillarSpeedMultiplier,1
;   useOozeShield,0
;   oozeShieldExtruder,999
;   oozeShieldOffset,0.9
;   oozeShieldOutlines,2
;   oozeShieldSidewallShape,0
;   oozeShieldSidewallAngle,30
;   oozeShieldSpeedMultiplier,1.5
;   infillExtruder,0
;   internalInfillPattern,Rectilinear
;   externalInfillPattern,Rectilinear
;   infillPercentage,20
;   outlineOverlapPercentage,25
;   infillExtrusionWidthPercentage,100
;   minInfillLength,5
;   infillLayerInterval,1
;   internalInfillAngles,45,-45
;   overlapInternalInfillAngles,0
;   externalInfillAngles,45,-45
;   generateSupport,0
;   supportExtruder,0
;   supportInfillPercentage,30
;   supportExtraInflation,0
;   supportBaseLayers,1
;   denseSupportExtruder,0
;   denseSupportLayers,0
;   denseSupportInfillPercentage,70
;   supportLayerInterval,1
;   supportHorizontalPartOffset,0.3
;   supportUpperSeparationLayers,1
;   supportLowerSeparationLayers,1
;   supportType,0
;   supportGridSpacing,4
;   maxOverhangAngle,25
;   supportAngles,0
;   temperatureName,Extruder 1,Heated Bed
;   temperatureNumber,0,1
;   temperatureSetpointCount,2,1
;   temperatureSetpointLayers,1,2,1
;   temperatureSetpointTemperatures,235,225,75
;   temperatureStabilizeAtStartup,1,1
;   temperatureHeatedBed,0,1
;   fanLayers,1,5,10
;   fanSpeeds,0,5,20
;   blipFanToFullPower,1
;   adjustSpeedForCooling,1
;   minSpeedLayerTime,15
;   minCoolingSpeedSlowdown,20
;   increaseFanForCooling,0
;   minFanLayerTime,45
;   maxCoolingFanSpeed,35
;   increaseFanForBridging,1
;   bridgingFanSpeed,85
;   use5D,1
;   relativeEdistances,0
;   allowEaxisZeroing,1
;   independentExtruderAxes,0
;   includeM10123,0
;   stickySupport,1
;   applyToolheadOffsets,0
;   gcodeXoffset,0
;   gcodeYoffset,0
;   gcodeZoffset,0
;   overrideMachineDefinition,1
;   machineTypeOverride,0
;   strokeXoverride,200
;   strokeYoverride,200
;   strokeZoverride,150
;   originOffsetXoverride,0
;   originOffsetYoverride,0
;   originOffsetZoverride,0
;   homeXdirOverride,-1
;   homeYdirOverride,-1
;   homeZdirOverride,-1
;   flipXoverride,1
;   flipYoverride,-1
;   flipZoverride,1
;   toolheadOffsets,0,0|0,0|0,0|0,0|0,0|0,0
;   overrideFirmwareConfiguration,1
;   firmwareTypeOverride,RepRap (Marlin/Repetier/Sprinter)
;   GPXconfigOverride,r2
;   baudRateOverride,115200
;   overridePrinterModels,0
;   printerModelsOverride
;   startingGcode,G28 ; home all axes,G32 ; run bed.g -- probe bed and enable compensation
;   layerChangeGcode,
;   retractionGcode,
;   toolChangeGcode,
;   endingGcode,M0 ; call stop.g
;   exportFileFormat,gcode
;   celebration,0
;   celebrationSong,Random Song
;   postProcessing,
;   defaultSpeed,3600
;   outlineUnderspeed,0.5
;   solidInfillUnderspeed,0.8
;   supportUnderspeed,0.8
;   rapidXYspeed,18000
;   rapidZspeed,1200
;   minBridgingArea,50
;   bridgingExtraInflation,0
;   bridgingExtrusionMultiplier,0.96
;   bridgingSpeedMultiplier,1
;   useFixedBridgingAngle,0
;   fixedBridgingAngle,0
;   applyBridgingToPerimeters,0
;   filamentDiameters,1.75|1.75|1.75|1.75|1.75|1.75
;   filamentPricesPerKg,46|46|46|46|46|46
;   filamentDensities,1.25|1.25|1.25|1.25|1.25|1.25
;   useMinPrintHeight,0
;   minPrintHeight,20
;   useMaxPrintHeight,0
;   maxPrintHeight,15
;   useDiaphragm,0
;   diaphragmLayerInterval,20
;   robustSlicing,1
;   mergeAllIntoSolid,0
;   onlyRetractWhenCrossingOutline,1
;   retractBetweenLayers,0
;   useRetractionMinTravel,1
;   retractionMinTravel,3
;   retractWhileWiping,1
;   onlyWipeOutlines,1
;   avoidCrossingOutline,1
;   maxMovementDetourFactor,5
;   toolChangeRetractionDistance,12
;   toolChangeExtraRestartDistance,-0.5
;   toolChangeRetractionSpeed,600
;   externalThinWallType,0
;   internalThinWallType,2
;   thinWallAllowedOverlapPercentage,10
;   singleExtrusionMinLength,1
;   singleExtrusionMinPrintingWidthPercentage,50
;   singleExtrusionMaxPrintingWidthPercentage,150
;   singleExtrusionEndpointExtension,0.2
;   horizontalSizeCompensation,-0.1
G90
M82
M106 S0
M140 S75
M190 S75
M104 S235 T0
M109 S235 T0
G28 ; home all axes
G32 ; run bed.g -- probe bed and enable compensation
; process Process1
; layer 1, Z = 0.200
T0
G92 E0.0000
G1 E-4.0000 F3600
; feature skirt
; tool H0.200 W0.480
G1 Z0.200 F1200
G1 X196.745 Y102.890 F18000
G1 E0.0000 F3600
G92 E0.0000
G1 X196.745 Y108.424 E0.2165 F1800
G1 X190.145 Y115.024 E0.5815
G1 X184.611 Y115.024 E0.7980
G1 X171.682 Y102.095 E1.5132
G1 X28.318 Y102.095 E7.1207
G1 X15.389 Y115.024 E7.8359
G1 X9.855 Y115.024 E8.0523
G1 X3.255 Y108.424 E8.4174
G1 X3.255 Y102.890 E8.6339
G1 X20.193 Y85.952 E9.5708
G1 X22.648 Y84.935 E9.6748
G1 X177.352 Y84.935 E15.7258
G1 X179.807 Y85.952 E15.8298
G1 X196.745 Y102.890 E16.7667
G1 X196.265 Y103.089 F18000
G92 E0.0000
G1 X196.265 Y108.225 E0.2009 F1800
G1 X189.946 Y114.544 E0.5504
G1 X184.810 Y114.544 E0.7513
G1 X171.881 Y101.615 E1.4665
G1 X28.119 Y101.615 E7.0896
G1 X15.190 Y114.544 E7.8048
G1 X10.054 Y114.544 E8.0057
G1 X3.735 Y108.225 E8.3552
G1 X3.735 Y103.089 E8.5561
G1 X20.465 Y86.359 E9.4815
G1 X22.744 Y85.415 E9.5780
G1 X177.256 Y85.415 E15.6216
G1 X179.535 Y86.359 E15.7181
G1 X196.265 Y103.089 E16.6435
G1 X195.785 Y103.288 F18000
G92 E0.0000
G1 X195.785 Y108.026 E0.1853 F1800
G1 X189.748 Y114.064 E0.5193
G1 X185.009 Y114.064 E0.7047
G1 X172.080 Y101.135 E1.4199
G1 X27.920 Y101.135 E7.0585
G1 X14.991 Y114.064 E7.7737
G1 X10.252 Y114.064 E7.9590
G1 X4.215 Y108.026 E8.2930
G1 X4.215 Y103.288 E8.4783
G1 X20.737 Y86.766 E9.3923
G1 X22.839 Y85.895 E9.4813
G1 X177.161 Y85.895 E15.5174
G1 X179.263 Y86.766 E15.6064
G1 X195.785 Y103.288 E16.5203
G1 X195.305 Y103.486 F18000
G92 E0.0000
G1 X195.305 Y107.827 E0.1698 F1800
G1 X189.549 Y113.584 E0.4882
G1 X185.208 Y113.584 E0.6580
G1 X172.279 Y100.655 E1.3732
G1 X27.721 Y100.655 E7.0274
G1 X14.792 Y113.584 E7.7426
G1 X10.451 Y113.584 E7.9124
G1 X4.695 Y107.827 E8.2308
G1 X4.695 Y103.486 E8.4006
G1 X21.009 Y87.172 E9.3030
G1 X22.935 Y86.375 E9.3845
G1 X177.065 Y86.375 E15.4132
G1 X178.991 Y87.172 E15.4947
G1 X195.305 Y103.486 E16.3971
G92 E0.0000
G1 E-4.0000 F3600
; feature inner perimeter
G1 X189.726 Y105.657 F18000
G1 X189.274 Y105.205
G1 X187.690 Y105.657
G1 E0.0000 F3600
G92 E0.0000
G1 X187.378 Y105.968 E0.0172 F1350
G1 X175.145 Y93.735 E0.6939
G1 X24.855 Y93.735 E6.5723
G1 X12.622 Y105.968 E7.2490
G1 X12.310 Y105.657 E7.2662
G1 X24.673 Y93.295 E7.9500
G1 X175.327 Y93.295 E13.8427
G1 X187.548 Y105.516 E14.5187
G1 X187.690 Y105.657 F1350
G1 X188.368 Y105.657 F18000
G92 E0.0000
G1 X187.378 Y106.647 E0.0548 F1350
G1 X174.946 Y94.215 E0.7424
G1 X25.054 Y94.215 E6.6053
G1 X12.622 Y106.647 E7.2930
G1 X11.632 Y105.657 E7.3478
G1 X24.474 Y92.815 E8.0581
G1 X175.526 Y92.815 E13.9664
G1 X188.227 Y105.515 E14.6689
G1 X188.368 Y105.657 F1350
G1 X189.047 Y105.657 F18000
G92 E0.0000
G1 X187.378 Y107.326 E0.0923 F1350
G1 X174.747 Y94.695 E0.7910
G1 X25.253 Y94.695 E6.6383
G1 X12.622 Y107.326 E7.3370
G1 X10.953 Y105.657 E7.4293
G1 X24.275 Y92.335 E8.1662
G1 X175.725 Y92.335 E14.0900
G1 X188.906 Y105.515 E14.8191
G1 X189.047 Y105.657 F1350
; feature outer perimeter
G1 X189.726 Y105.657 F18000
G92 E0.0000
G1 X187.378 Y108.004 E0.1299 F900
G1 X174.549 Y95.175 E0.8395
G1 X25.451 Y95.175 E6.6713
G1 X12.622 Y108.004 E7.3810
G1 X10.274 Y105.657 E7.5108
G1 X24.076 Y91.855 E8.2743
G1 X175.924 Y91.855 E14.2137
G1 X189.584 Y105.515 E14.9693
G1 X189.726 Y105.657 F900
G1 X187.378 Y108.004 F900
G1 X186.190 Y106.816
; layer 2, Z = 0.400
M104 S225 T0
; feature inner perimeter
G1 Z0.400 F1200
G1 X187.690 Y105.657 F18000
G92 E0.0000
G1 X187.378 Y105.968 E0.0172 F2700
G1 X175.145 Y93.735 E0.6939
G1 X24.855 Y93.735 E6.5723
G1 X12.622 Y105.968 E7.2490
G1 X12.310 Y105.657 E7.2662
G1 X24.673 Y93.295 E7.9500
G1 X175.327 Y93.295 E13.8427
G1 X187.548 Y105.516 E14.5187
G1 X187.690 Y105.657 F2700
G1 X188.368 Y105.657 F18000
G92 E0.0000
G1 X187.378 Y106.647 E0.0548 F2700
G1 X174.946 Y94.215 E0.7424
G1 X25.054 Y94.215 E6.6053
G1 X12.622 Y106.647 E7.2930
G1 X11.632 Y105.657 E7.3478
G1 X24.474 Y92.815 E8.0581
G1 X175.526 Y92.815 E13.9664
G1 X188.227 Y105.515 E14.6689
G1 X188.368 Y105.657 F2700
G1 X189.047 Y105.657 F18000
G92 E0.0000
G1 X187.378 Y107.326 E0.0923 F2700
G1 X174.747 Y94.695 E0.7910
G1 X25.253 Y94.695 E6.6383
G1 X12.622 Y107.326 E7.3370
G1 X10.953 Y105.657 E7.4293
G1 X24.275 Y92.335 E8.1662
G1 X175.725 Y92.335 E14.0900
G1 X188.906 Y105.515 E14.8191
G1 X189.047 Y105.657 F2700
; feature outer perimeter
G1 X189.726 Y105.657 F18000
G92 E0.0000
G1 X187.378 Y108.004 E0.1299 F1800
G1 X174.549 Y95.175 E0.8395
G1 X25.451 Y95.175 E6.6713
G1 X12.622 Y108.004 E7.3810
G1 X10.274 Y105.657 E7.5108
G1 X24.076 Y91.855 E8.2743
G1 X175.924 Y91.855 E14.2137
G1 X189.584 Y105.515 E14.9693
G1 X189.726 Y105.657 F1800
G1 X187.378 Y108.004 F1800
G1 X186.190 Y106.816
; layer 3, Z = 0.600
; feature inner perimeter
G1 Z0.600 F1200
G1 X187.690 Y105.657 F18000
G92 E0.0000
G1 X187.378 Y105.968 E0.0172 F2700
G1 X175.145 Y93.735 E0.6939
G1 X24.855 Y93.735 E6.5723
G1 X12.622 Y105.968 E7.2490
G1 X12.310 Y105.657 E7.2662
G1 X24.673 Y93.295 E7.9500
G1 X175.327 Y93.295 E13.8427
G1 X187.548 Y105.516 E14.5187
G1 X187.690 Y105.657 F2700
G1 X188.368 Y105.657 F18000
G92 E0.0000
G1 X187.378 Y106.647 E0.0548 F2700
G1 X174.946 Y94.215 E0.7424
G1 X25.054 Y94.215 E6.6053
G1 X12.622 Y106.647 E7.2930
G1 X11.632 Y105.657 E7.3478
G1 X24.474 Y92.815 E8.0581
G1 X175.526 Y92.815 E13.9664
G1 X188.227 Y105.515 E14.6689
G1 X188.368 Y105.657 F2700
G1 X189.047 Y105.657 F18000
G92 E0.0000
G1 X187.378 Y107.326 E0.0923 F2700
G1 X174.747 Y94.695 E0.7910
G1 X25.253 Y94.695 E6.6383
G1 X12.622 Y107.326 E7.3370
G1 X10.953 Y105.657 E7.4293
G1 X24.275 Y92.335 E8.1662
G1 X175.725 Y92.335 E14.0900
G1 X188.906 Y105.515 E14.8191
G1 X189.047 Y105.657 F2700
; feature outer perimeter
G1 X189.726 Y105.657 F18000
G92 E0.0000
G1 X187.378 Y108.004 E0.1299 F1800
G1 X174.549 Y95.175 E0.8395
G1 X25.451 Y95.175 E6.6713
G1 X12.622 Y108.004 E7.3810
G1 X10.274 Y105.657 E7.5108
G1 X24.076 Y91.855 E8.2743
G1 X175.924 Y91.855 E14.2137
G1 X189.584 Y105.515 E14.9693
G1 X189.726 Y105.657 F1800
G1 X187.378 Y108.004 F1800
G1 X186.190 Y106.816
; layer 4, Z = 0.800
; feature inner perimeter
G1 Z0.800 F1200
G1 X187.690 Y105.657 F18000
G92 E0.0000
G1 X187.378 Y105.968 E0.0172 F2700
G1 X175.145 Y93.735 E0.6939
G1 X24.855 Y93.735 E6.5723
G1 X12.622 Y105.968 E7.2490
G1 X12.310 Y105.657 E7.2662
G1 X24.673 Y93.295 E7.9500
G1 X175.327 Y93.295 E13.8427
G1 X187.548 Y105.516 E14.5187
G1 X187.690 Y105.657 F2700
G1 X188.368 Y105.657 F18000
G92 E0.0000
G1 X187.378 Y106.647 E0.0548 F2700
G1 X174.946 Y94.215 E0.7424
G1 X25.054 Y94.215 E6.6053
G1 X12.622 Y106.647 E7.2930
G1 X11.632 Y105.657 E7.3478
G1 X24.474 Y92.815 E8.0581
G1 X175.526 Y92.815 E13.9664
G1 X188.227 Y105.515 E14.6689
G1 X188.368 Y105.657 F2700
G1 X189.047 Y105.657 F18000
G92 E0.0000
G1 X187.378 Y107.326 E0.0923 F2700
G1 X174.747 Y94.695 E0.7910
G1 X25.253 Y94.695 E6.6383
G1 X12.622 Y107.326 E7.3370
G1 X10.953 Y105.657 E7.4293
G1 X24.275 Y92.335 E8.1662
G1 X175.725 Y92.335 E14.0900
G1 X188.906 Y105.515 E14.8191
G1 X189.047 Y105.657 F2700
; feature outer perimeter
G1 X189.726 Y105.657 F18000
G92 E0.0000
G1 X187.378 Y108.004 E0.1299 F1800
G1 X174.549 Y95.175 E0.8395
G1 X25.451 Y95.175 E6.6713
G1 X12.622 Y108.004 E7.3810
G1 X10.274 Y105.657 E7.5108
G1 X24.076 Y91.855 E8.2743
G1 X175.924 Y91.855 E14.2137
G1 X189.584 Y105.515 E14.9693
G1 X189.726 Y105.657 F1800
G1 X187.378 Y108.004 F1800
G1 X186.190 Y106.816
; layer 5, Z = 1.000
M106 S255
G4 P500
M106 S13
; feature inner perimeter
G1 Z1.000 F1200
G1 X187.690 Y105.657 F18000
G92 E0.0000
G1 X187.378 Y105.968 E0.0172 F2700
G1 X175.145 Y93.735 E0.6939
G1 X24.855 Y93.735 E6.5723
G1 X12.622 Y105.968 E7.2490
G1 X12.310 Y105.657 E7.2662
G1 X24.673 Y93.295 E7.9500
G1 X175.327 Y93.295 E13.8427
G1 X187.548 Y105.516 E14.5187
G1 X187.690 Y105.657 F2700
G1 X188.368 Y105.657 F18000
G92 E0.0000
G1 X187.378 Y106.647 E0.0548 F2700
G1 X174.946 Y94.215 E0.7424
G1 X25.054 Y94.215 E6.6053
G1 X12.622 Y106.647 E7.2930
G1 X11.632 Y105.657 E7.3478
G1 X24.474 Y92.815 E8.0581
G1 X175.526 Y92.815 E13.9664
G1 X188.227 Y105.515 E14.6689
G1 X188.368 Y105.657 F2700
G1 X189.047 Y105.657 F18000
G92 E0.0000
G1 X187.378 Y107.326 E0.0923 F2700
G1 X174.747 Y94.695 E0.7910
G1 X25.253 Y94.695 E6.6383
G1 X12.622 Y107.326 E7.3370
G1 X10.953 Y105.657 E7.4293
G1 X24.275 Y92.335 E8.1662
G1 X175.725 Y92.335 E14.0900
G1 X188.906 Y105.515 E14.8191
G1 X189.047 Y105.657 F2700
; feature outer perimeter
G1 X189.726 Y105.657 F18000
G92 E0.0000
G1 X187.378 Y108.004 E0.1299 F1800
G1 X174.549 Y95.175 E0.8395
G1 X25.451 Y95.175 E6.6713
G1 X12.622 Y108.004 E7.3810
G1 X10.274 Y105.657 E7.5108
G1 X24.076 Y91.855 E8.2743
G1 X175.924 Y91.855 E14.2137
G1 X189.584 Y105.515 E14.9693
G1 X189.726 Y105.657 F1800
G1 X187.378 Y108.004 F1800
G1 X186.190 Y106.816
; layer 6, Z = 1.200
; feature inner perimeter
G1 Z1.200 F1200
G1 X187.690 Y105.657 F18000
G92 E0.0000
G1 X187.378 Y105.968 E0.0172 F2700
G1 X175.145 Y93.735 E0.6939
G1 X24.855 Y93.735 E6.5723
G1 X12.622 Y105.968 E7.2490
G1 X12.310 Y105.657 E7.2662
G1 X24.673 Y93.295 E7.9500
G1 X175.327 Y93.295 E13.8427
G1 X187.548 Y105.516 E14.5187
G1 X187.690 Y105.657 F2700
G1 X188.368 Y105.657 F18000
G92 E0.0000
G1 X187.378 Y106.647 E0.0548 F2700
G1 X174.946 Y94.215 E0.7424
G1 X25.054 Y94.215 E6.6053
G1 X12.622 Y106.647 E7.2930
G1 X11.632 Y105.657 E7.3478
G1 X24.474 Y92.815 E8.0581
G1 X175.526 Y92.815 E13.9664
G1 X188.227 Y105.515 E14.6689
G1 X188.368 Y105.657 F2700
G1 X189.047 Y105.657 F18000
G92 E0.0000
G1 X187.378 Y107.326 E0.0923 F2700
G1 X174.747 Y94.695 E0.7910
G1 X25.253 Y94.695 E6.6383
G1 X12.622 Y107.326 E7.3370
G1 X10.953 Y105.657 E7.4293
G1 X24.275 Y92.335 E8.1662
G1 X175.725 Y92.335 E14.0900
G1 X188.906 Y105.515 E14.8191
G1 X189.047 Y105.657 F2700
; feature outer perimeter
G1 X189.726 Y105.657 F18000
G92 E0.0000
G1 X187.378 Y108.004 E0.1299 F1800
G1 X174.549 Y95.175 E0.8395
G1 X25.451 Y95.175 E6.6713
G1 X12.622 Y108.004 E7.3810
G1 X10.274 Y105.657 E7.5108
G1 X24.076 Y91.855 E8.2743
G1 X175.924 Y91.855 E14.2137
G1 X189.584 Y105.515 E14.9693
G1 X189.726 Y105.657 F1800
G1 X187.378 Y108.004 F1800
G1 X186.190 Y106.816
; layer 7, Z = 1.400
; feature inner perimeter
G1 Z1.400 F1200
G1 X187.690 Y105.657 F18000
G92 E0.0000
G1 X187.378 Y105.968 E0.0172 F2700
G1 X175.145 Y93.735 E0.6939
G1 X24.855 Y93.735 E6.5723
G1 X12.622 Y105.968 E7.2490
G1 X12.310 Y105.657 E7.2662
G1 X24.673 Y93.295 E7.9500
G1 X175.327 Y93.295 E13.8427
G1 X187.548 Y105.516 E14.5187
G1 X187.690 Y105.657 F2700
G1 X188.368 Y105.657 F18000
G92 E0.0000
G1 X187.378 Y106.647 E0.0548 F2700
