; G-Code generated by Simplify3D(R) Version 4.1.2
; Dec 25, 2020 at 12:17:16 PM
; Settings Summary
;   processName,Process1
;   applyToModels,rucksack-kante
;   profileName,HBot (modified)
;   profileVersion,2019-10-26 23:38:43
;   baseProfile,Default
;   printMaterial,PETG - SUNLU
;   printQuality,Medium
;   printExtruders,
;   extruderName,Extruder 1
;   extruderToolheadNumber,0
;   extruderDiameter,0.4
;   extruderAutoWidth,1
;   extruderWidth,0.48
;   extrusionMultiplier,1
;   extruderUseRetract,1
;   extruderRetractionDistance,4
;   extruderExtraRestartDistance,0
;   extruderRetractionZLift,0
;   extruderRetractionSpeed,5400
;   extruderUseCoasting,1
;   extruderCoastingDistance,0.2
;   extruderUseWipe,1
;   extruderWipeDistance,5
;   primaryExtruder,0
;   layerHeight,0.2
;   topSolidLayers,4
;   bottomSolidLayers,4
;   perimeterOutlines,4
;   printPerimetersInsideOut,1
;   startPointOption,3
;   startPointOriginX,110
;   startPointOriginY,300
;   sequentialIslands,0
;   spiralVaseMode,0
;   firstLayerHeightPercentage,100
;   firstLayerWidthPercentage,100
;   firstLayerUnderspeed,0.5
;   useRaft,0
;   raftExtruder,0
;   raftTopLayers,3
;   raftBaseLayers,2
;   raftOffset,3
;   raftSeparationDistance,0.18
;   raftTopInfill,100
;   aboveRaftSpeedMultiplier,0.3
;   useSkirt,1
;   skirtExtruder,0
;   skirtLayers,1
;   skirtOutlines,10
;   skirtOffset,0
;   usePrimePillar,0
;   primePillarExtruder,999
;   primePillarWidth,12
;   primePillarLocation,7
;   primePillarSpeedMultiplier,1
;   useOozeShield,0
;   oozeShieldExtruder,999
;   oozeShieldOffset,0.9
;   oozeShieldOutlines,2
;   oozeShieldSidewallShape,0
;   oozeShieldSidewallAngle,30
;   oozeShieldSpeedMultiplier,1.5
;   infillExtruder,0
;   internalInfillPattern,Fast Honeycomb
;   externalInfillPattern,Rectilinear
;   infillPercentage,10
;   outlineOverlapPercentage,25
;   infillExtrusionWidthPercentage,100
;   minInfillLength,5
;   infillLayerInterval,1
;   internalInfillAngles,0
;   overlapInternalInfillAngles,0
;   externalInfillAngles,45,-45
;   generateSupport,1
;   supportExtruder,0
;   supportInfillPercentage,25
;   supportExtraInflation,0
;   supportBaseLayers,0
;   denseSupportExtruder,0
;   denseSupportLayers,0
;   denseSupportInfillPercentage,70
;   supportLayerInterval,1
;   supportHorizontalPartOffset,0.3
;   supportUpperSeparationLayers,1
;   supportLowerSeparationLayers,1
;   supportType,0
;   supportGridSpacing,4
;   maxOverhangAngle,25
;   supportAngles,0
;   temperatureName,Extruder 1,Heated Bed
;   temperatureNumber,0,1
;   temperatureSetpointCount,2,1
;   temperatureSetpointLayers,1,2,1
;   temperatureSetpointTemperatures,225,215,85
;   temperatureStabilizeAtStartup,1,1
;   temperatureHeatedBed,0,1
;   fanLayers,1,5,10
;   fanSpeeds,0,5,20
;   blipFanToFullPower,1
;   adjustSpeedForCooling,1
;   minSpeedLayerTime,15
;   minCoolingSpeedSlowdown,20
;   increaseFanForCooling,0
;   minFanLayerTime,45
;   maxCoolingFanSpeed,35
;   increaseFanForBridging,1
;   bridgingFanSpeed,85
;   use5D,1
;   relativeEdistances,0
;   allowEaxisZeroing,1
;   independentExtruderAxes,0
;   includeM10123,0
;   stickySupport,1
;   applyToolheadOffsets,0
;   gcodeXoffset,0
;   gcodeYoffset,0
;   gcodeZoffset,0
;   overrideMachineDefinition,1
;   machineTypeOverride,0
;   strokeXoverride,210
;   strokeYoverride,210
;   strokeZoverride,150
;   originOffsetXoverride,0
;   originOffsetYoverride,0
;   originOffsetZoverride,0
;   homeXdirOverride,-1
;   homeYdirOverride,-1
;   homeZdirOverride,-1
;   flipXoverride,1
;   flipYoverride,-1
;   flipZoverride,1
;   toolheadOffsets,0,0|0,0|0,0|0,0|0,0|0,0
;   overrideFirmwareConfiguration,1
;   firmwareTypeOverride,RepRap (Marlin/Repetier/Sprinter)
;   GPXconfigOverride,r2
;   baudRateOverride,115200
;   overridePrinterModels,0
;   printerModelsOverride
;   startingGcode,G28 ; home all axes,G32 ; run bed.g -- probe bed and enable compensation
;   layerChangeGcode,
;   retractionGcode,
;   toolChangeGcode,
;   endingGcode,M0 ; call stop.g
;   exportFileFormat,gcode
;   celebration,0
;   celebrationSong,Random Song
;   postProcessing,
;   defaultSpeed,3600
;   outlineUnderspeed,0.5
;   solidInfillUnderspeed,0.8
;   supportUnderspeed,0.8
;   rapidXYspeed,18000
;   rapidZspeed,1200
;   minBridgingArea,50
;   bridgingExtraInflation,0
;   bridgingExtrusionMultiplier,0.96
;   bridgingSpeedMultiplier,1
;   useFixedBridgingAngle,0
;   fixedBridgingAngle,0
;   applyBridgingToPerimeters,0
;   filamentDiameters,1.75|1.75|1.75|1.75|1.75|1.75
;   filamentPricesPerKg,46|46|46|46|46|46
;   filamentDensities,1.25|1.25|1.25|1.25|1.25|1.25
;   useMinPrintHeight,0
;   minPrintHeight,20
;   useMaxPrintHeight,0
;   maxPrintHeight,15
;   useDiaphragm,0
;   diaphragmLayerInterval,20
;   robustSlicing,1
;   mergeAllIntoSolid,0
;   onlyRetractWhenCrossingOutline,1
;   retractBetweenLayers,0
;   useRetractionMinTravel,1
;   retractionMinTravel,3
;   retractWhileWiping,1
;   onlyWipeOutlines,1
;   avoidCrossingOutline,1
;   maxMovementDetourFactor,5
;   toolChangeRetractionDistance,12
;   toolChangeExtraRestartDistance,-0.5
;   toolChangeRetractionSpeed,600
;   externalThinWallType,1
;   internalThinWallType,1
;   thinWallAllowedOverlapPercentage,10
;   singleExtrusionMinLength,1
;   singleExtrusionMinPrintingWidthPercentage,50
;   singleExtrusionMaxPrintingWidthPercentage,150
;   singleExtrusionEndpointExtension,0.2
;   horizontalSizeCompensation,-0.1
G90
M82
M106 S0
M140 S85
M190 S85
M104 S225 T0
M109 S225 T0
G28 ; home all axes
G32 ; run bed.g -- probe bed and enable compensation
; process Process1
; layer 1, Z = 0.200
T0
G92 E0.0000
G1 E-4.0000 F5400
; feature skirt
; tool H0.200 W0.480
G1 Z0.200 F1200
G1 X198.717 Y88.420 F18000
G1 E0.0000 F5400
G92 E0.0000
G1 X11.283 Y88.420 E7.4809 F1800
G1 X10.580 Y87.717 E7.5206
G1 X10.580 Y78.283 E7.8971
G1 X11.283 Y77.580 E7.9368
G1 X198.717 Y77.580 E15.4177
G1 X199.420 Y78.283 E15.4574
G1 X199.420 Y87.717 E15.8339
G1 X198.717 Y88.420 E15.8736
G1 X198.518 Y87.940 F18000
G92 E0.0000
G1 X11.482 Y87.940 E7.4650 F1800
G1 X11.060 Y87.518 E7.4888
G1 X11.060 Y78.482 E7.8495
G1 X11.482 Y78.060 E7.8733
G1 X198.518 Y78.060 E15.3383
G1 X198.940 Y78.482 E15.3621
G1 X198.940 Y87.518 E15.7228
G1 X198.518 Y87.940 E15.7466
G1 X198.319 Y87.460 F18000
G92 E0.0000
G1 X11.681 Y87.460 E7.4492 F1800
G1 X11.540 Y87.319 E7.4571
G1 X11.540 Y78.681 E7.8019
G1 X11.681 Y78.540 E7.8098
G1 X198.319 Y78.540 E15.2590
G1 X198.460 Y78.681 E15.2669
G1 X198.460 Y87.319 E15.6117
G1 X198.319 Y87.460 E15.6196
G92 E0.0000
G1 E-4.0000 F5400
G1 X197.660 Y90.236 F18000
G1 X197.545 Y90.236
G1 X197.287 Y91.160
G1 X182.660 Y91.160
G1 X182.660 Y131.160
G1 X184.789 Y135.960
G1 E0.0000 F5400
G92 E0.0000
G1 X25.211 Y135.960 E6.3691 F1800
G1 X22.540 Y133.289 E6.5199
G1 X22.540 Y95.960 E8.0097
G1 X10.211 Y95.960 E8.5018
G1 X7.540 Y93.289 E8.6526
G1 X7.540 Y89.429 E8.8067
G1 X7.220 Y89.109 E8.8247
G1 X7.220 Y76.891 E9.3123
G1 X9.891 Y74.220 E9.4631
G1 X200.109 Y74.220 E17.0551
G1 X202.780 Y76.891 E17.2059
G1 X202.780 Y89.109 E17.6935
G1 X202.460 Y89.429 E17.7116
G1 X202.460 Y93.289 E17.8656
G1 X199.789 Y95.960 E18.0164
G1 X187.460 Y95.960 E18.5085
G1 X187.460 Y133.289 E19.9984
G1 X184.789 Y135.960 E20.1491
G1 X184.590 Y135.480 F18000
G92 E0.0000
G1 X25.410 Y135.480 E6.3532 F1800
G1 X23.020 Y133.090 E6.4881
G1 X23.020 Y95.480 E7.9892
G1 X10.410 Y95.480 E8.4925
G1 X8.020 Y93.090 E8.6274
G1 X8.020 Y89.230 E8.7815
G1 X7.700 Y88.910 E8.7995
G1 X7.700 Y77.090 E9.2713
G1 X10.090 Y74.700 E9.4062
G1 X199.910 Y74.700 E16.9823
G1 X202.300 Y77.090 E17.1172
G1 X202.300 Y88.910 E17.5890
G1 X201.980 Y89.230 E17.6071
G1 X201.980 Y93.090 E17.7611
G1 X199.590 Y95.480 E17.8960
G1 X186.980 Y95.480 E18.3993
G1 X186.980 Y133.090 E19.9004
G1 X184.590 Y135.480 E20.0353
G1 X184.391 Y135.000 F18000
G92 E0.0000
G1 X25.609 Y135.000 E6.3374 F1800
G1 X23.500 Y132.891 E6.4564
G1 X23.500 Y95.000 E7.9687
G1 X10.609 Y95.000 E8.4832
G1 X8.500 Y92.891 E8.6023
G1 X8.500 Y89.031 E8.7563
G1 X8.180 Y88.711 E8.7744
G1 X8.180 Y77.289 E9.2303
G1 X10.289 Y75.180 E9.3493
G1 X199.711 Y75.180 E16.9095
G1 X201.820 Y77.289 E17.0286
G1 X201.820 Y88.711 E17.4845
G1 X201.500 Y89.031 E17.5025
G1 X201.500 Y92.891 E17.6566
G1 X199.391 Y95.000 E17.7756
G1 X186.500 Y95.000 E18.2902
G1 X186.500 Y132.891 E19.8025
G1 X184.391 Y135.000 E19.9215
G1 X184.192 Y134.520 F18000
G92 E0.0000
G1 X25.807 Y134.520 E6.3215 F1800
G1 X23.980 Y132.692 E6.4246
G1 X23.980 Y94.520 E7.9482
G1 X10.807 Y94.520 E8.4739
G1 X8.980 Y92.692 E8.5771
G1 X8.980 Y88.832 E8.7312
G1 X8.660 Y88.512 E8.7492
G1 X8.660 Y77.488 E9.1892
G1 X10.488 Y75.660 E9.2924
G1 X199.512 Y75.660 E16.8368
G1 X201.340 Y77.488 E16.9399
G1 X201.340 Y88.512 E17.3799
G1 X201.020 Y88.832 E17.3980
G1 X201.020 Y92.692 E17.5521
G1 X199.193 Y94.520 E17.6552
G1 X186.020 Y94.520 E18.1810
G1 X186.020 Y132.692 E19.7045
G1 X184.192 Y134.520 E19.8077
G1 X183.994 Y134.040 F18000
G92 E0.0000
G1 X26.006 Y134.040 E6.3056 F1800
G1 X24.460 Y132.493 E6.3929
G1 X24.460 Y94.040 E7.9277
G1 X11.006 Y94.040 E8.4646
G1 X9.460 Y92.494 E8.5519
G1 X9.460 Y88.903 E8.6952
G1 X9.595 Y88.768 E8.7028
G1 X9.140 Y88.314 E8.7285
G1 X9.140 Y77.686 E9.1526
G1 X10.687 Y76.140 E9.2399
G1 X199.314 Y76.140 E16.7684
G1 X200.860 Y77.686 E16.8557
G1 X200.860 Y88.314 E17.2799
G1 X200.405 Y88.768 E17.3055
G1 X200.540 Y88.903 E17.3131
G1 X200.540 Y92.494 E17.4565
G1 X198.994 Y94.040 E17.5438
G1 X185.540 Y94.040 E18.0807
G1 X185.540 Y132.493 E19.6155
G1 X183.994 Y134.040 E19.7028
G1 X183.795 Y133.560 F18000
G92 E0.0000
G1 X26.205 Y133.560 E6.2897 F1800
G1 X24.940 Y132.295 E6.3612
G1 X24.940 Y93.560 E7.9071
G1 X11.205 Y93.560 E8.4553
G1 X9.940 Y92.295 E8.5267
G1 X9.940 Y89.102 E8.6542
G1 X10.273 Y88.768 E8.6730
G1 X9.620 Y88.115 E8.7099
G1 X9.620 Y77.885 E9.1182
G1 X10.885 Y76.620 E9.1896
G1 X199.115 Y76.620 E16.7022
G1 X200.380 Y77.885 E16.7737
G1 X200.380 Y88.115 E17.1819
G1 X199.727 Y88.768 E17.2188
G1 X200.060 Y89.102 E17.2376
G1 X200.060 Y92.295 E17.3651
G1 X198.795 Y93.560 E17.4365
G1 X185.060 Y93.560 E17.9847
G1 X185.060 Y132.295 E19.5307
G1 X183.795 Y133.560 E19.6021
G1 X183.596 Y133.080 F18000
G92 E0.0000
G1 X26.404 Y133.080 E6.2739 F1800
G1 X25.420 Y132.096 E6.3294
G1 X25.420 Y93.080 E7.8866
G1 X11.404 Y93.080 E8.4460
G1 X10.420 Y92.096 E8.5016
G1 X10.420 Y89.300 E8.6132
G1 X10.952 Y88.768 E8.6432
G1 X10.100 Y87.916 E8.6913
G1 X10.100 Y78.084 E9.0837
G1 X11.084 Y77.100 E9.1393
G1 X198.916 Y77.100 E16.6360
G1 X199.900 Y78.084 E16.6916
G1 X199.900 Y87.916 E17.0840
G1 X199.048 Y88.768 E17.1321
G1 X199.580 Y89.300 E17.1621
G1 X199.580 Y92.096 E17.2737
G1 X198.596 Y93.080 E17.3293
G1 X184.580 Y93.080 E17.8887
G1 X184.580 Y132.096 E19.4459
G1 X183.596 Y133.080 E19.5014
G1 X183.397 Y132.600 F18000
G92 E0.0000
G1 X26.603 Y132.600 E6.2580 F1800
G1 X25.900 Y131.897 E6.2977
G1 X25.900 Y92.600 E7.8661
G1 X11.603 Y92.600 E8.4367
G1 X10.900 Y91.897 E8.4764
G1 X10.900 Y89.499 E8.5721
G1 X11.603 Y88.796 E8.6118
G1 X198.397 Y88.796 E16.0672
G1 X199.100 Y89.499 E16.1068
G1 X199.100 Y91.897 E16.2025
G1 X198.397 Y92.600 E16.2422
G1 X184.100 Y92.600 E16.8129
G1 X184.100 Y131.897 E18.3813
G1 X183.397 Y132.600 E18.4210
G1 X183.198 Y132.120 F18000
G92 E0.0000
G1 X26.802 Y132.120 E6.2421 F1800
G1 X26.380 Y131.698 E6.2659
G1 X26.380 Y92.120 E7.8456
G1 X11.802 Y92.120 E8.4274
G1 X11.380 Y91.698 E8.4512
G1 X11.380 Y89.698 E8.5311
G1 X11.802 Y89.276 E8.5549
G1 X198.198 Y89.276 E15.9944
G1 X198.620 Y89.698 E16.0182
G1 X198.620 Y91.698 E16.0980
G1 X198.198 Y92.120 E16.1218
G1 X183.620 Y92.120 E16.7037
G1 X183.620 Y131.698 E18.2833
G1 X183.198 Y132.120 E18.3071
G1 X182.999 Y131.640 F18000
G92 E0.0000
G1 X27.000 Y131.640 E6.2263 F1800
G1 X26.860 Y131.499 E6.2342
G1 X26.860 Y91.640 E7.8251
G1 X12.000 Y91.640 E8.4181
G1 X11.860 Y91.499 E8.4261
G1 X11.860 Y89.897 E8.4900
G1 X12.000 Y89.756 E8.4980
G1 X197.999 Y89.756 E15.9216
G1 X198.140 Y89.897 E15.9295
G1 X198.140 Y91.500 E15.9935
G1 X198.000 Y91.640 E16.0014
G1 X183.140 Y91.640 E16.5945
G1 X183.140 Y131.499 E18.1854
G1 X182.999 Y131.640 E18.1933
; feature inner perimeter
G1 X182.660 Y131.160 F18000
G1 X182.555 Y131.160
G1 X181.220 Y129.720
G92 E0.0000
G1 X28.780 Y129.720 E6.0842 F1350
G1 X28.780 Y91.676 E7.6026
G1 X181.220 Y91.676 E13.6868
G1 X181.220 Y129.520 E15.1973
G1 X181.220 Y129.720 F1350
G1 X181.700 Y130.200 F18000
G92 E0.0000
G1 X28.300 Y130.200 E6.1225 F1350
G1 X28.300 Y91.196 E7.6793
G1 X181.700 Y91.196 E13.8018
G1 X181.700 Y130.000 E15.3505
G1 X181.700 Y130.200 F1350
G1 X182.180 Y130.680 F18000
G92 E0.0000
G1 X27.820 Y130.680 E6.1609 F1350
G1 X27.820 Y90.716 E7.7559
G1 X182.180 Y90.716 E13.9167
G1 X182.180 Y130.480 E15.5038
G1 X182.180 Y130.680 F1350
; feature outer perimeter
G1 X182.660 Y131.160 F18000
G92 E0.0000
G1 X27.340 Y131.160 E6.1992 F900
G1 X27.340 Y91.160 E7.7957
G1 X12.340 Y91.160 E8.3943
G1 X12.340 Y90.236 E8.4312
G1 X197.660 Y90.236 E15.8277
G1 X197.660 Y91.160 E15.8646
G1 X182.660 Y91.160 E16.4633
G1 X182.660 Y130.960 E18.0518
G1 X182.660 Y131.160 F900
G1 X177.660 Y131.160 F900
; feature inner perimeter
G1 X134.818 Y113.662 F18000
G92 E0.0000
G1 X134.970 Y113.285 E0.0162 F1350
G1 X135.090 Y112.906 E0.0321
G1 X135.184 Y112.510 E0.0483
G1 X135.247 Y112.106 E0.0647
G1 X135.277 Y111.699 E0.0809
G1 X135.278 Y111.301 E0.0968
G1 X135.246 Y110.894 E0.1131
G1 X135.184 Y110.492 E0.1294
G1 X135.093 Y110.105 E0.1452
G1 X134.971 Y109.716 E0.1615
G1 X134.818 Y109.337 E0.1778
G1 X134.642 Y108.982 E0.1936
G1 X134.434 Y108.631 E0.2099
G1 X134.199 Y108.297 E0.2262
G1 X133.946 Y107.990 E0.2421
G1 X133.664 Y107.696 E0.2583
G1 X133.334 Y107.402 E0.2760
G1 X132.731 Y106.978 E0.3054
G1 X132.343 Y106.767 E0.3230
G1 X131.981 Y106.604 E0.3389
G1 X131.597 Y106.466 E0.3552
G1 X131.203 Y106.358 E0.3715
G1 X130.813 Y106.282 E0.3873
G1 X130.409 Y106.235 E0.4036
G1 X130.000 Y106.219 E0.4199
G1 X129.592 Y106.235 E0.4362
G1 X129.198 Y106.280 E0.4520
G1 X128.798 Y106.357 E0.4683
G1 X128.415 Y106.463 E0.4841
G1 X128.032 Y106.599 E0.5004
G1 X127.658 Y106.766 E0.5167
G1 X127.299 Y106.962 E0.5330
G1 X126.966 Y107.177 E0.5489
G1 X126.641 Y107.424 E0.5651
G1 X126.337 Y107.696 E0.5814
G1 X126.061 Y107.982 E0.5973
G1 X125.802 Y108.296 E0.6135
G1 X125.566 Y108.631 E0.6299
G1 X125.358 Y108.981 E0.6462
G1 X125.182 Y109.337 E0.6620
G1 X125.029 Y109.715 E0.6783
G1 X124.909 Y110.094 E0.6941
G1 X124.816 Y110.490 E0.7104
G1 X124.753 Y110.895 E0.7267
G1 X124.722 Y111.301 E0.7430
G1 X124.722 Y111.699 E0.7589
G1 X124.753 Y112.094 E0.7747
G1 X124.815 Y112.506 E0.7913
G1 X124.906 Y112.895 E0.8073
G1 X125.029 Y113.284 E0.8235
G1 X125.182 Y113.663 E0.8398
G1 X125.358 Y114.019 E0.8557
G1 X125.566 Y114.369 E0.8719
G1 X125.820 Y114.731 E0.8896
G1 X126.311 Y115.282 E0.9190
G1 X126.641 Y115.575 E0.9367
G1 X126.957 Y115.816 E0.9525
G1 X127.299 Y116.038 E0.9688
G1 X127.657 Y116.233 E0.9851
G1 X128.019 Y116.396 E1.0009
G1 X128.402 Y116.534 E1.0172
G1 X128.829 Y116.652 E1.0349
G1 X129.558 Y116.764 E1.0643
G1 X130.000 Y116.781 E1.0819
G1 X130.407 Y116.766 E1.0982
G1 X130.802 Y116.720 E1.1141
G1 X131.202 Y116.643 E1.1303
G1 X131.585 Y116.538 E1.1462
G1 X131.968 Y116.401 E1.1624
G1 X132.342 Y116.234 E1.1788
G1 X132.700 Y116.039 E1.1950
G1 X133.034 Y115.823 E1.2109
G1 X133.359 Y115.576 E1.2272
G1 X133.689 Y115.282 E1.2448
G1 X134.179 Y114.731 E1.2742
G1 X134.434 Y114.370 E1.2919
G1 X134.642 Y114.019 E1.3082
G1 X134.730 Y113.841 E1.3161
G1 X134.818 Y113.662 F1350
G1 X134.380 Y113.466 F18000
G92 E0.0000
G1 X134.518 Y113.122 E0.0148 F1350
G1 X134.627 Y112.779 E0.0292
G1 X134.712 Y112.418 E0.0439
G1 X134.769 Y112.050 E0.0588
G1 X134.797 Y111.681 E0.0736
G1 X134.798 Y111.320 E0.0880
G1 X134.769 Y110.949 E0.1028
G1 X134.712 Y110.583 E0.1176
G1 X134.630 Y110.232 E0.1320
G1 X134.519 Y109.878 E0.1468
G1 X134.380 Y109.534 E0.1616
G1 X134.220 Y109.211 E0.1760
G1 X134.031 Y108.892 E0.1908
G1 X133.817 Y108.588 E0.2057
G1 X133.587 Y108.310 E0.2201
G1 X133.331 Y108.042 E0.2348
G1 X133.035 Y107.779 E0.2506
G1 X132.477 Y107.386 E0.2779
G1 X132.129 Y107.197 E0.2937
G1 X131.801 Y107.050 E0.3081
G1 X131.452 Y106.924 E0.3229
