; G-Code generated by Simplify3D(R) Version 4.1.2
; Apr 9, 2021 at 9:59:10 PM
; Settings Summary
;   processName,V6
;   applyToModels,gut
;   profileName,HBot
;   profileVersion,2021-04-01 14:49:35
;   baseProfile,Default
;   printMaterial,PLA - Basicfil
;   printQuality,Medium
;   printExtruders,
;   extruderName,Extruder 1,Extruder 2 - support
;   extruderToolheadNumber,0,1
;   extruderDiameter,0.4,0.4
;   extruderAutoWidth,1,1
;   extruderWidth,0.48,0.48
;   extrusionMultiplier,1,1
;   extruderUseRetract,1,1
;   extruderRetractionDistance,3,1
;   extruderExtraRestartDistance,0,0
;   extruderRetractionZLift,0,0
;   extruderRetractionSpeed,5400,1800
;   extruderUseCoasting,1,1
;   extruderCoastingDistance,0.2,0.2
;   extruderUseWipe,1,1
;   extruderWipeDistance,0.4,0.4
;   primaryExtruder,0
;   layerHeight,0.2
;   topSolidLayers,4
;   bottomSolidLayers,4
;   perimeterOutlines,4
;   printPerimetersInsideOut,1
;   startPointOption,3
;   startPointOriginX,0
;   startPointOriginY,110
;   sequentialIslands,0
;   spiralVaseMode,0
;   firstLayerHeightPercentage,100
;   firstLayerWidthPercentage,100
;   firstLayerUnderspeed,0.5
;   useRaft,0
;   raftExtruder,0
;   raftTopLayers,3
;   raftBaseLayers,2
;   raftOffset,3
;   raftSeparationDistance,0.18
;   raftTopInfill,100
;   aboveRaftSpeedMultiplier,0.3
;   useSkirt,1
;   skirtExtruder,0
;   skirtLayers,1
;   skirtOutlines,3
;   skirtOffset,10
;   usePrimePillar,0
;   primePillarExtruder,999
;   primePillarWidth,12
;   primePillarLocation,7
;   primePillarSpeedMultiplier,1
;   useOozeShield,0
;   oozeShieldExtruder,999
;   oozeShieldOffset,1.4
;   oozeShieldOutlines,1
;   oozeShieldSidewallShape,0
;   oozeShieldSidewallAngle,30
;   oozeShieldSpeedMultiplier,1.5
;   infillExtruder,0
;   internalInfillPattern,Fast Honeycomb
;   externalInfillPattern,Rectilinear
;   infillPercentage,15
;   outlineOverlapPercentage,25
;   infillExtrusionWidthPercentage,100
;   minInfillLength,5
;   infillLayerInterval,1
;   internalInfillAngles,0
;   overlapInternalInfillAngles,0
;   externalInfillAngles,45,-45
;   generateSupport,0
;   supportExtruder,0
;   supportInfillPercentage,25
;   supportExtraInflation,0
;   supportBaseLayers,0
;   denseSupportExtruder,1
;   denseSupportLayers,6
;   denseSupportInfillPercentage,100
;   supportLayerInterval,1
;   supportHorizontalPartOffset,0
;   supportUpperSeparationLayers,0
;   supportLowerSeparationLayers,0
;   supportType,0
;   supportGridSpacing,2
;   maxOverhangAngle,25
;   supportAngles,0
;   temperatureName,Extruder 1,Heated Bed,Extruder 2 - support
;   temperatureNumber,0,1,1
;   temperatureSetpointCount,2,1,1
;   temperatureSetpointLayers,1,2,1,1
;   temperatureSetpointTemperatures,205,205,65,0
;   temperatureStabilizeAtStartup,1,1,1
;   temperatureHeatedBed,0,1,0
;   fanLayers,1,3,10
;   fanSpeeds,0,65,100
;   blipFanToFullPower,1
;   adjustSpeedForCooling,0
;   minSpeedLayerTime,15
;   minCoolingSpeedSlowdown,20
;   increaseFanForCooling,1
;   minFanLayerTime,15
;   maxCoolingFanSpeed,100
;   increaseFanForBridging,1
;   bridgingFanSpeed,100
;   use5D,1
;   relativeEdistances,0
;   allowEaxisZeroing,1
;   independentExtruderAxes,0
;   includeM10123,0
;   stickySupport,1
;   applyToolheadOffsets,0
;   gcodeXoffset,0
;   gcodeYoffset,0
;   gcodeZoffset,0
;   overrideMachineDefinition,1
;   machineTypeOverride,0
;   strokeXoverride,210
;   strokeYoverride,210
;   strokeZoverride,150
;   originOffsetXoverride,0
;   originOffsetYoverride,0
;   originOffsetZoverride,0
;   homeXdirOverride,1
;   homeYdirOverride,-1
;   homeZdirOverride,-1
;   flipXoverride,1
;   flipYoverride,-1
;   flipZoverride,1
;   toolheadOffsets,0,0|0,0|0,0|0,0|0,0|0,0
;   overrideFirmwareConfiguration,0
;   firmwareTypeOverride,RepRap (Marlin/Repetier/Sprinter)
;   GPXconfigOverride,r2
;   baudRateOverride,115200
;   overridePrinterModels,0
;   printerModelsOverride
;   startingGcode,;G28 is now included in bed.g G28 ; home all axes,G32 ; run bed.g -- probe bed and enable compensation
;   layerChangeGcode,
;   retractionGcode,
;   toolChangeGcode,
;   endingGcode,M0 ; call stop.g
;   exportFileFormat,gcode
;   celebration,0
;   celebrationSong,Random Song
;   postProcessing,
;   defaultSpeed,3600
;   outlineUnderspeed,0.5
;   solidInfillUnderspeed,0.8
;   supportUnderspeed,0.8
;   rapidXYspeed,18000
;   rapidZspeed,1200
;   minBridgingArea,50
;   bridgingExtraInflation,0
;   bridgingExtrusionMultiplier,0.96
;   bridgingSpeedMultiplier,1
;   useFixedBridgingAngle,0
;   fixedBridgingAngle,0
;   applyBridgingToPerimeters,0
;   filamentDiameters,1.75|1.75|1.75|1.75|1.75|1.75
;   filamentPricesPerKg,46|46|46|46|46|46
;   filamentDensities,1.25|1.25|1.25|1.25|1.25|1.25
;   useMinPrintHeight,0
;   minPrintHeight,0
;   useMaxPrintHeight,0
;   maxPrintHeight,12.79
;   useDiaphragm,0
;   diaphragmLayerInterval,20
;   robustSlicing,1
;   mergeAllIntoSolid,0
;   onlyRetractWhenCrossingOutline,1
;   retractBetweenLayers,0
;   useRetractionMinTravel,1
;   retractionMinTravel,3
;   retractWhileWiping,1
;   onlyWipeOutlines,1
;   avoidCrossingOutline,1
;   maxMovementDetourFactor,5
;   toolChangeRetractionDistance,7.5
;   toolChangeExtraRestartDistance,0
;   toolChangeRetractionSpeed,600
;   externalThinWallType,1
;   internalThinWallType,1
;   thinWallAllowedOverlapPercentage,10
;   singleExtrusionMinLength,1
;   singleExtrusionMinPrintingWidthPercentage,50
;   singleExtrusionMaxPrintingWidthPercentage,150
;   singleExtrusionEndpointExtension,0.2
;   horizontalSizeCompensation,0
G90
M82
M106 S0
M140 S65
M190 S65
G10 P0 S205 R{205-50}
G10 P1 S0 R{0-50}
M116 P0
;G28 is now included in bed.g G28 ; home all axes
G32 ; run bed.g -- probe bed and enable compensation
; process V6
; layer 1, Z = 0.200
T0
G92 E0.0000
G1 E-3.0000 F5400
; feature skirt
; tool H0.200 W0.480
G1 Z0.200 F1200
G1 X80.122 Y106.690 F18000
G1 E0.0000 F5400
G92 E0.0000
G1 X80.080 Y104.808 E0.0751 F1800
G1 X80.098 Y104.210 E0.0990
G1 X80.260 Y102.301 E0.1755
G1 X80.319 Y101.837 E0.1941
G1 X80.557 Y100.433 E0.2510
G1 X80.660 Y99.955 E0.2705
G1 X81.134 Y98.139 E0.3454
G1 X81.300 Y97.611 E0.3675
G1 X81.783 Y96.306 E0.4230
G1 X82.001 Y95.796 E0.4452
G1 X82.772 Y94.212 E0.5155
G1 X83.024 Y93.751 E0.5364
G1 X83.684 Y92.667 E0.5871
G1 X83.895 Y92.347 E0.6024
G1 X84.613 Y91.330 E0.6521
G1 X84.889 Y90.972 E0.6701
G1 X86.001 Y89.641 E0.7394
G1 X86.365 Y89.245 E0.7608
G1 X87.625 Y88.003 E0.8314
G1 X88.021 Y87.647 E0.8527
G1 X89.386 Y86.535 E0.9229
G1 X89.806 Y86.224 E0.9438
G1 X91.266 Y85.246 E1.0139
G1 X91.702 Y84.982 E1.0343
G1 X93.245 Y84.140 E1.1044
G1 X93.691 Y83.922 E1.1242
G1 X95.307 Y83.218 E1.1946
G1 X95.757 Y83.045 E1.2138
G1 X97.430 Y82.482 E1.2843
G1 X97.888 Y82.349 E1.3033
G1 X99.599 Y81.931 E1.3736
G1 X100.066 Y81.838 E1.3926
G1 X101.764 Y81.574 E1.4612
G1 X102.156 Y81.527 E1.4770
G1 X103.400 Y81.422 E1.5268
G1 X103.792 Y81.403 E1.5425
G1 X105.467 Y81.379 E1.6093
G1 X105.859 Y81.387 E1.6250
G1 X107.145 Y81.460 E1.6764
G1 X107.615 Y81.506 E1.6952
G1 X109.817 Y81.817 E1.7840
G1 X110.362 Y81.922 E1.8062
G1 X112.112 Y82.349 E1.8781
G1 X112.570 Y82.482 E1.8971
G1 X114.243 Y83.045 E1.9675
G1 X114.693 Y83.218 E1.9868
G1 X116.309 Y83.922 E2.0571
G1 X116.755 Y84.140 E2.0769
G1 X118.298 Y84.982 E2.1471
G1 X118.734 Y85.246 E2.1674
G1 X120.194 Y86.224 E2.2376
G1 X120.614 Y86.535 E2.2584
G1 X121.979 Y87.647 E2.3287
G1 X122.375 Y88.003 E2.3499
G1 X123.635 Y89.245 E2.4206
G1 X123.999 Y89.641 E2.4420
G1 X125.111 Y90.972 E2.5112
G1 X125.387 Y91.330 E2.5293
G1 X126.105 Y92.347 E2.5790
G1 X126.316 Y92.667 E2.5943
G1 X126.976 Y93.751 E2.6449
G1 X127.228 Y94.212 E2.6659
G1 X128.025 Y95.848 E2.7385
G1 X128.282 Y96.469 E2.7654
G1 X128.897 Y98.244 E2.8403
G1 X129.048 Y98.760 E2.8618
G1 X129.384 Y100.149 E2.9188
G1 X129.477 Y100.621 E2.9380
G1 X129.769 Y102.538 E3.0155
G1 X129.826 Y103.102 E3.0380
G1 X129.924 Y105.037 E3.1154
G1 X129.921 Y105.657 E3.1401
G1 X129.808 Y107.517 E3.2145
G1 X129.731 Y108.165 E3.2406
G1 X129.407 Y109.977 E3.3140
G1 X129.265 Y110.580 E3.3387
G1 X128.733 Y112.379 E3.4136
G1 X128.536 Y112.935 E3.4372
G1 X127.804 Y114.701 E3.5135
G1 X127.538 Y115.255 E3.5380
G1 X126.636 Y116.896 E3.6127
G1 X126.347 Y117.367 E3.6348
G1 X125.563 Y118.509 E3.6901
G1 X125.246 Y118.928 E3.7110
G1 X124.065 Y120.344 E3.7847
G1 X123.673 Y120.768 E3.8077
G1 X122.330 Y122.077 E3.8825
G1 X121.933 Y122.430 E3.9038
G1 X120.489 Y123.592 E3.9777
G1 X120.064 Y123.903 E3.9987
G1 X118.566 Y124.892 E4.0704
G1 X118.188 Y125.120 E4.0880
G1 X117.080 Y125.733 E4.1385
G1 X116.766 Y125.894 E4.1526
G1 X115.665 Y126.415 E4.2012
G1 X115.345 Y126.554 E4.2152
G1 X114.215 Y127.005 E4.2637
G1 X113.891 Y127.123 E4.2775
G1 X112.697 Y127.516 E4.3277
G1 X112.286 Y127.634 E4.3447
G1 X110.561 Y128.059 E4.4156
G1 X110.071 Y128.157 E4.4356
G1 X108.309 Y128.428 E4.5067
G1 X107.915 Y128.474 E4.5226
G1 X106.667 Y128.576 E4.5726
G1 X106.361 Y128.593 E4.5848
G1 X105.150 Y128.625 E4.6331
G1 X104.850 Y128.625 E4.6451
G1 X103.600 Y128.592 E4.6950
G1 X103.216 Y128.568 E4.7103
G1 X101.443 Y128.398 E4.7814
G1 X100.965 Y128.332 E4.8007
G1 X99.175 Y128.003 E4.8733
G1 X98.681 Y127.889 E4.8936
G1 X96.927 Y127.399 E4.9662
G1 X96.438 Y127.238 E4.9868
G1 X94.734 Y126.589 E5.0596
G1 X94.254 Y126.379 E5.0805
G1 X92.653 Y125.591 E5.1517
G1 X92.265 Y125.381 E5.1693
G1 X91.176 Y124.733 E5.2199
G1 X90.879 Y124.543 E5.2340
G1 X89.829 Y123.826 E5.2847
G1 X89.476 Y123.564 E5.3022
G1 X88.103 Y122.459 E5.3726
G1 X87.772 Y122.170 E5.3902
G1 X86.798 Y121.251 E5.4436
G1 X86.470 Y120.914 E5.4624
G1 X85.238 Y119.539 E5.5360
G1 X84.853 Y119.058 E5.5606
G1 X83.772 Y117.546 E5.6348
G1 X83.473 Y117.081 E5.6569
G1 X82.780 Y115.874 E5.7124
G1 X82.541 Y115.410 E5.7333
G1 X81.786 Y113.757 E5.8058
G1 X81.600 Y113.296 E5.8256
G1 X81.146 Y112.012 E5.8800
G1 X81.002 Y111.541 E5.8997
G1 X80.551 Y109.787 E5.9719
G1 X80.427 Y109.162 E5.9974
G1 X80.174 Y107.337 E6.0709
G1 X80.122 Y106.690 E6.0968
G1 X80.601 Y106.665 F18000
G92 E0.0000
G1 X80.560 Y104.810 E0.0741 F1800
G1 X80.578 Y104.238 E0.0969
G1 X80.738 Y102.352 E0.1725
G1 X80.794 Y101.908 E0.1903
G1 X81.029 Y100.524 E0.2463
G1 X81.127 Y100.066 E0.2650
G1 X81.596 Y98.272 E0.3390
G1 X81.755 Y97.766 E0.3602
G1 X82.229 Y96.484 E0.4148
G1 X82.438 Y95.995 E0.4360
G1 X83.199 Y94.432 E0.5054
G1 X83.440 Y93.991 E0.5254
G1 X84.090 Y92.924 E0.5753
G1 X84.291 Y92.617 E0.5899
G1 X85.000 Y91.615 E0.6389
G1 X85.264 Y91.272 E0.6562
G1 X86.362 Y89.957 E0.7246
G1 X86.711 Y89.579 E0.7451
G1 X87.954 Y88.352 E0.8148
G1 X88.333 Y88.012 E0.8351
G1 X89.680 Y86.914 E0.9045
G1 X90.083 Y86.616 E0.9245
G1 X91.524 Y85.651 E0.9937
G1 X91.942 Y85.398 E1.0132
G1 X93.466 Y84.567 E1.0825
G1 X93.892 Y84.358 E1.1015
G1 X95.489 Y83.663 E1.1710
G1 X95.920 Y83.497 E1.1894
G1 X97.573 Y82.940 E1.2590
G1 X98.012 Y82.813 E1.2772
G1 X99.703 Y82.400 E1.3467
G1 X100.150 Y82.311 E1.3649
G1 X101.830 Y82.049 E1.4328
G1 X102.204 Y82.004 E1.4478
G1 X103.432 Y81.901 E1.4970
G1 X103.807 Y81.883 E1.5120
G1 X105.465 Y81.859 E1.5782
G1 X105.841 Y81.867 E1.5932
G1 X107.108 Y81.938 E1.6438
G1 X107.558 Y81.983 E1.6619
G1 X109.738 Y82.291 E1.7498
G1 X110.260 Y82.391 E1.7710
G1 X111.988 Y82.813 E1.8420
G1 X112.427 Y82.940 E1.8602
G1 X114.080 Y83.497 E1.9298
G1 X114.511 Y83.663 E1.9482
G1 X116.108 Y84.358 E2.0178
G1 X116.534 Y84.567 E2.0367
G1 X118.058 Y85.398 E2.1060
G1 X118.476 Y85.651 E2.1255
G1 X119.917 Y86.617 E2.1947
G1 X120.320 Y86.914 E2.2147
G1 X121.667 Y88.012 E2.2841
G1 X122.046 Y88.352 E2.3044
G1 X123.289 Y89.579 E2.3741
G1 X123.638 Y89.957 E2.3946
G1 X124.736 Y91.272 E2.4630
G1 X125.000 Y91.615 E2.4803
G1 X125.709 Y92.617 E2.5293
G1 X125.910 Y92.924 E2.5439
G1 X126.560 Y93.991 E2.5938
G1 X126.801 Y94.432 E2.6139
G1 X127.587 Y96.045 E2.6855
G1 X127.833 Y96.639 E2.7111
G1 X128.440 Y98.390 E2.7851
G1 X128.584 Y98.884 E2.8056
G1 X128.915 Y100.252 E2.8618
G1 X129.004 Y100.704 E2.8802
G1 X129.293 Y102.599 E2.9567
G1 X129.348 Y103.138 E2.9783
G1 X129.444 Y105.048 E3.0546
G1 X129.441 Y105.641 E3.0783
G1 X129.330 Y107.474 E3.1516
G1 X129.256 Y108.094 E3.1765
G1 X128.937 Y109.879 E3.2489
G1 X128.801 Y110.456 E3.2726
G1 X128.276 Y112.231 E3.3464
G1 X128.088 Y112.763 E3.3690
G1 X127.366 Y114.505 E3.4442
G1 X127.111 Y115.036 E3.4677
G1 X126.222 Y116.655 E3.5414
G1 X125.944 Y117.105 E3.5626
G1 X125.174 Y118.228 E3.6169
G1 X124.870 Y118.629 E3.6370
G1 X123.704 Y120.028 E3.7097
G1 X123.329 Y120.433 E3.7317
G1 X122.004 Y121.726 E3.8056
G1 X121.623 Y122.063 E3.8259
G1 X120.197 Y123.211 E3.8990
G1 X119.790 Y123.508 E3.9191
G1 X118.309 Y124.486 E3.9899
G1 X117.948 Y124.705 E4.0068
G1 X116.855 Y125.309 E4.0566
G1 X116.554 Y125.463 E4.0701
G1 X115.466 Y125.978 E4.1181
G1 X115.160 Y126.111 E4.1315
G1 X114.044 Y126.556 E4.1794
G1 X113.734 Y126.669 E4.1926
G1 X112.555 Y127.057 E4.2421
G1 X112.162 Y127.170 E4.2585
G1 X110.457 Y127.591 E4.3286
G1 X109.987 Y127.685 E4.3477
G1 X108.245 Y127.952 E4.4180
G1 X107.867 Y127.996 E4.4332
G1 X106.634 Y128.097 E4.4826
G1 X106.341 Y128.113 E4.4943
G1 X105.143 Y128.145 E4.5421
G1 X104.857 Y128.145 E4.5536
G1 X103.621 Y128.112 E4.6029
G1 X103.254 Y128.090 E4.6176
G1 X101.499 Y127.922 E4.6879
G1 X101.042 Y127.858 E4.7064
G1 X99.272 Y127.533 E4.7782
G1 X98.799 Y127.424 E4.7975
G1 X97.067 Y126.940 E4.8693
G1 X96.598 Y126.786 E4.8890
G1 X94.915 Y126.144 E4.9609
G1 X94.456 Y125.944 E4.9809
G1 X92.874 Y125.164 E5.0513
G1 X92.503 Y124.963 E5.0681
G1 X91.428 Y124.324 E5.1181
G1 X91.143 Y124.143 E5.1315
G1 X90.108 Y123.435 E5.1816
G1 X89.770 Y123.184 E5.1984
G1 X88.412 Y122.091 E5.2680
G1 X88.094 Y121.814 E5.2848
G1 X87.135 Y120.909 E5.3374
G1 X86.821 Y120.586 E5.3554
G1 X85.604 Y119.229 E5.4281
G1 X85.236 Y118.768 E5.4517
G1 X84.170 Y117.277 E5.5249
G1 X83.883 Y116.831 E5.5460
G1 X83.201 Y115.645 E5.6006
G1 X82.973 Y115.201 E5.6205
G1 X82.227 Y113.567 E5.6922
G1 X82.049 Y113.126 E5.7112
G1 X81.602 Y111.862 E5.7647
G1 X81.464 Y111.411 E5.7835
G1 X81.019 Y109.681 E5.8548
G1 X80.901 Y109.083 E5.8792
G1 X80.651 Y107.285 E5.9516
G1 X80.601 Y106.665 E5.9764
G1 X81.081 Y106.641 F18000
G92 E0.0000
G1 X81.040 Y104.812 E0.0730 F1800
G1 X81.057 Y104.266 E0.0948
G1 X81.215 Y102.402 E0.1695
G1 X81.269 Y101.978 E0.1865
G1 X81.500 Y100.614 E0.2417
G1 X81.594 Y100.177 E0.2596
G1 X82.057 Y98.405 E0.3327
G1 X82.209 Y97.922 E0.3529
G1 X82.675 Y96.661 E0.4065
G1 X82.874 Y96.195 E0.4268
G1 X83.626 Y94.652 E0.4953
G1 X83.856 Y94.231 E0.5144
G1 X84.496 Y93.180 E0.5635
G1 X84.688 Y92.888 E0.5775
G1 X85.386 Y91.900 E0.6258
G1 X85.638 Y91.572 E0.6423
G1 X86.723 Y90.274 E0.7098
G1 X87.056 Y89.913 E0.7294
G1 X88.283 Y88.702 E0.7982
G1 X88.645 Y88.377 E0.8176
G1 X89.975 Y87.294 E0.8861
G1 X90.359 Y87.009 E0.9052
G1 X91.782 Y86.056 E0.9735
G1 X92.181 Y85.814 E0.9921
G1 X93.686 Y84.993 E1.0606
G1 X94.093 Y84.794 E1.0787
G1 X95.671 Y84.107 E1.1474
G1 X96.083 Y83.948 E1.1650
G1 X97.717 Y83.398 E1.2338
G1 X98.135 Y83.277 E1.2512
G1 X99.807 Y82.869 E1.3198
G1 X100.234 Y82.784 E1.3372
G1 X101.895 Y82.525 E1.4043
G1 X102.253 Y82.482 E1.4187
G1 X103.464 Y82.380 E1.4672
G1 X103.822 Y82.362 E1.4815
G1 X105.464 Y82.339 E1.5470
G1 X105.822 Y82.347 E1.5613
G1 X107.071 Y82.417 E1.6113
G1 X107.501 Y82.459 E1.6285
G1 X109.659 Y82.764 E1.7155
G1 X110.158 Y82.860 E1.7358
G1 X111.865 Y83.277 E1.8059
G1 X112.283 Y83.398 E1.8233
G1 X113.917 Y83.948 E1.8921
G1 X114.329 Y84.107 E1.9097
G1 X115.907 Y84.794 E1.9784
G1 X116.314 Y84.993 E1.9965
G1 X117.819 Y85.814 E2.0649
G1 X118.218 Y86.056 E2.0835
G1 X119.641 Y87.009 E2.1519
G1 X120.025 Y87.294 E2.1710
G1 X121.355 Y88.377 E2.2394
G1 X121.717 Y88.702 E2.2589
G1 X122.944 Y89.913 E2.3277
G1 X123.277 Y90.274 E2.3473
G1 X124.362 Y91.572 E2.4148
G1 X124.614 Y91.900 E2.4313
G1 X125.312 Y92.888 E2.4796
G1 X125.504 Y93.180 E2.4935
G1 X126.144 Y94.231 E2.5427
G1 X126.374 Y94.652 E2.5618
G1 X127.149 Y96.243 E2.6324
G1 X127.384 Y96.810 E2.6569
G1 X127.982 Y98.536 E2.7298
G1 X128.121 Y99.008 E2.7495
G1 X128.446 Y100.354 E2.8047
G1 X128.531 Y100.786 E2.8223
G1 X128.817 Y102.659 E2.8979
G1 X128.869 Y103.174 E2.9186
G1 X128.964 Y105.059 E2.9939
G1 X128.961 Y105.625 E3.0165
G1 X128.852 Y107.431 E3.0887
