; G-Code generated by Simplify3D(R) Version 4.1.2
; Apr 11, 2021 at 3:53:49 PM
; Settings Summary
;   processName,V6
;   applyToModels,Lock
;   profileName,HBot (modified)
;   profileVersion,2021-04-01 14:49:35
;   baseProfile,Default
;   printMaterial,PLA - Basicfil
;   printQuality,Medium
;   printExtruders,
;   extruderName,Extruder 1,Extruder 2 - support
;   extruderToolheadNumber,0,1
;   extruderDiameter,0.4,0.4
;   extruderAutoWidth,1,1
;   extruderWidth,0.48,0.48
;   extrusionMultiplier,1,1
;   extruderUseRetract,1,1
;   extruderRetractionDistance,3,1
;   extruderExtraRestartDistance,0,0
;   extruderRetractionZLift,0,0
;   extruderRetractionSpeed,5400,1800
;   extruderUseCoasting,1,1
;   extruderCoastingDistance,0.2,0.2
;   extruderUseWipe,1,1
;   extruderWipeDistance,0.4,0.4
;   primaryExtruder,0
;   layerHeight,0.2
;   topSolidLayers,4
;   bottomSolidLayers,4
;   perimeterOutlines,3
;   printPerimetersInsideOut,1
;   startPointOption,3
;   startPointOriginX,0
;   startPointOriginY,110
;   sequentialIslands,0
;   spiralVaseMode,0
;   firstLayerHeightPercentage,100
;   firstLayerWidthPercentage,100
;   firstLayerUnderspeed,0.5
;   useRaft,0
;   raftExtruder,0
;   raftTopLayers,3
;   raftBaseLayers,2
;   raftOffset,3
;   raftSeparationDistance,0.18
;   raftTopInfill,100
;   aboveRaftSpeedMultiplier,0.3
;   useSkirt,1
;   skirtExtruder,0
;   skirtLayers,1
;   skirtOutlines,3
;   skirtOffset,10
;   usePrimePillar,0
;   primePillarExtruder,999
;   primePillarWidth,12
;   primePillarLocation,7
;   primePillarSpeedMultiplier,1
;   useOozeShield,0
;   oozeShieldExtruder,999
;   oozeShieldOffset,1.4
;   oozeShieldOutlines,1
;   oozeShieldSidewallShape,0
;   oozeShieldSidewallAngle,30
;   oozeShieldSpeedMultiplier,1.5
;   infillExtruder,0
;   internalInfillPattern,Fast Honeycomb
;   externalInfillPattern,Rectilinear
;   infillPercentage,15
;   outlineOverlapPercentage,25
;   infillExtrusionWidthPercentage,100
;   minInfillLength,5
;   infillLayerInterval,1
;   internalInfillAngles,0
;   overlapInternalInfillAngles,0
;   externalInfillAngles,45,-45
;   generateSupport,1
;   supportExtruder,0
;   supportInfillPercentage,25
;   supportExtraInflation,0
;   supportBaseLayers,0
;   denseSupportExtruder,1
;   denseSupportLayers,0
;   denseSupportInfillPercentage,100
;   supportLayerInterval,1
;   supportHorizontalPartOffset,0.4
;   supportUpperSeparationLayers,1
;   supportLowerSeparationLayers,1
;   supportType,0
;   supportGridSpacing,2.5
;   maxOverhangAngle,45
;   supportAngles,0
;   temperatureName,Extruder 1,Heated Bed,Extruder 2 - support
;   temperatureNumber,0,1,1
;   temperatureSetpointCount,2,1,1
;   temperatureSetpointLayers,1,2,1,1
;   temperatureSetpointTemperatures,205,205,65,0
;   temperatureStabilizeAtStartup,1,1,1
;   temperatureHeatedBed,0,1,0
;   fanLayers,1,3,10
;   fanSpeeds,0,65,100
;   blipFanToFullPower,1
;   adjustSpeedForCooling,1
;   minSpeedLayerTime,15
;   minCoolingSpeedSlowdown,20
;   increaseFanForCooling,1
;   minFanLayerTime,15
;   maxCoolingFanSpeed,100
;   increaseFanForBridging,1
;   bridgingFanSpeed,100
;   use5D,1
;   relativeEdistances,0
;   allowEaxisZeroing,1
;   independentExtruderAxes,0
;   includeM10123,0
;   stickySupport,1
;   applyToolheadOffsets,0
;   gcodeXoffset,0
;   gcodeYoffset,0
;   gcodeZoffset,0
;   overrideMachineDefinition,1
;   machineTypeOverride,0
;   strokeXoverride,210
;   strokeYoverride,210
;   strokeZoverride,150
;   originOffsetXoverride,0
;   originOffsetYoverride,0
;   originOffsetZoverride,0
;   homeXdirOverride,1
;   homeYdirOverride,-1
;   homeZdirOverride,-1
;   flipXoverride,1
;   flipYoverride,-1
;   flipZoverride,1
;   toolheadOffsets,0,0|0,0|0,0|0,0|0,0|0,0
;   overrideFirmwareConfiguration,0
;   firmwareTypeOverride,RepRap (Marlin/Repetier/Sprinter)
;   GPXconfigOverride,r2
;   baudRateOverride,115200
;   overridePrinterModels,0
;   printerModelsOverride
;   startingGcode,;G28 is now included in bed.g G28 ; home all axes,G32 ; run bed.g -- probe bed and enable compensation
;   layerChangeGcode,
;   retractionGcode,
;   toolChangeGcode,
;   endingGcode,M0 ; call stop.g
;   exportFileFormat,gcode
;   celebration,0
;   celebrationSong,Random Song
;   postProcessing,
;   defaultSpeed,3600
;   outlineUnderspeed,0.5
;   solidInfillUnderspeed,0.8
;   supportUnderspeed,0.8
;   rapidXYspeed,21000
;   rapidZspeed,1200
;   minBridgingArea,50
;   bridgingExtraInflation,0
;   bridgingExtrusionMultiplier,0.96
;   bridgingSpeedMultiplier,1
;   useFixedBridgingAngle,0
;   fixedBridgingAngle,0
;   applyBridgingToPerimeters,0
;   filamentDiameters,1.75|1.75|1.75|1.75|1.75|1.75
;   filamentPricesPerKg,46|46|46|46|46|46
;   filamentDensities,1.25|1.25|1.25|1.25|1.25|1.25
;   useMinPrintHeight,0
;   minPrintHeight,0
;   useMaxPrintHeight,0
;   maxPrintHeight,12.79
;   useDiaphragm,0
;   diaphragmLayerInterval,20
;   robustSlicing,1
;   mergeAllIntoSolid,0
;   onlyRetractWhenCrossingOutline,1
;   retractBetweenLayers,0
;   useRetractionMinTravel,1
;   retractionMinTravel,3
;   retractWhileWiping,1
;   onlyWipeOutlines,1
;   avoidCrossingOutline,1
;   maxMovementDetourFactor,5
;   toolChangeRetractionDistance,7.5
;   toolChangeExtraRestartDistance,0
;   toolChangeRetractionSpeed,600
;   externalThinWallType,1
;   internalThinWallType,1
;   thinWallAllowedOverlapPercentage,10
;   singleExtrusionMinLength,1
;   singleExtrusionMinPrintingWidthPercentage,50
;   singleExtrusionMaxPrintingWidthPercentage,150
;   singleExtrusionEndpointExtension,0.2
;   horizontalSizeCompensation,0
G90
M82
M106 S0
M140 S65
M190 S65
G10 P0 S205 R{205-50}
G10 P1 S0 R{0-50}
M116 P0
;G28 is now included in bed.g G28 ; home all axes
G32 ; run bed.g -- probe bed and enable compensation
; process V6
; layer 1, Z = 0.200
T0
G92 E0.0000
G1 E-3.0000 F5400
; feature skirt
; tool H0.200 W0.480
G1 Z0.200 F1200
G1 X80.071 Y106.638 F21000
G1 E0.0000 F5400
G92 E0.0000
G1 X80.030 Y104.752 E0.0753 F1792
G1 X80.049 Y104.155 E0.0992
G1 X80.211 Y102.242 E0.1758
G1 X80.270 Y101.778 E0.1944
G1 X80.509 Y100.372 E0.2514
G1 X80.612 Y99.893 E0.2709
G1 X81.074 Y98.127 E0.3438
G1 X81.202 Y97.704 E0.3614
G1 X81.487 Y96.883 E0.3961
G1 X81.651 Y96.467 E0.4139
G1 X82.347 Y94.884 E0.4830
G1 X82.588 Y94.401 E0.5045
G1 X83.216 Y93.280 E0.5558
G1 X83.423 Y92.939 E0.5717
G1 X84.087 Y91.930 E0.6199
G1 X84.299 Y91.630 E0.6346
G1 X85.020 Y90.676 E0.6823
G1 X85.247 Y90.396 E0.6967
G1 X86.023 Y89.496 E0.7441
G1 X86.265 Y89.233 E0.7584
G1 X87.094 Y88.388 E0.8056
G1 X87.351 Y88.143 E0.8198
G1 X88.229 Y87.355 E0.8669
G1 X88.499 Y87.127 E0.8810
G1 X89.423 Y86.398 E0.9280
G1 X89.703 Y86.191 E0.9419
G1 X90.668 Y85.521 E0.9887
G1 X90.956 Y85.335 E1.0024
G1 X91.960 Y84.726 E1.0493
G1 X92.253 Y84.560 E1.0628
G1 X93.294 Y84.012 E1.1097
G1 X93.591 Y83.867 E1.1229
G1 X94.663 Y83.381 E1.1699
G1 X94.962 Y83.256 E1.1828
G1 X96.063 Y82.831 E1.2299
G1 X96.364 Y82.725 E1.2426
G1 X97.487 Y82.364 E1.2897
G1 X97.792 Y82.276 E1.3024
G1 X98.933 Y81.979 E1.3495
G1 X99.244 Y81.908 E1.3622
G1 X100.398 Y81.678 E1.4091
G1 X100.711 Y81.624 E1.4218
G1 X102.964 Y81.305 E1.5126
G1 X103.593 Y80.818 E1.5444
G1 X105.000 Y81.017 E1.6011
G1 X106.407 Y80.818 E1.6578
G1 X107.036 Y81.305 E1.6896
G1 X109.289 Y81.624 E1.7804
G1 X109.602 Y81.678 E1.7931
G1 X110.756 Y81.908 E1.8401
G1 X111.067 Y81.979 E1.8528
G1 X112.246 Y82.286 E1.9014
G1 X112.627 Y82.399 E1.9173
G1 X114.267 Y82.952 E1.9863
G1 X114.717 Y83.125 E2.0056
G1 X116.299 Y83.815 E2.0745
G1 X116.670 Y83.993 E2.0909
G1 X117.747 Y84.560 E2.1395
G1 X118.040 Y84.726 E2.1529
G1 X119.044 Y85.335 E2.1998
G1 X119.332 Y85.521 E2.2135
G1 X120.297 Y86.191 E2.2604
G1 X120.577 Y86.398 E2.2743
G1 X121.536 Y87.155 E2.3230
G1 X121.872 Y87.442 E2.3406
G1 X123.105 Y88.585 E2.4078
G1 X123.420 Y88.901 E2.4255
G1 X124.283 Y89.839 E2.4764
G1 X124.574 Y90.182 E2.4944
G1 X125.621 Y91.520 E2.5622
G1 X125.888 Y91.892 E2.5805
G1 X126.577 Y92.939 E2.6305
G1 X126.784 Y93.280 E2.6464
G1 X127.385 Y94.352 E2.6955
G1 X127.579 Y94.733 E2.7125
G1 X128.108 Y95.873 E2.7627
G1 X128.280 Y96.286 E2.7805
G1 X128.746 Y97.544 E2.8341
G1 X128.912 Y98.072 E2.8562
G1 X129.400 Y99.939 E2.9332
G1 X129.517 Y100.509 E2.9564
G1 X129.819 Y102.481 E3.0360
G1 X129.876 Y103.043 E3.0586
G1 X129.971 Y104.930 E3.1340
G1 X129.974 Y105.443 E3.1545
G1 X129.920 Y106.745 E3.2065
G1 X129.886 Y107.176 E3.2238
G1 X129.739 Y108.404 E3.2731
G1 X129.672 Y108.832 E3.2904
G1 X129.422 Y110.090 E3.3416
G1 X129.300 Y110.587 E3.3620
G1 X128.782 Y112.340 E3.4350
G1 X128.585 Y112.897 E3.4585
G1 X127.852 Y114.668 E3.5351
G1 X127.586 Y115.222 E3.5596
G1 X126.655 Y116.917 E3.6367
G1 X126.304 Y117.476 E3.6631
G1 X125.188 Y119.038 E3.7397
G1 X124.803 Y119.519 E3.7643
G1 X123.538 Y120.931 E3.8400
G1 X123.145 Y121.329 E3.8623
G1 X121.763 Y122.592 E3.9370
G1 X121.359 Y122.929 E3.9580
G1 X119.884 Y124.042 E4.0318
G1 X119.450 Y124.339 E4.0528
G1 X117.925 Y125.280 E4.1243
G1 X117.542 Y125.496 E4.1418
G1 X116.419 Y126.073 E4.1922
G1 X116.103 Y126.223 E4.2062
G1 X114.987 Y126.710 E4.2548
G1 X114.665 Y126.839 E4.2686
G1 X113.480 Y127.272 E4.3190
G1 X113.070 Y127.404 E4.3362
G1 X111.387 Y127.876 E4.4059
G1 X110.972 Y127.975 E4.4230
G1 X109.691 Y128.231 E4.4751
G1 X109.287 Y128.296 E4.4914
G1 X107.552 Y128.512 E4.5612
G1 X107.161 Y128.547 E4.5769
G1 X105.908 Y128.615 E4.6270
G1 X105.607 Y128.623 E4.6390
G1 X104.393 Y128.623 E4.6874
G1 X104.092 Y128.615 E4.6995
G1 X102.839 Y128.547 E4.7496
G1 X102.448 Y128.512 E4.7652
G1 X100.671 Y128.291 E4.8367
G1 X100.183 Y128.208 E4.8564
G1 X98.392 Y127.822 E4.9296
G1 X97.895 Y127.691 E4.9501
G1 X96.147 Y127.143 E5.0232
G1 X95.661 Y126.965 E5.0439
G1 X93.975 Y126.260 E5.1168
G1 X93.501 Y126.035 E5.1377
G1 X91.887 Y125.174 E5.2107
G1 X91.435 Y124.904 E5.2318
G1 X89.901 Y123.890 E5.3052
G1 X89.476 Y123.580 E5.3262
G1 X88.031 Y122.416 E5.4002
G1 X87.634 Y122.064 E5.4214
G1 X86.289 Y120.751 E5.4964
G1 X85.896 Y120.327 E5.5195
G1 X84.676 Y118.863 E5.5956
G1 X84.296 Y118.350 E5.6210
G1 X83.242 Y116.744 E5.6977
G1 X82.917 Y116.181 E5.7237
G1 X82.050 Y114.451 E5.8009
G1 X81.809 Y113.899 E5.8249
G1 X81.142 Y112.113 E5.9010
G1 X80.965 Y111.548 E5.9246
G1 X80.500 Y109.741 E5.9991
G1 X80.377 Y109.116 E6.0245
G1 X80.123 Y107.285 E6.0983
G1 X80.071 Y106.638 E6.1242
G1 X80.551 Y106.614 F21000
G92 E0.0000
G1 X80.510 Y104.754 E0.0742 F1792
G1 X80.528 Y104.183 E0.0971
G1 X80.689 Y102.293 E0.1728
G1 X80.745 Y101.849 E0.1906
G1 X80.981 Y100.462 E0.2468
G1 X81.079 Y100.005 E0.2654
G1 X81.536 Y98.257 E0.3375
G1 X81.659 Y97.852 E0.3544
G1 X81.938 Y97.050 E0.3883
G1 X82.094 Y96.652 E0.4054
G1 X82.782 Y95.088 E0.4736
G1 X83.012 Y94.626 E0.4942
G1 X83.630 Y93.522 E0.5447
G1 X83.829 Y93.195 E0.5599
G1 X84.484 Y92.200 E0.6075
G1 X84.687 Y91.913 E0.6215
G1 X85.398 Y90.972 E0.6686
G1 X85.615 Y90.704 E0.6824
G1 X86.381 Y89.816 E0.7292
G1 X86.613 Y89.564 E0.7429
G1 X87.431 Y88.730 E0.7895
G1 X87.677 Y88.495 E0.8031
G1 X88.544 Y87.717 E0.8495
G1 X88.803 Y87.499 E0.8630
G1 X89.714 Y86.779 E0.9094
G1 X89.982 Y86.581 E0.9227
G1 X90.935 Y85.920 E0.9690
G1 X91.211 Y85.741 E0.9821
G1 X92.203 Y85.140 E1.0284
G1 X92.484 Y84.982 E1.0413
G1 X93.511 Y84.440 E1.0876
G1 X93.795 Y84.301 E1.1002
G1 X94.855 Y83.821 E1.1467
G1 X95.141 Y83.701 E1.1591
G1 X96.229 Y83.282 E1.2056
G1 X96.517 Y83.180 E1.2178
G1 X97.627 Y82.823 E1.2643
G1 X97.919 Y82.739 E1.2765
G1 X99.047 Y82.446 E1.3230
G1 X99.344 Y82.378 E1.3351
G1 X100.485 Y82.150 E1.3816
G1 X100.784 Y82.099 E1.3937
G1 X103.158 Y81.763 E1.4894
G1 X103.726 Y81.322 E1.5181
G1 X105.000 Y81.502 E1.5694
G1 X106.274 Y81.322 E1.6208
G1 X106.842 Y81.763 E1.6495
G1 X109.215 Y82.099 E1.7451
G1 X109.515 Y82.150 E1.7573
G1 X110.656 Y82.378 E1.8037
G1 X110.953 Y82.446 E1.8159
G1 X112.118 Y82.748 E1.8639
G1 X112.482 Y82.857 E1.8791
G1 X114.104 Y83.403 E1.9474
G1 X114.534 Y83.569 E1.9658
G1 X116.099 Y84.251 E2.0339
G1 X116.454 Y84.422 E2.0497
G1 X117.516 Y84.982 E2.0976
G1 X117.797 Y85.140 E2.1104
G1 X118.789 Y85.742 E2.1567
G1 X119.065 Y85.920 E2.1698
G1 X120.018 Y86.581 E2.2161
G1 X120.286 Y86.779 E2.2294
G1 X121.231 Y87.525 E2.2775
G1 X121.552 Y87.801 E2.2944
G1 X122.772 Y88.931 E2.3608
G1 X123.073 Y89.233 E2.3778
G1 X123.924 Y90.157 E2.4279
G1 X124.202 Y90.485 E2.4451
G1 X125.237 Y91.808 E2.5121
G1 X125.492 Y92.164 E2.5296
G1 X126.171 Y93.195 E2.5789
G1 X126.370 Y93.522 E2.5941
G1 X126.962 Y94.579 E2.6425
G1 X127.148 Y94.943 E2.6588
G1 X127.669 Y96.067 E2.7082
G1 X127.833 Y96.461 E2.7253
G1 X128.291 Y97.699 E2.7780
G1 X128.451 Y98.205 E2.7991
G1 X128.932 Y100.048 E2.8752
G1 X129.045 Y100.594 E2.8974
G1 X129.342 Y102.541 E2.9760
G1 X129.397 Y103.080 E2.9976
G1 X129.491 Y104.943 E3.0721
G1 X129.494 Y105.434 E3.0917
G1 X129.441 Y106.716 E3.1429
G1 X129.408 Y107.129 E3.1594
G1 X129.264 Y108.338 E3.2081
G1 X129.199 Y108.748 E3.2246
G1 X128.954 Y109.986 E3.2750
G1 X128.836 Y110.462 E3.2945
G1 X128.325 Y112.192 E3.3666
G1 X128.137 Y112.725 E3.3891
G1 X127.413 Y114.472 E3.4646
G1 X127.159 Y115.003 E3.4881
G1 X126.241 Y116.673 E3.5641
G1 X125.905 Y117.209 E3.5894
G1 X124.805 Y118.748 E3.6649
G1 X124.436 Y119.209 E3.6884
G1 X123.188 Y120.602 E3.7631
G1 X122.812 Y120.983 E3.7845
G1 X121.448 Y122.230 E3.8583
G1 X121.060 Y122.552 E3.8784
G1 X119.604 Y123.652 E3.9512
G1 X119.188 Y123.937 E3.9713
G1 X117.681 Y124.867 E4.0420
G1 X117.315 Y125.073 E4.0588
G1 X116.206 Y125.642 E4.1085
G1 X115.904 Y125.786 E4.1219
G1 X114.801 Y126.268 E4.1699
G1 X114.494 Y126.391 E4.1831
G1 X113.324 Y126.818 E4.2328
G1 X112.932 Y126.944 E4.2493
G1 X111.267 Y127.411 E4.3183
G1 X110.869 Y127.506 E4.3346
G1 X109.606 Y127.758 E4.3860
G1 X109.219 Y127.821 E4.4017
G1 X107.501 Y128.035 E4.4708
G1 X107.127 Y128.068 E4.4857
G1 X105.889 Y128.135 E4.5352
G1 X105.600 Y128.143 E4.5468
G1 X104.400 Y128.143 E4.5947
G1 X104.111 Y128.135 E4.6062
G1 X102.873 Y128.068 E4.6557
G1 X102.499 Y128.035 E4.6706
G1 X100.741 Y127.816 E4.7414
G1 X100.274 Y127.737 E4.7603
G1 X98.503 Y127.355 E4.8326
G1 X98.028 Y127.230 E4.8522
G1 X96.302 Y126.688 E4.9244
G1 X95.836 Y126.518 E4.9442
G1 X94.171 Y125.821 E5.0162
G1 X93.717 Y125.606 E5.0363
G1 X92.123 Y124.756 E5.1084
G1 X91.690 Y124.498 E5.1285
G1 X90.175 Y123.496 E5.2010
G1 X89.768 Y123.199 E5.2211
G1 X88.341 Y122.049 E5.2942
G1 X87.961 Y121.712 E5.3145
G1 X86.633 Y120.417 E5.3886
G1 X86.257 Y120.011 E5.4106
G1 X85.053 Y118.566 E5.4857
G1 X84.690 Y118.075 E5.5101
G1 X83.650 Y116.492 E5.5857
G1 X83.339 Y115.953 E5.6105
G1 X82.484 Y114.248 E5.6866
G1 X82.254 Y113.719 E5.7096
G1 X81.596 Y111.957 E5.7847
G1 X81.426 Y111.417 E5.8073
G1 X80.969 Y109.635 E5.8808
G1 X80.851 Y109.037 E5.9051
G1 X80.601 Y107.233 E5.9778
G1 X80.551 Y106.614 E6.0026
G1 X81.031 Y106.589 F21000
G92 E0.0000
G1 X80.990 Y104.757 E0.0732 F1792
G1 X81.008 Y104.211 E0.0950
G1 X81.166 Y102.343 E0.1698
G1 X81.220 Y101.919 E0.1868
G1 X81.452 Y100.553 E0.2421
G1 X81.546 Y100.116 E0.2600
G1 X81.998 Y98.388 E0.3313
G1 X82.115 Y98.001 E0.3474
G1 X82.388 Y97.216 E0.3806
G1 X82.537 Y96.836 E0.3969
G1 X83.216 Y95.292 E0.4642
G1 X83.437 Y94.850 E0.4839
G1 X84.045 Y93.764 E0.5336
G1 X84.235 Y93.452 E0.5482
G1 X84.880 Y92.471 E0.5950
G1 X85.074 Y92.196 E0.6085
G1 X85.776 Y91.268 E0.6549
G1 X85.984 Y91.011 E0.6681
G1 X86.740 Y90.135 E0.7143
G1 X86.961 Y89.895 E0.7273
G1 X87.769 Y89.072 E0.7733
G1 X88.004 Y88.847 E0.7863
G1 X88.859 Y88.079 E0.8322
G1 X89.106 Y87.871 E0.8451
G1 X90.006 Y87.161 E0.8908
G1 X90.262 Y86.971 E0.9035
G1 X91.203 Y86.319 E0.9492
G1 X91.466 Y86.148 E0.9618
G1 X92.445 Y85.555 E1.0075
G1 X92.714 Y85.403 E1.0198
G1 X93.728 Y84.868 E1.0655
G1 X94.000 Y84.736 E1.0776
G1 X95.047 Y84.261 E1.1235
G1 X95.320 Y84.146 E1.1353
G1 X96.395 Y83.732 E1.1813
G1 X96.670 Y83.635 E1.1929
G1 X97.767 Y83.282 E1.2389
G1 X98.047 Y83.201 E1.2505
G1 X99.161 Y82.912 E1.2965
G1 X99.445 Y82.847 E1.3081
G1 X100.572 Y82.622 E1.3540
G1 X100.858 Y82.573 E1.3656
G1 X103.351 Y82.220 E1.4661
G1 X103.860 Y81.826 E1.4918
G1 X105.000 Y81.987 E1.5377
G1 X106.140 Y81.826 E1.5837
G1 X106.649 Y82.220 E1.6094
G1 X109.142 Y82.573 E1.7099
G1 X109.427 Y82.622 E1.7214
G1 X110.555 Y82.847 E1.7673
G1 X110.839 Y82.912 E1.7789
G1 X111.989 Y83.211 E1.8264
