; G-Code generated by Simplify3D(R) Version 4.1.2
; Apr 11, 2021 at 3:56:44 PM
; Settings Summary
;   processName,V6
;   applyToModels,Rim
;   profileName,HBot (modified)
;   profileVersion,2021-04-01 14:49:35
;   baseProfile,Default
;   printMaterial,PETG - SUNLU
;   printQuality,High
;   printExtruders,
;   extruderName,Extruder 1,Extruder 2 - support
;   extruderToolheadNumber,0,1
;   extruderDiameter,0.4,0.4
;   extruderAutoWidth,1,1
;   extruderWidth,0.48,0.48
;   extrusionMultiplier,1.02,1
;   extruderUseRetract,1,1
;   extruderRetractionDistance,3,1
;   extruderExtraRestartDistance,0,0
;   extruderRetractionZLift,0,0
;   extruderRetractionSpeed,5400,1800
;   extruderUseCoasting,1,1
;   extruderCoastingDistance,0.2,0.2
;   extruderUseWipe,1,1
;   extruderWipeDistance,0.4,0.4
;   primaryExtruder,0
;   layerHeight,0.1
;   topSolidLayers,5
;   bottomSolidLayers,5
;   perimeterOutlines,3
;   printPerimetersInsideOut,1
;   startPointOption,3
;   startPointOriginX,0
;   startPointOriginY,110
;   sequentialIslands,0
;   spiralVaseMode,0
;   firstLayerHeightPercentage,100
;   firstLayerWidthPercentage,100
;   firstLayerUnderspeed,0.5
;   useRaft,0
;   raftExtruder,0
;   raftTopLayers,3
;   raftBaseLayers,2
;   raftOffset,3
;   raftSeparationDistance,0.18
;   raftTopInfill,100
;   aboveRaftSpeedMultiplier,0.3
;   useSkirt,1
;   skirtExtruder,0
;   skirtLayers,1
;   skirtOutlines,3
;   skirtOffset,10
;   usePrimePillar,0
;   primePillarExtruder,999
;   primePillarWidth,12
;   primePillarLocation,7
;   primePillarSpeedMultiplier,1
;   useOozeShield,0
;   oozeShieldExtruder,999
;   oozeShieldOffset,1.4
;   oozeShieldOutlines,1
;   oozeShieldSidewallShape,0
;   oozeShieldSidewallAngle,30
;   oozeShieldSpeedMultiplier,1.5
;   infillExtruder,0
;   internalInfillPattern,Fast Honeycomb
;   externalInfillPattern,Rectilinear
;   infillPercentage,25
;   outlineOverlapPercentage,25
;   infillExtrusionWidthPercentage,100
;   minInfillLength,5
;   infillLayerInterval,1
;   internalInfillAngles,0
;   overlapInternalInfillAngles,0
;   externalInfillAngles,45,-45
;   generateSupport,0
;   supportExtruder,0
;   supportInfillPercentage,40
;   supportExtraInflation,0
;   supportBaseLayers,0
;   denseSupportExtruder,1
;   denseSupportLayers,0
;   denseSupportInfillPercentage,100
;   supportLayerInterval,1
;   supportHorizontalPartOffset,0.4
;   supportUpperSeparationLayers,1
;   supportLowerSeparationLayers,1
;   supportType,0
;   supportGridSpacing,2.5
;   maxOverhangAngle,45
;   supportAngles,0
;   temperatureName,Extruder 1,Heated Bed,Extruder 2 - support
;   temperatureNumber,0,1,1
;   temperatureSetpointCount,2,1,1
;   temperatureSetpointLayers,1,2,1,1
;   temperatureSetpointTemperatures,215,215,85,0
;   temperatureStabilizeAtStartup,1,1,1
;   temperatureHeatedBed,0,1,0
;   fanLayers,1,5,10
;   fanSpeeds,0,5,20
;   blipFanToFullPower,1
;   adjustSpeedForCooling,1
;   minSpeedLayerTime,15
;   minCoolingSpeedSlowdown,20
;   increaseFanForCooling,1
;   minFanLayerTime,15
;   maxCoolingFanSpeed,100
;   increaseFanForBridging,1
;   bridgingFanSpeed,100
;   use5D,1
;   relativeEdistances,0
;   allowEaxisZeroing,1
;   independentExtruderAxes,0
;   includeM10123,0
;   stickySupport,1
;   applyToolheadOffsets,0
;   gcodeXoffset,0
;   gcodeYoffset,0
;   gcodeZoffset,0
;   overrideMachineDefinition,1
;   machineTypeOverride,0
;   strokeXoverride,210
;   strokeYoverride,210
;   strokeZoverride,150
;   originOffsetXoverride,0
;   originOffsetYoverride,0
;   originOffsetZoverride,0
;   homeXdirOverride,1
;   homeYdirOverride,-1
;   homeZdirOverride,-1
;   flipXoverride,1
;   flipYoverride,-1
;   flipZoverride,1
;   toolheadOffsets,0,0|0,0|0,0|0,0|0,0|0,0
;   overrideFirmwareConfiguration,0
;   firmwareTypeOverride,RepRap (Marlin/Repetier/Sprinter)
;   GPXconfigOverride,r2
;   baudRateOverride,115200
;   overridePrinterModels,0
;   printerModelsOverride
;   startingGcode,;G28 is now included in bed.g G28 ; home all axes,G32 ; run bed.g -- probe bed and enable compensation
;   layerChangeGcode,
;   retractionGcode,
;   toolChangeGcode,
;   endingGcode,M0 ; call stop.g
;   exportFileFormat,gcode
;   celebration,0
;   celebrationSong,Random Song
;   postProcessing,
;   defaultSpeed,2400
;   outlineUnderspeed,0.5
;   solidInfillUnderspeed,0.8
;   supportUnderspeed,0.8
;   rapidXYspeed,18000
;   rapidZspeed,1200
;   minBridgingArea,50
;   bridgingExtraInflation,0
;   bridgingExtrusionMultiplier,0.96
;   bridgingSpeedMultiplier,1
;   useFixedBridgingAngle,0
;   fixedBridgingAngle,0
;   applyBridgingToPerimeters,0
;   filamentDiameters,1.75|1.75|1.75|1.75|1.75|1.75
;   filamentPricesPerKg,46|46|46|46|46|46
;   filamentDensities,1.25|1.25|1.25|1.25|1.25|1.25
;   useMinPrintHeight,0
;   minPrintHeight,0
;   useMaxPrintHeight,0
;   maxPrintHeight,12.79
;   useDiaphragm,0
;   diaphragmLayerInterval,20
;   robustSlicing,1
;   mergeAllIntoSolid,0
;   onlyRetractWhenCrossingOutline,1
;   retractBetweenLayers,0
;   useRetractionMinTravel,1
;   retractionMinTravel,3
;   retractWhileWiping,1
;   onlyWipeOutlines,1
;   avoidCrossingOutline,1
;   maxMovementDetourFactor,5
;   toolChangeRetractionDistance,7.5
;   toolChangeExtraRestartDistance,0
;   toolChangeRetractionSpeed,600
;   externalThinWallType,1
;   internalThinWallType,1
;   thinWallAllowedOverlapPercentage,10
;   singleExtrusionMinLength,1
;   singleExtrusionMinPrintingWidthPercentage,50
;   singleExtrusionMaxPrintingWidthPercentage,150
;   singleExtrusionEndpointExtension,0.2
;   horizontalSizeCompensation,0
G90
M82
M106 S0
M140 S85
M190 S85
G10 P0 S215 R{215-50}
G10 P1 S0 R{0-50}
M116 P0
;G28 is now included in bed.g G28 ; home all axes
G32 ; run bed.g -- probe bed and enable compensation
; process V6
; layer 1, Z = 0.100
T0
G92 E0.0000
G1 E-3.0000 F5400
; feature skirt
; tool H0.100 W0.480
G1 Z0.100 F1200
G1 X80.638 Y105.213 F18000
G1 E0.0000 F5400
G92 E0.0000
G1 X80.628 Y104.416 E0.0162 F1200
G1 X80.636 Y104.037 E0.0239
G1 X80.678 Y103.264 E0.0397
G1 X80.731 Y102.745 E0.0503
G1 X80.913 Y101.522 E0.0755
G1 X81.051 Y100.868 E0.0891
G1 X81.379 Y99.671 E0.1144
G1 X81.559 Y99.125 E0.1261
G1 X81.897 Y98.254 E0.1451
G1 X82.181 Y97.635 E0.1589
G1 X82.799 Y96.481 E0.1856
G1 X83.143 Y95.920 E0.1990
G1 X83.651 Y95.192 E0.2170
G1 X83.901 Y94.860 E0.2255
G1 X84.472 Y94.158 E0.2439
G1 X84.918 Y93.672 E0.2573
G1 X86.053 Y92.571 E0.2895
G1 X86.821 Y91.948 E0.3097
G1 X88.193 Y91.022 E0.3434
G1 X88.894 Y90.619 E0.3598
G1 X90.205 Y89.988 E0.3894
G1 X90.738 Y89.764 E0.4012
G1 X91.956 Y89.325 E0.4275
G1 X92.398 Y89.186 E0.4370
G1 X93.567 Y88.871 E0.4616
G1 X93.914 Y88.790 E0.4689
G1 X95.043 Y88.561 E0.4923
G1 X95.296 Y88.516 E0.4976
G1 X96.435 Y88.340 E0.5210
G1 X96.640 Y88.312 E0.5252
G1 X98.425 Y88.103 E0.5618
G1 X98.686 Y88.079 E0.5672
G1 X101.270 Y87.899 E0.6199
G1 X101.502 Y87.887 E0.6246
G1 X103.552 Y87.829 E0.6664
G1 X103.752 Y87.827 E0.6704
G1 X107.660 Y87.857 E0.7500
G1 X107.904 Y87.864 E0.7550
G1 X109.921 Y87.967 E0.7961
G1 X110.098 Y87.979 E0.7997
G1 X111.402 Y88.087 E0.8263
G1 X111.553 Y88.102 E0.8294
G1 X112.786 Y88.238 E0.8546
G1 X112.984 Y88.263 E0.8587
G1 X114.634 Y88.505 E0.8927
G1 X114.932 Y88.557 E0.8988
G1 X116.084 Y88.790 E0.9227
G1 X116.432 Y88.872 E0.9300
G1 X117.666 Y89.205 E0.9560
G1 X118.236 Y89.391 E0.9682
G1 X119.973 Y90.066 E1.0062
G1 X120.712 Y90.416 E1.0228
G1 X122.133 Y91.222 E1.0561
G1 X122.903 Y91.748 E1.0750
G1 X124.215 Y92.815 E1.1095
G1 X124.887 Y93.460 E1.1284
G1 X125.898 Y94.609 E1.1596
G1 X126.289 Y95.106 E1.1724
G1 X126.861 Y95.926 E1.1928
G1 X127.206 Y96.487 E1.2062
G1 X127.875 Y97.738 E1.2351
G1 X128.232 Y98.554 E1.2532
G1 X128.697 Y99.900 E1.2822
G1 X128.889 Y100.599 E1.2970
G1 X129.162 Y101.922 E1.3245
G1 X129.260 Y102.618 E1.3388
G1 X129.360 Y103.897 E1.3649
G1 X129.375 Y104.463 E1.3764
G1 X129.355 Y105.347 E1.3944
G1 X129.314 Y105.903 E1.4057
G1 X129.160 Y107.147 E1.4313
G1 X129.030 Y107.841 E1.4456
G1 X128.709 Y109.106 E1.4722
G1 X128.537 Y109.659 E1.4840
G1 X128.203 Y110.570 E1.5037
G1 X127.936 Y111.180 E1.5173
G1 X127.298 Y112.433 E1.5459
G1 X126.982 Y112.976 E1.5587
G1 X126.405 Y113.850 E1.5800
G1 X126.045 Y114.337 E1.5923
G1 X125.055 Y115.532 E1.6239
G1 X124.616 Y116.004 E1.6370
G1 X123.856 Y116.734 E1.6585
G1 X123.477 Y117.065 E1.6687
G1 X122.722 Y117.669 E1.6884
G1 X122.345 Y117.946 E1.6979
G1 X121.490 Y118.519 E1.7189
G1 X120.959 Y118.834 E1.7315
G1 X119.493 Y119.599 E1.7651
G1 X118.880 Y119.873 E1.7788
G1 X117.362 Y120.446 E1.8118
G1 X116.965 Y120.579 E1.8203
G1 X116.046 Y120.849 E1.8398
G1 X115.711 Y120.936 E1.8469
G1 X114.136 Y121.295 E1.8798
G1 X113.737 Y121.371 E1.8880
G1 X111.406 Y121.727 E1.9360
G1 X111.056 Y121.769 E1.9432
G1 X108.849 Y121.965 E1.9883
G1 X108.531 Y121.985 E1.9948
G1 X105.822 Y122.070 E2.0500
G1 X105.563 Y122.072 E2.0552
G1 X102.257 Y122.023 E2.1225
G1 X101.948 Y122.010 E2.1288
G1 X99.785 Y121.859 E2.1730
G1 X99.455 Y121.826 E2.1797
G1 X97.173 Y121.530 E2.2266
G1 X96.832 Y121.475 E2.2336
G1 X95.247 Y121.169 E2.2664
G1 X94.960 Y121.105 E2.2724
G1 X94.049 Y120.879 E2.2915
G1 X93.690 Y120.777 E2.2991
G1 X92.153 Y120.285 E2.3320
G1 X91.586 Y120.069 E2.3443
G1 X90.010 Y119.368 E2.3794
G1 X89.335 Y119.011 E2.3950
G1 X87.879 Y118.109 E2.4298
G1 X87.316 Y117.711 E2.4439
G1 X86.475 Y117.034 E2.4659
G1 X86.098 Y116.701 E2.4761
G1 X85.409 Y116.037 E2.4956
G1 X85.101 Y115.715 E2.5046
G1 X84.438 Y114.965 E2.5250
G1 X84.061 Y114.488 E2.5374
G1 X83.129 Y113.169 E2.5703
G1 X82.694 Y112.442 E2.5875
G1 X82.013 Y111.082 E2.6185
G1 X81.749 Y110.464 E2.6322
G1 X81.425 Y109.559 E2.6517
G1 X81.264 Y109.029 E2.6630
G1 X80.954 Y107.787 E2.6891
G1 X80.824 Y107.072 E2.7039
G1 X80.675 Y105.784 E2.7302
G1 X80.638 Y105.213 E2.7419
G1 X81.118 Y105.194 F18000
G92 E0.0000
G1 X81.108 Y104.418 E0.0158 F1200
G1 X81.116 Y104.055 E0.0232
G1 X81.157 Y103.302 E0.0386
G1 X81.207 Y102.804 E0.0487
G1 X81.386 Y101.607 E0.0734
G1 X81.518 Y100.981 E0.0864
G1 X81.839 Y99.809 E0.1111
G1 X82.011 Y99.287 E0.1223
G1 X82.339 Y98.441 E0.1408
G1 X82.611 Y97.849 E0.1540
G1 X83.215 Y96.720 E0.1801
G1 X83.545 Y96.183 E0.1929
G1 X84.040 Y95.474 E0.2105
G1 X84.279 Y95.156 E0.2186
G1 X84.836 Y94.472 E0.2366
G1 X85.262 Y94.007 E0.2494
G1 X86.372 Y92.930 E0.2809
G1 X87.107 Y92.334 E0.3002
G1 X88.447 Y91.430 E0.3331
G1 X89.118 Y91.044 E0.3488
G1 X90.402 Y90.426 E0.3778
G1 X90.912 Y90.211 E0.3891
G1 X92.109 Y89.780 E0.4150
G1 X92.532 Y89.647 E0.4240
G1 X93.684 Y89.337 E0.4483
G1 X94.016 Y89.259 E0.4553
G1 X95.133 Y89.033 E0.4784
G1 X95.375 Y88.990 E0.4835
G1 X96.504 Y88.815 E0.5067
G1 X96.701 Y88.788 E0.5107
G1 X98.475 Y88.581 E0.5471
G1 X98.725 Y88.557 E0.5522
G1 X101.298 Y88.378 E0.6047
G1 X101.520 Y88.367 E0.6093
G1 X103.561 Y88.309 E0.6508
G1 X103.753 Y88.307 E0.6547
G1 X107.651 Y88.337 E0.7341
G1 X107.885 Y88.344 E0.7388
G1 X109.893 Y88.446 E0.7798
G1 X110.062 Y88.458 E0.7832
G1 X111.359 Y88.565 E0.8097
G1 X111.504 Y88.579 E0.8127
G1 X112.729 Y88.715 E0.8378
G1 X112.918 Y88.739 E0.8416
G1 X114.558 Y88.979 E0.8754
G1 X114.844 Y89.029 E0.8813
G1 X115.982 Y89.259 E0.9049
G1 X116.314 Y89.337 E0.9119
G1 X117.529 Y89.665 E0.9375
G1 X118.074 Y89.843 E0.9491
G1 X119.783 Y90.507 E0.9865
G1 X120.491 Y90.842 E1.0024
G1 X121.879 Y91.630 E1.0349
G1 X122.615 Y92.133 E1.0530
G1 X123.897 Y93.175 E1.0867
G1 X124.540 Y93.792 E1.1048
G1 X125.529 Y94.916 E1.1353
G1 X125.903 Y95.392 E1.1476
G1 X126.459 Y96.189 E1.1674
G1 X126.789 Y96.726 E1.1802
G1 X127.443 Y97.948 E1.2084
G1 X127.785 Y98.729 E1.2258
G1 X128.238 Y100.042 E1.2540
G1 X128.422 Y100.711 E1.2682
G1 X128.689 Y102.005 E1.2951
G1 X128.783 Y102.671 E1.3087
G1 X128.880 Y103.922 E1.3343
G1 X128.895 Y104.464 E1.3453
G1 X128.875 Y105.324 E1.3628
G1 X128.836 Y105.856 E1.3737
G1 X128.686 Y107.073 E1.3987
G1 X128.561 Y107.737 E1.4124
G1 X128.246 Y108.976 E1.4384
G1 X128.082 Y109.506 E1.4497
G1 X127.757 Y110.391 E1.4689
G1 X127.502 Y110.975 E1.4819
G1 X126.876 Y112.203 E1.5100
G1 X126.573 Y112.723 E1.5222
G1 X126.012 Y113.575 E1.5430
G1 X125.667 Y114.041 E1.5548
G1 X124.694 Y115.215 E1.5858
G1 X124.274 Y115.667 E1.5984
G1 X123.531 Y116.380 E1.6193
G1 X123.169 Y116.697 E1.6291
G1 X122.430 Y117.288 E1.6484
G1 X122.069 Y117.553 E1.6575
G1 X121.233 Y118.113 E1.6780
G1 X120.725 Y118.415 E1.6900
G1 X119.284 Y119.166 E1.7231
G1 X118.697 Y119.429 E1.7362
G1 X117.201 Y119.993 E1.7687
G1 X116.821 Y120.121 E1.7769
G1 X115.918 Y120.386 E1.7960
G1 X115.597 Y120.470 E1.8028
G1 X114.037 Y120.826 E1.8354
G1 X113.656 Y120.898 E1.8433
G1 X111.341 Y121.252 E1.8909
G1 X111.006 Y121.292 E1.8978
G1 X108.814 Y121.487 E1.9426
G1 X108.509 Y121.505 E1.9488
G1 X105.813 Y121.590 E2.0037
G1 X105.565 Y121.592 E2.0088
G1 X102.270 Y121.543 E2.0758
G1 X101.975 Y121.531 E2.0819
G1 X99.825 Y121.381 E2.1257
G1 X99.510 Y121.349 E2.1322
G1 X97.242 Y121.055 E2.1787
G1 X96.915 Y121.002 E2.1855
G1 X95.345 Y120.699 E2.2180
G1 X95.069 Y120.638 E2.2238
G1 X94.173 Y120.415 E2.2426
G1 X93.829 Y120.318 E2.2498
G1 X92.312 Y119.832 E2.2823
G1 X91.770 Y119.625 E2.2941
G1 X90.220 Y118.936 E2.3286
G1 X89.574 Y118.595 E2.3435
G1 X88.144 Y117.709 E2.3777
G1 X87.606 Y117.328 E2.3911
G1 X86.785 Y116.667 E2.4126
G1 X86.423 Y116.348 E2.4224
G1 X85.749 Y115.698 E2.4415
G1 X85.454 Y115.390 E2.4501
G1 X84.806 Y114.657 E2.4700
G1 X84.445 Y114.200 E2.4819
G1 X83.531 Y112.907 E2.5141
G1 X83.115 Y112.211 E2.5306
G1 X82.449 Y110.880 E2.5609
G1 X82.196 Y110.288 E2.5740
G1 X81.881 Y109.409 E2.5931
G1 X81.727 Y108.901 E2.6039
G1 X81.423 Y107.686 E2.6293
G1 X81.299 Y107.001 E2.6435
G1 X81.153 Y105.741 E2.6693
G1 X81.118 Y105.194 E2.6805
G1 X81.598 Y105.176 F18000
G92 E0.0000
G1 X81.588 Y104.419 E0.0154 F1200
G1 X81.595 Y104.073 E0.0224
G1 X81.636 Y103.339 E0.0374
G1 X81.684 Y102.864 E0.0471
G1 X81.859 Y101.692 E0.0713
G1 X81.985 Y101.094 E0.0837
G1 X82.298 Y99.948 E0.1079
G1 X82.463 Y99.449 E0.1186
G1 X82.781 Y98.629 E0.1365
G1 X83.041 Y98.063 E0.1492
G1 X83.632 Y96.959 E0.1746
G1 X83.946 Y96.446 E0.1869
G1 X84.428 Y95.756 E0.2040
G1 X84.657 Y95.452 E0.2118
G1 X85.199 Y94.786 E0.2293
G1 X85.606 Y94.342 E0.2415
G1 X86.691 Y93.290 E0.2723
G1 X87.393 Y92.720 E0.2907
G1 X88.701 Y91.838 E0.3228
G1 X89.342 Y91.469 E0.3379
G1 X90.599 Y90.863 E0.3663
G1 X91.087 Y90.659 E0.3770
G1 X92.262 Y90.235 E0.4024
G1 X92.667 Y90.108 E0.4111
G1 X93.802 Y89.802 E0.4350
G1 X94.119 Y89.728 E0.4416
G1 X95.222 Y89.505 E0.4646
G1 X95.454 Y89.463 E0.4693
G1 X96.573 Y89.290 E0.4924
G1 X96.761 Y89.265 E0.4962
G1 X98.526 Y89.058 E0.5324
G1 X98.764 Y89.036 E0.5373
G1 X101.327 Y88.857 E0.5896
G1 X101.539 Y88.847 E0.5939
G1 X103.571 Y88.789 E0.6353
G1 X103.753 Y88.787 E0.6390
G1 X107.642 Y88.817 E0.7182
G1 X107.866 Y88.823 E0.7227
G1 X109.865 Y88.926 E0.7635
G1 X110.026 Y88.936 E0.7668
G1 X111.316 Y89.044 E0.7931
G1 X111.455 Y89.057 E0.7959
G1 X112.673 Y89.191 E0.8209
G1 X112.853 Y89.214 E0.8246
G1 X114.482 Y89.453 E0.8581
G1 X114.755 Y89.501 E0.8637
G1 X115.879 Y89.728 E0.8871
G1 X116.197 Y89.803 E0.8937
G1 X117.392 Y90.125 E0.9189
G1 X117.912 Y90.295 E0.9301
G1 X119.593 Y90.948 E0.9668
G1 X120.269 Y91.269 E0.9820
G1 X121.624 Y92.038 E1.0137
G1 X122.328 Y92.518 E1.0311
G1 X123.579 Y93.535 E1.0639
G1 X124.193 Y94.125 E1.0812
G1 X125.160 Y95.223 E1.1110
G1 X125.517 Y95.678 E1.1227
G1 X126.057 Y96.452 E1.1420
G1 X126.373 Y96.966 E1.1542
G1 X127.011 Y98.158 E1.1818
G1 X127.337 Y98.904 E1.1983
G1 X127.779 Y100.184 E1.2259
G1 X127.955 Y100.823 E1.2394
G1 X128.215 Y102.087 E1.2657
G1 X128.305 Y102.723 E1.2787
G1 X128.401 Y103.947 E1.3037
G1 X128.415 Y104.465 E1.3143
G1 X128.395 Y105.301 E1.3313
G1 X128.358 Y105.809 E1.3417
G1 X128.211 Y106.999 E1.3661
G1 X128.092 Y107.633 E1.3792
G1 X127.784 Y108.846 E1.4047
G1 X127.627 Y109.352 E1.4155
G1 X127.311 Y110.212 E1.4341
G1 X127.068 Y110.769 E1.4465
G1 X126.454 Y111.974 E1.4740
G1 X126.165 Y112.470 E1.4857
G1 X125.618 Y113.300 E1.5059
G1 X125.289 Y113.745 E1.5172
G1 X124.333 Y114.899 E1.5477
G1 X123.932 Y115.330 E1.5597
G1 X123.207 Y116.026 E1.5801
G1 X122.861 Y116.329 E1.5895
G1 X122.138 Y116.906 E1.6083
G1 X121.793 Y117.160 E1.6170
G1 X120.977 Y117.707 E1.6371
G1 X120.491 Y117.996 E1.6485
