; G-Code generated by Simplify3D(R) Version 4.1.2
; Apr 11, 2021 at 3:55:24 PM
; Settings Summary
;   processName,V6
;   applyToModels,Visor
;   profileName,HBot (modified)
;   profileVersion,2021-04-01 14:49:35
;   baseProfile,Default
;   printMaterial,PLA - ERYONE
;   printQuality,High
;   printExtruders,
;   extruderName,Extruder 1,Extruder 2 - support
;   extruderToolheadNumber,0,1
;   extruderDiameter,0.4,0.4
;   extruderAutoWidth,1,1
;   extruderWidth,0.48,0.48
;   extrusionMultiplier,1,1
;   extruderUseRetract,1,1
;   extruderRetractionDistance,3,1
;   extruderExtraRestartDistance,0,0
;   extruderRetractionZLift,0,0
;   extruderRetractionSpeed,5400,1800
;   extruderUseCoasting,1,1
;   extruderCoastingDistance,0.2,0.2
;   extruderUseWipe,1,1
;   extruderWipeDistance,0.4,0.4
;   primaryExtruder,0
;   layerHeight,0.1
;   topSolidLayers,5
;   bottomSolidLayers,5
;   perimeterOutlines,3
;   printPerimetersInsideOut,1
;   startPointOption,3
;   startPointOriginX,0
;   startPointOriginY,110
;   sequentialIslands,0
;   spiralVaseMode,0
;   firstLayerHeightPercentage,100
;   firstLayerWidthPercentage,100
;   firstLayerUnderspeed,0.5
;   useRaft,0
;   raftExtruder,0
;   raftTopLayers,3
;   raftBaseLayers,2
;   raftOffset,3
;   raftSeparationDistance,0.18
;   raftTopInfill,100
;   aboveRaftSpeedMultiplier,0.3
;   useSkirt,1
;   skirtExtruder,0
;   skirtLayers,1
;   skirtOutlines,3
;   skirtOffset,10
;   usePrimePillar,0
;   primePillarExtruder,999
;   primePillarWidth,12
;   primePillarLocation,7
;   primePillarSpeedMultiplier,1
;   useOozeShield,0
;   oozeShieldExtruder,999
;   oozeShieldOffset,1.4
;   oozeShieldOutlines,1
;   oozeShieldSidewallShape,0
;   oozeShieldSidewallAngle,30
;   oozeShieldSpeedMultiplier,1.5
;   infillExtruder,0
;   internalInfillPattern,Fast Honeycomb
;   externalInfillPattern,Rectilinear
;   infillPercentage,25
;   outlineOverlapPercentage,25
;   infillExtrusionWidthPercentage,100
;   minInfillLength,5
;   infillLayerInterval,1
;   internalInfillAngles,0
;   overlapInternalInfillAngles,0
;   externalInfillAngles,45,-45
;   generateSupport,1
;   supportExtruder,0
;   supportInfillPercentage,40
;   supportExtraInflation,0
;   supportBaseLayers,0
;   denseSupportExtruder,1
;   denseSupportLayers,0
;   denseSupportInfillPercentage,100
;   supportLayerInterval,1
;   supportHorizontalPartOffset,0.4
;   supportUpperSeparationLayers,1
;   supportLowerSeparationLayers,1
;   supportType,0
;   supportGridSpacing,2.5
;   maxOverhangAngle,45
;   supportAngles,0
;   temperatureName,Extruder 1,Heated Bed,Extruder 2 - support
;   temperatureNumber,0,1,1
;   temperatureSetpointCount,2,1,1
;   temperatureSetpointLayers,1,2,1,1
;   temperatureSetpointTemperatures,215,215,65,0
;   temperatureStabilizeAtStartup,1,1,1
;   temperatureHeatedBed,0,1,0
;   fanLayers,1,3,10
;   fanSpeeds,0,65,100
;   blipFanToFullPower,1
;   adjustSpeedForCooling,1
;   minSpeedLayerTime,15
;   minCoolingSpeedSlowdown,20
;   increaseFanForCooling,1
;   minFanLayerTime,15
;   maxCoolingFanSpeed,100
;   increaseFanForBridging,1
;   bridgingFanSpeed,100
;   use5D,1
;   relativeEdistances,0
;   allowEaxisZeroing,1
;   independentExtruderAxes,0
;   includeM10123,0
;   stickySupport,1
;   applyToolheadOffsets,0
;   gcodeXoffset,0
;   gcodeYoffset,0
;   gcodeZoffset,0
;   overrideMachineDefinition,1
;   machineTypeOverride,0
;   strokeXoverride,210
;   strokeYoverride,210
;   strokeZoverride,150
;   originOffsetXoverride,0
;   originOffsetYoverride,0
;   originOffsetZoverride,0
;   homeXdirOverride,1
;   homeYdirOverride,-1
;   homeZdirOverride,-1
;   flipXoverride,1
;   flipYoverride,-1
;   flipZoverride,1
;   toolheadOffsets,0,0|0,0|0,0|0,0|0,0|0,0
;   overrideFirmwareConfiguration,0
;   firmwareTypeOverride,RepRap (Marlin/Repetier/Sprinter)
;   GPXconfigOverride,r2
;   baudRateOverride,115200
;   overridePrinterModels,0
;   printerModelsOverride
;   startingGcode,;G28 is now included in bed.g G28 ; home all axes,G32 ; run bed.g -- probe bed and enable compensation
;   layerChangeGcode,
;   retractionGcode,
;   toolChangeGcode,
;   endingGcode,M0 ; call stop.g
;   exportFileFormat,gcode
;   celebration,0
;   celebrationSong,Random Song
;   postProcessing,
;   defaultSpeed,2400
;   outlineUnderspeed,0.5
;   solidInfillUnderspeed,0.8
;   supportUnderspeed,0.8
;   rapidXYspeed,18000
;   rapidZspeed,1200
;   minBridgingArea,50
;   bridgingExtraInflation,0
;   bridgingExtrusionMultiplier,0.96
;   bridgingSpeedMultiplier,1
;   useFixedBridgingAngle,0
;   fixedBridgingAngle,0
;   applyBridgingToPerimeters,0
;   filamentDiameters,1.75|1.75|1.75|1.75|1.75|1.75
;   filamentPricesPerKg,46|46|46|46|46|46
;   filamentDensities,1.25|1.25|1.25|1.25|1.25|1.25
;   useMinPrintHeight,0
;   minPrintHeight,0
;   useMaxPrintHeight,0
;   maxPrintHeight,12.79
;   useDiaphragm,0
;   diaphragmLayerInterval,20
;   robustSlicing,1
;   mergeAllIntoSolid,0
;   onlyRetractWhenCrossingOutline,1
;   retractBetweenLayers,0
;   useRetractionMinTravel,1
;   retractionMinTravel,3
;   retractWhileWiping,1
;   onlyWipeOutlines,1
;   avoidCrossingOutline,1
;   maxMovementDetourFactor,5
;   toolChangeRetractionDistance,7.5
;   toolChangeExtraRestartDistance,0
;   toolChangeRetractionSpeed,600
;   externalThinWallType,1
;   internalThinWallType,1
;   thinWallAllowedOverlapPercentage,10
;   singleExtrusionMinLength,1
;   singleExtrusionMinPrintingWidthPercentage,50
;   singleExtrusionMaxPrintingWidthPercentage,150
;   singleExtrusionEndpointExtension,0.2
;   horizontalSizeCompensation,0
G90
M82
M106 S0
M140 S65
M190 S65
G10 P0 S215 R{215-50}
G10 P1 S0 R{0-50}
M116 P0
;G28 is now included in bed.g G28 ; home all axes
G32 ; run bed.g -- probe bed and enable compensation
; process V6
; layer 1, Z = 0.100
T0
G92 E0.0000
G1 E-3.0000 F5400
; feature skirt
; tool H0.100 W0.480
G1 Z0.100 F1200
G1 X82.505 Y105.936 F18000
G1 E0.0000 F5400
G92 E0.0000
G1 X82.454 Y104.951 E0.0197 F1200
G1 X82.515 Y103.283 E0.0530
G1 X82.624 Y102.369 E0.0714
G1 X82.876 Y101.132 E0.0966
G1 X83.037 Y100.523 E0.1091
G1 X83.398 Y99.408 E0.1325
G1 X83.698 Y98.668 E0.1485
G1 X84.279 Y97.483 E0.1748
G1 X84.806 Y96.617 E0.1950
G1 X85.631 Y95.502 E0.2227
G1 X86.171 Y94.875 E0.2392
G1 X87.164 Y93.881 E0.2673
G1 X87.884 Y93.272 E0.2861
G1 X89.047 Y92.445 E0.3146
G1 X89.847 Y91.972 E0.3331
G1 X91.000 Y91.412 E0.3587
G1 X91.537 Y91.185 E0.3703
G1 X92.566 Y90.812 E0.3922
G1 X92.984 Y90.679 E0.4009
G1 X93.970 Y90.406 E0.4213
G1 X94.316 Y90.322 E0.4284
G1 X95.313 Y90.114 E0.4488
G1 X95.622 Y90.058 E0.4550
G1 X97.062 Y89.841 E0.4841
G1 X97.285 Y89.811 E0.4886
G1 X98.928 Y89.630 E0.5215
G1 X99.171 Y89.609 E0.5264
G1 X101.540 Y89.451 E0.5738
G1 X101.763 Y89.441 E0.5783
G1 X103.656 Y89.391 E0.6161
G1 X103.843 Y89.389 E0.6198
G1 X107.503 Y89.415 E0.6928
G1 X107.802 Y89.425 E0.6988
G1 X110.802 Y89.606 E0.7588
G1 X111.110 Y89.633 E0.7649
G1 X113.214 Y89.877 E0.8072
G1 X113.458 Y89.911 E0.8121
G1 X114.459 Y90.072 E0.8324
G1 X114.715 Y90.119 E0.8376
G1 X115.691 Y90.323 E0.8574
G1 X116.039 Y90.408 E0.8646
G1 X117.028 Y90.681 E0.8851
G1 X117.448 Y90.815 E0.8939
G1 X118.571 Y91.224 E0.9177
G1 X119.286 Y91.542 E0.9333
G1 X120.746 Y92.318 E0.9663
G1 X121.583 Y92.864 E0.9863
G1 X122.434 Y93.533 E1.0079
G1 X122.926 Y93.970 E1.0210
G1 X123.901 Y94.943 E1.0485
G1 X124.577 Y95.758 E1.0696
G1 X125.603 Y97.266 E1.1060
G1 X126.180 Y98.354 E1.1306
G1 X126.687 Y99.631 E1.1580
G1 X126.895 Y100.265 E1.1713
G1 X127.189 Y101.374 E1.1942
G1 X127.321 Y102.033 E1.2076
G1 X127.501 Y103.323 E1.2336
G1 X127.551 Y104.296 E1.2531
G1 X127.491 Y105.981 E1.2867
G1 X127.376 Y106.929 E1.3058
G1 X127.088 Y108.310 E1.3339
G1 X126.850 Y109.130 E1.3510
G1 X126.337 Y110.500 E1.3802
G1 X125.899 Y111.411 E1.4003
G1 X125.084 Y112.776 E1.4321
G1 X124.569 Y113.501 E1.4498
G1 X123.585 Y114.676 E1.4804
G1 X123.098 Y115.187 E1.4945
G1 X122.250 Y115.974 E1.5176
G1 X121.568 Y116.514 E1.5349
G1 X120.290 Y117.374 E1.5657
G1 X119.657 Y117.742 E1.5803
G1 X118.735 Y118.201 E1.6009
G1 X118.235 Y118.420 E1.6118
G1 X116.878 Y118.937 E1.6407
G1 X116.240 Y119.138 E1.6541
G1 X114.276 Y119.628 E1.6945
G1 X113.835 Y119.720 E1.7034
G1 X112.369 Y119.963 E1.7331
G1 X112.137 Y119.996 E1.7378
G1 X110.719 Y120.171 E1.7663
G1 X110.479 Y120.195 E1.7711
G1 X108.536 Y120.350 E1.8100
G1 X108.278 Y120.364 E1.8152
G1 X106.396 Y120.427 E1.8527
G1 X106.209 Y120.430 E1.8565
G1 X103.789 Y120.430 E1.9048
G1 X103.602 Y120.427 E1.9085
G1 X101.695 Y120.363 E1.9466
G1 X101.388 Y120.345 E1.9527
G1 X98.801 Y120.116 E2.0046
G1 X98.502 Y120.081 E2.0105
G1 X97.039 Y119.872 E2.0400
G1 X96.760 Y119.825 E2.0457
G1 X95.362 Y119.553 E2.0741
G1 X94.961 Y119.459 E2.0823
G1 X93.587 Y119.085 E2.1108
G1 X93.061 Y118.914 E2.1218
G1 X91.767 Y118.420 E2.1494
G1 X91.270 Y118.202 E2.1603
G1 X90.351 Y117.746 E2.1807
G1 X89.721 Y117.379 E2.1953
G1 X88.343 Y116.454 E2.2284
G1 X87.484 Y115.743 E2.2507
G1 X86.330 Y114.577 E2.2834
G1 X85.881 Y114.065 E2.2970
G1 X85.248 Y113.247 E2.3176
G1 X84.870 Y112.693 E2.3310
G1 X84.168 Y111.521 E2.3583
G1 X83.818 Y110.831 E2.3737
G1 X83.422 Y109.898 E2.3939
G1 X83.188 Y109.231 E2.4080
G1 X82.851 Y108.038 E2.4328
G1 X82.695 Y107.295 E2.4479
G1 X82.505 Y105.936 E2.4753
G1 X82.983 Y105.891 F18000
G92 E0.0000
G1 X82.934 Y104.947 E0.0189 F1200
G1 X82.994 Y103.320 E0.0513
G1 X83.099 Y102.446 E0.0689
G1 X83.344 Y101.242 E0.0934
G1 X83.497 Y100.658 E0.1055
G1 X83.849 Y99.573 E0.1283
G1 X84.137 Y98.864 E0.1435
G1 X84.701 Y97.714 E0.1691
G1 X85.205 Y96.885 E0.1884
G1 X86.007 Y95.802 E0.2153
G1 X86.523 Y95.202 E0.2311
G1 X87.489 Y94.234 E0.2584
G1 X88.179 Y93.651 E0.2764
G1 X89.309 Y92.848 E0.3041
G1 X90.074 Y92.395 E0.3219
G1 X91.198 Y91.849 E0.3468
G1 X91.712 Y91.632 E0.3579
G1 X92.721 Y91.266 E0.3793
G1 X93.121 Y91.139 E0.3877
G1 X94.091 Y90.871 E0.4078
G1 X94.421 Y90.791 E0.4146
G1 X95.405 Y90.585 E0.4346
G1 X95.701 Y90.532 E0.4406
G1 X97.129 Y90.316 E0.4695
G1 X97.343 Y90.288 E0.4738
G1 X98.975 Y90.108 E0.5065
G1 X99.208 Y90.087 E0.5112
G1 X101.567 Y89.931 E0.5584
G1 X101.781 Y89.921 E0.5626
G1 X103.665 Y89.871 E0.6003
G1 X103.843 Y89.869 E0.6038
G1 X107.493 Y89.895 E0.6767
G1 X107.779 Y89.904 E0.6824
G1 X110.766 Y90.085 E0.7421
G1 X111.061 Y90.111 E0.7480
G1 X113.153 Y90.353 E0.7900
G1 X113.387 Y90.386 E0.7947
G1 X114.377 Y90.545 E0.8147
G1 X114.622 Y90.590 E0.8197
G1 X115.585 Y90.791 E0.8393
G1 X115.919 Y90.872 E0.8462
G1 X116.891 Y91.141 E0.8663
G1 X117.293 Y91.270 E0.8748
G1 X118.391 Y91.669 E0.8981
G1 X119.075 Y91.974 E0.9130
G1 X120.502 Y92.732 E0.9453
G1 X121.303 Y93.254 E0.9644
G1 X122.126 Y93.902 E0.9852
G1 X122.597 Y94.320 E0.9978
G1 X123.546 Y95.267 E1.0246
G1 X124.193 Y96.047 E1.0448
G1 X125.191 Y97.514 E1.0802
G1 X125.744 Y98.556 E1.1037
G1 X126.235 Y99.794 E1.1303
G1 X126.435 Y100.401 E1.1431
G1 X126.721 Y101.482 E1.1654
G1 X126.848 Y102.113 E1.1782
G1 X127.023 Y103.369 E1.2035
G1 X127.071 Y104.300 E1.2221
G1 X127.012 Y105.943 E1.2550
G1 X126.902 Y106.851 E1.2732
G1 X126.622 Y108.194 E1.3006
G1 X126.394 Y108.979 E1.3169
G1 X125.895 Y110.312 E1.3453
G1 X125.476 Y111.183 E1.3646
G1 X124.681 Y112.514 E1.3955
G1 X124.189 Y113.207 E1.4125
G1 X123.226 Y114.356 E1.4424
G1 X122.761 Y114.845 E1.4559
G1 X121.937 Y115.609 E1.4783
G1 X121.284 Y116.127 E1.4949
G1 X120.035 Y116.967 E1.5250
G1 X119.430 Y117.319 E1.5390
G1 X118.532 Y117.766 E1.5590
G1 X118.053 Y117.976 E1.5694
G1 X116.720 Y118.484 E1.5979
G1 X116.110 Y118.675 E1.6106
G1 X114.169 Y119.160 E1.6505
G1 X113.747 Y119.248 E1.6591
G1 X112.295 Y119.488 E1.6885
G1 X112.073 Y119.521 E1.6930
G1 X110.665 Y119.694 E1.7213
G1 X110.436 Y119.717 E1.7259
G1 X108.504 Y119.871 E1.7646
G1 X108.257 Y119.885 E1.7695
G1 X106.384 Y119.947 E1.8069
G1 X106.205 Y119.950 E1.8105
G1 X103.793 Y119.950 E1.8586
G1 X103.614 Y119.947 E1.8622
G1 X101.718 Y119.884 E1.9001
G1 X101.424 Y119.866 E1.9059
G1 X98.849 Y119.638 E1.9575
G1 X98.564 Y119.605 E1.9632
G1 X97.113 Y119.398 E1.9925
G1 X96.846 Y119.353 E1.9979
G1 X95.462 Y119.083 E2.0260
G1 X95.079 Y118.994 E2.0339
G1 X93.724 Y118.625 E2.0619
G1 X93.221 Y118.461 E2.0725
G1 X91.949 Y117.976 E2.0996
G1 X91.473 Y117.767 E2.1100
G1 X90.579 Y117.323 E2.1299
G1 X89.976 Y116.972 E2.1438
G1 X88.631 Y116.069 E2.1762
G1 X87.808 Y115.389 E2.1975
G1 X86.681 Y114.250 E2.2295
G1 X86.252 Y113.760 E2.2425
G1 X85.636 Y112.965 E2.2625
G1 X85.274 Y112.434 E2.2753
G1 X84.589 Y111.288 E2.3020
G1 X84.253 Y110.628 E2.3168
G1 X83.870 Y109.724 E2.3364
G1 X83.646 Y109.086 E2.3499
G1 X83.318 Y107.924 E2.3740
G1 X83.168 Y107.213 E2.3885
G1 X82.983 Y105.891 E2.4151
G1 X83.461 Y105.845 F18000
G92 E0.0000
G1 X83.415 Y104.944 E0.0180 F1200
G1 X83.473 Y103.358 E0.0497
G1 X83.573 Y102.522 E0.0665
G1 X83.812 Y101.351 E0.0903
G1 X83.958 Y100.793 E0.1018
G1 X84.301 Y99.737 E0.1240
G1 X84.575 Y99.060 E0.1386
G1 X85.122 Y97.945 E0.1634
G1 X85.604 Y97.153 E0.1818
G1 X86.382 Y96.101 E0.2080
G1 X86.875 Y95.528 E0.2231
G1 X87.815 Y94.588 E0.2496
G1 X88.473 Y94.031 E0.2668
G1 X89.571 Y93.251 E0.2937
G1 X90.302 Y92.818 E0.3106
G1 X91.397 Y92.287 E0.3349
G1 X91.887 Y92.079 E0.3455
G1 X92.875 Y91.721 E0.3665
G1 X93.257 Y91.599 E0.3745
G1 X94.211 Y91.336 E0.3943
G1 X94.527 Y91.259 E0.4007
G1 X95.497 Y91.056 E0.4205
G1 X95.779 Y91.005 E0.4262
G1 X97.196 Y90.791 E0.4548
G1 X97.400 Y90.765 E0.4589
G1 X99.023 Y90.586 E0.4915
G1 X99.245 Y90.566 E0.4960
G1 X101.594 Y90.410 E0.5429
G1 X101.798 Y90.400 E0.5470
G1 X103.674 Y90.351 E0.5845
G1 X103.844 Y90.349 E0.5879
G1 X107.484 Y90.375 E0.6605
G1 X107.757 Y90.384 E0.6660
G1 X110.731 Y90.563 E0.7254
G1 X111.012 Y90.588 E0.7311
G1 X113.093 Y90.829 E0.7729
G1 X113.316 Y90.860 E0.7773
G1 X114.295 Y91.018 E0.7971
G1 X114.530 Y91.061 E0.8019
G1 X115.479 Y91.260 E0.8213
G1 X115.798 Y91.337 E0.8278
G1 X116.754 Y91.601 E0.8476
G1 X117.138 Y91.724 E0.8556
G1 X118.211 Y92.114 E0.8784
G1 X118.865 Y92.405 E0.8927
G1 X120.257 Y93.145 E0.9242
G1 X121.023 Y93.645 E0.9424
G1 X121.818 Y94.270 E0.9626
G1 X122.268 Y94.669 E0.9746
G1 X123.191 Y95.590 E1.0006
G1 X123.809 Y96.336 E1.0200
G1 X124.779 Y97.762 E1.0544
G1 X125.307 Y98.758 E1.0769
G1 X125.784 Y99.958 E1.1026
G1 X125.975 Y100.538 E1.1148
G1 X126.253 Y101.591 E1.1366
G1 X126.374 Y102.194 E1.1488
G1 X126.544 Y103.414 E1.1734
G1 X126.590 Y104.304 E1.1912
G1 X126.533 Y105.906 E1.2232
G1 X126.428 Y106.773 E1.2406
G1 X126.156 Y108.078 E1.2672
G1 X125.939 Y108.827 E1.2828
G1 X125.453 Y110.123 E1.3104
G1 X125.053 Y110.956 E1.3288
G1 X124.279 Y112.251 E1.3590
G1 X123.808 Y112.913 E1.3752
G1 X122.868 Y114.036 E1.4044
G1 X122.424 Y114.504 E1.4173
G1 X121.625 Y115.244 E1.4390
G1 X121.001 Y115.739 E1.4549
G1 X119.780 Y116.560 E1.4843
G1 X119.202 Y116.897 E1.4976
G1 X118.328 Y117.331 E1.5171
G1 X117.871 Y117.532 E1.5270
G1 X116.563 Y118.030 E1.5550
G1 X115.980 Y118.213 E1.5672
G1 X114.063 Y118.692 E1.6066
G1 X113.659 Y118.776 E1.6148
G1 X112.222 Y119.014 E1.6439
G1 X112.010 Y119.045 E1.6482
G1 X110.612 Y119.217 E1.6763
G1 X110.393 Y119.239 E1.6807
G1 X108.471 Y119.392 E1.7192
G1 X108.235 Y119.405 E1.7239
G1 X106.372 Y119.467 E1.7611
G1 X106.201 Y119.470 E1.7645
G1 X103.797 Y119.470 E1.8125
G1 X103.626 Y119.467 E1.8159
G1 X101.740 Y119.404 E1.8535
G1 X101.460 Y119.387 E1.8591
G1 X98.898 Y119.161 E1.9105
G1 X98.625 Y119.129 E1.9159
G1 X97.187 Y118.924 E1.9449
G1 X96.932 Y118.881 E1.9501
G1 X95.563 Y118.614 E1.9779
G1 X95.197 Y118.529 E1.9854
G1 X93.862 Y118.165 E2.0130
G1 X93.381 Y118.009 E2.0231
G1 X92.131 Y117.531 E2.0498
G1 X91.676 Y117.332 E2.0597
G1 X90.807 Y116.900 E2.0791
G1 X90.230 Y116.565 E2.0924
G1 X88.918 Y115.684 E2.1240
G1 X88.133 Y115.034 E2.1443
G1 X87.033 Y113.923 E2.1755
G1 X86.623 Y113.455 E2.1879
G1 X86.024 Y112.682 E2.2074
G1 X85.679 Y112.176 E2.2197
G1 X85.009 Y111.056 E2.2457
G1 X84.689 Y110.426 E2.2598
G1 X84.318 Y109.551 E2.2788
G1 X84.104 Y108.941 E2.2917
G1 X83.784 Y107.809 E2.3151
G1 X83.641 Y107.130 E2.3290
G1 X83.461 Y105.845 E2.3549
G92 E0.0000
G1 E-3.0000 F5400
; feature inner perimeter
G1 X93.905 Y104.852 F18000
G1 X93.908 Y104.875
G1 X94.865 Y104.786
G1 E0.0000 F5400
G92 E0.0000
G1 X94.865 Y104.460 E0.0065 F900
G1 X94.878 Y104.338 E0.0089
