; G-Code generated by Simplify3D(R) Version 4.1.2
; Dec 13, 2020 at 10:14:57 PM
; Settings Summary
;   processName,Process1
;   applyToModels,center-gear-v3
;   profileName,HBot (modified)
;   profileVersion,2019-10-26 23:38:43
;   baseProfile,Default
;   printMaterial,PETG - SUNLU
;   printQuality,Medium
;   printExtruders,
;   extruderName,Extruder 1
;   extruderToolheadNumber,0
;   extruderDiameter,0.4
;   extruderAutoWidth,1
;   extruderWidth,0.48
;   extrusionMultiplier,1
;   extruderUseRetract,0
;   extruderRetractionDistance,4
;   extruderExtraRestartDistance,0
;   extruderRetractionZLift,0.2
;   extruderRetractionSpeed,3600
;   extruderUseCoasting,1
;   extruderCoastingDistance,0.2
;   extruderUseWipe,1
;   extruderWipeDistance,5
;   primaryExtruder,0
;   layerHeight,0.2
;   topSolidLayers,4
;   bottomSolidLayers,4
;   perimeterOutlines,3
;   printPerimetersInsideOut,0
;   startPointOption,3
;   startPointOriginX,200
;   startPointOriginY,100
;   sequentialIslands,0
;   spiralVaseMode,0
;   firstLayerHeightPercentage,100
;   firstLayerWidthPercentage,100
;   firstLayerUnderspeed,0.5
;   useRaft,0
;   raftExtruder,0
;   raftTopLayers,3
;   raftBaseLayers,2
;   raftOffset,3
;   raftSeparationDistance,0.18
;   raftTopInfill,100
;   aboveRaftSpeedMultiplier,0.3
;   useSkirt,1
;   skirtExtruder,0
;   skirtLayers,1
;   skirtOutlines,10
;   skirtOffset,0
;   usePrimePillar,0
;   primePillarExtruder,999
;   primePillarWidth,12
;   primePillarLocation,7
;   primePillarSpeedMultiplier,1
;   useOozeShield,0
;   oozeShieldExtruder,999
;   oozeShieldOffset,0.9
;   oozeShieldOutlines,2
;   oozeShieldSidewallShape,0
;   oozeShieldSidewallAngle,30
;   oozeShieldSpeedMultiplier,1.5
;   infillExtruder,0
;   internalInfillPattern,Fast Honeycomb
;   externalInfillPattern,Rectilinear
;   infillPercentage,20
;   outlineOverlapPercentage,25
;   infillExtrusionWidthPercentage,100
;   minInfillLength,5
;   infillLayerInterval,1
;   internalInfillAngles,0
;   overlapInternalInfillAngles,0
;   externalInfillAngles,45,-45
;   generateSupport,1
;   supportExtruder,0
;   supportInfillPercentage,25
;   supportExtraInflation,0
;   supportBaseLayers,0
;   denseSupportExtruder,0
;   denseSupportLayers,0
;   denseSupportInfillPercentage,70
;   supportLayerInterval,1
;   supportHorizontalPartOffset,0.3
;   supportUpperSeparationLayers,1
;   supportLowerSeparationLayers,1
;   supportType,0
;   supportGridSpacing,4
;   maxOverhangAngle,25
;   supportAngles,0
;   temperatureName,Extruder 1,Heated Bed
;   temperatureNumber,0,1
;   temperatureSetpointCount,2,1
;   temperatureSetpointLayers,1,2,1
;   temperatureSetpointTemperatures,235,225,85
;   temperatureStabilizeAtStartup,1,1
;   temperatureHeatedBed,0,1
;   fanLayers,1,5,10
;   fanSpeeds,0,5,20
;   blipFanToFullPower,1
;   adjustSpeedForCooling,1
;   minSpeedLayerTime,15
;   minCoolingSpeedSlowdown,20
;   increaseFanForCooling,0
;   minFanLayerTime,45
;   maxCoolingFanSpeed,35
;   increaseFanForBridging,1
;   bridgingFanSpeed,85
;   use5D,1
;   relativeEdistances,0
;   allowEaxisZeroing,1
;   independentExtruderAxes,0
;   includeM10123,0
;   stickySupport,1
;   applyToolheadOffsets,0
;   gcodeXoffset,0
;   gcodeYoffset,0
;   gcodeZoffset,0
;   overrideMachineDefinition,1
;   machineTypeOverride,0
;   strokeXoverride,210
;   strokeYoverride,210
;   strokeZoverride,150
;   originOffsetXoverride,0
;   originOffsetYoverride,0
;   originOffsetZoverride,0
;   homeXdirOverride,-1
;   homeYdirOverride,-1
;   homeZdirOverride,-1
;   flipXoverride,1
;   flipYoverride,-1
;   flipZoverride,1
;   toolheadOffsets,0,0|0,0|0,0|0,0|0,0|0,0
;   overrideFirmwareConfiguration,1
;   firmwareTypeOverride,RepRap (Marlin/Repetier/Sprinter)
;   GPXconfigOverride,r2
;   baudRateOverride,115200
;   overridePrinterModels,0
;   printerModelsOverride
;   startingGcode,G28 ; home all axes,G32 ; run bed.g -- probe bed and enable compensation
;   layerChangeGcode,
;   retractionGcode,
;   toolChangeGcode,
;   endingGcode,M0 ; call stop.g
;   exportFileFormat,gcode
;   celebration,0
;   celebrationSong,Random Song
;   postProcessing,
;   defaultSpeed,3600
;   outlineUnderspeed,0.5
;   solidInfillUnderspeed,0.8
;   supportUnderspeed,0.8
;   rapidXYspeed,18000
;   rapidZspeed,1200
;   minBridgingArea,50
;   bridgingExtraInflation,0
;   bridgingExtrusionMultiplier,0.96
;   bridgingSpeedMultiplier,1
;   useFixedBridgingAngle,0
;   fixedBridgingAngle,0
;   applyBridgingToPerimeters,0
;   filamentDiameters,1.75|1.75|1.75|1.75|1.75|1.75
;   filamentPricesPerKg,46|46|46|46|46|46
;   filamentDensities,1.25|1.25|1.25|1.25|1.25|1.25
;   useMinPrintHeight,0
;   minPrintHeight,20
;   useMaxPrintHeight,0
;   maxPrintHeight,15
;   useDiaphragm,0
;   diaphragmLayerInterval,20
;   robustSlicing,1
;   mergeAllIntoSolid,0
;   onlyRetractWhenCrossingOutline,1
;   retractBetweenLayers,0
;   useRetractionMinTravel,1
;   retractionMinTravel,3
;   retractWhileWiping,1
;   onlyWipeOutlines,1
;   avoidCrossingOutline,1
;   maxMovementDetourFactor,5
;   toolChangeRetractionDistance,12
;   toolChangeExtraRestartDistance,-0.5
;   toolChangeRetractionSpeed,600
;   externalThinWallType,0
;   internalThinWallType,2
;   thinWallAllowedOverlapPercentage,10
;   singleExtrusionMinLength,1
;   singleExtrusionMinPrintingWidthPercentage,50
;   singleExtrusionMaxPrintingWidthPercentage,150
;   singleExtrusionEndpointExtension,0.2
;   horizontalSizeCompensation,-0.1
G90
M82
M106 S0
M140 S85
M190 S85
M104 S235 T0
M109 S235 T0
G28 ; home all axes
G32 ; run bed.g -- probe bed and enable compensation
; process Process1
; layer 1, Z = 0.200
T0
; feature skirt
; tool H0.200 W0.480
G1 Z0.200 F1200
G1 X113.551 Y102.654 F18000
G92 E0.0000
G1 X113.372 Y104.274 E0.0650 F379
G1 X113.027 Y104.963 E0.0958
G1 X113.142 Y105.164 E0.1051
G1 X113.449 Y106.314 E0.1526
G1 X113.511 Y107.176 E0.1871
G1 X113.392 Y108.186 E0.2276
G1 X113.057 Y109.140 E0.2680
G1 X112.373 Y110.235 E0.3195
G1 X111.556 Y111.019 E0.3647
G1 X110.634 Y111.545 E0.4071
G1 X109.883 Y111.814 E0.4390
G1 X108.980 Y111.968 E0.4755
G1 X108.414 Y112.723 E0.5131
G1 X107.300 Y113.531 E0.5681
G1 X105.836 Y114.029 E0.6298
G1 X104.439 Y114.063 E0.6856
G1 X102.759 Y113.579 E0.7554
G1 X101.450 Y112.620 E0.8201
G1 X101.014 Y111.963 E0.8516
G1 X100.734 Y111.955 E0.8628
G1 X99.521 Y111.628 E0.9129
G1 X98.566 Y111.103 E0.9564
G1 X97.556 Y110.181 E1.0110
G1 X96.865 Y109.022 E1.0649
G1 X96.449 Y107.346 E1.1338
G1 X96.628 Y105.726 E1.1988
G1 X96.989 Y105.005 E1.2310
G1 X96.553 Y103.969 E1.2759
G1 X96.475 Y102.355 E1.3404
G1 X96.998 Y100.680 E1.4104
G1 X97.816 Y99.516 E1.4672
G1 X99.087 Y98.552 E1.5309
G1 X100.426 Y98.078 E1.5875
G1 X100.998 Y98.061 E1.6104
G1 X101.586 Y97.277 E1.6495
G1 X102.700 Y96.469 E1.7044
G1 X103.947 Y96.045 E1.7570
G1 X104.877 Y95.930 E1.7944
G1 X105.957 Y96.018 E1.8377
G1 X106.944 Y96.332 E1.8790
G1 X108.144 Y97.041 E1.9346
G1 X109.039 Y98.001 E1.9870
G1 X109.060 Y98.044 E1.9889
G1 X109.422 Y98.047 E2.0034
G1 X110.739 Y98.471 E2.0585
G1 X112.167 Y99.474 E2.1282
G1 X113.099 Y100.833 E2.1940
G1 X113.551 Y102.654 E2.2689
G1 X113.065 Y102.686 F18000
G92 E0.0000
G1 X112.904 Y104.135 E0.0582 F379
G1 X112.483 Y104.978 E0.0958
G1 X112.694 Y105.348 E0.1128
G1 X112.973 Y106.394 E0.1560
G1 X113.029 Y107.165 E0.1869
G1 X112.922 Y108.077 E0.2235
G1 X112.622 Y108.931 E0.2597
G1 X111.997 Y109.930 E0.3067
G1 X111.267 Y110.632 E0.3471
G1 X110.433 Y111.107 E0.3854
G1 X109.761 Y111.348 E0.4139
G1 X108.779 Y111.516 E0.4537
G1 X108.723 Y111.511 E0.4559
G1 X108.074 Y112.377 E0.4991
G1 X107.077 Y113.100 E0.5483
G1 X105.751 Y113.551 E0.6042
G1 X104.501 Y113.581 E0.6541
G1 X102.974 Y113.142 E0.7175
G1 X101.802 Y112.283 E0.7754
G1 X101.276 Y111.490 E0.8135
G1 X100.804 Y111.477 E0.8323
G1 X99.702 Y111.179 E0.8778
G1 X98.847 Y110.710 E0.9168
G1 X97.932 Y109.875 E0.9662
G1 X97.314 Y108.837 E1.0144
G1 X96.935 Y107.314 E1.0771
G1 X97.096 Y105.865 E1.1353
G1 X97.517 Y105.022 E1.1729
G1 X97.028 Y103.861 E1.2232
G1 X96.959 Y102.417 E1.2809
G1 X97.434 Y100.895 E1.3445
G1 X98.166 Y99.853 E1.3953
G1 X99.317 Y98.979 E1.4530
G1 X100.515 Y98.556 E1.5037
G1 X101.244 Y98.533 E1.5328
G1 X101.926 Y97.623 E1.5782
G1 X102.923 Y96.900 E1.6274
G1 X104.055 Y96.515 E1.6751
G1 X104.887 Y96.412 E1.7086
G1 X105.864 Y96.492 E1.7477
G1 X106.747 Y96.773 E1.7846
G1 X107.840 Y97.419 E1.8353
G1 X108.641 Y98.278 E1.8822
G1 X108.763 Y98.521 E1.8930
G1 X109.345 Y98.527 E1.9163
G1 X110.522 Y98.906 E1.9656
G1 X111.820 Y99.817 E2.0289
G1 X112.654 Y101.033 E2.0878
G1 X113.065 Y102.686 E2.1558
G1 X112.578 Y102.719 F18000
G92 E0.0000
G1 X112.437 Y103.997 E0.0513 F379
G1 X111.938 Y104.993 E0.0958
G1 X112.246 Y105.532 E0.1206
G1 X112.498 Y106.474 E0.1595
G1 X112.547 Y107.154 E0.1867
G1 X112.451 Y107.968 E0.2194
G1 X112.187 Y108.722 E0.2513
G1 X111.622 Y109.625 E0.2938
G1 X110.977 Y110.244 E0.3295
G1 X110.231 Y110.670 E0.3638
G1 X109.638 Y110.882 E0.3889
G1 X108.755 Y111.033 E0.4246
G1 X108.487 Y111.013 E0.4354
G1 X108.474 Y111.042 E0.4367
G1 X107.733 Y112.031 E0.4860
G1 X106.853 Y112.669 E0.5294
G1 X105.666 Y113.073 E0.5794
G1 X104.563 Y113.099 E0.6235
G1 X103.189 Y112.704 E0.6805
G1 X102.155 Y111.946 E0.7317
G1 X101.538 Y111.016 E0.7762
G1 X100.874 Y110.999 E0.8028
G1 X99.883 Y110.731 E0.8437
G1 X99.128 Y110.317 E0.8781
G1 X98.308 Y109.568 E0.9224
G1 X97.762 Y108.653 E0.9649
G1 X97.422 Y107.281 E1.0213
G1 X97.563 Y106.003 E1.0727
G1 X98.058 Y105.014 E1.1168
G1 X98.004 Y104.942 E1.1204
G1 X97.503 Y103.753 E1.1719
G1 X97.442 Y102.479 E1.2228
G1 X97.870 Y101.109 E1.2801
G1 X98.516 Y100.190 E1.3249
G1 X99.548 Y99.407 E1.3766
G1 X100.605 Y99.033 E1.4213
G1 X101.506 Y99.005 E1.4573
G1 X101.526 Y98.958 E1.4594
G1 X102.267 Y97.969 E1.5087
G1 X103.147 Y97.331 E1.5521
G1 X104.162 Y96.985 E1.5949
G1 X104.897 Y96.894 E1.6245
G1 X105.770 Y96.966 E1.6594
G1 X106.549 Y97.214 E1.6920
G1 X107.536 Y97.797 E1.7378
G1 X108.243 Y98.555 E1.7791
G1 X108.465 Y98.998 E1.7989
G1 X109.267 Y99.006 E1.8309
G1 X110.306 Y99.340 E1.8745
G1 X111.473 Y100.160 E1.9314
G1 X112.209 Y101.233 E1.9834
G1 X112.578 Y102.719 E2.0445
G1 X112.092 Y102.751 F18000
G92 E0.0000
G1 X111.969 Y103.859 E0.0445 F379
G1 X111.452 Y104.892 E0.0906
G1 X111.372 Y104.988 E0.0956
G1 X111.396 Y105.012 E0.0969
G1 X111.799 Y105.716 E0.1293
G1 X112.022 Y106.554 E0.1639
G1 X112.065 Y107.143 E0.1875
G1 X111.981 Y107.860 E0.2163
G1 X111.752 Y108.513 E0.2439
G1 X111.246 Y109.320 E0.2819
G1 X110.688 Y109.857 E0.3129
G1 X110.030 Y110.232 E0.3431
G1 X109.516 Y110.416 E0.3649
G1 X108.732 Y110.550 E0.3966
G1 X108.175 Y110.509 E0.4189
G1 X108.054 Y110.803 E0.4316
G1 X107.393 Y111.685 E0.4756
G1 X106.630 Y112.238 E0.5132
G1 X105.581 Y112.595 E0.5574
G1 X104.625 Y112.618 E0.5956
G1 X103.404 Y112.266 E0.6463
G1 X102.508 Y111.610 E0.6906
G1 X101.870 Y110.649 E0.7367
G1 X101.820 Y110.512 E0.7425
G1 X101.687 Y110.540 E0.7479
G1 X100.944 Y110.520 E0.7776
G1 X100.063 Y110.282 E0.8140
G1 X99.409 Y109.924 E0.8438
G1 X98.684 Y109.261 E0.8830
G1 X98.211 Y108.468 E0.9198
G1 X97.908 Y107.249 E0.9700
G1 X98.031 Y106.141 E1.0145
G1 X98.548 Y105.108 E1.0606
G1 X98.642 Y104.995 E1.0664
G1 X98.424 Y104.702 E1.0810
G1 X97.979 Y103.645 E1.1268
G1 X97.926 Y102.540 E1.1709
G1 X98.306 Y101.324 E1.2218
G1 X98.865 Y100.527 E1.2607
G1 X99.778 Y99.835 E1.3064
G1 X100.694 Y99.511 E1.3452
G1 X101.831 Y99.475 E1.3906
G1 X101.946 Y99.197 E1.4026
G1 X102.607 Y98.315 E1.4466
G1 X103.370 Y97.762 E1.4842
G1 X104.270 Y97.456 E1.5221
G1 X104.907 Y97.377 E1.5478
G1 X105.676 Y97.440 E1.5786
G1 X106.352 Y97.655 E1.6068
G1 X107.232 Y98.175 E1.6477
G1 X107.845 Y98.832 E1.6835
G1 X108.167 Y99.474 E1.7122
G1 X109.189 Y99.485 E1.7530
G1 X110.090 Y99.775 E1.7908
G1 X111.126 Y100.503 E1.8413
G1 X111.764 Y101.433 E1.8863
G1 X112.092 Y102.751 E1.9405
G1 X111.605 Y102.784 F18000
G92 E0.0000
G1 X111.501 Y103.721 E0.0377 F379
G1 X111.048 Y104.627 E0.0781
G1 X110.723 Y105.013 E0.0982
G1 X111.010 Y105.305 E0.1146
G1 X111.351 Y105.901 E0.1420
G1 X111.547 Y106.634 E0.1723
G1 X111.583 Y107.133 E0.1922
G1 X111.510 Y107.751 E0.2171
G1 X111.316 Y108.303 E0.2404
G1 X110.871 Y109.015 E0.2739
G1 X110.398 Y109.470 E0.3001
G1 X109.829 Y109.794 E0.3263
G1 X109.394 Y109.950 E0.3447
G1 X108.709 Y110.067 E0.3724
G1 X108.069 Y110.020 E0.3981
G1 X107.883 Y109.959 E0.4059
G1 X107.633 Y110.564 E0.4320
G1 X107.052 Y111.339 E0.4706
G1 X106.407 Y111.807 E0.5024
G1 X105.496 Y112.117 E0.5409
G1 X104.687 Y112.136 E0.5732
G1 X103.618 Y111.829 E0.6175
G1 X102.860 Y111.273 E0.6550
G1 X102.302 Y110.431 E0.6954
G1 X102.129 Y109.955 E0.7156
G1 X101.642 Y110.059 E0.7354
G1 X101.014 Y110.042 E0.7605
G1 X100.244 Y109.834 E0.7924
G1 X99.691 Y109.530 E0.8175
G1 X99.060 Y108.955 E0.8516
G1 X98.660 Y108.283 E0.8828
G1 X98.395 Y107.216 E0.9267
G1 X98.499 Y106.279 E0.9644
G1 X98.951 Y105.373 E1.0048
G1 X99.262 Y105.005 E1.0240
G1 X99.224 Y104.974 E1.0259
G1 X98.844 Y104.462 E1.0514
G1 X98.454 Y103.537 E1.0915
G1 X98.409 Y102.602 E1.1288
G1 X98.742 Y101.538 E1.1733
G1 X99.215 Y100.864 E1.2062
G1 X100.009 Y100.262 E1.2459
G1 X100.784 Y99.988 E1.2787
G1 X101.897 Y99.954 E1.3232
G1 X102.122 Y100.029 E1.3326
G1 X102.367 Y99.436 E1.3582
G1 X102.948 Y98.661 E1.3969
G1 X103.593 Y98.193 E1.4287
G1 X104.378 Y97.926 E1.4618
G1 X104.917 Y97.859 E1.4835
G1 X105.583 Y97.914 E1.5101
G1 X106.154 Y98.096 E1.5341
G1 X106.928 Y98.553 E1.5700
G1 X107.447 Y99.109 E1.6003
G1 X107.789 Y99.792 E1.6308
G1 X107.862 Y100.035 E1.6409
G1 X108.111 Y99.954 E1.6514
G1 X109.112 Y99.964 E1.6913
G1 X109.874 Y100.209 E1.7233
G1 X110.780 Y100.846 E1.7675
G1 X111.319 Y101.633 E1.8056
G1 X111.605 Y102.784 E1.8529
G1 X111.119 Y102.816 F18000
G92 E0.0000
G1 X111.034 Y103.583 E0.0308 F379
G1 X110.645 Y104.361 E0.0655
G1 X110.315 Y104.753 E0.0860
G1 X109.979 Y105.000 E0.1026
G1 X110.125 Y105.090 E0.1094
G1 X110.625 Y105.597 E0.1379
G1 X110.904 Y106.085 E0.1603
G1 X111.071 Y106.714 E0.1863
G1 X111.101 Y107.122 E0.2026
G1 X111.040 Y107.642 E0.2235
G1 X110.881 Y108.094 E0.2426
G1 X110.496 Y108.711 E0.2716
G1 X110.109 Y109.082 E0.2930
G1 X109.628 Y109.356 E0.3152
G1 X109.272 Y109.484 E0.3302
G1 X108.686 Y109.584 E0.3540
G1 X108.162 Y109.545 E0.3749
G1 X107.505 Y109.331 E0.4025
G1 X107.491 Y109.323 E0.4031
G1 X107.422 Y109.818 E0.4231
G1 X107.213 Y110.324 E0.4450
G1 X106.712 Y110.993 E0.4783
G1 X106.184 Y111.376 E0.5043
G1 X105.411 Y111.639 E0.5369
G1 X104.749 Y111.655 E0.5633
G1 X103.833 Y111.391 E0.6014
G1 X103.213 Y110.937 E0.6321
G1 X102.733 Y110.213 E0.6667
G1 X102.557 Y109.729 E0.6873
G1 X102.511 Y109.311 E0.7041
G1 X102.232 Y109.442 E0.7163
G1 X101.598 Y109.578 E0.7422
G1 X101.084 Y109.564 E0.7627
G1 X100.424 Y109.386 E0.7900
G1 X99.972 Y109.137 E0.8106
G1 X99.436 Y108.648 E0.8396
G1 X99.109 Y108.099 E0.8651
G1 X98.881 Y107.184 E0.9027
G1 X98.966 Y106.417 E0.9335
G1 X99.355 Y105.639 E0.9682
G1 X99.685 Y105.247 E0.9887
G1 X100.013 Y105.003 E1.0051
G1 X99.575 Y104.641 E1.0278
G1 X99.264 Y104.222 E1.0486
G1 X98.930 Y103.429 E1.0830
G1 X98.893 Y102.664 E1.1135
G1 X99.177 Y101.753 E1.1516
G1 X99.565 Y101.201 E1.1785
G1 X100.239 Y100.690 E1.2123
G1 X100.874 Y100.466 E1.2392
G1 X101.826 Y100.436 E1.2772
G1 X102.510 Y100.664 E1.3060
G1 X102.578 Y100.182 E1.3254
G1 X102.787 Y99.676 E1.3473
G1 X103.288 Y99.007 E1.3806
G1 X103.816 Y98.624 E1.4067
G1 X104.486 Y98.396 E1.4349
G1 X104.927 Y98.342 E1.4526
G1 X105.489 Y98.388 E1.4752
G1 X105.957 Y98.536 E1.4947
G1 X106.624 Y98.931 E1.5257
G1 X107.049 Y99.386 E1.5505
G1 X107.341 Y99.969 E1.5766
G1 X107.450 Y100.336 E1.5918
G1 X107.488 Y100.672 E1.6053
G1 X107.510 Y100.655 E1.6064
G1 X108.185 Y100.435 E1.6348
G1 X109.034 Y100.443 E1.6686
G1 X109.657 Y100.644 E1.6948
G1 X110.433 Y101.189 E1.7326
G1 X110.874 Y101.833 E1.7638
G1 X111.119 Y102.816 E1.8042
G1 X110.632 Y102.849 F18000
G92 E0.0000
G1 X110.566 Y103.445 E0.0240 F379
G1 X110.241 Y104.095 E0.0530
G1 X109.984 Y104.400 E0.0689
G1 X109.639 Y104.654 E0.0860
G1 X109.367 Y104.787 E0.0981
G1 X109.121 Y104.857 E0.1083
G1 X109.069 Y104.884 E0.1106
G1 X109.045 Y104.903 E0.1119
G1 X109.022 Y104.938 E0.1135
G1 X109.010 Y104.988 E0.1156
G1 X109.009 Y105.015 E0.1166
