; G-Code generated by Simplify3D(R) Version 4.1.2
; Dec 13, 2020 at 10:15:32 PM
; Settings Summary
;   processName,Process1
;   applyToModels,connector-v3
;   profileName,HBot (modified)
;   profileVersion,2019-10-26 23:38:43
;   baseProfile,Default
;   printMaterial,PETG - SUNLU
;   printQuality,Medium
;   printExtruders,
;   extruderName,Extruder 1
;   extruderToolheadNumber,0
;   extruderDiameter,0.4
;   extruderAutoWidth,1
;   extruderWidth,0.48
;   extrusionMultiplier,1
;   extruderUseRetract,0
;   extruderRetractionDistance,4
;   extruderExtraRestartDistance,0
;   extruderRetractionZLift,0.2
;   extruderRetractionSpeed,3600
;   extruderUseCoasting,1
;   extruderCoastingDistance,0.2
;   extruderUseWipe,1
;   extruderWipeDistance,5
;   primaryExtruder,0
;   layerHeight,0.2
;   topSolidLayers,4
;   bottomSolidLayers,4
;   perimeterOutlines,3
;   printPerimetersInsideOut,0
;   startPointOption,3
;   startPointOriginX,200
;   startPointOriginY,100
;   sequentialIslands,0
;   spiralVaseMode,0
;   firstLayerHeightPercentage,100
;   firstLayerWidthPercentage,100
;   firstLayerUnderspeed,0.5
;   useRaft,0
;   raftExtruder,0
;   raftTopLayers,3
;   raftBaseLayers,2
;   raftOffset,3
;   raftSeparationDistance,0.18
;   raftTopInfill,100
;   aboveRaftSpeedMultiplier,0.3
;   useSkirt,1
;   skirtExtruder,0
;   skirtLayers,1
;   skirtOutlines,10
;   skirtOffset,0
;   usePrimePillar,0
;   primePillarExtruder,999
;   primePillarWidth,12
;   primePillarLocation,7
;   primePillarSpeedMultiplier,1
;   useOozeShield,0
;   oozeShieldExtruder,999
;   oozeShieldOffset,0.9
;   oozeShieldOutlines,2
;   oozeShieldSidewallShape,0
;   oozeShieldSidewallAngle,30
;   oozeShieldSpeedMultiplier,1.5
;   infillExtruder,0
;   internalInfillPattern,Fast Honeycomb
;   externalInfillPattern,Rectilinear
;   infillPercentage,20
;   outlineOverlapPercentage,25
;   infillExtrusionWidthPercentage,100
;   minInfillLength,5
;   infillLayerInterval,1
;   internalInfillAngles,0
;   overlapInternalInfillAngles,0
;   externalInfillAngles,45,-45
;   generateSupport,1
;   supportExtruder,0
;   supportInfillPercentage,25
;   supportExtraInflation,0
;   supportBaseLayers,0
;   denseSupportExtruder,0
;   denseSupportLayers,0
;   denseSupportInfillPercentage,70
;   supportLayerInterval,1
;   supportHorizontalPartOffset,0.3
;   supportUpperSeparationLayers,1
;   supportLowerSeparationLayers,1
;   supportType,0
;   supportGridSpacing,4
;   maxOverhangAngle,25
;   supportAngles,0
;   temperatureName,Extruder 1,Heated Bed
;   temperatureNumber,0,1
;   temperatureSetpointCount,2,1
;   temperatureSetpointLayers,1,2,1
;   temperatureSetpointTemperatures,235,225,85
;   temperatureStabilizeAtStartup,1,1
;   temperatureHeatedBed,0,1
;   fanLayers,1,5,10
;   fanSpeeds,0,5,20
;   blipFanToFullPower,1
;   adjustSpeedForCooling,1
;   minSpeedLayerTime,15
;   minCoolingSpeedSlowdown,20
;   increaseFanForCooling,0
;   minFanLayerTime,45
;   maxCoolingFanSpeed,35
;   increaseFanForBridging,1
;   bridgingFanSpeed,85
;   use5D,1
;   relativeEdistances,0
;   allowEaxisZeroing,1
;   independentExtruderAxes,0
;   includeM10123,0
;   stickySupport,1
;   applyToolheadOffsets,0
;   gcodeXoffset,0
;   gcodeYoffset,0
;   gcodeZoffset,0
;   overrideMachineDefinition,1
;   machineTypeOverride,0
;   strokeXoverride,210
;   strokeYoverride,210
;   strokeZoverride,150
;   originOffsetXoverride,0
;   originOffsetYoverride,0
;   originOffsetZoverride,0
;   homeXdirOverride,-1
;   homeYdirOverride,-1
;   homeZdirOverride,-1
;   flipXoverride,1
;   flipYoverride,-1
;   flipZoverride,1
;   toolheadOffsets,0,0|0,0|0,0|0,0|0,0|0,0
;   overrideFirmwareConfiguration,1
;   firmwareTypeOverride,RepRap (Marlin/Repetier/Sprinter)
;   GPXconfigOverride,r2
;   baudRateOverride,115200
;   overridePrinterModels,0
;   printerModelsOverride
;   startingGcode,G28 ; home all axes,G32 ; run bed.g -- probe bed and enable compensation
;   layerChangeGcode,
;   retractionGcode,
;   toolChangeGcode,
;   endingGcode,M0 ; call stop.g
;   exportFileFormat,gcode
;   celebration,0
;   celebrationSong,Random Song
;   postProcessing,
;   defaultSpeed,3600
;   outlineUnderspeed,0.5
;   solidInfillUnderspeed,0.8
;   supportUnderspeed,0.8
;   rapidXYspeed,18000
;   rapidZspeed,1200
;   minBridgingArea,50
;   bridgingExtraInflation,0
;   bridgingExtrusionMultiplier,0.96
;   bridgingSpeedMultiplier,1
;   useFixedBridgingAngle,0
;   fixedBridgingAngle,0
;   applyBridgingToPerimeters,0
;   filamentDiameters,1.75|1.75|1.75|1.75|1.75|1.75
;   filamentPricesPerKg,46|46|46|46|46|46
;   filamentDensities,1.25|1.25|1.25|1.25|1.25|1.25
;   useMinPrintHeight,0
;   minPrintHeight,20
;   useMaxPrintHeight,0
;   maxPrintHeight,15
;   useDiaphragm,0
;   diaphragmLayerInterval,20
;   robustSlicing,1
;   mergeAllIntoSolid,0
;   onlyRetractWhenCrossingOutline,1
;   retractBetweenLayers,0
;   useRetractionMinTravel,1
;   retractionMinTravel,3
;   retractWhileWiping,1
;   onlyWipeOutlines,1
;   avoidCrossingOutline,1
;   maxMovementDetourFactor,5
;   toolChangeRetractionDistance,12
;   toolChangeExtraRestartDistance,-0.5
;   toolChangeRetractionSpeed,600
;   externalThinWallType,0
;   internalThinWallType,2
;   thinWallAllowedOverlapPercentage,10
;   singleExtrusionMinLength,1
;   singleExtrusionMinPrintingWidthPercentage,50
;   singleExtrusionMaxPrintingWidthPercentage,150
;   singleExtrusionEndpointExtension,0.2
;   horizontalSizeCompensation,-0.1
G90
M82
M106 S0
M140 S85
M190 S85
M104 S235 T0
M109 S235 T0
G28 ; home all axes
G32 ; run bed.g -- probe bed and enable compensation
; process Process1
; layer 1, Z = 0.200
T0
; feature skirt
; tool H0.200 W0.480
G1 Z0.200 F1200
G1 X131.920 Y104.250 F18000
G92 E0.0000
G1 X131.963 Y105.096 E0.0338 F1800
G1 X131.940 Y105.558 E0.0523
G1 X131.812 Y106.395 E0.0861
G1 X131.696 Y106.843 E0.1045
G1 X131.402 Y107.637 E0.1383
G1 X131.198 Y108.052 E0.1568
G1 X130.750 Y108.771 E0.1906
G1 X130.467 Y109.137 E0.2091
G1 X129.883 Y109.751 E0.2429
G1 X129.532 Y110.052 E0.2613
G1 X128.837 Y110.536 E0.2951
G1 X128.432 Y110.761 E0.3136
G1 X127.601 Y111.117 E0.3497
G1 X127.044 Y111.277 E0.3728
G1 X126.015 Y111.434 E0.4144
G1 X125.671 Y111.460 E0.4282
G1 X84.329 Y111.460 E2.0782
G1 X83.985 Y111.434 E2.0920
G1 X82.956 Y111.277 E2.1335
G1 X82.399 Y111.117 E2.1566
G1 X81.568 Y110.761 E2.1927
G1 X81.163 Y110.536 E2.2112
G1 X80.468 Y110.052 E2.2450
G1 X80.117 Y109.751 E2.2635
G1 X79.533 Y109.136 E2.2973
G1 X79.250 Y108.771 E2.3158
G1 X78.803 Y108.053 E2.3495
G1 X78.599 Y107.638 E2.3680
G1 X78.304 Y106.842 E2.4019
G1 X78.188 Y106.394 E2.4203
G1 X78.060 Y105.558 E2.4541
G1 X78.037 Y105.096 E2.4725
G1 X78.080 Y104.250 E2.5063
G1 X78.150 Y103.793 E2.5248
G1 X78.362 Y102.973 E2.5586
G1 X78.523 Y102.539 E2.5771
G1 X78.896 Y101.779 E2.6109
G1 X79.141 Y101.386 E2.6294
G1 X79.659 Y100.717 E2.6631
G1 X79.977 Y100.382 E2.6816
G1 X80.620 Y99.830 E2.7154
G1 X81.000 Y99.566 E2.7339
G1 X81.740 Y99.155 E2.7676
G1 X82.165 Y98.973 E2.7861
G1 X82.973 Y98.719 E2.8199
G1 X83.427 Y98.626 E2.8384
G1 X84.158 Y98.552 E2.8677
G1 X84.388 Y98.540 E2.8769
G1 X125.671 Y98.540 E4.5246
G1 X126.015 Y98.566 E4.5384
G1 X127.044 Y98.723 E4.5799
G1 X127.601 Y98.883 E4.6031
G1 X128.432 Y99.239 E4.6392
G1 X128.837 Y99.464 E4.6576
G1 X129.532 Y99.948 E4.6914
G1 X129.883 Y100.249 E4.7099
G1 X130.507 Y100.905 E4.7460
G1 X130.849 Y101.371 E4.7691
G1 X131.409 Y102.380 E4.8152
G1 X131.623 Y102.917 E4.8382
G1 X131.850 Y103.793 E4.8743
G1 X131.920 Y104.250 E4.8928
G1 X131.442 Y104.299 F18000
G92 E0.0000
G1 X131.483 Y105.096 E0.0319 F1800
G1 X131.462 Y105.510 E0.0484
G1 X131.341 Y106.299 E0.0802
G1 X131.237 Y106.699 E0.0968
G1 X130.960 Y107.447 E0.1286
G1 X130.778 Y107.819 E0.1451
G1 X130.355 Y108.497 E0.1770
G1 X130.102 Y108.824 E0.1935
G1 X129.552 Y109.403 E0.2254
G1 X129.238 Y109.672 E0.2419
G1 X128.583 Y110.128 E0.2738
G1 X128.221 Y110.329 E0.2903
G1 X127.440 Y110.664 E0.3242
G1 X126.941 Y110.807 E0.3449
G1 X125.961 Y110.957 E0.3845
G1 X125.652 Y110.980 E0.3968
G1 X84.348 Y110.980 E2.0454
G1 X84.039 Y110.957 E2.0577
G1 X83.059 Y110.807 E2.0973
G1 X82.560 Y110.664 E2.1180
G1 X81.779 Y110.329 E2.1519
G1 X81.417 Y110.128 E2.1685
G1 X80.762 Y109.672 E2.2003
G1 X80.448 Y109.403 E2.2168
G1 X79.897 Y108.823 E2.2487
G1 X79.644 Y108.496 E2.2653
G1 X79.223 Y107.820 E2.2971
G1 X79.040 Y107.448 E2.3136
G1 X78.763 Y106.698 E2.3455
G1 X78.659 Y106.298 E2.3620
G1 X78.538 Y105.510 E2.3938
G1 X78.517 Y105.096 E2.4103
G1 X78.558 Y104.299 E2.4422
G1 X78.620 Y103.890 E2.4587
G1 X78.821 Y103.117 E2.4906
G1 X78.965 Y102.728 E2.5071
G1 X79.316 Y102.012 E2.5390
G1 X79.535 Y101.661 E2.5555
G1 X80.023 Y101.030 E2.5873
G1 X80.308 Y100.730 E2.6039
G1 X80.914 Y100.210 E2.6357
G1 X81.254 Y99.974 E2.6523
G1 X81.951 Y99.586 E2.6841
G1 X82.332 Y99.423 E2.7006
G1 X83.093 Y99.184 E2.7325
G1 X83.500 Y99.101 E2.7490
G1 X84.194 Y99.030 E2.7769
G1 X84.400 Y99.020 E2.7851
G1 X125.652 Y99.020 E4.4316
G1 X125.961 Y99.043 E4.4439
G1 X126.941 Y99.193 E4.4835
G1 X127.440 Y99.336 E4.5042
G1 X128.221 Y99.671 E4.5381
G1 X128.583 Y99.872 E4.5546
G1 X129.238 Y100.328 E4.5865
G1 X129.552 Y100.597 E4.6030
G1 X130.138 Y101.214 E4.6370
G1 X130.444 Y101.631 E4.6576
G1 X130.975 Y102.586 E4.7012
G1 X131.166 Y103.067 E4.7219
G1 X131.379 Y103.890 E4.7558
G1 X131.442 Y104.299 E4.7723
G1 X130.964 Y104.347 F18000
G92 E0.0000
G1 X131.002 Y105.096 E0.0299 F1800
G1 X130.984 Y105.461 E0.0445
G1 X130.870 Y106.202 E0.0744
G1 X130.779 Y106.555 E0.0890
G1 X130.518 Y107.258 E0.1189
G1 X130.357 Y107.586 E0.1335
G1 X129.961 Y108.222 E0.1634
G1 X129.737 Y108.511 E0.1780
G1 X129.221 Y109.054 E0.2079
G1 X128.944 Y109.292 E0.2225
G1 X128.328 Y109.720 E0.2524
G1 X128.009 Y109.898 E0.2670
G1 X127.278 Y110.211 E0.2987
G1 X126.839 Y110.337 E0.3170
G1 X125.906 Y110.479 E0.3546
G1 X125.634 Y110.500 E0.3655
G1 X84.366 Y110.500 E2.0126
G1 X84.094 Y110.479 E2.0235
G1 X83.161 Y110.337 E2.0611
G1 X82.722 Y110.211 E2.0794
G1 X81.991 Y109.898 E2.1111
G1 X81.671 Y109.720 E2.1257
G1 X81.056 Y109.292 E2.1556
G1 X80.779 Y109.054 E2.1702
G1 X80.262 Y108.510 E2.2002
G1 X80.039 Y108.222 E2.2147
G1 X79.643 Y107.587 E2.2446
G1 X79.482 Y107.259 E2.2592
G1 X79.221 Y106.555 E2.2891
G1 X79.130 Y106.201 E2.3037
G1 X79.016 Y105.461 E2.3336
G1 X78.998 Y105.096 E2.3482
G1 X79.036 Y104.348 E2.3781
G1 X79.091 Y103.987 E2.3927
G1 X79.279 Y103.261 E2.4226
G1 X79.406 Y102.918 E2.4372
G1 X79.736 Y102.245 E2.4671
G1 X79.929 Y101.935 E2.4817
G1 X80.388 Y101.343 E2.5116
G1 X80.639 Y101.079 E2.5261
G1 X81.208 Y100.590 E2.5561
G1 X81.508 Y100.381 E2.5706
G1 X82.163 Y100.018 E2.6005
G1 X82.499 Y99.874 E2.6151
G1 X83.214 Y99.649 E2.6450
G1 X83.572 Y99.576 E2.6596
G1 X84.230 Y99.509 E2.6860
G1 X84.412 Y99.500 E2.6933
G1 X125.634 Y99.500 E4.3385
G1 X125.906 Y99.521 E4.3494
G1 X126.839 Y99.663 E4.3871
G1 X127.278 Y99.789 E4.4053
G1 X128.009 Y100.102 E4.4371
G1 X128.328 Y100.280 E4.4517
G1 X128.944 Y100.708 E4.4816
G1 X129.221 Y100.946 E4.4961
G1 X129.769 Y101.522 E4.5279
G1 X130.039 Y101.890 E4.5461
G1 X130.540 Y102.793 E4.5873
G1 X130.709 Y103.217 E4.6055
G1 X130.909 Y103.986 E4.6373
G1 X130.964 Y104.347 E4.6518
G1 X130.486 Y104.396 F18000
G92 E0.0000
G1 X130.521 Y105.096 E0.0280 F1800
G1 X130.505 Y105.412 E0.0406
G1 X130.399 Y106.105 E0.0686
G1 X130.320 Y106.411 E0.0812
G1 X130.077 Y107.068 E0.1092
G1 X129.937 Y107.353 E0.1218
G1 X129.566 Y107.948 E0.1498
G1 X129.373 Y108.198 E0.1624
G1 X128.890 Y108.706 E0.1904
G1 X128.650 Y108.912 E0.2030
G1 X128.074 Y109.312 E0.2310
G1 X127.797 Y109.466 E0.2436
G1 X127.117 Y109.758 E0.2732
G1 X126.736 Y109.867 E0.2890
G1 X125.852 Y110.002 E0.3247
G1 X125.616 Y110.020 E0.3342
G1 X84.384 Y110.020 E1.9798
G1 X84.148 Y110.002 E1.9893
G1 X83.264 Y109.867 E2.0250
G1 X82.883 Y109.758 E2.0408
G1 X82.202 Y109.466 E2.0703
G1 X81.926 Y109.312 E2.0830
G1 X81.350 Y108.912 E2.1109
G1 X81.110 Y108.706 E2.1236
G1 X80.627 Y108.197 E2.1516
G1 X80.433 Y107.947 E2.1642
G1 X80.063 Y107.353 E2.1921
G1 X79.924 Y107.069 E2.2048
G1 X79.680 Y106.411 E2.2328
G1 X79.601 Y106.104 E2.2454
G1 X79.495 Y105.412 E2.2734
G1 X79.479 Y105.096 E2.2860
G1 X79.514 Y104.396 E2.3140
G1 X79.562 Y104.083 E2.3266
G1 X79.738 Y103.404 E2.3546
G1 X79.848 Y103.108 E2.3672
G1 X80.156 Y102.478 E2.3952
G1 X80.324 Y102.210 E2.4078
G1 X80.753 Y101.656 E2.4358
G1 X80.971 Y101.427 E2.4484
G1 X81.503 Y100.970 E2.4764
G1 X81.762 Y100.789 E2.4890
G1 X82.375 Y100.449 E2.5170
G1 X82.666 Y100.325 E2.5296
G1 X83.334 Y100.115 E2.5576
G1 X83.645 Y100.051 E2.5702
G1 X84.267 Y99.988 E2.5952
G1 X84.424 Y99.980 E2.6015
G1 X125.616 Y99.980 E4.2455
G1 X125.852 Y99.998 E4.2550
G1 X126.736 Y100.133 E4.2907
G1 X127.117 Y100.242 E4.3065
G1 X127.797 Y100.534 E4.3360
G1 X128.074 Y100.688 E4.3487
G1 X128.650 Y101.088 E4.3766
G1 X128.890 Y101.294 E4.3893
G1 X129.400 Y101.831 E4.4188
G1 X129.634 Y102.150 E4.4346
G1 X130.106 Y102.999 E4.4734
G1 X130.252 Y103.366 E4.4892
G1 X130.438 Y104.083 E4.5187
G1 X130.486 Y104.396 E4.5314
G1 X130.008 Y104.445 F18000
G92 E0.0000
G1 X130.041 Y105.096 E0.0260 F1800
G1 X130.027 Y105.364 E0.0367
G1 X129.929 Y106.008 E0.0628
G1 X129.861 Y106.267 E0.0734
G1 X129.635 Y106.879 E0.0995
G1 X129.517 Y107.119 E0.1102
G1 X129.172 Y107.673 E0.1362
G1 X129.008 Y107.885 E0.1469
G1 X128.559 Y108.358 E0.1729
G1 X128.355 Y108.532 E0.1836
G1 X127.820 Y108.905 E0.2096
G1 X127.586 Y109.035 E0.2203
G1 X126.956 Y109.305 E0.2477
G1 X126.633 Y109.397 E0.2611
G1 X125.797 Y109.525 E0.2948
G1 X125.598 Y109.540 E0.3028
G1 X84.402 Y109.540 E1.9470
G1 X84.203 Y109.525 E1.9550
G1 X83.367 Y109.397 E1.9888
G1 X83.044 Y109.305 E2.0021
G1 X82.414 Y109.034 E2.0295
G1 X82.180 Y108.905 E2.0402
G1 X81.645 Y108.532 E2.0662
G1 X81.441 Y108.358 E2.0769
G1 X80.992 Y107.884 E2.1030
G1 X80.828 Y107.673 E2.1137
G1 X80.483 Y107.120 E2.1397
G1 X80.365 Y106.879 E2.1504
G1 X80.138 Y106.267 E2.1764
G1 X80.071 Y106.008 E2.1871
G1 X79.973 Y105.364 E2.2131
G1 X79.959 Y105.096 E2.2238
G1 X79.992 Y104.445 E2.2498
G1 X80.033 Y104.180 E2.2605
G1 X80.196 Y103.548 E2.2866
G1 X80.289 Y103.297 E2.2973
G1 X80.577 Y102.712 E2.3233
G1 X80.718 Y102.485 E2.3340
G1 X81.117 Y101.969 E2.3600
G1 X81.302 Y101.775 E2.3707
G1 X81.797 Y101.350 E2.3967
G1 X82.017 Y101.197 E2.4074
G1 X82.587 Y100.881 E2.4334
G1 X82.833 Y100.775 E2.4441
G1 X83.455 Y100.580 E2.4701
G1 X83.718 Y100.526 E2.4808
G1 X84.303 Y100.467 E2.5043
G1 X84.436 Y100.460 E2.5096
G1 X125.598 Y100.460 E4.1525
G1 X125.797 Y100.475 E4.1605
G1 X126.633 Y100.603 E4.1942
G1 X126.956 Y100.695 E4.2076
G1 X127.586 Y100.965 E4.2350
G1 X127.820 Y101.095 E4.2457
G1 X128.355 Y101.468 E4.2717
G1 X128.559 Y101.642 E4.2824
G1 X129.031 Y102.139 E4.3098
G1 X129.229 Y102.409 E4.3231
G1 X129.671 Y103.205 E4.3595
G1 X129.795 Y103.516 E4.3728
G1 X129.967 Y104.180 E4.4002
G1 X130.008 Y104.445 E4.4109
G1 X129.530 Y104.493 F18000
G92 E0.0000
G1 X129.560 Y105.096 E0.0241 F1800
G1 X129.549 Y105.315 E0.0328
G1 X129.458 Y105.911 E0.0569
G1 X129.403 Y106.124 E0.0657
G1 X129.193 Y106.689 E0.0898
G1 X129.097 Y106.886 E0.0985
G1 X128.777 Y107.398 E0.1226
G1 X128.643 Y107.572 E0.1313
G1 X128.227 Y108.009 E0.1554
G1 X128.061 Y108.152 E0.1642
G1 X127.566 Y108.497 E0.1883
G1 X127.374 Y108.603 E0.1970
G1 X126.795 Y108.852 E0.2222
G1 X126.531 Y108.927 E0.2331
G1 X125.743 Y109.048 E0.2649
G1 X125.579 Y109.060 E0.2715
G1 X84.421 Y109.060 E1.9142
G1 X84.257 Y109.048 E1.9208
G1 X83.469 Y108.927 E1.9526
G1 X83.205 Y108.852 E1.9635
G1 X82.626 Y108.603 E1.9887
G1 X82.434 Y108.497 E1.9975
G1 X81.939 Y108.152 E2.0215
G1 X81.773 Y108.009 E2.0303
G1 X81.356 Y107.571 E2.0544
G1 X81.222 Y107.398 E2.0631
G1 X80.903 Y106.887 E2.0872
G1 X80.807 Y106.690 E2.0959
G1 X80.597 Y106.123 E2.1201
G1 X80.542 Y105.911 E2.1288
G1 X80.451 Y105.315 E2.1529
G1 X80.440 Y105.096 E2.1616
G1 X80.470 Y104.494 E2.1857
G1 X80.504 Y104.277 E2.1944
G1 X80.655 Y103.692 E2.2185
G1 X80.731 Y103.487 E2.2273
G1 X80.997 Y102.945 E2.2514
G1 X81.113 Y102.759 E2.2601
G1 X81.482 Y102.282 E2.2842
G1 X81.633 Y102.124 E2.2929
G1 X82.091 Y101.730 E2.3170
G1 X82.271 Y101.605 E2.3258
G1 X82.798 Y101.312 E2.3499
G1 X82.999 Y101.226 E2.3586
G1 X83.575 Y101.045 E2.3827
