; G-Code generated by Simplify3D(R) Version 4.1.2
; Dec 14, 2020 at 9:55:53 PM
; Settings Summary
;   processName,Process1
;   applyToModels,connector-v3-shorter
;   profileName,HBot (modified)
;   profileVersion,2019-10-26 23:38:43
;   baseProfile,Default
;   printMaterial,PETG - SUNLU
;   printQuality,Medium
;   printExtruders,
;   extruderName,Extruder 1
;   extruderToolheadNumber,0
;   extruderDiameter,0.4
;   extruderAutoWidth,1
;   extruderWidth,0.48
;   extrusionMultiplier,1
;   extruderUseRetract,0
;   extruderRetractionDistance,4
;   extruderExtraRestartDistance,0
;   extruderRetractionZLift,0.2
;   extruderRetractionSpeed,3600
;   extruderUseCoasting,1
;   extruderCoastingDistance,0.2
;   extruderUseWipe,1
;   extruderWipeDistance,5
;   primaryExtruder,0
;   layerHeight,0.2
;   topSolidLayers,4
;   bottomSolidLayers,4
;   perimeterOutlines,3
;   printPerimetersInsideOut,0
;   startPointOption,3
;   startPointOriginX,110
;   startPointOriginY,300
;   sequentialIslands,0
;   spiralVaseMode,0
;   firstLayerHeightPercentage,100
;   firstLayerWidthPercentage,100
;   firstLayerUnderspeed,0.5
;   useRaft,0
;   raftExtruder,0
;   raftTopLayers,3
;   raftBaseLayers,2
;   raftOffset,3
;   raftSeparationDistance,0.18
;   raftTopInfill,100
;   aboveRaftSpeedMultiplier,0.3
;   useSkirt,1
;   skirtExtruder,0
;   skirtLayers,1
;   skirtOutlines,10
;   skirtOffset,0
;   usePrimePillar,0
;   primePillarExtruder,999
;   primePillarWidth,12
;   primePillarLocation,7
;   primePillarSpeedMultiplier,1
;   useOozeShield,0
;   oozeShieldExtruder,999
;   oozeShieldOffset,0.9
;   oozeShieldOutlines,2
;   oozeShieldSidewallShape,0
;   oozeShieldSidewallAngle,30
;   oozeShieldSpeedMultiplier,1.5
;   infillExtruder,0
;   internalInfillPattern,Fast Honeycomb
;   externalInfillPattern,Rectilinear
;   infillPercentage,20
;   outlineOverlapPercentage,25
;   infillExtrusionWidthPercentage,100
;   minInfillLength,5
;   infillLayerInterval,1
;   internalInfillAngles,0
;   overlapInternalInfillAngles,0
;   externalInfillAngles,45,-45
;   generateSupport,1
;   supportExtruder,0
;   supportInfillPercentage,25
;   supportExtraInflation,0
;   supportBaseLayers,0
;   denseSupportExtruder,0
;   denseSupportLayers,0
;   denseSupportInfillPercentage,70
;   supportLayerInterval,1
;   supportHorizontalPartOffset,0.3
;   supportUpperSeparationLayers,1
;   supportLowerSeparationLayers,1
;   supportType,0
;   supportGridSpacing,4
;   maxOverhangAngle,25
;   supportAngles,0
;   temperatureName,Extruder 1,Heated Bed
;   temperatureNumber,0,1
;   temperatureSetpointCount,2,1
;   temperatureSetpointLayers,1,2,1
;   temperatureSetpointTemperatures,235,225,85
;   temperatureStabilizeAtStartup,1,1
;   temperatureHeatedBed,0,1
;   fanLayers,1,5,10
;   fanSpeeds,0,5,20
;   blipFanToFullPower,1
;   adjustSpeedForCooling,1
;   minSpeedLayerTime,15
;   minCoolingSpeedSlowdown,20
;   increaseFanForCooling,0
;   minFanLayerTime,45
;   maxCoolingFanSpeed,35
;   increaseFanForBridging,1
;   bridgingFanSpeed,85
;   use5D,1
;   relativeEdistances,0
;   allowEaxisZeroing,1
;   independentExtruderAxes,0
;   includeM10123,0
;   stickySupport,1
;   applyToolheadOffsets,0
;   gcodeXoffset,0
;   gcodeYoffset,0
;   gcodeZoffset,0
;   overrideMachineDefinition,1
;   machineTypeOverride,0
;   strokeXoverride,210
;   strokeYoverride,210
;   strokeZoverride,150
;   originOffsetXoverride,0
;   originOffsetYoverride,0
;   originOffsetZoverride,0
;   homeXdirOverride,-1
;   homeYdirOverride,-1
;   homeZdirOverride,-1
;   flipXoverride,1
;   flipYoverride,-1
;   flipZoverride,1
;   toolheadOffsets,0,0|0,0|0,0|0,0|0,0|0,0
;   overrideFirmwareConfiguration,1
;   firmwareTypeOverride,RepRap (Marlin/Repetier/Sprinter)
;   GPXconfigOverride,r2
;   baudRateOverride,115200
;   overridePrinterModels,0
;   printerModelsOverride
;   startingGcode,G28 ; home all axes,G32 ; run bed.g -- probe bed and enable compensation
;   layerChangeGcode,
;   retractionGcode,
;   toolChangeGcode,
;   endingGcode,M0 ; call stop.g
;   exportFileFormat,gcode
;   celebration,0
;   celebrationSong,Random Song
;   postProcessing,
;   defaultSpeed,3600
;   outlineUnderspeed,0.5
;   solidInfillUnderspeed,0.8
;   supportUnderspeed,0.8
;   rapidXYspeed,18000
;   rapidZspeed,1200
;   minBridgingArea,50
;   bridgingExtraInflation,0
;   bridgingExtrusionMultiplier,0.96
;   bridgingSpeedMultiplier,1
;   useFixedBridgingAngle,0
;   fixedBridgingAngle,0
;   applyBridgingToPerimeters,0
;   filamentDiameters,1.75|1.75|1.75|1.75|1.75|1.75
;   filamentPricesPerKg,46|46|46|46|46|46
;   filamentDensities,1.25|1.25|1.25|1.25|1.25|1.25
;   useMinPrintHeight,0
;   minPrintHeight,20
;   useMaxPrintHeight,0
;   maxPrintHeight,15
;   useDiaphragm,0
;   diaphragmLayerInterval,20
;   robustSlicing,1
;   mergeAllIntoSolid,0
;   onlyRetractWhenCrossingOutline,1
;   retractBetweenLayers,0
;   useRetractionMinTravel,1
;   retractionMinTravel,3
;   retractWhileWiping,1
;   onlyWipeOutlines,1
;   avoidCrossingOutline,1
;   maxMovementDetourFactor,5
;   toolChangeRetractionDistance,12
;   toolChangeExtraRestartDistance,-0.5
;   toolChangeRetractionSpeed,600
;   externalThinWallType,0
;   internalThinWallType,2
;   thinWallAllowedOverlapPercentage,10
;   singleExtrusionMinLength,1
;   singleExtrusionMinPrintingWidthPercentage,50
;   singleExtrusionMaxPrintingWidthPercentage,150
;   singleExtrusionEndpointExtension,0.2
;   horizontalSizeCompensation,-0.1
G90
M82
M106 S0
M140 S85
M190 S85
M104 S235 T0
M109 S235 T0
G28 ; home all axes
G32 ; run bed.g -- probe bed and enable compensation
; process Process1
; layer 1, Z = 0.200
T0
; feature skirt
; tool H0.200 W0.480
G1 Z0.200 F1200
G1 X125.671 Y111.460 F18000
G92 E0.0000
G1 X84.329 Y111.460 E1.6500 F1800
G1 X83.985 Y111.434 E1.6638
G1 X82.956 Y111.277 E1.7054
G1 X82.399 Y111.117 E1.7285
G1 X81.568 Y110.761 E1.7646
G1 X81.163 Y110.536 E1.7830
G1 X80.468 Y110.052 E1.8168
G1 X80.117 Y109.751 E1.8353
G1 X79.533 Y109.136 E1.8692
G1 X79.250 Y108.771 E1.8876
G1 X78.803 Y108.053 E1.9214
G1 X78.599 Y107.638 E1.9398
G1 X78.304 Y106.842 E1.9737
G1 X78.188 Y106.394 E1.9922
G1 X78.060 Y105.558 E2.0259
G1 X78.037 Y105.096 E2.0444
G1 X78.080 Y104.250 E2.0782
G1 X78.150 Y103.793 E2.0966
G1 X78.362 Y102.973 E2.1305
G1 X78.523 Y102.539 E2.1489
G1 X78.896 Y101.779 E2.1827
G1 X79.141 Y101.386 E2.2012
G1 X79.659 Y100.717 E2.2350
G1 X79.977 Y100.382 E2.2534
G1 X80.620 Y99.830 E2.2872
G1 X81.000 Y99.566 E2.3057
G1 X81.740 Y99.155 E2.3395
G1 X82.165 Y98.973 E2.3579
G1 X82.973 Y98.719 E2.3917
G1 X83.427 Y98.626 E2.4102
G1 X84.158 Y98.552 E2.4396
G1 X84.388 Y98.540 E2.4487
G1 X125.671 Y98.540 E4.0964
G1 X126.015 Y98.566 E4.1102
G1 X127.044 Y98.723 E4.1518
G1 X127.601 Y98.883 E4.1749
G1 X128.432 Y99.239 E4.2110
G1 X128.837 Y99.464 E4.2295
G1 X129.532 Y99.948 E4.2633
G1 X129.883 Y100.249 E4.2817
G1 X130.507 Y100.905 E4.3178
G1 X130.849 Y101.371 E4.3409
G1 X131.409 Y102.380 E4.3870
G1 X131.623 Y102.917 E4.4101
G1 X131.850 Y103.793 E4.4462
G1 X131.920 Y104.250 E4.4646
G1 X131.963 Y105.096 E4.4985
G1 X131.940 Y105.558 E4.5169
G1 X131.812 Y106.395 E4.5507
G1 X131.696 Y106.843 E4.5692
G1 X131.402 Y107.637 E4.6030
G1 X131.198 Y108.052 E4.6214
G1 X130.750 Y108.771 E4.6552
G1 X130.467 Y109.137 E4.6737
G1 X129.883 Y109.751 E4.7075
G1 X129.532 Y110.052 E4.7260
G1 X128.837 Y110.536 E4.7598
G1 X128.432 Y110.761 E4.7783
G1 X127.601 Y111.117 E4.8144
G1 X127.044 Y111.277 E4.8375
G1 X126.015 Y111.434 E4.8790
G1 X125.671 Y111.460 E4.8928
G1 X125.652 Y110.980 F18000
G92 E0.0000
G1 X84.348 Y110.980 E1.6486 F1800
G1 X84.039 Y110.957 E1.6609
G1 X83.059 Y110.807 E1.7005
G1 X82.560 Y110.664 E1.7212
G1 X81.779 Y110.329 E1.7551
G1 X81.417 Y110.128 E1.7716
G1 X80.762 Y109.672 E1.8035
G1 X80.448 Y109.403 E1.8200
G1 X79.897 Y108.823 E1.8519
G1 X79.644 Y108.496 E1.8684
G1 X79.223 Y107.820 E1.9002
G1 X79.040 Y107.448 E1.9167
G1 X78.763 Y106.698 E1.9487
G1 X78.659 Y106.298 E1.9652
G1 X78.538 Y105.510 E1.9970
G1 X78.517 Y105.096 E2.0135
G1 X78.558 Y104.299 E2.0454
G1 X78.620 Y103.890 E2.0619
G1 X78.821 Y103.117 E2.0938
G1 X78.965 Y102.728 E2.1103
G1 X79.316 Y102.012 E2.1422
G1 X79.535 Y101.661 E2.1587
G1 X80.023 Y101.030 E2.1905
G1 X80.308 Y100.730 E2.2070
G1 X80.914 Y100.210 E2.2389
G1 X81.254 Y99.974 E2.2554
G1 X81.951 Y99.586 E2.2873
G1 X82.332 Y99.423 E2.3038
G1 X83.093 Y99.184 E2.3356
G1 X83.500 Y99.101 E2.3522
G1 X84.194 Y99.030 E2.3800
G1 X84.400 Y99.020 E2.3883
G1 X125.652 Y99.020 E4.0347
G1 X125.961 Y99.043 E4.0471
G1 X126.941 Y99.193 E4.0867
G1 X127.440 Y99.336 E4.1074
G1 X128.221 Y99.671 E4.1413
G1 X128.583 Y99.872 E4.1578
G1 X129.238 Y100.328 E4.1897
G1 X129.552 Y100.597 E4.2062
G1 X130.138 Y101.214 E4.2401
G1 X130.444 Y101.631 E4.2608
G1 X130.975 Y102.586 E4.3044
G1 X131.166 Y103.067 E4.3251
G1 X131.379 Y103.890 E4.3590
G1 X131.442 Y104.299 E4.3755
G1 X131.483 Y105.096 E4.4074
G1 X131.462 Y105.510 E4.4239
G1 X131.341 Y106.299 E4.4557
G1 X131.237 Y106.699 E4.4723
G1 X130.960 Y107.447 E4.5041
G1 X130.778 Y107.819 E4.5206
G1 X130.355 Y108.497 E4.5525
G1 X130.102 Y108.824 E4.5690
G1 X129.552 Y109.403 E4.6009
G1 X129.238 Y109.672 E4.6174
G1 X128.583 Y110.128 E4.6493
G1 X128.221 Y110.329 E4.6658
G1 X127.440 Y110.664 E4.6997
G1 X126.941 Y110.807 E4.7204
G1 X125.961 Y110.957 E4.7600
G1 X125.652 Y110.980 E4.7723
G1 X125.634 Y110.500 F18000
G92 E0.0000
G1 X84.366 Y110.500 E1.6471 F1800
G1 X84.094 Y110.479 E1.6580
G1 X83.161 Y110.337 E1.6956
G1 X82.722 Y110.211 E1.7139
G1 X81.991 Y109.898 E1.7456
G1 X81.671 Y109.720 E1.7602
G1 X81.056 Y109.292 E1.7901
G1 X80.779 Y109.054 E1.8047
G1 X80.262 Y108.510 E1.8347
G1 X80.039 Y108.222 E1.8492
G1 X79.643 Y107.587 E1.8791
G1 X79.482 Y107.259 E1.8937
G1 X79.221 Y106.555 E1.9236
G1 X79.130 Y106.201 E1.9382
G1 X79.016 Y105.461 E1.9681
G1 X78.998 Y105.096 E1.9827
G1 X79.036 Y104.348 E2.0126
G1 X79.091 Y103.987 E2.0272
G1 X79.279 Y103.261 E2.0571
G1 X79.406 Y102.918 E2.0717
G1 X79.736 Y102.245 E2.1016
G1 X79.929 Y101.935 E2.1162
G1 X80.388 Y101.343 E2.1461
G1 X80.639 Y101.079 E2.1606
G1 X81.208 Y100.590 E2.1906
G1 X81.508 Y100.381 E2.2051
G1 X82.163 Y100.018 E2.2350
G1 X82.499 Y99.874 E2.2496
G1 X83.214 Y99.649 E2.2795
G1 X83.572 Y99.576 E2.2941
G1 X84.230 Y99.509 E2.3205
G1 X84.412 Y99.500 E2.3278
G1 X125.634 Y99.500 E3.9731
G1 X125.906 Y99.521 E3.9839
G1 X126.839 Y99.663 E4.0216
G1 X127.278 Y99.789 E4.0398
G1 X128.009 Y100.102 E4.0716
G1 X128.328 Y100.280 E4.0862
G1 X128.944 Y100.708 E4.1161
G1 X129.221 Y100.946 E4.1306
G1 X129.769 Y101.522 E4.1624
G1 X130.039 Y101.890 E4.1806
G1 X130.540 Y102.793 E4.2218
G1 X130.709 Y103.217 E4.2400
G1 X130.909 Y103.986 E4.2718
G1 X130.964 Y104.347 E4.2864
G1 X131.002 Y105.096 E4.3163
G1 X130.984 Y105.461 E4.3309
G1 X130.870 Y106.202 E4.3608
G1 X130.779 Y106.555 E4.3753
G1 X130.518 Y107.258 E4.4052
G1 X130.357 Y107.586 E4.4198
G1 X129.961 Y108.222 E4.4497
G1 X129.737 Y108.511 E4.4643
G1 X129.221 Y109.054 E4.4943
G1 X128.944 Y109.292 E4.5088
G1 X128.328 Y109.720 E4.5387
G1 X128.009 Y109.898 E4.5533
G1 X127.278 Y110.211 E4.5851
G1 X126.839 Y110.337 E4.6033
G1 X125.906 Y110.479 E4.6409
G1 X125.634 Y110.500 E4.6518
G1 X125.616 Y110.020 F18000
G92 E0.0000
G1 X84.384 Y110.020 E1.6457 F1800
G1 X84.148 Y110.002 E1.6551
G1 X83.264 Y109.867 E1.6908
G1 X82.883 Y109.758 E1.7066
G1 X82.202 Y109.466 E1.7362
G1 X81.926 Y109.312 E1.7488
G1 X81.350 Y108.912 E1.7768
G1 X81.110 Y108.706 E1.7894
G1 X80.627 Y108.197 E1.8174
G1 X80.433 Y107.947 E1.8300
G1 X80.063 Y107.353 E1.8580
G1 X79.924 Y107.069 E1.8706
G1 X79.680 Y106.411 E1.8986
G1 X79.601 Y106.104 E1.9113
G1 X79.495 Y105.412 E1.9392
G1 X79.479 Y105.096 E1.9518
G1 X79.514 Y104.396 E1.9798
G1 X79.562 Y104.083 E1.9924
G1 X79.738 Y103.404 E2.0204
G1 X79.848 Y103.108 E2.0331
G1 X80.156 Y102.478 E2.0610
G1 X80.324 Y102.210 E2.0737
G1 X80.753 Y101.656 E2.1016
G1 X80.971 Y101.427 E2.1142
G1 X81.503 Y100.970 E2.1422
G1 X81.762 Y100.789 E2.1549
G1 X82.375 Y100.449 E2.1828
G1 X82.666 Y100.325 E2.1954
G1 X83.334 Y100.115 E2.2234
G1 X83.645 Y100.051 E2.2361
G1 X84.267 Y99.988 E2.2610
G1 X84.424 Y99.980 E2.2673
G1 X125.616 Y99.980 E3.9114
G1 X125.852 Y99.998 E3.9208
G1 X126.736 Y100.133 E3.9565
G1 X127.117 Y100.242 E3.9723
G1 X127.797 Y100.534 E4.0019
G1 X128.074 Y100.688 E4.0145
G1 X128.650 Y101.088 E4.0425
G1 X128.890 Y101.294 E4.0551
G1 X129.400 Y101.831 E4.0847
G1 X129.634 Y102.150 E4.1005
G1 X130.106 Y102.999 E4.1392
G1 X130.252 Y103.366 E4.1550
G1 X130.438 Y104.083 E4.1846
G1 X130.486 Y104.396 E4.1972
G1 X130.521 Y105.096 E4.2252
G1 X130.505 Y105.412 E4.2378
G1 X130.399 Y106.105 E4.2658
G1 X130.320 Y106.411 E4.2784
G1 X130.077 Y107.068 E4.3064
G1 X129.937 Y107.353 E4.3190
G1 X129.566 Y107.948 E4.3470
G1 X129.373 Y108.198 E4.3596
G1 X128.890 Y108.706 E4.3876
G1 X128.650 Y108.912 E4.4002
G1 X128.074 Y109.312 E4.4282
G1 X127.797 Y109.466 E4.4409
G1 X127.117 Y109.758 E4.4704
G1 X126.736 Y109.867 E4.4862
G1 X125.852 Y110.002 E4.5219
G1 X125.616 Y110.020 E4.5314
G1 X125.598 Y109.540 F18000
G92 E0.0000
G1 X84.402 Y109.540 E1.6442 F1800
G1 X84.203 Y109.525 E1.6522
G1 X83.367 Y109.397 E1.6859
G1 X83.044 Y109.305 E1.6993
G1 X82.414 Y109.034 E1.7267
G1 X82.180 Y108.905 E1.7374
G1 X81.645 Y108.532 E1.7634
G1 X81.441 Y108.358 E1.7741
G1 X80.992 Y107.884 E1.8002
G1 X80.828 Y107.673 E1.8108
G1 X80.483 Y107.120 E1.8368
G1 X80.365 Y106.879 E1.8475
G1 X80.138 Y106.267 E1.8736
G1 X80.071 Y106.008 E1.8843
G1 X79.973 Y105.364 E1.9103
G1 X79.959 Y105.096 E1.9210
G1 X79.992 Y104.445 E1.9470
G1 X80.033 Y104.180 E1.9577
G1 X80.196 Y103.548 E1.9837
G1 X80.289 Y103.297 E1.9944
G1 X80.577 Y102.712 E2.0205
G1 X80.718 Y102.485 E2.0311
G1 X81.117 Y101.969 E2.0572
G1 X81.302 Y101.775 E2.0678
G1 X81.797 Y101.350 E2.0939
G1 X82.017 Y101.197 E2.1046
G1 X82.587 Y100.881 E2.1306
G1 X82.833 Y100.775 E2.1413
G1 X83.455 Y100.580 E2.1673
G1 X83.718 Y100.526 E2.1780
G1 X84.303 Y100.467 E2.2015
G1 X84.436 Y100.460 E2.2068
G1 X125.598 Y100.460 E3.8497
G1 X125.797 Y100.475 E3.8577
G1 X126.633 Y100.603 E3.8914
G1 X126.956 Y100.695 E3.9048
G1 X127.586 Y100.965 E3.9322
G1 X127.820 Y101.095 E3.9429
G1 X128.355 Y101.468 E3.9689
G1 X128.559 Y101.642 E3.9796
G1 X129.031 Y102.139 E4.0069
G1 X129.229 Y102.409 E4.0203
G1 X129.671 Y103.205 E4.0566
G1 X129.795 Y103.516 E4.0700
G1 X129.967 Y104.180 E4.0974
G1 X130.008 Y104.445 E4.1081
G1 X130.041 Y105.096 E4.1341
G1 X130.027 Y105.364 E4.1448
G1 X129.929 Y106.008 E4.1708
G1 X129.861 Y106.267 E4.1815
G1 X129.635 Y106.879 E4.2075
G1 X129.517 Y107.119 E4.2182
G1 X129.172 Y107.673 E4.2443
G1 X129.008 Y107.885 E4.2549
G1 X128.559 Y108.358 E4.2810
G1 X128.355 Y108.532 E4.2917
G1 X127.820 Y108.905 E4.3177
G1 X127.586 Y109.035 E4.3284
G1 X126.956 Y109.305 E4.3557
G1 X126.633 Y109.397 E4.3691
G1 X125.797 Y109.525 E4.4029
G1 X125.598 Y109.540 E4.4109
G1 X125.579 Y109.060 F18000
G92 E0.0000
G1 X84.421 Y109.060 E1.6427 F1800
G1 X84.257 Y109.048 E1.6493
G1 X83.469 Y108.927 E1.6811
G1 X83.205 Y108.852 E1.6920
G1 X82.626 Y108.603 E1.7172
G1 X82.434 Y108.497 E1.7260
G1 X81.939 Y108.152 E1.7501
G1 X81.773 Y108.009 E1.7588
G1 X81.356 Y107.571 E1.7829
G1 X81.222 Y107.398 E1.7917
G1 X80.903 Y106.887 E1.8157
G1 X80.807 Y106.690 E1.8245
G1 X80.597 Y106.123 E1.8486
G1 X80.542 Y105.911 E1.8573
G1 X80.451 Y105.315 E1.8814
G1 X80.440 Y105.096 E1.8901
G1 X80.470 Y104.494 E1.9142
G1 X80.504 Y104.277 E1.9230
G1 X80.655 Y103.692 E1.9471
G1 X80.731 Y103.487 E1.9558
G1 X80.997 Y102.945 E1.9799
G1 X81.113 Y102.759 E1.9886
G1 X81.482 Y102.282 E2.0127
G1 X81.633 Y102.124 E2.0215
G1 X82.091 Y101.730 E2.0455
G1 X82.271 Y101.605 E2.0543
G1 X82.798 Y101.312 E2.0784
G1 X82.999 Y101.226 E2.0871
G1 X83.575 Y101.045 E2.1112
G1 X83.790 Y101.001 E2.1200
G1 X84.339 Y100.945 E2.1420
G1 X84.448 Y100.940 E2.1463
G1 X125.579 Y100.940 E3.7880
G1 X125.743 Y100.952 E3.7945
G1 X126.531 Y101.073 E3.8263
G1 X126.795 Y101.148 E3.8373
G1 X127.374 Y101.397 E3.8625
G1 X127.566 Y101.503 E3.8712
G1 X128.061 Y101.848 E3.8953
G1 X128.227 Y101.991 E3.9040
G1 X128.662 Y102.448 E3.9292
G1 X128.824 Y102.669 E3.9402
G1 X129.237 Y103.412 E3.9741
G1 X129.338 Y103.666 E3.9850
G1 X129.496 Y104.277 E4.0102
