; G-Code generated by Simplify3D(R) Version 4.1.2
; Dec 13, 2020 at 10:13:58 PM
; Settings Summary
;   processName,Process1
;   applyToModels,sidewall-v3-rounded(4)
;   profileName,HBot (modified)
;   profileVersion,2019-10-26 23:38:43
;   baseProfile,Default
;   printMaterial,PETG - SUNLU
;   printQuality,Medium
;   printExtruders,
;   extruderName,Extruder 1
;   extruderToolheadNumber,0
;   extruderDiameter,0.4
;   extruderAutoWidth,1
;   extruderWidth,0.48
;   extrusionMultiplier,1
;   extruderUseRetract,0
;   extruderRetractionDistance,4
;   extruderExtraRestartDistance,0
;   extruderRetractionZLift,0.2
;   extruderRetractionSpeed,3600
;   extruderUseCoasting,1
;   extruderCoastingDistance,0.2
;   extruderUseWipe,1
;   extruderWipeDistance,5
;   primaryExtruder,0
;   layerHeight,0.2
;   topSolidLayers,4
;   bottomSolidLayers,4
;   perimeterOutlines,3
;   printPerimetersInsideOut,0
;   startPointOption,3
;   startPointOriginX,200
;   startPointOriginY,100
;   sequentialIslands,0
;   spiralVaseMode,0
;   firstLayerHeightPercentage,100
;   firstLayerWidthPercentage,100
;   firstLayerUnderspeed,0.5
;   useRaft,0
;   raftExtruder,0
;   raftTopLayers,3
;   raftBaseLayers,2
;   raftOffset,3
;   raftSeparationDistance,0.18
;   raftTopInfill,100
;   aboveRaftSpeedMultiplier,0.3
;   useSkirt,1
;   skirtExtruder,0
;   skirtLayers,1
;   skirtOutlines,10
;   skirtOffset,0
;   usePrimePillar,0
;   primePillarExtruder,999
;   primePillarWidth,12
;   primePillarLocation,7
;   primePillarSpeedMultiplier,1
;   useOozeShield,0
;   oozeShieldExtruder,999
;   oozeShieldOffset,0.9
;   oozeShieldOutlines,2
;   oozeShieldSidewallShape,0
;   oozeShieldSidewallAngle,30
;   oozeShieldSpeedMultiplier,1.5
;   infillExtruder,0
;   internalInfillPattern,Fast Honeycomb
;   externalInfillPattern,Rectilinear
;   infillPercentage,20
;   outlineOverlapPercentage,25
;   infillExtrusionWidthPercentage,100
;   minInfillLength,5
;   infillLayerInterval,1
;   internalInfillAngles,0
;   overlapInternalInfillAngles,0
;   externalInfillAngles,45,-45
;   generateSupport,1
;   supportExtruder,0
;   supportInfillPercentage,25
;   supportExtraInflation,0
;   supportBaseLayers,0
;   denseSupportExtruder,0
;   denseSupportLayers,0
;   denseSupportInfillPercentage,70
;   supportLayerInterval,1
;   supportHorizontalPartOffset,0.3
;   supportUpperSeparationLayers,1
;   supportLowerSeparationLayers,1
;   supportType,0
;   supportGridSpacing,4
;   maxOverhangAngle,25
;   supportAngles,0
;   temperatureName,Extruder 1,Heated Bed
;   temperatureNumber,0,1
;   temperatureSetpointCount,2,1
;   temperatureSetpointLayers,1,2,1
;   temperatureSetpointTemperatures,235,225,85
;   temperatureStabilizeAtStartup,1,1
;   temperatureHeatedBed,0,1
;   fanLayers,1,5,10
;   fanSpeeds,0,5,20
;   blipFanToFullPower,1
;   adjustSpeedForCooling,1
;   minSpeedLayerTime,15
;   minCoolingSpeedSlowdown,20
;   increaseFanForCooling,0
;   minFanLayerTime,45
;   maxCoolingFanSpeed,35
;   increaseFanForBridging,1
;   bridgingFanSpeed,85
;   use5D,1
;   relativeEdistances,0
;   allowEaxisZeroing,1
;   independentExtruderAxes,0
;   includeM10123,0
;   stickySupport,1
;   applyToolheadOffsets,0
;   gcodeXoffset,0
;   gcodeYoffset,0
;   gcodeZoffset,0
;   overrideMachineDefinition,1
;   machineTypeOverride,0
;   strokeXoverride,210
;   strokeYoverride,210
;   strokeZoverride,150
;   originOffsetXoverride,0
;   originOffsetYoverride,0
;   originOffsetZoverride,0
;   homeXdirOverride,-1
;   homeYdirOverride,-1
;   homeZdirOverride,-1
;   flipXoverride,1
;   flipYoverride,-1
;   flipZoverride,1
;   toolheadOffsets,0,0|0,0|0,0|0,0|0,0|0,0
;   overrideFirmwareConfiguration,1
;   firmwareTypeOverride,RepRap (Marlin/Repetier/Sprinter)
;   GPXconfigOverride,r2
;   baudRateOverride,115200
;   overridePrinterModels,0
;   printerModelsOverride
;   startingGcode,G28 ; home all axes,G32 ; run bed.g -- probe bed and enable compensation
;   layerChangeGcode,
;   retractionGcode,
;   toolChangeGcode,
;   endingGcode,M0 ; call stop.g
;   exportFileFormat,gcode
;   celebration,0
;   celebrationSong,Random Song
;   postProcessing,
;   defaultSpeed,3600
;   outlineUnderspeed,0.5
;   solidInfillUnderspeed,0.8
;   supportUnderspeed,0.8
;   rapidXYspeed,18000
;   rapidZspeed,1200
;   minBridgingArea,50
;   bridgingExtraInflation,0
;   bridgingExtrusionMultiplier,0.96
;   bridgingSpeedMultiplier,1
;   useFixedBridgingAngle,0
;   fixedBridgingAngle,0
;   applyBridgingToPerimeters,0
;   filamentDiameters,1.75|1.75|1.75|1.75|1.75|1.75
;   filamentPricesPerKg,46|46|46|46|46|46
;   filamentDensities,1.25|1.25|1.25|1.25|1.25|1.25
;   useMinPrintHeight,0
;   minPrintHeight,20
;   useMaxPrintHeight,0
;   maxPrintHeight,15
;   useDiaphragm,0
;   diaphragmLayerInterval,20
;   robustSlicing,1
;   mergeAllIntoSolid,0
;   onlyRetractWhenCrossingOutline,1
;   retractBetweenLayers,0
;   useRetractionMinTravel,1
;   retractionMinTravel,3
;   retractWhileWiping,1
;   onlyWipeOutlines,1
;   avoidCrossingOutline,1
;   maxMovementDetourFactor,5
;   toolChangeRetractionDistance,12
;   toolChangeExtraRestartDistance,-0.5
;   toolChangeRetractionSpeed,600
;   externalThinWallType,0
;   internalThinWallType,2
;   thinWallAllowedOverlapPercentage,10
;   singleExtrusionMinLength,1
;   singleExtrusionMinPrintingWidthPercentage,50
;   singleExtrusionMaxPrintingWidthPercentage,150
;   singleExtrusionEndpointExtension,0.2
;   horizontalSizeCompensation,-0.1
G90
M82
M106 S0
M140 S85
M190 S85
M104 S235 T0
M109 S235 T0
G28 ; home all axes
G32 ; run bed.g -- probe bed and enable compensation
; process Process1
; layer 1, Z = 0.200
T0
; feature skirt
; tool H0.200 W0.480
G1 Z0.200 F1200
G1 X123.079 Y91.600 F18000
G92 E0.0000
G1 X123.079 Y118.333 E1.0669 F1800
G1 X122.974 Y119.021 E1.0947
G1 X122.708 Y119.865 E1.1301
G1 X122.428 Y120.450 E1.1560
G1 X121.891 Y121.255 E1.1946
G1 X121.255 Y121.891 E1.2305
G1 X120.450 Y122.428 E1.2691
G1 X119.865 Y122.708 E1.2950
G1 X119.021 Y122.974 E1.3303
G1 X118.333 Y123.079 E1.3581
G1 X91.667 Y123.079 E2.4224
G1 X90.979 Y122.974 E2.4501
G1 X90.135 Y122.708 E2.4855
G1 X89.550 Y122.428 E2.5114
G1 X88.746 Y121.892 E2.5499
G1 X88.112 Y121.258 E2.5857
G1 X87.585 Y120.471 E2.6235
G1 X87.313 Y119.915 E2.6482
G1 X87.040 Y119.088 E2.6830
G1 X86.924 Y118.368 E2.7121
G1 X86.921 Y91.668 E3.7777
G1 X87.026 Y90.980 E3.8055
G1 X87.292 Y90.135 E3.8409
G1 X87.572 Y89.550 E3.8668
G1 X88.109 Y88.745 E3.9054
G1 X88.745 Y88.109 E3.9413
G1 X89.550 Y87.572 E3.9799
G1 X90.135 Y87.292 E4.0058
G1 X90.979 Y87.026 E4.0411
G1 X91.667 Y86.921 E4.0689
G1 X118.333 Y86.921 E5.1332
G1 X119.021 Y87.026 E5.1609
G1 X119.973 Y87.326 E5.2008
G1 X120.742 Y87.742 E5.2357
G1 X121.763 Y88.579 E5.2884
G1 X122.461 Y89.549 E5.3361
G1 X122.930 Y90.785 E5.3888
G1 X123.079 Y91.600 E5.4219
G1 X122.599 Y91.644 F18000
G92 E0.0000
G1 X122.599 Y118.296 E1.0637 F1800
G1 X122.505 Y118.911 E1.0886
G1 X122.261 Y119.689 E1.1211
G1 X122.010 Y120.212 E1.1443
G1 X121.518 Y120.949 E1.1796
G1 X120.949 Y121.518 E1.2117
G1 X120.212 Y122.010 E1.2471
G1 X119.689 Y122.261 E1.2703
G1 X118.911 Y122.505 E1.3028
G1 X118.296 Y122.599 E1.3276
G1 X91.704 Y122.599 E2.3890
G1 X91.089 Y122.505 E2.4138
G1 X90.311 Y122.261 E2.4463
G1 X89.788 Y122.010 E2.4695
G1 X89.052 Y121.519 E2.5048
G1 X88.485 Y120.952 E2.5368
G1 X88.002 Y120.231 E2.5715
G1 X87.759 Y119.734 E2.5935
G1 X87.508 Y118.974 E2.6255
G1 X87.404 Y118.329 E2.6515
G1 X87.401 Y91.705 E3.7142
G1 X87.495 Y91.089 E3.7391
G1 X87.739 Y90.312 E3.7716
G1 X87.990 Y89.788 E3.7948
G1 X88.482 Y89.051 E3.8301
G1 X89.051 Y88.482 E3.8622
G1 X89.788 Y87.990 E3.8976
G1 X90.311 Y87.739 E3.9208
G1 X91.089 Y87.495 E3.9533
G1 X91.704 Y87.401 E3.9781
G1 X118.296 Y87.401 E5.0395
G1 X118.912 Y87.495 E5.0643
G1 X119.785 Y87.770 E5.1009
G1 X120.473 Y88.142 E5.1321
G1 X121.410 Y88.910 E5.1805
G1 X122.034 Y89.779 E5.2231
G1 X122.465 Y90.914 E5.2716
G1 X122.599 Y91.644 E5.3012
G1 X122.119 Y91.688 F18000
G92 E0.0000
G1 X122.119 Y118.260 E1.0605 F1800
G1 X122.036 Y118.802 E1.0825
G1 X121.813 Y119.512 E1.1121
G1 X121.592 Y119.974 E1.1326
G1 X121.145 Y120.643 E1.1647
G1 X120.643 Y121.145 E1.1930
G1 X119.974 Y121.592 E1.2251
G1 X119.512 Y121.813 E1.2456
G1 X118.802 Y122.036 E1.2753
G1 X118.260 Y122.119 E1.2972
G1 X91.740 Y122.119 E2.3556
G1 X91.198 Y122.036 E2.3775
G1 X90.488 Y121.813 E2.4072
G1 X90.026 Y121.592 E2.4277
G1 X89.358 Y121.146 E2.4597
G1 X88.857 Y120.646 E2.4880
G1 X88.419 Y119.991 E2.5194
G1 X88.205 Y119.552 E2.5389
G1 X87.975 Y118.860 E2.5680
G1 X87.884 Y118.291 E2.5910
G1 X87.881 Y91.741 E3.6507
G1 X87.964 Y91.198 E3.6726
G1 X88.187 Y90.488 E3.7023
G1 X88.408 Y90.026 E3.7228
G1 X88.855 Y89.357 E3.7549
G1 X89.357 Y88.855 E3.7832
G1 X90.026 Y88.408 E3.8153
G1 X90.488 Y88.187 E3.8358
G1 X91.198 Y87.964 E3.8654
G1 X91.740 Y87.881 E3.8874
G1 X118.260 Y87.881 E4.9458
G1 X118.802 Y87.964 E4.9677
G1 X119.597 Y88.214 E5.0010
G1 X120.204 Y88.542 E5.0285
G1 X121.057 Y89.242 E5.0725
G1 X121.608 Y90.008 E5.1102
G1 X122.001 Y91.044 E5.1544
G1 X122.119 Y91.688 E5.1806
G1 X121.639 Y91.731 F18000
G92 E0.0000
G1 X121.639 Y118.223 E1.0573 F1800
G1 X121.567 Y118.693 E1.0763
G1 X121.365 Y119.335 E1.1032
G1 X121.173 Y119.736 E1.1209
G1 X120.772 Y120.337 E1.1498
G1 X120.337 Y120.772 E1.1743
G1 X119.736 Y121.173 E1.2032
G1 X119.335 Y121.365 E1.2209
G1 X118.693 Y121.567 E1.2478
G1 X118.223 Y121.639 E1.2668
G1 X91.777 Y121.639 E2.3223
G1 X91.307 Y121.567 E2.3413
G1 X90.664 Y121.365 E2.3681
G1 X90.264 Y121.173 E2.3858
G1 X89.664 Y120.773 E2.4146
G1 X89.230 Y120.339 E2.4391
G1 X88.836 Y119.751 E2.4674
G1 X88.650 Y119.371 E2.4843
G1 X88.443 Y118.745 E2.5106
G1 X88.364 Y118.252 E2.5305
G1 X88.361 Y91.778 E3.5872
G1 X88.433 Y91.307 E3.6062
G1 X88.635 Y90.665 E3.6330
G1 X88.827 Y90.264 E3.6508
G1 X89.228 Y89.663 E3.6796
G1 X89.663 Y89.228 E3.7042
G1 X90.264 Y88.827 E3.7330
G1 X90.665 Y88.635 E3.7507
G1 X91.307 Y88.433 E3.7776
G1 X91.777 Y88.361 E3.7966
G1 X118.223 Y88.361 E4.8521
G1 X118.693 Y88.433 E4.8711
G1 X119.409 Y88.658 E4.9011
G1 X119.935 Y88.943 E4.9249
G1 X120.704 Y89.573 E4.9646
G1 X121.181 Y90.237 E4.9973
G1 X121.537 Y91.173 E5.0372
G1 X121.639 Y91.731 E5.0599
G1 X121.159 Y91.775 F18000
G92 E0.0000
G1 X121.159 Y118.186 E1.0541 F1800
G1 X121.098 Y118.584 E1.0702
G1 X120.918 Y119.159 E1.0942
G1 X120.755 Y119.498 E1.1092
G1 X120.399 Y120.031 E1.1348
G1 X120.031 Y120.399 E1.1556
G1 X119.498 Y120.755 E1.1812
G1 X119.159 Y120.918 E1.1962
G1 X118.584 Y121.098 E1.2202
G1 X118.186 Y121.159 E1.2363
G1 X91.814 Y121.159 E2.2889
G1 X91.416 Y121.098 E2.3050
G1 X90.841 Y120.918 E2.3290
G1 X90.502 Y120.755 E2.3440
G1 X89.970 Y120.400 E2.3696
G1 X89.603 Y120.033 E2.3903
G1 X89.253 Y119.511 E2.4154
G1 X89.096 Y119.189 E2.4296
G1 X88.911 Y118.631 E2.4531
G1 X88.844 Y118.214 E2.4700
G1 X88.841 Y91.814 E3.5236
G1 X88.902 Y91.416 E3.5397
G1 X89.082 Y90.841 E3.5638
G1 X89.245 Y90.502 E3.5788
G1 X89.601 Y89.969 E3.6044
G1 X89.969 Y89.601 E3.6251
G1 X90.502 Y89.245 E3.6507
G1 X90.841 Y89.082 E3.6657
G1 X91.416 Y88.902 E3.6898
G1 X91.814 Y88.841 E3.7058
G1 X118.186 Y88.841 E4.7584
G1 X118.584 Y88.902 E4.7745
G1 X119.221 Y89.102 E4.8012
G1 X119.667 Y89.343 E4.8214
G1 X120.351 Y89.904 E4.8567
G1 X120.755 Y90.466 E4.8843
G1 X121.073 Y91.303 E4.9200
G1 X121.159 Y91.775 E4.9392
G1 X120.679 Y91.819 F18000
G92 E0.0000
G1 X120.679 Y118.150 E1.0509 F1800
G1 X120.629 Y118.475 E1.0641
G1 X120.470 Y118.982 E1.0853
G1 X120.337 Y119.260 E1.0976
G1 X120.026 Y119.725 E1.1199
G1 X119.725 Y120.026 E1.1369
G1 X119.260 Y120.337 E1.1592
G1 X118.982 Y120.470 E1.1715
G1 X118.475 Y120.629 E1.1927
G1 X118.150 Y120.679 E1.2059
G1 X91.850 Y120.679 E2.2555
G1 X91.525 Y120.629 E2.2687
G1 X91.018 Y120.470 E2.2899
G1 X90.740 Y120.337 E2.3022
G1 X90.275 Y120.027 E2.3245
G1 X89.975 Y119.727 E2.3414
G1 X89.670 Y119.271 E2.3633
G1 X89.541 Y119.008 E2.3750
G1 X89.379 Y118.517 E2.3957
G1 X89.324 Y118.176 E2.4094
G1 X89.321 Y91.851 E3.4601
G1 X89.371 Y91.525 E3.4733
G1 X89.530 Y91.018 E3.4945
G1 X89.663 Y90.740 E3.5068
G1 X89.974 Y90.275 E3.5291
G1 X90.275 Y89.974 E3.5461
G1 X90.740 Y89.663 E3.5685
G1 X91.018 Y89.530 E3.5807
G1 X91.525 Y89.371 E3.6019
G1 X91.850 Y89.321 E3.6151
G1 X118.150 Y89.321 E4.6647
G1 X118.475 Y89.371 E4.6779
G1 X119.033 Y89.546 E4.7013
G1 X119.398 Y89.743 E4.7178
G1 X119.998 Y90.236 E4.7488
G1 X120.329 Y90.695 E4.7714
G1 X120.608 Y91.432 E4.8028
G1 X120.679 Y91.819 E4.8185
G1 X120.199 Y91.862 F18000
G92 E0.0000
G1 X120.199 Y118.113 E1.0477 F1800
G1 X120.160 Y118.366 E1.0579
G1 X120.022 Y118.806 E1.0763
G1 X119.919 Y119.022 E1.0859
G1 X119.653 Y119.419 E1.1050
G1 X119.419 Y119.653 E1.1182
G1 X119.022 Y119.919 E1.1373
G1 X118.806 Y120.022 E1.1468
G1 X118.366 Y120.160 E1.1652
G1 X118.113 Y120.199 E1.1754
G1 X91.887 Y120.199 E2.2222
G1 X91.634 Y120.160 E2.2324
G1 X91.194 Y120.022 E2.2508
G1 X90.978 Y119.919 E2.2603
G1 X90.581 Y119.654 E2.2794
G1 X90.348 Y119.420 E2.2926
G1 X90.087 Y119.031 E2.3113
G1 X89.987 Y118.826 E2.3204
G1 X89.846 Y118.402 E2.3382
G1 X89.804 Y118.137 E2.3489
G1 X89.801 Y91.887 E3.3966
G1 X89.839 Y91.634 E3.4068
G1 X89.978 Y91.194 E3.4252
G1 X90.081 Y90.978 E3.4348
G1 X90.347 Y90.581 E3.4539
G1 X90.581 Y90.347 E3.4671
G1 X90.978 Y90.081 E3.4862
G1 X91.194 Y89.978 E3.4957
G1 X91.634 Y89.840 E3.5141
G1 X91.887 Y89.801 E3.5243
G1 X118.113 Y89.801 E4.5711
G1 X118.366 Y89.840 E4.5813
G1 X118.846 Y89.990 E4.6014
G1 X119.129 Y90.143 E4.6142
G1 X119.645 Y90.567 E4.6409
G1 X119.902 Y90.924 E4.6584
G1 X120.144 Y91.562 E4.6856
G1 X120.199 Y91.862 E4.6978
G1 X119.719 Y91.906 F18000
G92 E0.0000
G1 X119.719 Y118.076 E1.0445 F1800
G1 X119.692 Y118.257 E1.0518
G1 X119.575 Y118.629 E1.0674
G1 X119.501 Y118.783 E1.0742
G1 X119.281 Y119.113 E1.0900
G1 X119.113 Y119.281 E1.0995
G1 X118.783 Y119.501 E1.1153
G1 X118.629 Y119.575 E1.1221
G1 X118.257 Y119.692 E1.1377
G1 X118.076 Y119.719 E1.1450
G1 X91.924 Y119.719 E2.1888
G1 X91.743 Y119.692 E2.1961
G1 X91.371 Y119.575 E2.2117
G1 X91.217 Y119.501 E2.2185
G1 X90.887 Y119.281 E2.2343
G1 X90.720 Y119.114 E2.2437
G1 X90.504 Y118.791 E2.2593
G1 X90.432 Y118.644 E2.2658
G1 X90.314 Y118.288 E2.2807
G1 X90.284 Y118.099 E2.2884
G1 X90.281 Y91.924 E3.3331
G1 X90.308 Y91.743 E3.3404
G1 X90.425 Y91.371 E3.3560
G1 X90.499 Y91.217 E3.3628
G1 X90.719 Y90.887 E3.3786
G1 X90.887 Y90.719 E3.3881
G1 X91.217 Y90.499 E3.4039
G1 X91.371 Y90.425 E3.4107
G1 X91.743 Y90.308 E3.4263
G1 X91.924 Y90.281 E3.4336
G1 X118.076 Y90.281 E4.4774
G1 X118.257 Y90.308 E4.4847
G1 X118.658 Y90.434 E4.5014
G1 X118.860 Y90.544 E4.5106
G1 X119.292 Y90.898 E4.5329
G1 X119.476 Y91.153 E4.5455
G1 X119.680 Y91.691 E4.5685
G1 X119.719 Y91.906 E4.5772
G1 X119.239 Y91.950 F18000
G92 E0.0000
G1 X119.239 Y118.040 E1.0413 F1800
G1 X119.223 Y118.148 E1.0457
G1 X119.127 Y118.453 E1.0584
G1 X119.083 Y118.545 E1.0625
G1 X118.908 Y118.807 E1.0751
G1 X118.807 Y118.908 E1.0808
G1 X118.545 Y119.083 E1.0933
G1 X118.453 Y119.127 E1.0974
G1 X118.148 Y119.223 E1.1102
G1 X118.040 Y119.239 E1.1146
G1 X91.960 Y119.239 E2.1554
G1 X91.852 Y119.223 E2.1598
G1 X91.547 Y119.127 E2.1726
G1 X91.455 Y119.083 E2.1767
G1 X91.193 Y118.908 E2.1892
G1 X91.093 Y118.808 E2.1949
G1 X90.921 Y118.551 E2.2072
G1 X90.878 Y118.463 E2.2111
G1 X90.782 Y118.174 E2.2233
G1 X90.764 Y118.060 E2.2279
G1 X90.761 Y91.961 E3.2696
G1 X90.777 Y91.852 E3.2739
G1 X90.873 Y91.547 E3.2867
G1 X90.917 Y91.455 E3.2908
G1 X91.092 Y91.193 E3.3034
G1 X91.193 Y91.092 E3.3090
G1 X91.455 Y90.917 E3.3216
G1 X91.547 Y90.873 E3.3257
G1 X91.852 Y90.777 E3.3384
G1 X91.960 Y90.761 E3.3428
G1 X118.040 Y90.761 E4.3837
G1 X118.148 Y90.777 E4.3881
G1 X118.470 Y90.878 E4.4015
G1 X118.591 Y90.944 E4.4071
G1 X118.939 Y91.229 E4.4250
G1 X119.049 Y91.383 E4.4325
G1 X119.216 Y91.821 E4.4513
G1 X119.239 Y91.950 E4.4565
G1 X118.759 Y91.994 F18000
G92 E0.0000
G1 X118.759 Y118.003 E1.0381 F1800
G1 X118.754 Y118.039 E1.0396
G1 X118.679 Y118.276 E1.0495
G1 X118.664 Y118.307 E1.0508
G1 X118.535 Y118.501 E1.0602
G1 X118.501 Y118.535 E1.0621
G1 X118.307 Y118.664 E1.0714
G1 X118.276 Y118.679 E1.0727
G1 X118.039 Y118.754 E1.0827
G1 X118.003 Y118.759 E1.0841
G1 X91.997 Y118.759 E2.1221
