; G-Code generated by Simplify3D(R) Version 4.1.2
; Dec 13, 2020 at 10:16:06 PM
; Settings Summary
;   processName,Process1
;   applyToModels,square-gear-v3
;   profileName,HBot (modified)
;   profileVersion,2019-10-26 23:38:43
;   baseProfile,Default
;   printMaterial,PETG - SUNLU
;   printQuality,Medium
;   printExtruders,
;   extruderName,Extruder 1
;   extruderToolheadNumber,0
;   extruderDiameter,0.4
;   extruderAutoWidth,1
;   extruderWidth,0.48
;   extrusionMultiplier,1
;   extruderUseRetract,0
;   extruderRetractionDistance,4
;   extruderExtraRestartDistance,0
;   extruderRetractionZLift,0.2
;   extruderRetractionSpeed,3600
;   extruderUseCoasting,1
;   extruderCoastingDistance,0.2
;   extruderUseWipe,1
;   extruderWipeDistance,5
;   primaryExtruder,0
;   layerHeight,0.2
;   topSolidLayers,4
;   bottomSolidLayers,4
;   perimeterOutlines,3
;   printPerimetersInsideOut,0
;   startPointOption,3
;   startPointOriginX,200
;   startPointOriginY,100
;   sequentialIslands,0
;   spiralVaseMode,0
;   firstLayerHeightPercentage,100
;   firstLayerWidthPercentage,100
;   firstLayerUnderspeed,0.5
;   useRaft,0
;   raftExtruder,0
;   raftTopLayers,3
;   raftBaseLayers,2
;   raftOffset,3
;   raftSeparationDistance,0.18
;   raftTopInfill,100
;   aboveRaftSpeedMultiplier,0.3
;   useSkirt,1
;   skirtExtruder,0
;   skirtLayers,1
;   skirtOutlines,10
;   skirtOffset,0
;   usePrimePillar,0
;   primePillarExtruder,999
;   primePillarWidth,12
;   primePillarLocation,7
;   primePillarSpeedMultiplier,1
;   useOozeShield,0
;   oozeShieldExtruder,999
;   oozeShieldOffset,0.9
;   oozeShieldOutlines,2
;   oozeShieldSidewallShape,0
;   oozeShieldSidewallAngle,30
;   oozeShieldSpeedMultiplier,1.5
;   infillExtruder,0
;   internalInfillPattern,Fast Honeycomb
;   externalInfillPattern,Rectilinear
;   infillPercentage,20
;   outlineOverlapPercentage,25
;   infillExtrusionWidthPercentage,100
;   minInfillLength,5
;   infillLayerInterval,1
;   internalInfillAngles,0
;   overlapInternalInfillAngles,0
;   externalInfillAngles,45,-45
;   generateSupport,1
;   supportExtruder,0
;   supportInfillPercentage,25
;   supportExtraInflation,0
;   supportBaseLayers,0
;   denseSupportExtruder,0
;   denseSupportLayers,0
;   denseSupportInfillPercentage,70
;   supportLayerInterval,1
;   supportHorizontalPartOffset,0.3
;   supportUpperSeparationLayers,1
;   supportLowerSeparationLayers,1
;   supportType,0
;   supportGridSpacing,4
;   maxOverhangAngle,25
;   supportAngles,0
;   temperatureName,Extruder 1,Heated Bed
;   temperatureNumber,0,1
;   temperatureSetpointCount,2,1
;   temperatureSetpointLayers,1,2,1
;   temperatureSetpointTemperatures,235,225,85
;   temperatureStabilizeAtStartup,1,1
;   temperatureHeatedBed,0,1
;   fanLayers,1,5,10
;   fanSpeeds,0,5,20
;   blipFanToFullPower,1
;   adjustSpeedForCooling,1
;   minSpeedLayerTime,15
;   minCoolingSpeedSlowdown,20
;   increaseFanForCooling,0
;   minFanLayerTime,45
;   maxCoolingFanSpeed,35
;   increaseFanForBridging,1
;   bridgingFanSpeed,85
;   use5D,1
;   relativeEdistances,0
;   allowEaxisZeroing,1
;   independentExtruderAxes,0
;   includeM10123,0
;   stickySupport,1
;   applyToolheadOffsets,0
;   gcodeXoffset,0
;   gcodeYoffset,0
;   gcodeZoffset,0
;   overrideMachineDefinition,1
;   machineTypeOverride,0
;   strokeXoverride,210
;   strokeYoverride,210
;   strokeZoverride,150
;   originOffsetXoverride,0
;   originOffsetYoverride,0
;   originOffsetZoverride,0
;   homeXdirOverride,-1
;   homeYdirOverride,-1
;   homeZdirOverride,-1
;   flipXoverride,1
;   flipYoverride,-1
;   flipZoverride,1
;   toolheadOffsets,0,0|0,0|0,0|0,0|0,0|0,0
;   overrideFirmwareConfiguration,1
;   firmwareTypeOverride,RepRap (Marlin/Repetier/Sprinter)
;   GPXconfigOverride,r2
;   baudRateOverride,115200
;   overridePrinterModels,0
;   printerModelsOverride
;   startingGcode,G28 ; home all axes,G32 ; run bed.g -- probe bed and enable compensation
;   layerChangeGcode,
;   retractionGcode,
;   toolChangeGcode,
;   endingGcode,M0 ; call stop.g
;   exportFileFormat,gcode
;   celebration,0
;   celebrationSong,Random Song
;   postProcessing,
;   defaultSpeed,3600
;   outlineUnderspeed,0.5
;   solidInfillUnderspeed,0.8
;   supportUnderspeed,0.8
;   rapidXYspeed,18000
;   rapidZspeed,1200
;   minBridgingArea,50
;   bridgingExtraInflation,0
;   bridgingExtrusionMultiplier,0.96
;   bridgingSpeedMultiplier,1
;   useFixedBridgingAngle,0
;   fixedBridgingAngle,0
;   applyBridgingToPerimeters,0
;   filamentDiameters,1.75|1.75|1.75|1.75|1.75|1.75
;   filamentPricesPerKg,46|46|46|46|46|46
;   filamentDensities,1.25|1.25|1.25|1.25|1.25|1.25
;   useMinPrintHeight,0
;   minPrintHeight,20
;   useMaxPrintHeight,0
;   maxPrintHeight,15
;   useDiaphragm,0
;   diaphragmLayerInterval,20
;   robustSlicing,1
;   mergeAllIntoSolid,0
;   onlyRetractWhenCrossingOutline,1
;   retractBetweenLayers,0
;   useRetractionMinTravel,1
;   retractionMinTravel,3
;   retractWhileWiping,1
;   onlyWipeOutlines,1
;   avoidCrossingOutline,1
;   maxMovementDetourFactor,5
;   toolChangeRetractionDistance,12
;   toolChangeExtraRestartDistance,-0.5
;   toolChangeRetractionSpeed,600
;   externalThinWallType,0
;   internalThinWallType,2
;   thinWallAllowedOverlapPercentage,10
;   singleExtrusionMinLength,1
;   singleExtrusionMinPrintingWidthPercentage,50
;   singleExtrusionMaxPrintingWidthPercentage,150
;   singleExtrusionEndpointExtension,0.2
;   horizontalSizeCompensation,-0.1
G90
M82
M106 S0
M140 S85
M190 S85
M104 S235 T0
M109 S235 T0
G28 ; home all axes
G32 ; run bed.g -- probe bed and enable compensation
; process Process1
; layer 1, Z = 0.200
T0
; feature skirt
; tool H0.200 W0.480
G1 Z0.200 F1200
G1 X120.766 Y100.732 F18000
G92 E0.0000
G1 X120.560 Y102.115 E0.0558 F1800
G1 X120.231 Y102.823 E0.0870
G1 X120.620 Y103.799 E0.1289
G1 X120.766 Y104.948 E0.1751
G1 X120.584 Y106.380 E0.2327
G1 X120.242 Y107.138 E0.2659
G1 X120.326 Y107.265 E0.2720
G1 X120.711 Y108.545 E0.3253
G1 X120.714 Y110.271 E0.3942
G1 X120.246 Y111.523 E0.4476
G1 X120.295 Y111.607 E0.4515
G1 X120.654 Y112.650 E0.4955
G1 X120.761 Y113.695 E0.5374
G1 X120.620 Y114.801 E0.5819
G1 X120.344 Y115.637 E0.6171
G1 X119.821 Y116.566 E0.6596
G1 X119.106 Y117.345 E0.7018
G1 X118.043 Y118.067 E0.7531
G1 X117.635 Y118.741 E0.7845
G1 X116.872 Y119.583 E0.8299
G1 X115.962 Y120.198 E0.8737
G1 X114.751 Y120.647 E0.9253
G1 X113.604 Y120.766 E0.9713
G1 X112.221 Y120.560 E1.0271
G1 X111.524 Y120.236 E1.0578
G1 X110.415 Y120.647 E1.1050
G1 X109.268 Y120.766 E1.1510
G1 X107.885 Y120.560 E1.2068
G1 X107.177 Y120.231 E1.2380
G1 X106.201 Y120.620 E1.2799
G1 X105.052 Y120.766 E1.3262
G1 X103.620 Y120.584 E1.3838
G1 X102.862 Y120.242 E1.4170
G1 X102.735 Y120.326 E1.4231
G1 X101.455 Y120.711 E1.4764
G1 X99.729 Y120.714 E1.5453
G1 X98.477 Y120.246 E1.5986
G1 X98.393 Y120.295 E1.6025
G1 X97.350 Y120.654 E1.6465
G1 X96.305 Y120.761 E1.6885
G1 X95.199 Y120.620 E1.7329
G1 X94.363 Y120.344 E1.7681
G1 X93.434 Y119.821 E1.8106
G1 X92.655 Y119.106 E1.8528
G1 X91.933 Y118.043 E1.9041
G1 X91.259 Y117.635 E1.9356
G1 X90.417 Y116.872 E1.9809
G1 X89.802 Y115.962 E2.0248
G1 X89.353 Y114.751 E2.0763
G1 X89.234 Y113.604 E2.1224
G1 X89.440 Y112.221 E2.1781
G1 X89.764 Y111.524 E2.2088
G1 X89.353 Y110.415 E2.2561
G1 X89.234 Y109.268 E2.3021
G1 X89.440 Y107.885 E2.3579
G1 X89.764 Y107.188 E2.3885
G1 X89.353 Y106.079 E2.4358
G1 X89.234 Y104.932 E2.4818
G1 X89.440 Y103.549 E2.5376
G1 X89.771 Y102.837 E2.5689
G1 X89.405 Y102.006 E2.6052
G1 X89.250 Y100.762 E2.6552
G1 X89.308 Y99.896 E2.6899
G1 X89.577 Y98.865 E2.7324
G1 X89.786 Y98.474 E2.7501
G1 X89.374 Y97.632 E2.7875
G1 X89.210 Y96.007 E2.8527
G1 X89.677 Y94.204 E2.9270
G1 X90.608 Y92.866 E2.9921
G1 X91.961 Y91.920 E3.0580
G1 X91.977 Y91.915 E3.0586
G1 X92.169 Y91.509 E3.0766
G1 X93.057 Y90.475 E3.1310
G1 X94.009 Y89.812 E3.1773
G1 X95.249 Y89.353 E3.2300
G1 X96.396 Y89.234 E3.2761
G1 X97.779 Y89.440 E3.3319
G1 X98.476 Y89.764 E3.3625
G1 X99.585 Y89.353 E3.4098
G1 X100.732 Y89.234 E3.4558
G1 X102.115 Y89.440 E3.5116
G1 X102.827 Y89.771 E3.5429
G1 X103.658 Y89.405 E3.5792
G1 X104.902 Y89.250 E3.6292
G1 X105.768 Y89.308 E3.6639
G1 X106.799 Y89.577 E3.7064
G1 X107.142 Y89.760 E3.7219
G1 X107.316 Y89.651 E3.7301
G1 X108.756 Y89.276 E3.7895
G1 X109.862 Y89.262 E3.8337
G1 X111.027 Y89.532 E3.8814
G1 X111.494 Y89.770 E3.9023
G1 X111.813 Y89.588 E3.9170
G1 X113.348 Y89.229 E3.9799
G1 X114.749 Y89.334 E4.0360
G1 X116.071 Y89.864 E4.0928
G1 X116.956 Y90.493 E4.1361
G1 X117.833 Y91.501 E4.1895
G1 X118.051 Y91.974 E4.2102
G1 X118.571 Y92.226 E4.2333
G1 X119.462 Y92.986 E4.2801
G1 X120.142 Y93.961 E4.3275
G1 X120.495 Y94.756 E4.3622
G1 X120.710 Y95.680 E4.4001
G1 X120.745 Y96.541 E4.4345
G1 X120.560 Y97.779 E4.4844
G1 X120.236 Y98.476 E4.5151
G1 X120.647 Y99.585 E4.5623
G1 X120.766 Y100.732 E4.6084
G1 X120.283 Y100.722 F18000
G92 E0.0000
G1 X120.096 Y101.975 E0.0506 F1800
G1 X119.701 Y102.823 E0.0879
G1 X119.731 Y102.867 E0.0900
G1 X120.151 Y103.920 E0.1353
G1 X120.282 Y104.948 E0.1766
G1 X120.117 Y106.248 E0.2289
G1 X119.695 Y107.181 E0.2698
G1 X119.887 Y107.471 E0.2837
G1 X120.231 Y108.616 E0.3314
G1 X120.234 Y110.185 E0.3940
G1 X119.718 Y111.565 E0.4528
G1 X119.855 Y111.806 E0.4639
G1 X120.182 Y112.754 E0.5039
G1 X120.278 Y113.689 E0.5414
G1 X120.150 Y114.694 E0.5819
G1 X119.902 Y115.442 E0.6133
G1 X119.430 Y116.283 E0.6518
G1 X118.790 Y116.979 E0.6895
G1 X117.806 Y117.648 E0.7370
G1 X117.688 Y117.692 E0.7421
G1 X117.655 Y117.781 E0.7459
G1 X117.249 Y118.453 E0.7772
G1 X116.555 Y119.218 E0.8184
G1 X115.741 Y119.768 E0.8576
G1 X114.641 Y120.176 E0.9045
G1 X113.614 Y120.283 E0.9457
G1 X112.361 Y120.096 E0.9962
G1 X111.508 Y119.699 E1.0338
G1 X111.405 Y119.768 E1.0387
G1 X110.305 Y120.176 E1.0856
G1 X109.278 Y120.283 E1.1268
G1 X108.025 Y120.096 E1.1773
G1 X107.177 Y119.701 E1.2147
G1 X107.133 Y119.731 E1.2168
G1 X106.080 Y120.151 E1.2620
G1 X105.052 Y120.282 E1.3034
G1 X103.752 Y120.117 E1.3557
G1 X102.819 Y119.695 E1.3966
G1 X102.529 Y119.887 E1.4104
G1 X101.384 Y120.231 E1.4581
G1 X99.815 Y120.234 E1.5208
G1 X98.435 Y119.718 E1.5796
G1 X98.194 Y119.855 E1.5906
G1 X97.246 Y120.182 E1.6307
G1 X96.311 Y120.278 E1.6682
G1 X95.306 Y120.150 E1.7086
G1 X94.558 Y119.902 E1.7401
G1 X93.717 Y119.430 E1.7786
G1 X93.021 Y118.790 E1.8163
G1 X92.352 Y117.806 E1.8638
G1 X92.308 Y117.688 E1.8688
G1 X92.219 Y117.655 E1.8726
G1 X91.547 Y117.249 E1.9040
G1 X90.782 Y116.555 E1.9452
G1 X90.232 Y115.741 E1.9844
G1 X89.824 Y114.641 E2.0312
G1 X89.717 Y113.614 E2.0724
G1 X89.904 Y112.361 E2.1230
G1 X90.301 Y111.508 E2.1605
G1 X90.232 Y111.405 E2.1655
G1 X89.824 Y110.305 E2.2123
G1 X89.717 Y109.278 E2.2535
G1 X89.904 Y108.025 E2.3041
G1 X90.301 Y107.172 E2.3416
G1 X90.232 Y107.069 E2.3466
G1 X89.824 Y105.969 E2.3934
G1 X89.717 Y104.942 E2.4346
G1 X89.904 Y103.689 E2.4852
G1 X90.298 Y102.842 E2.5225
G1 X89.872 Y101.877 E2.5646
G1 X89.732 Y100.748 E2.6100
G1 X89.783 Y99.973 E2.6410
G1 X90.028 Y99.041 E2.6794
G1 X90.325 Y98.483 E2.7046
G1 X89.842 Y97.498 E2.7484
G1 X89.696 Y96.044 E2.8068
G1 X90.120 Y94.407 E2.8742
G1 X90.953 Y93.210 E2.9324
G1 X92.184 Y92.350 E2.9924
G1 X92.327 Y92.299 E2.9984
G1 X92.575 Y91.772 E3.0217
G1 X93.381 Y90.834 E3.0710
G1 X94.233 Y90.241 E3.1125
G1 X95.359 Y89.824 E3.1604
G1 X96.386 Y89.717 E3.2016
G1 X97.639 Y89.904 E3.2522
G1 X98.492 Y90.301 E3.2897
G1 X98.595 Y90.232 E3.2947
G1 X99.695 Y89.824 E3.3415
G1 X100.722 Y89.717 E3.3827
G1 X101.975 Y89.904 E3.4333
G1 X102.822 Y90.298 E3.4705
G1 X103.787 Y89.872 E3.5126
G1 X104.916 Y89.732 E3.5580
G1 X105.691 Y89.783 E3.5890
G1 X106.623 Y90.028 E3.6275
G1 X107.162 Y90.315 E3.6519
G1 X107.509 Y90.097 E3.6682
G1 X108.820 Y89.755 E3.7223
G1 X109.811 Y89.742 E3.7618
G1 X110.861 Y89.986 E3.8049
G1 X111.506 Y90.316 E3.8338
G1 X111.990 Y90.040 E3.8560
G1 X113.386 Y89.713 E3.9132
G1 X114.639 Y89.807 E3.9634
G1 X115.839 Y90.288 E4.0150
G1 X116.631 Y90.851 E4.0538
G1 X117.425 Y91.765 E4.1021
G1 X117.687 Y92.331 E4.1270
G1 X118.306 Y92.631 E4.1545
G1 X119.104 Y93.311 E4.1963
G1 X119.722 Y94.198 E4.2394
G1 X120.038 Y94.909 E4.2705
G1 X120.232 Y95.745 E4.3048
G1 X120.263 Y96.515 E4.3355
G1 X120.096 Y97.639 E4.3809
G1 X119.699 Y98.492 E4.4184
G1 X119.768 Y98.595 E4.4234
G1 X120.176 Y99.695 E4.4702
G1 X120.283 Y100.722 E4.5114
G1 X119.799 Y100.711 F18000
G92 E0.0000
G1 X119.631 Y101.836 E0.0454 F1800
G1 X119.192 Y102.780 E0.0870
G1 X119.133 Y102.847 E0.0905
G1 X119.306 Y103.095 E0.1026
G1 X119.683 Y104.041 E0.1432
G1 X119.798 Y104.948 E0.1797
G1 X119.650 Y106.116 E0.2267
G1 X119.204 Y107.103 E0.2699
G1 X119.126 Y107.191 E0.2746
G1 X119.447 Y107.677 E0.2978
G1 X119.752 Y108.687 E0.3400
G1 X119.754 Y110.098 E0.3963
G1 X119.297 Y111.322 E0.4484
G1 X119.133 Y111.509 E0.4583
G1 X119.416 Y112.005 E0.4811
G1 X119.710 Y112.858 E0.5171
G1 X119.795 Y113.683 E0.5502
G1 X119.680 Y114.587 E0.5866
G1 X119.461 Y115.248 E0.6144
G1 X119.039 Y115.999 E0.6488
G1 X118.474 Y116.613 E0.6821
G1 X117.585 Y117.218 E0.7250
G1 X117.314 Y117.318 E0.7365
G1 X117.221 Y117.572 E0.7473
G1 X116.862 Y118.165 E0.7750
G1 X116.238 Y118.853 E0.8120
G1 X115.520 Y119.338 E0.8466
G1 X114.531 Y119.705 E0.8887
G1 X113.625 Y119.799 E0.9251
G1 X112.500 Y119.631 E0.9705
G1 X111.556 Y119.192 E1.0120
G1 X111.488 Y119.133 E1.0156
G1 X111.184 Y119.338 E1.0303
G1 X110.195 Y119.705 E1.0724
G1 X109.289 Y119.799 E1.1087
G1 X108.164 Y119.631 E1.1541
G1 X107.220 Y119.192 E1.1957
G1 X107.153 Y119.133 E1.1993
G1 X106.905 Y119.306 E1.2113
G1 X105.959 Y119.683 E1.2520
G1 X105.052 Y119.798 E1.2885
G1 X103.884 Y119.650 E1.3355
G1 X102.897 Y119.204 E1.3787
G1 X102.809 Y119.126 E1.3834
G1 X102.323 Y119.447 E1.4066
G1 X101.313 Y119.752 E1.4487
G1 X99.902 Y119.754 E1.5050
G1 X98.678 Y119.297 E1.5572
G1 X98.491 Y119.133 E1.5671
G1 X97.995 Y119.416 E1.5899
G1 X97.142 Y119.710 E1.6259
G1 X96.317 Y119.795 E1.6590
G1 X95.413 Y119.680 E1.6954
G1 X94.752 Y119.461 E1.7231
G1 X94.001 Y119.039 E1.7575
G1 X93.387 Y118.474 E1.7908
G1 X92.782 Y117.585 E1.8338
G1 X92.682 Y117.314 E1.8453
G1 X92.428 Y117.221 E1.8561
G1 X91.835 Y116.862 E1.8837
G1 X91.147 Y116.238 E1.9208
G1 X90.662 Y115.520 E1.9554
G1 X90.295 Y114.531 E1.9975
G1 X90.201 Y113.625 E2.0338
G1 X90.369 Y112.500 E2.0792
G1 X90.808 Y111.556 E2.1208
G1 X90.867 Y111.488 E2.1244
G1 X90.662 Y111.184 E2.1390
G1 X90.295 Y110.195 E2.1812
G1 X90.201 Y109.289 E2.2175
G1 X90.369 Y108.164 E2.2629
G1 X90.808 Y107.220 E2.3044
G1 X90.867 Y107.152 E2.3080
G1 X90.662 Y106.848 E2.3227
G1 X90.295 Y105.859 E2.3648
G1 X90.201 Y104.953 E2.4012
G1 X90.369 Y103.828 E2.4466
G1 X90.808 Y102.884 E2.4881
G1 X90.860 Y102.825 E2.4913
G1 X90.766 Y102.715 E2.4970
G1 X90.340 Y101.748 E2.5392
G1 X90.214 Y100.735 E2.5800
G1 X90.259 Y100.050 E2.6073
G1 X90.478 Y99.217 E2.6417
G1 X90.864 Y98.493 E2.6745
G1 X90.311 Y97.364 E2.7246
G1 X90.182 Y96.081 E2.7761
G1 X90.563 Y94.611 E2.8367
G1 X91.298 Y93.554 E2.8881
G1 X92.406 Y92.781 E2.9420
G1 X92.676 Y92.684 E2.9535
G1 X92.981 Y92.036 E2.9820
G1 X93.706 Y91.193 E3.0264
G1 X94.457 Y90.670 E3.0629
G1 X95.469 Y90.295 E3.1060
G1 X96.375 Y90.201 E3.1424
G1 X97.500 Y90.369 E3.1878
G1 X98.444 Y90.808 E3.2293
G1 X98.512 Y90.867 E3.2329
G1 X98.816 Y90.662 E3.2476
G1 X99.805 Y90.295 E3.2897
G1 X100.711 Y90.201 E3.3260
G1 X101.836 Y90.369 E3.3714
G1 X102.780 Y90.808 E3.4130
G1 X102.839 Y90.860 E3.4161
G1 X102.949 Y90.766 E3.4219
G1 X103.916 Y90.340 E3.4641
G1 X104.929 Y90.214 E3.5048
G1 X105.614 Y90.259 E3.5322
G1 X106.447 Y90.478 E3.5666
G1 X107.181 Y90.869 E3.5998
G1 X107.701 Y90.543 E3.6243
G1 X108.885 Y90.235 E3.6731
G1 X109.759 Y90.223 E3.7080
G1 X110.695 Y90.441 E3.7464
G1 X111.482 Y90.842 E3.7816
G1 X111.509 Y90.866 E3.7831
G1 X112.167 Y90.491 E3.8133
G1 X113.423 Y90.197 E3.8648
G1 X114.529 Y90.280 E3.9090
G1 X115.608 Y90.712 E3.9554
G1 X116.306 Y91.209 E3.9896
G1 X117.018 Y92.028 E4.0329
G1 X117.323 Y92.688 E4.0620
G1 X118.041 Y93.036 E4.0938
G1 X118.745 Y93.636 E4.1307
G1 X119.302 Y94.435 E4.1696
G1 X119.581 Y95.062 E4.1970
G1 X119.755 Y95.809 E4.2276
G1 X119.782 Y96.489 E4.2547
G1 X119.631 Y97.500 E4.2956
G1 X119.192 Y98.444 E4.3371
G1 X119.133 Y98.512 E4.3407
