; G-Code generated by Simplify3D(R) Version 4.1.2
; Dec 13, 2020 at 10:15:48 PM
; Settings Summary
;   processName,Process1
;   applyToModels,square-gear-v3-alternative
;   profileName,HBot (modified)
;   profileVersion,2019-10-26 23:38:43
;   baseProfile,Default
;   printMaterial,PETG - SUNLU
;   printQuality,Medium
;   printExtruders,
;   extruderName,Extruder 1
;   extruderToolheadNumber,0
;   extruderDiameter,0.4
;   extruderAutoWidth,1
;   extruderWidth,0.48
;   extrusionMultiplier,1
;   extruderUseRetract,0
;   extruderRetractionDistance,4
;   extruderExtraRestartDistance,0
;   extruderRetractionZLift,0.2
;   extruderRetractionSpeed,3600
;   extruderUseCoasting,1
;   extruderCoastingDistance,0.2
;   extruderUseWipe,1
;   extruderWipeDistance,5
;   primaryExtruder,0
;   layerHeight,0.2
;   topSolidLayers,4
;   bottomSolidLayers,4
;   perimeterOutlines,3
;   printPerimetersInsideOut,0
;   startPointOption,3
;   startPointOriginX,200
;   startPointOriginY,100
;   sequentialIslands,0
;   spiralVaseMode,0
;   firstLayerHeightPercentage,100
;   firstLayerWidthPercentage,100
;   firstLayerUnderspeed,0.5
;   useRaft,0
;   raftExtruder,0
;   raftTopLayers,3
;   raftBaseLayers,2
;   raftOffset,3
;   raftSeparationDistance,0.18
;   raftTopInfill,100
;   aboveRaftSpeedMultiplier,0.3
;   useSkirt,1
;   skirtExtruder,0
;   skirtLayers,1
;   skirtOutlines,10
;   skirtOffset,0
;   usePrimePillar,0
;   primePillarExtruder,999
;   primePillarWidth,12
;   primePillarLocation,7
;   primePillarSpeedMultiplier,1
;   useOozeShield,0
;   oozeShieldExtruder,999
;   oozeShieldOffset,0.9
;   oozeShieldOutlines,2
;   oozeShieldSidewallShape,0
;   oozeShieldSidewallAngle,30
;   oozeShieldSpeedMultiplier,1.5
;   infillExtruder,0
;   internalInfillPattern,Fast Honeycomb
;   externalInfillPattern,Rectilinear
;   infillPercentage,20
;   outlineOverlapPercentage,25
;   infillExtrusionWidthPercentage,100
;   minInfillLength,5
;   infillLayerInterval,1
;   internalInfillAngles,0
;   overlapInternalInfillAngles,0
;   externalInfillAngles,45,-45
;   generateSupport,1
;   supportExtruder,0
;   supportInfillPercentage,25
;   supportExtraInflation,0
;   supportBaseLayers,0
;   denseSupportExtruder,0
;   denseSupportLayers,0
;   denseSupportInfillPercentage,70
;   supportLayerInterval,1
;   supportHorizontalPartOffset,0.3
;   supportUpperSeparationLayers,1
;   supportLowerSeparationLayers,1
;   supportType,0
;   supportGridSpacing,4
;   maxOverhangAngle,25
;   supportAngles,0
;   temperatureName,Extruder 1,Heated Bed
;   temperatureNumber,0,1
;   temperatureSetpointCount,2,1
;   temperatureSetpointLayers,1,2,1
;   temperatureSetpointTemperatures,235,225,85
;   temperatureStabilizeAtStartup,1,1
;   temperatureHeatedBed,0,1
;   fanLayers,1,5,10
;   fanSpeeds,0,5,20
;   blipFanToFullPower,1
;   adjustSpeedForCooling,1
;   minSpeedLayerTime,15
;   minCoolingSpeedSlowdown,20
;   increaseFanForCooling,0
;   minFanLayerTime,45
;   maxCoolingFanSpeed,35
;   increaseFanForBridging,1
;   bridgingFanSpeed,85
;   use5D,1
;   relativeEdistances,0
;   allowEaxisZeroing,1
;   independentExtruderAxes,0
;   includeM10123,0
;   stickySupport,1
;   applyToolheadOffsets,0
;   gcodeXoffset,0
;   gcodeYoffset,0
;   gcodeZoffset,0
;   overrideMachineDefinition,1
;   machineTypeOverride,0
;   strokeXoverride,210
;   strokeYoverride,210
;   strokeZoverride,150
;   originOffsetXoverride,0
;   originOffsetYoverride,0
;   originOffsetZoverride,0
;   homeXdirOverride,-1
;   homeYdirOverride,-1
;   homeZdirOverride,-1
;   flipXoverride,1
;   flipYoverride,-1
;   flipZoverride,1
;   toolheadOffsets,0,0|0,0|0,0|0,0|0,0|0,0
;   overrideFirmwareConfiguration,1
;   firmwareTypeOverride,RepRap (Marlin/Repetier/Sprinter)
;   GPXconfigOverride,r2
;   baudRateOverride,115200
;   overridePrinterModels,0
;   printerModelsOverride
;   startingGcode,G28 ; home all axes,G32 ; run bed.g -- probe bed and enable compensation
;   layerChangeGcode,
;   retractionGcode,
;   toolChangeGcode,
;   endingGcode,M0 ; call stop.g
;   exportFileFormat,gcode
;   celebration,0
;   celebrationSong,Random Song
;   postProcessing,
;   defaultSpeed,3600
;   outlineUnderspeed,0.5
;   solidInfillUnderspeed,0.8
;   supportUnderspeed,0.8
;   rapidXYspeed,18000
;   rapidZspeed,1200
;   minBridgingArea,50
;   bridgingExtraInflation,0
;   bridgingExtrusionMultiplier,0.96
;   bridgingSpeedMultiplier,1
;   useFixedBridgingAngle,0
;   fixedBridgingAngle,0
;   applyBridgingToPerimeters,0
;   filamentDiameters,1.75|1.75|1.75|1.75|1.75|1.75
;   filamentPricesPerKg,46|46|46|46|46|46
;   filamentDensities,1.25|1.25|1.25|1.25|1.25|1.25
;   useMinPrintHeight,0
;   minPrintHeight,20
;   useMaxPrintHeight,0
;   maxPrintHeight,15
;   useDiaphragm,0
;   diaphragmLayerInterval,20
;   robustSlicing,1
;   mergeAllIntoSolid,0
;   onlyRetractWhenCrossingOutline,1
;   retractBetweenLayers,0
;   useRetractionMinTravel,1
;   retractionMinTravel,3
;   retractWhileWiping,1
;   onlyWipeOutlines,1
;   avoidCrossingOutline,1
;   maxMovementDetourFactor,5
;   toolChangeRetractionDistance,12
;   toolChangeExtraRestartDistance,-0.5
;   toolChangeRetractionSpeed,600
;   externalThinWallType,0
;   internalThinWallType,2
;   thinWallAllowedOverlapPercentage,10
;   singleExtrusionMinLength,1
;   singleExtrusionMinPrintingWidthPercentage,50
;   singleExtrusionMaxPrintingWidthPercentage,150
;   singleExtrusionEndpointExtension,0.2
;   horizontalSizeCompensation,-0.1
G90
M82
M106 S0
M140 S85
M190 S85
M104 S235 T0
M109 S235 T0
G28 ; home all axes
G32 ; run bed.g -- probe bed and enable compensation
; process Process1
; layer 1, Z = 0.200
T0
; feature skirt
; tool H0.200 W0.480
G1 Z0.200 F1200
G1 X95.308 Y94.781 F18000
G92 E0.0000
G1 X94.803 Y95.300 E0.0289 F1800
G1 X93.885 Y95.178 E0.0659
G1 X93.720 Y95.113 E0.0730
G1 X93.367 Y94.860 E0.0903
G1 X93.233 Y94.681 E0.0992
G1 X93.110 Y94.322 E0.1143
G1 X93.097 Y94.132 E0.1220
G1 X93.165 Y93.784 E0.1361
G1 X93.240 Y93.624 E0.1431
G1 X93.435 Y93.383 E0.1555
G1 X93.546 Y93.291 E0.1613
G1 X93.756 Y93.178 E0.1708
G1 X93.874 Y93.139 E0.1758
G1 X94.155 Y93.097 E0.1871
G1 X94.327 Y93.112 E0.1940
G1 X94.659 Y93.225 E0.2080
G1 X94.815 Y93.328 E0.2155
G1 X95.058 Y93.602 E0.2301
G1 X95.146 Y93.787 E0.2383
G1 X95.308 Y94.781 E0.2784
G1 X94.795 Y94.619 F18000
G92 E0.0000
G1 X94.627 Y94.793 E0.0096 F1800
G1 X94.006 Y94.710 E0.0346
G1 X93.951 Y94.689 E0.0370
G1 X93.707 Y94.514 E0.0490
G1 X93.663 Y94.454 E0.0519
G1 X93.584 Y94.226 E0.0616
G1 X93.580 Y94.162 E0.0641
G1 X93.625 Y93.934 E0.0734
G1 X93.650 Y93.881 E0.0757
G1 X93.778 Y93.722 E0.0839
G1 X93.815 Y93.691 E0.0858
G1 X93.947 Y93.621 E0.0918
G1 X93.986 Y93.608 E0.0934
G1 X94.170 Y93.580 E0.1008
G1 X94.227 Y93.585 E0.1031
G1 X94.446 Y93.659 E0.1123
G1 X94.498 Y93.694 E0.1148
G1 X94.654 Y93.870 E0.1242
G1 X94.683 Y93.931 E0.1270
G1 X94.795 Y94.619 E0.1548
G1 X96.229 Y96.319 F18000
G1 X96.224 Y96.224
G1 X96.352 Y96.230
G1 X96.753 Y96.185
G1 X96.976 Y96.124
G1 X97.190 Y96.040
G1 X97.539 Y95.837
G1 X97.718 Y95.692
G1 X97.880 Y95.528
G1 X98.091 Y95.235
G1 X99.008 Y95.407
G1 X99.013 Y95.415
G1 X99.168 Y95.596
G1 X99.487 Y95.866
G1 X99.691 Y95.989
G1 X99.900 Y96.085
G1 X100.126 Y96.159
G1 X100.538 Y96.226
G1 X100.777 Y96.226
G1 X101.005 Y96.201
G1 X101.229 Y96.150
G1 X101.453 Y96.072
G1 X101.743 Y95.918
G1 X115.894 Y98.563
G1 X115.922 Y98.538
G1 X115.933 Y98.517
G1 X120.711 Y99.463
G92 E0.0000
G1 X120.247 Y100.686 E0.0522 F1800
G1 X120.601 Y101.488 E0.0872
G1 X120.756 Y102.732 E0.1372
G1 X120.699 Y103.599 E0.1719
G1 X120.463 Y104.500 E0.2091
G1 X120.245 Y104.974 E0.2299
G1 X120.355 Y105.149 E0.2381
G1 X120.775 Y106.761 E0.3046
G1 X120.682 Y108.220 E0.3630
G1 X120.248 Y109.305 E0.4096
G1 X120.718 Y110.569 E0.4634
G1 X120.719 Y112.354 E0.5347
G1 X120.268 Y113.721 E0.5921
G1 X120.608 Y114.644 E0.6314
G1 X120.748 Y115.514 E0.6666
G1 X120.716 Y116.508 E0.7062
G1 X120.512 Y117.381 E0.7420
G1 X120.045 Y118.413 E0.7872
G1 X119.395 Y119.257 E0.8297
G1 X118.430 Y120.039 E0.8793
G1 X117.421 Y120.511 E0.9238
G1 X116.119 Y120.768 E0.9767
G1 X114.924 Y120.689 E1.0245
G1 X113.775 Y120.299 E1.0730
G1 X113.662 Y120.234 E1.0782
G1 X113.121 Y120.495 E1.1022
G1 X112.096 Y120.725 E1.1441
G1 X110.537 Y120.711 E1.2063
G1 X109.314 Y120.247 E1.2585
G1 X108.512 Y120.601 E1.2935
G1 X107.268 Y120.756 E1.3435
G1 X106.401 Y120.699 E1.3782
G1 X105.369 Y120.428 E1.4208
G1 X105.026 Y120.245 E1.4363
G1 X104.851 Y120.355 E1.4445
G1 X103.239 Y120.775 E1.5110
G1 X101.780 Y120.682 E1.5694
G1 X100.695 Y120.248 E1.6160
G1 X99.431 Y120.718 E1.6698
G1 X97.646 Y120.719 E1.7411
G1 X96.279 Y120.269 E1.7985
G1 X95.356 Y120.608 E1.8378
G1 X94.486 Y120.748 E1.8730
G1 X93.492 Y120.716 E1.9127
G1 X92.619 Y120.512 E1.9484
G1 X91.587 Y120.045 E1.9937
G1 X90.743 Y119.395 E2.0362
G1 X89.961 Y118.430 E2.0857
G1 X89.489 Y117.421 E2.1302
G1 X89.232 Y116.119 E2.1832
G1 X89.311 Y114.924 E2.2309
G1 X89.701 Y113.775 E2.2794
G1 X89.750 Y113.690 E2.2833
G1 X89.385 Y112.736 E2.3241
G1 X89.244 Y111.606 E2.3695
G1 X89.301 Y110.740 E2.4042
G1 X89.571 Y109.708 E2.4467
G1 X89.766 Y109.344 E2.4632
G1 X89.399 Y108.512 E2.4995
G1 X89.244 Y107.268 E2.5495
G1 X89.301 Y106.401 E2.5842
G1 X89.572 Y105.369 E2.6268
G1 X89.757 Y105.022 E2.6425
G1 X89.632 Y104.820 E2.6519
G1 X89.224 Y103.199 E2.7187
G1 X89.325 Y101.749 E2.7767
G1 X89.753 Y100.698 E2.8220
G1 X89.282 Y99.426 E2.8761
G1 X89.282 Y97.825 E2.9400
G1 X89.545 Y96.754 E2.9840
G1 X89.750 Y96.360 E3.0018
G1 X89.314 Y95.093 E3.0552
G1 X89.231 Y93.889 E3.1034
G1 X89.488 Y92.582 E3.1566
G1 X89.959 Y91.574 E3.2010
G1 X90.690 Y90.670 E3.2474
G1 X91.392 Y90.089 E3.2837
G1 X92.231 Y89.639 E3.3217
G1 X92.975 Y89.391 E3.3530
G1 X94.037 Y89.231 E3.3959
G1 X95.125 Y89.328 E3.4395
G1 X96.364 Y89.748 E3.4917
G1 X96.628 Y89.610 E3.5036
G1 X97.408 Y89.367 E3.5362
G1 X98.394 Y89.244 E3.5759
G1 X99.260 Y89.301 E3.6105
G1 X100.292 Y89.571 E3.6531
G1 X100.656 Y89.766 E3.6696
G1 X101.488 Y89.399 E3.7059
G1 X102.732 Y89.244 E3.7559
G1 X103.599 Y89.301 E3.7906
G1 X104.631 Y89.572 E3.8331
G1 X104.974 Y89.755 E3.8487
G1 X105.149 Y89.645 E3.8569
G1 X106.589 Y89.270 E3.9163
G1 X107.696 Y89.256 E3.9605
G1 X108.861 Y89.526 E4.0082
G1 X109.304 Y89.753 E4.0281
G1 X110.569 Y89.282 E4.0819
G1 X112.354 Y89.281 E4.1532
G1 X113.707 Y89.727 E4.2101
G1 X115.014 Y89.277 E4.2652
G1 X116.449 Y89.248 E4.3225
G1 X118.084 Y89.740 E4.3907
G1 X119.311 Y90.616 E4.4508
G1 X120.177 Y91.821 E4.5100
G1 X120.586 Y92.826 E4.5534
G1 X120.769 Y94.037 E4.6023
G1 X120.672 Y95.125 E4.6458
G1 X120.299 Y96.225 E4.6922
G1 X120.234 Y96.338 E4.6974
G1 X120.495 Y96.879 E4.7214
G1 X120.725 Y97.904 E4.7633
G1 X120.711 Y99.463 E4.8256
G1 X120.232 Y99.373 F18000
G92 E0.0000
G1 X119.729 Y100.699 E0.0566 F1800
G1 X120.134 Y101.617 E0.0966
G1 X120.274 Y102.746 E0.1420
G1 X120.223 Y103.521 E0.1731
G1 X120.009 Y104.338 E0.2067
G1 X119.709 Y104.989 E0.2354
G1 X119.698 Y105.005 E0.2361
G1 X119.909 Y105.342 E0.2520
G1 X120.291 Y106.807 E0.3124
G1 X120.208 Y108.113 E0.3646
G1 X119.733 Y109.298 E0.4156
G1 X120.238 Y110.655 E0.4734
G1 X120.239 Y112.277 E0.5381
G1 X119.828 Y113.523 E0.5905
G1 X119.701 Y113.695 E0.5990
G1 X119.825 Y113.904 E0.6087
G1 X120.142 Y114.766 E0.6454
G1 X120.267 Y115.545 E0.6769
G1 X120.237 Y116.445 E0.7128
G1 X120.055 Y117.226 E0.7448
G1 X119.631 Y118.165 E0.7859
G1 X119.049 Y118.919 E0.8240
G1 X118.173 Y119.629 E0.8690
G1 X117.270 Y120.051 E0.9087
G1 X116.088 Y120.285 E0.9568
G1 X115.019 Y120.214 E0.9996
G1 X113.973 Y119.859 E1.0437
G1 X113.682 Y119.692 E1.0571
G1 X112.962 Y120.039 E1.0890
G1 X112.045 Y120.245 E1.1265
G1 X110.627 Y120.232 E1.1831
G1 X109.301 Y119.729 E1.2397
G1 X108.383 Y120.134 E1.2798
G1 X107.254 Y120.274 E1.3251
G1 X106.479 Y120.223 E1.3562
G1 X105.546 Y119.978 E1.3947
G1 X105.006 Y119.691 E1.4191
G1 X104.658 Y119.909 E1.4354
G1 X103.193 Y120.291 E1.4959
G1 X101.887 Y120.208 E1.5481
G1 X100.702 Y119.733 E1.5991
G1 X99.345 Y120.238 E1.6569
G1 X97.723 Y120.239 E1.7216
G1 X96.477 Y119.828 E1.7739
G1 X96.305 Y119.701 E1.7825
G1 X96.096 Y119.825 E1.7922
G1 X95.234 Y120.142 E1.8288
G1 X94.455 Y120.267 E1.8603
G1 X93.555 Y120.237 E1.8963
G1 X92.774 Y120.055 E1.9283
G1 X91.835 Y119.631 E1.9694
G1 X91.081 Y119.049 E2.0074
G1 X90.371 Y118.173 E2.0524
G1 X89.949 Y117.270 E2.0922
G1 X89.715 Y116.088 E2.1403
G1 X89.786 Y115.019 E2.1831
G1 X90.141 Y113.973 E2.2271
G1 X90.306 Y113.686 E2.2404
G1 X90.209 Y113.546 E2.2471
G1 X89.854 Y112.619 E2.2868
G1 X89.726 Y111.592 E2.3281
G1 X89.777 Y110.817 E2.3591
G1 X90.021 Y109.884 E2.3976
G1 X90.299 Y109.363 E2.4211
G1 X89.866 Y108.383 E2.4639
G1 X89.726 Y107.254 E2.5093
G1 X89.777 Y106.479 E2.5403
G1 X90.022 Y105.546 E2.5788
G1 X90.310 Y105.005 E2.6033
G1 X90.079 Y104.631 E2.6208
G1 X89.708 Y103.156 E2.6815
G1 X89.799 Y101.859 E2.7334
G1 X90.267 Y100.706 E2.7831
G1 X89.762 Y99.340 E2.8412
G1 X89.762 Y97.883 E2.8994
G1 X89.997 Y96.925 E2.9387
G1 X90.293 Y96.358 E2.9643
G1 X90.227 Y96.269 E2.9687
G1 X89.788 Y94.997 E3.0224
G1 X89.714 Y93.919 E3.0655
G1 X89.948 Y92.732 E3.1138
G1 X90.369 Y91.831 E3.1535
G1 X91.033 Y91.009 E3.1957
G1 X91.661 Y90.489 E3.2282
G1 X92.421 Y90.081 E3.2626
G1 X93.087 Y89.860 E3.2906
G1 X94.052 Y89.714 E3.3296
G1 X95.025 Y89.801 E3.3686
G1 X96.153 Y90.184 E3.4161
G1 X96.336 Y90.305 E3.4249
G1 X96.812 Y90.056 E3.4463
G1 X97.510 Y89.838 E3.4755
G1 X98.408 Y89.726 E3.5116
G1 X99.183 Y89.777 E3.5426
G1 X100.116 Y90.021 E3.5811
G1 X100.637 Y90.299 E3.6047
G1 X101.617 Y89.866 E3.6474
G1 X102.746 Y89.726 E3.6928
G1 X103.521 Y89.777 E3.7239
G1 X104.454 Y90.022 E3.7623
G1 X104.994 Y90.309 E3.7867
G1 X105.342 Y90.091 E3.8031
G1 X106.654 Y89.749 E3.8572
G1 X107.644 Y89.736 E3.8968
G1 X108.695 Y89.981 E3.9398
G1 X109.277 Y90.278 E3.9659
G1 X109.283 Y90.272 E3.9662
G1 X110.655 Y89.762 E4.0247
G1 X112.277 Y89.761 E4.0894
G1 X113.523 Y90.172 E4.1418
G1 X113.687 Y90.293 E4.1499
G1 X113.857 Y90.183 E4.1580
G1 X115.100 Y89.755 E4.2105
G1 X116.383 Y89.729 E4.2617
G1 X117.870 Y90.177 E4.3237
G1 X118.967 Y90.960 E4.3775
G1 X119.754 Y92.054 E4.4313
G1 X120.120 Y92.954 E4.4700
G1 X120.286 Y94.052 E4.5143
G1 X120.199 Y95.025 E4.5533
G1 X119.859 Y96.027 E4.5956
G1 X119.692 Y96.318 E4.6090
G1 X120.039 Y97.038 E4.6409
G1 X120.245 Y97.955 E4.6784
G1 X120.232 Y99.373 E4.7350
G1 X119.753 Y99.283 F18000
G92 E0.0000
G1 X119.296 Y100.486 E0.0514 F1800
G1 X119.141 Y100.664 E0.0608
G1 X119.239 Y100.779 E0.0668
G1 X119.666 Y101.746 E0.1090
G1 X119.792 Y102.760 E0.1498
G1 X119.747 Y103.444 E0.1771
G1 X119.555 Y104.175 E0.2073
G1 X119.291 Y104.750 E0.2326
G1 X119.123 Y104.992 E0.2443
G1 X119.463 Y105.534 E0.2698
G1 X119.807 Y106.854 E0.3243
G1 X119.734 Y108.006 E0.3703
G1 X119.294 Y109.105 E0.4176
G1 X119.134 Y109.329 E0.4286
G1 X119.308 Y109.531 E0.4392
G1 X119.758 Y110.742 E0.4908
G1 X119.759 Y112.200 E0.5490
G1 X119.396 Y113.300 E0.5952
G1 X119.126 Y113.665 E0.6133
G1 X119.389 Y114.111 E0.6340
G1 X119.675 Y114.888 E0.6671
G1 X119.786 Y115.575 E0.6948
G1 X119.759 Y116.382 E0.7271
G1 X119.599 Y117.071 E0.7553
G1 X119.217 Y117.916 E0.7923
G1 X118.703 Y118.581 E0.8258
G1 X117.916 Y119.219 E0.8663
G1 X117.120 Y119.592 E0.9014
G1 X116.057 Y119.802 E0.9446
G1 X115.113 Y119.739 E0.9823
G1 X114.172 Y119.420 E1.0220
G1 X113.679 Y119.137 E1.0447
G1 X113.599 Y119.199 E1.0487
G1 X112.803 Y119.583 E1.0840
G1 X111.994 Y119.764 E1.1171
G1 X110.717 Y119.753 E1.1681
G1 X109.514 Y119.296 E1.2194
G1 X109.336 Y119.141 E1.2289
G1 X109.221 Y119.239 E1.2349
G1 X108.254 Y119.666 E1.2771
G1 X107.240 Y119.792 E1.3178
G1 X106.556 Y119.747 E1.3452
G1 X105.722 Y119.528 E1.3796
G1 X104.987 Y119.136 E1.4129
G1 X104.466 Y119.463 E1.4374
G1 X103.146 Y119.807 E1.4918
G1 X101.994 Y119.734 E1.5379
G1 X100.895 Y119.294 E1.5852
G1 X100.671 Y119.134 E1.5962
G1 X100.469 Y119.308 E1.6068
G1 X99.258 Y119.758 E1.6583
G1 X97.800 Y119.759 E1.7165
G1 X96.700 Y119.396 E1.7627
G1 X96.335 Y119.126 E1.7809
G1 X95.889 Y119.389 E1.8016
G1 X95.112 Y119.675 E1.8346
G1 X94.425 Y119.786 E1.8624
G1 X93.618 Y119.759 E1.8946
G1 X92.929 Y119.599 E1.9229
G1 X92.084 Y119.217 E1.9598
G1 X91.419 Y118.703 E1.9934
G1 X90.781 Y117.916 E2.0338
