; G-Code generated by Simplify3D(R) Version 4.1.2
; Dec 26, 2020 at 11:03:47 PM
; Settings Summary
;   processName,Process1
;   applyToModels,1-top-face-left
;   profileName,HBot (modified)
;   profileVersion,2019-10-26 23:38:43
;   baseProfile,Default
;   printMaterial,PLA - ERYONE
;   printQuality,Medium
;   printExtruders,
;   extruderName,Extruder 1
;   extruderToolheadNumber,0
;   extruderDiameter,0.4
;   extruderAutoWidth,1
;   extruderWidth,0.48
;   extrusionMultiplier,1
;   extruderUseRetract,1
;   extruderRetractionDistance,4
;   extruderExtraRestartDistance,0
;   extruderRetractionZLift,0
;   extruderRetractionSpeed,5400
;   extruderUseCoasting,0
;   extruderCoastingDistance,0.2
;   extruderUseWipe,1
;   extruderWipeDistance,5
;   primaryExtruder,0
;   layerHeight,0.2
;   topSolidLayers,4
;   bottomSolidLayers,4
;   perimeterOutlines,4
;   printPerimetersInsideOut,1
;   startPointOption,3
;   startPointOriginX,110
;   startPointOriginY,300
;   sequentialIslands,0
;   spiralVaseMode,0
;   firstLayerHeightPercentage,100
;   firstLayerWidthPercentage,100
;   firstLayerUnderspeed,0.5
;   useRaft,0
;   raftExtruder,0
;   raftTopLayers,3
;   raftBaseLayers,2
;   raftOffset,3
;   raftSeparationDistance,0.18
;   raftTopInfill,100
;   aboveRaftSpeedMultiplier,0.3
;   useSkirt,1
;   skirtExtruder,0
;   skirtLayers,1
;   skirtOutlines,10
;   skirtOffset,0
;   usePrimePillar,0
;   primePillarExtruder,999
;   primePillarWidth,12
;   primePillarLocation,7
;   primePillarSpeedMultiplier,1
;   useOozeShield,0
;   oozeShieldExtruder,999
;   oozeShieldOffset,0.9
;   oozeShieldOutlines,2
;   oozeShieldSidewallShape,0
;   oozeShieldSidewallAngle,30
;   oozeShieldSpeedMultiplier,1.5
;   infillExtruder,0
;   internalInfillPattern,Fast Honeycomb
;   externalInfillPattern,Rectilinear
;   infillPercentage,20
;   outlineOverlapPercentage,25
;   infillExtrusionWidthPercentage,100
;   minInfillLength,5
;   infillLayerInterval,1
;   internalInfillAngles,0
;   overlapInternalInfillAngles,0
;   externalInfillAngles,45,-45
;   generateSupport,0
;   supportExtruder,0
;   supportInfillPercentage,25
;   supportExtraInflation,0
;   supportBaseLayers,0
;   denseSupportExtruder,0
;   denseSupportLayers,0
;   denseSupportInfillPercentage,70
;   supportLayerInterval,1
;   supportHorizontalPartOffset,0.3
;   supportUpperSeparationLayers,1
;   supportLowerSeparationLayers,1
;   supportType,0
;   supportGridSpacing,2
;   maxOverhangAngle,25
;   supportAngles,0
;   temperatureName,Extruder 1,Heated Bed
;   temperatureNumber,0,1
;   temperatureSetpointCount,2,1
;   temperatureSetpointLayers,1,2,1
;   temperatureSetpointTemperatures,215,215,65
;   temperatureStabilizeAtStartup,1,1
;   temperatureHeatedBed,0,1
;   fanLayers,1,10
;   fanSpeeds,0,20
;   blipFanToFullPower,1
;   adjustSpeedForCooling,0
;   minSpeedLayerTime,15
;   minCoolingSpeedSlowdown,20
;   increaseFanForCooling,1
;   minFanLayerTime,15
;   maxCoolingFanSpeed,40
;   increaseFanForBridging,1
;   bridgingFanSpeed,85
;   use5D,1
;   relativeEdistances,0
;   allowEaxisZeroing,1
;   independentExtruderAxes,0
;   includeM10123,0
;   stickySupport,1
;   applyToolheadOffsets,0
;   gcodeXoffset,0
;   gcodeYoffset,0
;   gcodeZoffset,0
;   overrideMachineDefinition,1
;   machineTypeOverride,0
;   strokeXoverride,210
;   strokeYoverride,210
;   strokeZoverride,150
;   originOffsetXoverride,0
;   originOffsetYoverride,0
;   originOffsetZoverride,0
;   homeXdirOverride,-1
;   homeYdirOverride,-1
;   homeZdirOverride,-1
;   flipXoverride,1
;   flipYoverride,-1
;   flipZoverride,1
;   toolheadOffsets,0,0|0,0|0,0|0,0|0,0|0,0
;   overrideFirmwareConfiguration,1
;   firmwareTypeOverride,RepRap (Marlin/Repetier/Sprinter)
;   GPXconfigOverride,r2
;   baudRateOverride,115200
;   overridePrinterModels,0
;   printerModelsOverride
;   startingGcode,G28 ; home all axes,G32 ; run bed.g -- probe bed and enable compensation
;   layerChangeGcode,
;   retractionGcode,
;   toolChangeGcode,
;   endingGcode,M0 ; call stop.g
;   exportFileFormat,gcode
;   celebration,0
;   celebrationSong,Random Song
;   postProcessing,
;   defaultSpeed,3600
;   outlineUnderspeed,0.5
;   solidInfillUnderspeed,0.8
;   supportUnderspeed,0.8
;   rapidXYspeed,18000
;   rapidZspeed,1200
;   minBridgingArea,50
;   bridgingExtraInflation,0
;   bridgingExtrusionMultiplier,0.96
;   bridgingSpeedMultiplier,1
;   useFixedBridgingAngle,0
;   fixedBridgingAngle,0
;   applyBridgingToPerimeters,0
;   filamentDiameters,1.75|1.75|1.75|1.75|1.75|1.75
;   filamentPricesPerKg,46|46|46|46|46|46
;   filamentDensities,1.25|1.25|1.25|1.25|1.25|1.25
;   useMinPrintHeight,0
;   minPrintHeight,20
;   useMaxPrintHeight,0
;   maxPrintHeight,15
;   useDiaphragm,0
;   diaphragmLayerInterval,20
;   robustSlicing,1
;   mergeAllIntoSolid,0
;   onlyRetractWhenCrossingOutline,1
;   retractBetweenLayers,0
;   useRetractionMinTravel,1
;   retractionMinTravel,3
;   retractWhileWiping,1
;   onlyWipeOutlines,1
;   avoidCrossingOutline,1
;   maxMovementDetourFactor,5
;   toolChangeRetractionDistance,12
;   toolChangeExtraRestartDistance,-0.5
;   toolChangeRetractionSpeed,600
;   externalThinWallType,0
;   internalThinWallType,2
;   thinWallAllowedOverlapPercentage,10
;   singleExtrusionMinLength,1
;   singleExtrusionMinPrintingWidthPercentage,50
;   singleExtrusionMaxPrintingWidthPercentage,150
;   singleExtrusionEndpointExtension,0.2
;   horizontalSizeCompensation,-0.1
G90
M82
M106 S0
M140 S65
M190 S65
M104 S215 T0
M109 S215 T0
G28 ; home all axes
G32 ; run bed.g -- probe bed and enable compensation
; process Process1
; layer 1, Z = 0.200
T0
G92 E0.0000
G1 E-4.0000 F5400
; feature skirt
; tool H0.200 W0.480
G1 Z0.200 F1200
G1 X152.837 Y160.006 F18000
G1 E0.0000 F5400
G92 E0.0000
G1 X52.538 Y160.006 E4.0032 F1800
G1 X49.867 Y157.335 E4.1539
G1 X49.867 Y52.665 E8.3315
G1 X52.538 Y49.994 E8.4823
G1 X152.848 Y49.994 E12.4859
G1 X153.047 Y50.003 E12.4938
G1 X153.838 Y50.072 E12.5255
G1 X154.230 Y50.141 E12.5414
G1 X155.089 Y50.371 E12.5769
G1 X155.463 Y50.508 E12.5928
G1 X156.270 Y50.884 E12.6283
G1 X156.615 Y51.083 E12.6442
G1 X157.343 Y51.593 E12.6797
G1 X157.649 Y51.849 E12.6956
G1 X158.278 Y52.478 E12.7311
G1 X158.534 Y52.783 E12.7470
G1 X159.054 Y53.526 E12.7832
G1 X159.267 Y53.903 E12.8005
G1 X159.652 Y54.762 E12.8381
G1 X159.773 Y55.104 E12.8525
G1 X159.986 Y55.897 E12.8853
G1 X160.055 Y56.289 E12.9012
G1 X160.124 Y57.082 E12.9330
G1 X160.133 Y57.281 E12.9409
G1 X160.133 Y152.708 E16.7496
G1 X160.126 Y152.888 E16.7568
G1 X160.070 Y153.603 E16.7855
G1 X160.014 Y153.957 E16.7998
G1 X159.827 Y154.736 E16.8317
G1 X159.716 Y155.076 E16.8460
G1 X159.409 Y155.817 E16.8780
G1 X159.246 Y156.136 E16.8923
G1 X158.828 Y156.819 E16.9242
G1 X158.618 Y157.108 E16.9385
G1 X158.097 Y157.718 E16.9705
G1 X157.844 Y157.971 E16.9848
G1 X157.235 Y158.491 E17.0168
G1 X156.945 Y158.702 E17.0311
G1 X156.263 Y159.119 E17.0630
G1 X155.944 Y159.282 E17.0773
G1 X155.203 Y159.589 E17.1093
G1 X154.863 Y159.700 E17.1236
G1 X154.083 Y159.887 E17.1556
G1 X153.729 Y159.943 E17.1699
G1 X153.016 Y159.999 E17.1984
G1 X152.837 Y160.006 E17.2056
G1 X152.828 Y159.526 F18000
G92 E0.0000
G1 X52.737 Y159.526 E3.9948 F1800
G1 X50.347 Y157.136 E4.1298
G1 X50.347 Y52.864 E8.2915
G1 X52.737 Y50.474 E8.4264
G1 X152.837 Y50.474 E12.4216
G1 X153.015 Y50.482 E12.4287
G1 X153.775 Y50.548 E12.4591
G1 X154.126 Y50.610 E12.4734
G1 X154.945 Y50.830 E12.5072
G1 X155.280 Y50.951 E12.5214
G1 X156.048 Y51.310 E12.5553
G1 X156.357 Y51.488 E12.5695
G1 X157.051 Y51.974 E12.6033
G1 X157.324 Y52.203 E12.6175
G1 X157.923 Y52.803 E12.6514
G1 X158.152 Y53.076 E12.6656
G1 X158.647 Y53.782 E12.7000
G1 X158.839 Y54.120 E12.7155
G1 X159.206 Y54.940 E12.7514
G1 X159.315 Y55.246 E12.7643
G1 X159.517 Y56.001 E12.7955
G1 X159.579 Y56.352 E12.8098
G1 X159.645 Y57.113 E12.8403
G1 X159.653 Y57.291 E12.8474
G1 X159.653 Y152.699 E16.6553
G1 X159.647 Y152.859 E16.6617
G1 X159.593 Y153.547 E16.6892
G1 X159.542 Y153.863 E16.7020
G1 X159.364 Y154.605 E16.7325
G1 X159.265 Y154.910 E16.7453
G1 X158.973 Y155.616 E16.7758
G1 X158.827 Y155.902 E16.7886
G1 X158.429 Y156.552 E16.8190
G1 X158.240 Y156.811 E16.8318
G1 X157.744 Y157.392 E16.8623
G1 X157.518 Y157.618 E16.8751
G1 X156.937 Y158.114 E16.9055
G1 X156.678 Y158.302 E16.9183
G1 X156.028 Y158.700 E16.9487
G1 X155.743 Y158.846 E16.9615
G1 X155.037 Y159.138 E16.9920
G1 X154.732 Y159.237 E17.0048
G1 X153.990 Y159.416 E17.0353
G1 X153.673 Y159.466 E17.0481
G1 X152.988 Y159.520 E17.0755
G1 X152.828 Y159.526 E17.0819
G1 X152.819 Y159.046 F18000
G92 E0.0000
G1 X52.936 Y159.046 E3.9865 F1800
G1 X50.827 Y156.937 E4.1056
G1 X50.827 Y53.063 E8.2514
G1 X52.936 Y50.954 E8.3705
G1 X152.827 Y50.954 E12.3573
G1 X152.984 Y50.961 E12.3636
G1 X153.712 Y51.025 E12.3928
G1 X154.022 Y51.079 E12.4053
G1 X154.800 Y51.288 E12.4375
G1 X155.096 Y51.395 E12.4500
G1 X155.827 Y51.736 E12.4822
G1 X156.099 Y51.893 E12.4948
G1 X156.758 Y52.355 E12.5269
G1 X156.999 Y52.557 E12.5395
G1 X157.569 Y53.127 E12.5716
G1 X157.771 Y53.368 E12.5842
G1 X158.241 Y54.039 E12.6169
G1 X158.410 Y54.337 E12.6305
G1 X158.760 Y55.119 E12.6647
G1 X158.856 Y55.389 E12.6762
G1 X159.048 Y56.105 E12.7058
G1 X159.102 Y56.415 E12.7183
G1 X159.166 Y57.145 E12.7475
G1 X159.173 Y57.302 E12.7538
G1 X159.173 Y152.690 E16.5610
G1 X159.168 Y152.831 E16.5666
G1 X159.116 Y153.490 E16.5930
G1 X159.071 Y153.770 E16.6043
G1 X158.902 Y154.475 E16.6332
G1 X158.815 Y154.744 E16.6445
G1 X158.537 Y155.415 E16.6735
G1 X158.408 Y155.667 E16.6848
G1 X158.029 Y156.285 E16.7137
G1 X157.863 Y156.514 E16.7250
G1 X157.392 Y157.065 E16.7540
G1 X157.192 Y157.265 E16.7653
G1 X156.640 Y157.737 E16.7942
G1 X156.411 Y157.903 E16.8055
G1 X155.793 Y158.281 E16.8344
G1 X155.541 Y158.410 E16.8457
G1 X154.871 Y158.688 E16.8747
G1 X154.602 Y158.775 E16.8860
G1 X153.896 Y158.945 E16.9150
G1 X153.617 Y158.989 E16.9263
G1 X152.960 Y159.040 E16.9525
G1 X152.819 Y159.046 E16.9582
G1 X152.809 Y158.566 F18000
G92 E0.0000
G1 X53.135 Y158.566 E3.9782 F1800
G1 X51.307 Y156.738 E4.0814
G1 X51.307 Y53.262 E8.2114
G1 X53.135 Y51.434 E8.3145
G1 X152.816 Y51.434 E12.2930
G1 X152.952 Y51.440 E12.2985
G1 X153.650 Y51.501 E12.3264
G1 X153.918 Y51.548 E12.3373
G1 X154.656 Y51.746 E12.3678
G1 X154.912 Y51.839 E12.3786
G1 X155.605 Y52.162 E12.4092
G1 X155.840 Y52.299 E12.4200
G1 X156.466 Y52.736 E12.4505
G1 X156.675 Y52.912 E12.4614
G1 X157.215 Y53.452 E12.4919
G1 X157.390 Y53.661 E12.5027
G1 X157.835 Y54.296 E12.5337
G1 X157.981 Y54.554 E12.5455
G1 X158.314 Y55.297 E12.5780
G1 X158.397 Y55.531 E12.5880
G1 X158.579 Y56.209 E12.6160
G1 X158.626 Y56.477 E12.6268
G1 X158.687 Y57.176 E12.6548
G1 X158.693 Y57.312 E12.6603
G1 X158.693 Y152.681 E16.4666
G1 X158.688 Y152.803 E16.4715
G1 X158.639 Y153.434 E16.4968
G1 X158.600 Y153.676 E16.5065
G1 X158.440 Y154.344 E16.5340
G1 X158.364 Y154.577 E16.5438
G1 X158.101 Y155.213 E16.5713
G1 X157.989 Y155.432 E16.5810
G1 X157.630 Y156.018 E16.6085
G1 X157.486 Y156.216 E16.6182
G1 X157.039 Y156.739 E16.6457
G1 X156.866 Y156.913 E16.6555
G1 X156.343 Y157.359 E16.6829
G1 X156.144 Y157.503 E16.6927
G1 X155.559 Y157.862 E16.7201
G1 X155.340 Y157.974 E16.7299
G1 X154.705 Y158.237 E16.7574
G1 X154.471 Y158.313 E16.7672
G1 X153.802 Y158.473 E16.7946
G1 X153.560 Y158.512 E16.8044
G1 X152.932 Y158.561 E16.8296
G1 X152.809 Y158.566 E16.8345
G1 X152.800 Y158.086 F18000
G92 E0.0000
G1 X53.333 Y158.086 E3.9699 F1800
G1 X51.787 Y156.540 E4.0572
G1 X51.787 Y53.460 E8.1713
G1 X53.333 Y51.914 E8.2586
G1 X152.806 Y51.914 E12.2288
G1 X152.921 Y51.919 E12.2333
G1 X153.587 Y51.977 E12.2600
G1 X153.814 Y52.017 E12.2692
G1 X154.511 Y52.204 E12.2981
G1 X154.728 Y52.283 E12.3073
G1 X155.383 Y52.588 E12.3361
G1 X155.582 Y52.704 E12.3453
G1 X156.174 Y53.118 E12.3741
G1 X156.350 Y53.266 E12.3833
G1 X156.861 Y53.777 E12.4121
G1 X157.009 Y53.953 E12.4213
G1 X157.429 Y54.552 E12.4505
G1 X157.552 Y54.771 E12.4605
G1 X157.868 Y55.476 E12.4914
G1 X157.938 Y55.674 E12.4998
G1 X158.110 Y56.313 E12.5262
G1 X158.150 Y56.540 E12.5354
G1 X158.208 Y57.207 E12.5621
G1 X158.213 Y57.322 E12.5667
G1 X158.213 Y152.672 E16.3723
G1 X158.209 Y152.775 E16.3764
G1 X158.162 Y153.377 E16.4005
G1 X158.129 Y153.582 E16.4088
G1 X157.977 Y154.214 E16.4348
G1 X157.913 Y154.411 E16.4430
G1 X157.664 Y155.012 E16.4690
G1 X157.570 Y155.197 E16.4773
G1 X157.231 Y155.751 E16.5032
G1 X157.109 Y155.919 E16.5115
G1 X156.686 Y156.413 E16.5374
G1 X156.540 Y156.560 E16.5457
G1 X156.045 Y156.982 E16.5717
G1 X155.878 Y157.104 E16.5799
G1 X155.324 Y157.443 E16.6059
G1 X155.139 Y157.537 E16.6141
G1 X154.538 Y157.786 E16.6401
G1 X154.341 Y157.850 E16.6484
G1 X153.709 Y158.002 E16.6743
G1 X153.504 Y158.035 E16.6826
G1 X152.903 Y158.082 E16.7066
G1 X152.800 Y158.086 E16.7108
G1 X152.790 Y157.606 F18000
G92 E0.0000
G1 X53.532 Y157.606 E3.9616 F1800
G1 X52.267 Y156.341 E4.0330
G1 X52.267 Y53.659 E8.1313
G1 X53.532 Y52.394 E8.2027
G1 X152.795 Y52.394 E12.1645
G1 X152.889 Y52.398 E12.1682
G1 X153.524 Y52.454 E12.1937
G1 X153.710 Y52.486 E12.2012
G1 X154.367 Y52.662 E12.2283
G1 X154.544 Y52.727 E12.2359
G1 X155.161 Y53.015 E12.2630
G1 X155.324 Y53.109 E12.2706
G1 X155.881 Y53.499 E12.2977
G1 X156.026 Y53.620 E12.3052
G1 X156.507 Y54.101 E12.3324
G1 X156.628 Y54.246 E12.3399
G1 X157.022 Y54.809 E12.3674
G1 X157.124 Y54.988 E12.3755
G1 X157.422 Y55.654 E12.4047
G1 X157.480 Y55.816 E12.4116
G1 X157.641 Y56.417 E12.4364
G1 X157.673 Y56.603 E12.4439
G1 X157.729 Y57.239 E12.4694
G1 X157.733 Y57.333 E12.4732
G1 X157.733 Y152.663 E16.2780
G1 X157.730 Y152.747 E16.2814
G1 X157.685 Y153.321 E16.3043
G1 X157.658 Y153.488 E16.3111
G1 X157.515 Y154.084 E16.3355
G1 X157.463 Y154.245 E16.3423
G1 X157.228 Y154.811 E16.3667
G1 X157.151 Y154.962 E16.3735
G1 X156.831 Y155.484 E16.3979
G1 X156.732 Y155.621 E16.4047
G1 X156.334 Y156.087 E16.4292
G1 X156.214 Y156.207 E16.4359
G1 X155.748 Y156.605 E16.4604
G1 X155.611 Y156.704 E16.4671
G1 X155.089 Y157.024 E16.4916
G1 X154.938 Y157.101 E16.4983
G1 X154.372 Y157.336 E16.5228
G1 X154.211 Y157.388 E16.5296
G1 X153.615 Y157.531 E16.5540
G1 X153.447 Y157.558 E16.5608
G1 X152.875 Y157.603 E16.5837
G1 X152.790 Y157.606 E16.5871
G1 X152.781 Y157.126 F18000
G92 E0.0000
G1 X53.731 Y157.126 E3.9533 F1800
G1 X52.747 Y156.142 E4.0088
G1 X52.747 Y53.858 E8.0912
G1 X53.731 Y52.874 E8.1468
G1 X152.785 Y52.874 E12.1002
G1 X152.858 Y52.877 E12.1031
G1 X153.461 Y52.930 E12.1273
G1 X153.606 Y52.956 E12.1332
G1 X154.222 Y53.121 E12.1586
G1 X154.360 Y53.171 E12.1645
G1 X154.939 Y53.441 E12.1900
G1 X155.066 Y53.514 E12.1958
G1 X155.589 Y53.880 E12.2213
G1 X155.701 Y53.974 E12.2272
G1 X156.152 Y54.426 E12.2526
G1 X156.247 Y54.538 E12.2585
G1 X156.616 Y55.066 E12.2842
G1 X156.695 Y55.205 E12.2906
G1 X156.976 Y55.833 E12.3180
G1 X157.021 Y55.959 E12.3234
G1 X157.171 Y56.521 E12.3466
G1 X157.197 Y56.666 E12.3525
G1 X157.250 Y57.270 E12.3767
G1 X157.253 Y57.343 E12.3796
G1 X157.253 Y152.653 E16.1836
G1 X157.250 Y152.719 E16.1863
G1 X157.208 Y153.264 E16.2081
G1 X157.187 Y153.394 E16.2133
G1 X157.053 Y153.953 E16.2363
G1 X157.012 Y154.079 E16.2415
G1 X156.792 Y154.610 E16.2645
G1 X156.732 Y154.727 E16.2698
G1 X156.432 Y155.217 E16.2927
G1 X156.354 Y155.324 E16.2979
G1 X155.981 Y155.761 E16.3209
G1 X155.888 Y155.854 E16.3262
G1 X155.451 Y156.227 E16.3491
G1 X155.344 Y156.305 E16.3544
G1 X154.854 Y156.605 E16.3773
G1 X154.737 Y156.665 E16.3825
G1 X154.206 Y156.885 E16.4055
G1 X154.080 Y156.926 E16.4108
G1 X153.521 Y157.060 E16.4337
G1 X153.391 Y157.081 E16.4390
G1 X152.847 Y157.123 E16.4607
G1 X152.781 Y157.126 E16.4634
G1 X152.772 Y156.646 F18000
G92 E0.0000
G1 X53.930 Y156.646 E3.9450 F1800
G1 X53.227 Y155.943 E3.9847
G1 X53.227 Y54.057 E8.0512
G1 X53.930 Y53.354 E8.0908
G1 X152.774 Y53.354 E12.0359
G1 X152.826 Y53.356 E12.0380
G1 X153.399 Y53.406 E12.0609
G1 X153.502 Y53.425 E12.0651
G1 X154.078 Y53.579 E12.0889
G1 X154.176 Y53.615 E12.0931
G1 X154.717 Y53.867 E12.1169
G1 X154.808 Y53.919 E12.1211
G1 X155.296 Y54.261 E12.1449
G1 X155.376 Y54.329 E12.1491
G1 X155.798 Y54.750 E12.1729
G1 X155.866 Y54.831 E12.1771
G1 X156.210 Y55.322 E12.2010
