; G-Code generated by Simplify3D(R) Version 4.1.2
; Dec 24, 2020 at 3:42:39 PM
; Settings Summary
;   processName,Process1
;   applyToModels,12-base-left
;   profileName,HBot (modified)
;   profileVersion,2019-10-26 23:38:43
;   baseProfile,Default
;   printMaterial,PETG - SUNLU
;   printQuality,Medium
;   printExtruders,
;   extruderName,Extruder 1
;   extruderToolheadNumber,0
;   extruderDiameter,0.4
;   extruderAutoWidth,1
;   extruderWidth,0.48
;   extrusionMultiplier,1
;   extruderUseRetract,1
;   extruderRetractionDistance,4
;   extruderExtraRestartDistance,0
;   extruderRetractionZLift,0
;   extruderRetractionSpeed,5400
;   extruderUseCoasting,1
;   extruderCoastingDistance,0.2
;   extruderUseWipe,1
;   extruderWipeDistance,5
;   primaryExtruder,0
;   layerHeight,0.2
;   topSolidLayers,4
;   bottomSolidLayers,4
;   perimeterOutlines,4
;   printPerimetersInsideOut,1
;   startPointOption,3
;   startPointOriginX,110
;   startPointOriginY,300
;   sequentialIslands,0
;   spiralVaseMode,0
;   firstLayerHeightPercentage,100
;   firstLayerWidthPercentage,100
;   firstLayerUnderspeed,0.5
;   useRaft,0
;   raftExtruder,0
;   raftTopLayers,3
;   raftBaseLayers,2
;   raftOffset,3
;   raftSeparationDistance,0.18
;   raftTopInfill,100
;   aboveRaftSpeedMultiplier,0.3
;   useSkirt,0
;   skirtExtruder,0
;   skirtLayers,1
;   skirtOutlines,10
;   skirtOffset,0
;   usePrimePillar,0
;   primePillarExtruder,999
;   primePillarWidth,12
;   primePillarLocation,7
;   primePillarSpeedMultiplier,1
;   useOozeShield,0
;   oozeShieldExtruder,999
;   oozeShieldOffset,0.9
;   oozeShieldOutlines,2
;   oozeShieldSidewallShape,0
;   oozeShieldSidewallAngle,30
;   oozeShieldSpeedMultiplier,1.5
;   infillExtruder,0
;   internalInfillPattern,Fast Honeycomb
;   externalInfillPattern,Rectilinear
;   infillPercentage,20
;   outlineOverlapPercentage,25
;   infillExtrusionWidthPercentage,100
;   minInfillLength,5
;   infillLayerInterval,1
;   internalInfillAngles,0
;   overlapInternalInfillAngles,0
;   externalInfillAngles,45,-45
;   generateSupport,1
;   supportExtruder,0
;   supportInfillPercentage,25
;   supportExtraInflation,0
;   supportBaseLayers,0
;   denseSupportExtruder,0
;   denseSupportLayers,0
;   denseSupportInfillPercentage,70
;   supportLayerInterval,1
;   supportHorizontalPartOffset,0.3
;   supportUpperSeparationLayers,1
;   supportLowerSeparationLayers,1
;   supportType,0
;   supportGridSpacing,4
;   maxOverhangAngle,25
;   supportAngles,0
;   temperatureName,Extruder 1,Heated Bed
;   temperatureNumber,0,1
;   temperatureSetpointCount,2,1
;   temperatureSetpointLayers,1,2,1
;   temperatureSetpointTemperatures,235,225,85
;   temperatureStabilizeAtStartup,1,1
;   temperatureHeatedBed,0,1
;   fanLayers,1,5,10
;   fanSpeeds,0,5,20
;   blipFanToFullPower,1
;   adjustSpeedForCooling,1
;   minSpeedLayerTime,15
;   minCoolingSpeedSlowdown,20
;   increaseFanForCooling,0
;   minFanLayerTime,45
;   maxCoolingFanSpeed,35
;   increaseFanForBridging,1
;   bridgingFanSpeed,85
;   use5D,1
;   relativeEdistances,0
;   allowEaxisZeroing,1
;   independentExtruderAxes,0
;   includeM10123,0
;   stickySupport,1
;   applyToolheadOffsets,0
;   gcodeXoffset,0
;   gcodeYoffset,0
;   gcodeZoffset,0
;   overrideMachineDefinition,1
;   machineTypeOverride,0
;   strokeXoverride,210
;   strokeYoverride,210
;   strokeZoverride,150
;   originOffsetXoverride,0
;   originOffsetYoverride,0
;   originOffsetZoverride,0
;   homeXdirOverride,-1
;   homeYdirOverride,-1
;   homeZdirOverride,-1
;   flipXoverride,1
;   flipYoverride,-1
;   flipZoverride,1
;   toolheadOffsets,0,0|0,0|0,0|0,0|0,0|0,0
;   overrideFirmwareConfiguration,1
;   firmwareTypeOverride,RepRap (Marlin/Repetier/Sprinter)
;   GPXconfigOverride,r2
;   baudRateOverride,115200
;   overridePrinterModels,0
;   printerModelsOverride
;   startingGcode,G28 ; home all axes,G32 ; run bed.g -- probe bed and enable compensation
;   layerChangeGcode,
;   retractionGcode,
;   toolChangeGcode,
;   endingGcode,M0 ; call stop.g
;   exportFileFormat,gcode
;   celebration,0
;   celebrationSong,Random Song
;   postProcessing,
;   defaultSpeed,3600
;   outlineUnderspeed,0.5
;   solidInfillUnderspeed,0.8
;   supportUnderspeed,0.8
;   rapidXYspeed,18000
;   rapidZspeed,1200
;   minBridgingArea,50
;   bridgingExtraInflation,0
;   bridgingExtrusionMultiplier,0.96
;   bridgingSpeedMultiplier,1
;   useFixedBridgingAngle,0
;   fixedBridgingAngle,0
;   applyBridgingToPerimeters,0
;   filamentDiameters,1.75|1.75|1.75|1.75|1.75|1.75
;   filamentPricesPerKg,46|46|46|46|46|46
;   filamentDensities,1.25|1.25|1.25|1.25|1.25|1.25
;   useMinPrintHeight,0
;   minPrintHeight,20
;   useMaxPrintHeight,0
;   maxPrintHeight,15
;   useDiaphragm,0
;   diaphragmLayerInterval,20
;   robustSlicing,1
;   mergeAllIntoSolid,0
;   onlyRetractWhenCrossingOutline,1
;   retractBetweenLayers,0
;   useRetractionMinTravel,1
;   retractionMinTravel,3
;   retractWhileWiping,1
;   onlyWipeOutlines,1
;   avoidCrossingOutline,1
;   maxMovementDetourFactor,5
;   toolChangeRetractionDistance,12
;   toolChangeExtraRestartDistance,-0.5
;   toolChangeRetractionSpeed,600
;   externalThinWallType,1
;   internalThinWallType,1
;   thinWallAllowedOverlapPercentage,10
;   singleExtrusionMinLength,1
;   singleExtrusionMinPrintingWidthPercentage,50
;   singleExtrusionMaxPrintingWidthPercentage,150
;   singleExtrusionEndpointExtension,0.2
;   horizontalSizeCompensation,-0.1
G90
M82
M106 S0
M140 S85
M190 S85
M104 S235 T0
M109 S235 T0
G28 ; home all axes
G32 ; run bed.g -- probe bed and enable compensation
; process Process1
; layer 1, Z = 0.200
T0
G92 E0.0000
G1 E-4.0000 F5400
; feature inner perimeter
; tool H0.200 W0.480
G1 Z0.200 F1200
G1 X152.036 Y155.607 F18000
G1 E0.0000 F5400
G92 E0.0000
G1 X55.468 Y155.607 E3.8542 F1350
G1 X54.874 Y155.555 E3.8780
G1 X54.373 Y155.421 E3.8987
G1 X53.903 Y155.202 E3.9194
G1 X53.478 Y154.905 E3.9401
G1 X53.111 Y154.538 E3.9608
G1 X52.814 Y154.113 E3.9815
G1 X52.594 Y153.643 E4.0022
G1 X52.460 Y153.142 E4.0229
G1 X52.408 Y152.547 E4.0468
G1 X52.408 Y57.453 E7.8422
G1 X52.460 Y56.864 E7.8658
G1 X52.595 Y56.356 E7.8867
G1 X52.814 Y55.887 E7.9074
G1 X53.111 Y55.462 E7.9281
G1 X53.478 Y55.095 E7.9488
G1 X53.903 Y54.798 E7.9695
G1 X54.373 Y54.579 E7.9902
G1 X54.874 Y54.444 E8.0109
G1 X55.468 Y54.392 E8.0347
G1 X152.036 Y54.392 E11.8889
G1 X152.036 Y59.520 E12.0936
G1 X151.734 Y59.615 E12.1062
G1 X151.267 Y58.948 E12.1387
G1 X150.655 Y58.337 E12.1732
G1 X149.947 Y57.840 E12.2078
G1 X149.163 Y57.475 E12.2423
G1 X148.327 Y57.251 E12.2768
G1 X147.466 Y57.176 E12.3113
G1 X146.604 Y57.251 E12.3458
G1 X145.769 Y57.475 E12.3804
G1 X144.985 Y57.840 E12.4149
G1 X144.276 Y58.337 E12.4494
G1 X143.665 Y58.948 E12.4839
G1 X143.169 Y59.657 E12.5184
G1 X142.803 Y60.440 E12.5530
G1 X142.579 Y61.276 E12.5875
G1 X142.504 Y62.137 E12.6220
G1 X142.579 Y62.999 E12.6565
G1 X142.803 Y63.835 E12.6910
G1 X143.169 Y64.618 E12.7256
G1 X143.665 Y65.327 E12.7601
G1 X144.276 Y65.938 E12.7946
G1 X144.985 Y66.435 E12.8291
G1 X145.769 Y66.800 E12.8636
G1 X146.613 Y67.026 E12.8985
G1 X147.510 Y67.095 E12.9344
G1 X148.327 Y67.024 E12.9672
G1 X149.163 Y66.800 E13.0017
G1 X149.947 Y66.435 E13.0362
G1 X150.655 Y65.938 E13.0707
G1 X151.267 Y65.327 E13.1053
G1 X151.734 Y64.660 E13.1377
G1 X152.036 Y64.755 E13.1504
G1 X152.036 Y145.245 E16.3629
G1 X151.734 Y145.340 E16.3755
G1 X151.267 Y144.673 E16.4080
G1 X150.655 Y144.062 E16.4426
G1 X149.946 Y143.565 E16.4771
G1 X149.163 Y143.200 E16.5116
G1 X148.327 Y142.976 E16.5461
G1 X147.466 Y142.901 E16.5806
G1 X146.604 Y142.976 E16.6152
G1 X145.769 Y143.200 E16.6497
G1 X144.985 Y143.565 E16.6842
G1 X144.276 Y144.062 E16.7187
G1 X143.665 Y144.673 E16.7532
G1 X143.169 Y145.382 E16.7878
G1 X142.803 Y146.165 E16.8223
G1 X142.579 Y147.001 E16.8568
G1 X142.504 Y147.863 E16.8913
G1 X142.579 Y148.724 E16.9258
G1 X142.803 Y149.560 E16.9604
G1 X143.169 Y150.343 E16.9949
G1 X143.665 Y151.052 E17.0294
G1 X144.276 Y151.663 E17.0639
G1 X144.985 Y152.160 E17.0984
G1 X145.769 Y152.525 E17.1330
G1 X146.613 Y152.751 E17.1678
G1 X147.510 Y152.820 E17.2037
G1 X148.327 Y152.749 E17.2365
G1 X149.163 Y152.525 E17.2710
G1 X149.947 Y152.160 E17.3055
G1 X150.655 Y151.663 E17.3401
G1 X151.267 Y151.052 E17.3746
G1 X151.734 Y150.385 E17.4071
G1 X152.036 Y150.480 E17.4197
G1 X152.036 Y155.407 E17.6164
G1 X152.036 Y155.607 F1350
G1 X153.476 Y132.107 F18000
G1 X153.476 Y87.256
G1 X154.425 Y88.162
G1 X154.832 Y88.433
G1 X155.279 Y88.631
G1 X155.754 Y88.749
G1 X156.131 Y88.776
G1 X156.219 Y87.338
G92 E0.0000
G1 X155.980 Y87.321 E0.0096 F1350
G1 X155.747 Y87.264 E0.0191
G1 X155.528 Y87.167 E0.0287
G1 X155.329 Y87.034 E0.0382
G1 X154.193 Y85.950 E0.1009
G1 X155.329 Y84.866 E0.1636
G1 X155.528 Y84.733 E0.1731
G1 X155.747 Y84.636 E0.1827
G1 X155.980 Y84.579 E0.1923
G1 X156.219 Y84.562 E0.2018
G1 X156.457 Y84.586 E0.2114
G1 X156.688 Y84.651 E0.2210
G1 X156.904 Y84.755 E0.2305
G1 X157.099 Y84.894 E0.2401
G1 X157.267 Y85.065 E0.2496
G1 X157.403 Y85.262 E0.2592
G1 X157.503 Y85.480 E0.2688
G1 X157.565 Y85.711 E0.2783
G1 X157.585 Y85.950 E0.2879
G1 X157.565 Y86.189 E0.2975
G1 X157.503 Y86.420 E0.3070
G1 X157.403 Y86.638 E0.3166
G1 X157.267 Y86.835 E0.3261
G1 X157.099 Y87.006 E0.3357
G1 X156.904 Y87.145 E0.3453
G1 X156.688 Y87.249 E0.3548
G1 X156.457 Y87.314 E0.3644
G1 X156.418 Y87.318 E0.3660
G1 X156.219 Y87.338 F1350
G1 X156.219 Y83.118 F18000
G1 X155.754 Y83.151
G1 X155.279 Y83.269
G1 X154.832 Y83.467
G1 X154.425 Y83.738
G1 X153.476 Y84.644
G1 X153.476 Y74.556
G1 X154.425 Y75.462
G1 X154.832 Y75.733
G1 X155.279 Y75.931
G1 X155.754 Y76.049
G1 X156.219 Y76.082
G1 X156.219 Y74.638
G92 E0.0000
G1 X155.980 Y74.621 E0.0096 F1350
G1 X155.747 Y74.564 E0.0191
G1 X155.528 Y74.467 E0.0287
G1 X155.329 Y74.334 E0.0382
G1 X154.193 Y73.250 E0.1009
G1 X155.329 Y72.166 E0.1636
G1 X155.528 Y72.033 E0.1732
G1 X155.747 Y71.936 E0.1827
G1 X155.980 Y71.879 E0.1923
G1 X156.219 Y71.862 E0.2018
G1 X156.457 Y71.886 E0.2114
G1 X156.688 Y71.951 E0.2210
G1 X156.904 Y72.055 E0.2305
G1 X157.099 Y72.194 E0.2401
G1 X157.267 Y72.365 E0.2496
G1 X157.403 Y72.562 E0.2592
G1 X157.503 Y72.780 E0.2688
G1 X157.565 Y73.011 E0.2783
G1 X157.585 Y73.250 E0.2879
G1 X157.565 Y73.489 E0.2974
G1 X157.503 Y73.720 E0.3070
G1 X157.403 Y73.938 E0.3166
G1 X157.267 Y74.135 E0.3261
G1 X157.099 Y74.306 E0.3357
G1 X156.904 Y74.445 E0.3453
G1 X156.688 Y74.549 E0.3548
G1 X156.457 Y74.614 E0.3644
G1 X156.418 Y74.618 E0.3660
G1 X156.219 Y74.638 F1350
G1 X156.226 Y75.120 F18000
G92 E0.0000
G1 X155.904 Y75.097 E0.0129 F1350
G1 X155.591 Y75.019 E0.0258
G1 X155.296 Y74.889 E0.0386
G1 X155.028 Y74.710 E0.0515
G1 X153.497 Y73.250 E0.1359
G1 X155.028 Y71.790 E0.2204
G1 X155.296 Y71.611 E0.2332
G1 X155.591 Y71.481 E0.2461
G1 X155.905 Y71.403 E0.2590
G1 X156.226 Y71.380 E0.2719
G1 X156.547 Y71.413 E0.2848
G1 X156.858 Y71.501 E0.2976
G1 X157.149 Y71.640 E0.3105
G1 X157.412 Y71.828 E0.3234
G1 X157.638 Y72.058 E0.3363
G1 X157.821 Y72.323 E0.3492
G1 X157.956 Y72.617 E0.3620
G1 X158.039 Y72.928 E0.3749
G1 X158.067 Y73.250 E0.3878
G1 X158.039 Y73.571 E0.4007
G1 X157.956 Y73.883 E0.4136
G1 X157.821 Y74.177 E0.4264
G1 X157.638 Y74.442 E0.4393
G1 X157.411 Y74.672 E0.4522
G1 X157.149 Y74.860 E0.4651
G1 X156.858 Y74.999 E0.4780
G1 X156.547 Y75.087 E0.4908
G1 X156.425 Y75.099 E0.4957
G1 X156.226 Y75.120 F1350
G1 X156.226 Y76.082 F18000
G1 X155.754 Y76.049
G1 X155.279 Y75.931
G1 X154.832 Y75.733
G1 X154.425 Y75.462
G1 X153.476 Y74.556
G1 X153.476 Y84.644
G1 X154.425 Y83.738
G1 X154.832 Y83.467
G1 X155.279 Y83.269
G1 X155.754 Y83.151
G1 X156.226 Y83.118
G1 X156.226 Y84.080
G92 E0.0000
G1 X156.548 Y84.113 E0.0129 F1350
G1 X156.858 Y84.201 E0.0258
G1 X157.149 Y84.340 E0.0386
G1 X157.412 Y84.528 E0.0515
G1 X157.638 Y84.758 E0.0644
G1 X157.821 Y85.023 E0.0773
G1 X157.956 Y85.317 E0.0902
G1 X158.039 Y85.628 E0.1030
G1 X158.067 Y85.950 E0.1159
G1 X158.039 Y86.272 E0.1288
G1 X157.956 Y86.583 E0.1417
G1 X157.821 Y86.877 E0.1546
G1 X157.638 Y87.142 E0.1674
G1 X157.412 Y87.372 E0.1803
G1 X157.149 Y87.560 E0.1932
G1 X156.858 Y87.699 E0.2061
G1 X156.547 Y87.787 E0.2190
G1 X156.226 Y87.820 E0.2318
G1 X155.905 Y87.797 E0.2447
G1 X155.591 Y87.719 E0.2576
G1 X155.296 Y87.589 E0.2705
G1 X155.028 Y87.410 E0.2834
G1 X153.497 Y85.950 E0.3678
G1 X155.028 Y84.490 E0.4522
G1 X155.296 Y84.311 E0.4651
G1 X155.591 Y84.181 E0.4780
G1 X155.904 Y84.103 E0.4908
G1 X156.027 Y84.094 E0.4957
G1 X156.226 Y84.080 F1350
G1 X156.109 Y83.126 F18000
G1 X155.754 Y83.151
G1 X155.279 Y83.269
G1 X154.832 Y83.467
G1 X154.425 Y83.738
G1 X153.476 Y84.644
G1 X153.476 Y74.556
G1 X154.425 Y75.462
G1 X154.832 Y75.733
G1 X155.221 Y75.905
G1 X154.607 Y70.917
G1 X154.425 Y71.038
G1 X153.476 Y71.944
G1 X153.476 Y61.717
G1 X152.516 Y53.913
G92 E0.0000
G1 X152.516 Y156.087 E4.0780 F1350
G1 X55.447 Y156.087 E7.9522
G1 X54.790 Y156.030 E7.9786
G1 X54.208 Y155.874 E8.0026
G1 X53.662 Y155.619 E8.0267
G1 X53.168 Y155.274 E8.0507
G1 X52.742 Y154.847 E8.0748
G1 X52.396 Y154.354 E8.0988
G1 X52.142 Y153.808 E8.1229
G1 X51.986 Y153.225 E8.1469
G1 X51.928 Y152.568 E8.1733
G1 X51.928 Y57.432 E11.9704
G1 X51.985 Y56.781 E11.9965
G1 X52.142 Y56.192 E12.0208
G1 X52.396 Y55.646 E12.0448
G1 X52.742 Y55.153 E12.0689
G1 X53.168 Y54.726 E12.0929
G1 X53.662 Y54.381 E12.1170
G1 X54.208 Y54.126 E12.1410
G1 X54.790 Y53.970 E12.1651
G1 X55.447 Y53.913 E12.1914
G1 X152.316 Y53.913 E16.0576
G1 X152.516 Y53.913 F1350
G1 X152.996 Y53.432 F18000
G92 E0.0000
G1 X152.996 Y73.065 E0.7836 F1350
G1 X154.727 Y71.414 E0.8790
G1 X155.064 Y71.189 E0.8952
G1 X155.435 Y71.025 E0.9114
G1 X155.829 Y70.927 E0.9276
G1 X156.234 Y70.898 E0.9438
G1 X156.638 Y70.940 E0.9600
G1 X157.028 Y71.050 E0.9762
G1 X157.394 Y71.226 E0.9924
G1 X157.724 Y71.462 E1.0086
G1 X158.009 Y71.751 E1.0248
G1 X158.240 Y72.085 E1.0410
G1 X158.410 Y72.453 E1.0572
G1 X158.514 Y72.846 E1.0734
G1 X158.549 Y73.250 E1.0896
G1 X158.514 Y73.654 E1.1058
G1 X158.410 Y74.047 E1.1220
G1 X158.240 Y74.415 E1.1382
G1 X158.009 Y74.749 E1.1544
G1 X157.724 Y75.038 E1.1706
G1 X157.394 Y75.274 E1.1868
G1 X157.028 Y75.450 E1.2030
G1 X156.638 Y75.560 E1.2192
G1 X156.234 Y75.602 E1.2354
G1 X155.829 Y75.573 E1.2516
G1 X155.435 Y75.475 E1.2678
G1 X155.064 Y75.311 E1.2840
G1 X154.727 Y75.086 E1.3002
G1 X152.996 Y73.435 E1.3957
G1 X152.996 Y85.765 E1.8878
G1 X154.727 Y84.114 E1.9833
G1 X155.064 Y83.889 E1.9995
G1 X155.435 Y83.725 E2.0157
G1 X155.829 Y83.627 E2.0319
G1 X156.234 Y83.598 E2.0481
G1 X156.638 Y83.640 E2.0643
G1 X157.028 Y83.750 E2.0804
G1 X157.394 Y83.926 E2.0966
G1 X157.724 Y84.162 E2.1128
G1 X158.009 Y84.451 E2.1290
G1 X158.240 Y84.785 E2.1452
G1 X158.410 Y85.153 E2.1614
G1 X158.514 Y85.546 E2.1776
G1 X158.549 Y85.950 E2.1938
G1 X158.514 Y86.354 E2.2100
G1 X158.410 Y86.747 E2.2262
G1 X158.240 Y87.115 E2.2424
G1 X158.009 Y87.449 E2.2586
G1 X157.724 Y87.738 E2.2748
G1 X157.394 Y87.974 E2.2910
G1 X157.028 Y88.150 E2.3072
G1 X156.638 Y88.260 E2.3234
G1 X156.234 Y88.302 E2.3396
G1 X155.829 Y88.273 E2.3558
G1 X155.435 Y88.175 E2.3720
G1 X155.064 Y88.011 E2.3882
G1 X154.727 Y87.786 E2.4044
G1 X152.996 Y86.135 E2.4999
G1 X152.996 Y156.567 E5.3110
G1 X55.426 Y156.567 E9.2052
G1 X54.707 Y156.505 E9.2340
G1 X54.043 Y156.327 E9.2614
G1 X53.421 Y156.037 E9.2889
G1 X52.858 Y155.643 E9.3163
G1 X52.373 Y155.157 E9.3437
G1 X51.979 Y154.595 E9.3711
G1 X51.689 Y153.972 E9.3985
G1 X51.511 Y153.309 E9.4259
G1 X51.448 Y152.589 E9.4547
G1 X51.448 Y57.411 E13.2535
G1 X51.511 Y56.697 E13.2821
G1 X51.689 Y56.027 E13.3098
G1 X51.979 Y55.405 E13.3372
G1 X52.373 Y54.843 E13.3646
G1 X52.858 Y54.357 E13.3920
G1 X53.421 Y53.963 E13.4194
G1 X54.043 Y53.673 E13.4468
G1 X54.707 Y53.495 E13.4742
G1 X55.426 Y53.432 E13.5030
G1 X152.796 Y53.432 E17.3892
G1 X152.996 Y53.432 F1350
; feature outer perimeter
G1 X153.476 Y52.953 F18000
G92 E0.0000
G1 X153.476 Y71.944 E0.7580 F900
G1 X154.425 Y71.038 E0.8104
G1 X154.832 Y70.767 E0.8299
G1 X155.279 Y70.569 E0.8494
G1 X155.754 Y70.451 E0.8689
G1 X156.242 Y70.417 E0.8884
G1 X156.728 Y70.467 E0.9080
G1 X157.199 Y70.599 E0.9275
G1 X157.639 Y70.811 E0.9470
G1 X158.037 Y71.095 E0.9665
