; G-Code generated by Simplify3D(R) Version 4.1.2
; Dec 24, 2020 at 3:42:07 PM
; Settings Summary
;   processName,Process1
;   applyToModels,13-base-mid
;   profileName,HBot (modified)
;   profileVersion,2019-10-26 23:38:43
;   baseProfile,Default
;   printMaterial,PETG - SUNLU
;   printQuality,Medium
;   printExtruders,
;   extruderName,Extruder 1
;   extruderToolheadNumber,0
;   extruderDiameter,0.4
;   extruderAutoWidth,1
;   extruderWidth,0.48
;   extrusionMultiplier,1
;   extruderUseRetract,1
;   extruderRetractionDistance,4
;   extruderExtraRestartDistance,0
;   extruderRetractionZLift,0
;   extruderRetractionSpeed,5400
;   extruderUseCoasting,1
;   extruderCoastingDistance,0.2
;   extruderUseWipe,1
;   extruderWipeDistance,5
;   primaryExtruder,0
;   layerHeight,0.2
;   topSolidLayers,4
;   bottomSolidLayers,4
;   perimeterOutlines,4
;   printPerimetersInsideOut,1
;   startPointOption,3
;   startPointOriginX,110
;   startPointOriginY,300
;   sequentialIslands,0
;   spiralVaseMode,0
;   firstLayerHeightPercentage,100
;   firstLayerWidthPercentage,100
;   firstLayerUnderspeed,0.5
;   useRaft,0
;   raftExtruder,0
;   raftTopLayers,3
;   raftBaseLayers,2
;   raftOffset,3
;   raftSeparationDistance,0.18
;   raftTopInfill,100
;   aboveRaftSpeedMultiplier,0.3
;   useSkirt,0
;   skirtExtruder,0
;   skirtLayers,1
;   skirtOutlines,10
;   skirtOffset,0
;   usePrimePillar,0
;   primePillarExtruder,999
;   primePillarWidth,12
;   primePillarLocation,7
;   primePillarSpeedMultiplier,1
;   useOozeShield,0
;   oozeShieldExtruder,999
;   oozeShieldOffset,0.9
;   oozeShieldOutlines,2
;   oozeShieldSidewallShape,0
;   oozeShieldSidewallAngle,30
;   oozeShieldSpeedMultiplier,1.5
;   infillExtruder,0
;   internalInfillPattern,Fast Honeycomb
;   externalInfillPattern,Rectilinear
;   infillPercentage,20
;   outlineOverlapPercentage,25
;   infillExtrusionWidthPercentage,100
;   minInfillLength,5
;   infillLayerInterval,1
;   internalInfillAngles,0
;   overlapInternalInfillAngles,0
;   externalInfillAngles,45,-45
;   generateSupport,1
;   supportExtruder,0
;   supportInfillPercentage,25
;   supportExtraInflation,0
;   supportBaseLayers,0
;   denseSupportExtruder,0
;   denseSupportLayers,0
;   denseSupportInfillPercentage,70
;   supportLayerInterval,1
;   supportHorizontalPartOffset,0.3
;   supportUpperSeparationLayers,1
;   supportLowerSeparationLayers,1
;   supportType,0
;   supportGridSpacing,4
;   maxOverhangAngle,25
;   supportAngles,0
;   temperatureName,Extruder 1,Heated Bed
;   temperatureNumber,0,1
;   temperatureSetpointCount,2,1
;   temperatureSetpointLayers,1,2,1
;   temperatureSetpointTemperatures,235,225,85
;   temperatureStabilizeAtStartup,1,1
;   temperatureHeatedBed,0,1
;   fanLayers,1,5,10
;   fanSpeeds,0,5,20
;   blipFanToFullPower,1
;   adjustSpeedForCooling,1
;   minSpeedLayerTime,15
;   minCoolingSpeedSlowdown,20
;   increaseFanForCooling,0
;   minFanLayerTime,45
;   maxCoolingFanSpeed,35
;   increaseFanForBridging,1
;   bridgingFanSpeed,85
;   use5D,1
;   relativeEdistances,0
;   allowEaxisZeroing,1
;   independentExtruderAxes,0
;   includeM10123,0
;   stickySupport,1
;   applyToolheadOffsets,0
;   gcodeXoffset,0
;   gcodeYoffset,0
;   gcodeZoffset,0
;   overrideMachineDefinition,1
;   machineTypeOverride,0
;   strokeXoverride,210
;   strokeYoverride,210
;   strokeZoverride,150
;   originOffsetXoverride,0
;   originOffsetYoverride,0
;   originOffsetZoverride,0
;   homeXdirOverride,-1
;   homeYdirOverride,-1
;   homeZdirOverride,-1
;   flipXoverride,1
;   flipYoverride,-1
;   flipZoverride,1
;   toolheadOffsets,0,0|0,0|0,0|0,0|0,0|0,0
;   overrideFirmwareConfiguration,1
;   firmwareTypeOverride,RepRap (Marlin/Repetier/Sprinter)
;   GPXconfigOverride,r2
;   baudRateOverride,115200
;   overridePrinterModels,0
;   printerModelsOverride
;   startingGcode,G28 ; home all axes,G32 ; run bed.g -- probe bed and enable compensation
;   layerChangeGcode,
;   retractionGcode,
;   toolChangeGcode,
;   endingGcode,M0 ; call stop.g
;   exportFileFormat,gcode
;   celebration,0
;   celebrationSong,Random Song
;   postProcessing,
;   defaultSpeed,3600
;   outlineUnderspeed,0.5
;   solidInfillUnderspeed,0.8
;   supportUnderspeed,0.8
;   rapidXYspeed,18000
;   rapidZspeed,1200
;   minBridgingArea,50
;   bridgingExtraInflation,0
;   bridgingExtrusionMultiplier,0.96
;   bridgingSpeedMultiplier,1
;   useFixedBridgingAngle,0
;   fixedBridgingAngle,0
;   applyBridgingToPerimeters,0
;   filamentDiameters,1.75|1.75|1.75|1.75|1.75|1.75
;   filamentPricesPerKg,46|46|46|46|46|46
;   filamentDensities,1.25|1.25|1.25|1.25|1.25|1.25
;   useMinPrintHeight,0
;   minPrintHeight,20
;   useMaxPrintHeight,0
;   maxPrintHeight,15
;   useDiaphragm,0
;   diaphragmLayerInterval,20
;   robustSlicing,1
;   mergeAllIntoSolid,0
;   onlyRetractWhenCrossingOutline,1
;   retractBetweenLayers,0
;   useRetractionMinTravel,1
;   retractionMinTravel,3
;   retractWhileWiping,1
;   onlyWipeOutlines,1
;   avoidCrossingOutline,1
;   maxMovementDetourFactor,5
;   toolChangeRetractionDistance,12
;   toolChangeExtraRestartDistance,-0.5
;   toolChangeRetractionSpeed,600
;   externalThinWallType,1
;   internalThinWallType,1
;   thinWallAllowedOverlapPercentage,10
;   singleExtrusionMinLength,1
;   singleExtrusionMinPrintingWidthPercentage,50
;   singleExtrusionMaxPrintingWidthPercentage,150
;   singleExtrusionEndpointExtension,0.2
;   horizontalSizeCompensation,-0.1
G90
M82
M106 S0
M140 S85
M190 S85
M104 S235 T0
M109 S235 T0
G28 ; home all axes
G32 ; run bed.g -- probe bed and enable compensation
; process Process1
; layer 1, Z = 0.200
T0
G92 E0.0000
G1 E-4.0000 F5400
; feature inner perimeter
; tool H0.200 W0.480
G1 Z0.200 F1200
G1 X97.311 Y151.621 F18000
G1 E0.0000 F5400
G92 E0.0000
G1 X99.276 Y151.184 E0.0803 F1350
G1 X101.211 Y150.440 E0.1631
G1 X103.207 Y149.341 E0.2540
G1 X105.199 Y147.903 E0.3521
G1 X107.694 Y145.631 E0.4867
G1 X110.189 Y142.881 E0.6349
G1 X113.193 Y139.024 E0.8301
G1 X117.069 Y133.453 E1.1009
G1 X121.095 Y127.439 E1.3898
G1 X124.360 Y122.801 E1.6162
G1 X126.749 Y119.752 E1.7708
G1 X128.826 Y117.457 E1.8943
G1 X130.621 Y115.815 E1.9914
G1 X132.174 Y114.710 E2.0675
G1 X133.518 Y114.035 E2.1275
G1 X134.394 Y113.763 E2.1641
G1 X135.140 Y113.655 E2.1942
G1 X135.932 Y113.670 E2.2258
G1 X136.752 Y113.825 E2.2591
G1 X137.611 Y114.130 E2.2955
G1 X138.949 Y114.851 E2.3562
G1 X140.762 Y116.225 E2.4470
G1 X142.688 Y118.100 E2.5542
G1 X145.141 Y120.974 E2.7051
G1 X148.303 Y125.261 E2.9177
G1 X148.690 Y125.816 E2.9447
G1 X149.049 Y126.252 E2.9672
G1 X149.532 Y126.673 E2.9928
G1 X150.078 Y127.009 E3.0184
G1 X150.672 Y127.250 E3.0440
G1 X151.298 Y127.390 E3.0696
G1 X151.938 Y127.425 E3.0951
G1 X152.575 Y127.355 E3.1207
G1 X153.192 Y127.181 E3.1463
G1 X154.020 Y126.790 E3.1828
G1 X154.020 Y145.245 E3.9194
G1 X153.718 Y145.340 E3.9321
G1 X153.251 Y144.673 E3.9646
G1 X152.639 Y144.062 E3.9991
G1 X151.931 Y143.565 E4.0336
G1 X151.147 Y143.200 E4.0681
G1 X150.312 Y142.976 E4.1026
G1 X149.450 Y142.901 E4.1372
G1 X148.588 Y142.976 E4.1717
G1 X147.753 Y143.200 E4.2062
G1 X146.969 Y143.565 E4.2407
G1 X146.261 Y144.062 E4.2752
G1 X145.649 Y144.673 E4.3098
G1 X145.153 Y145.382 E4.3443
G1 X144.787 Y146.165 E4.3788
G1 X144.564 Y147.001 E4.4133
G1 X144.487 Y147.872 E4.4482
G1 X144.575 Y148.767 E4.4841
G1 X144.787 Y149.560 E4.5169
G1 X145.153 Y150.343 E4.5514
G1 X145.649 Y151.052 E4.5859
G1 X146.261 Y151.663 E4.6204
G1 X146.969 Y152.160 E4.6549
G1 X147.753 Y152.525 E4.6895
G1 X148.588 Y152.749 E4.7240
G1 X149.450 Y152.824 E4.7585
G1 X150.312 Y152.749 E4.7930
G1 X151.147 Y152.525 E4.8275
G1 X151.931 Y152.160 E4.8621
G1 X152.234 Y151.948 E4.8768
G1 X152.639 Y151.663 E4.8966
G1 X153.251 Y151.052 E4.9311
G1 X153.718 Y150.385 E4.9636
G1 X154.020 Y150.480 E4.9762
G1 X154.020 Y155.607 E5.1809
G1 X55.980 Y155.607 E9.0939
G1 X55.980 Y150.480 E9.2985
G1 X56.282 Y150.385 E9.3111
G1 X56.749 Y151.052 E9.3436
G1 X57.361 Y151.663 E9.3782
G1 X58.069 Y152.160 E9.4127
G1 X58.853 Y152.525 E9.4472
G1 X59.688 Y152.749 E9.4817
G1 X60.550 Y152.824 E9.5162
G1 X61.412 Y152.749 E9.5508
G1 X62.247 Y152.525 E9.5853
G1 X63.031 Y152.160 E9.6198
G1 X63.739 Y151.663 E9.6543
G1 X64.351 Y151.052 E9.6888
G1 X64.847 Y150.343 E9.7234
G1 X65.213 Y149.560 E9.7579
G1 X65.436 Y148.724 E9.7924
G1 X65.512 Y147.863 E9.8269
G1 X65.436 Y147.001 E9.8614
G1 X65.213 Y146.165 E9.8960
G1 X64.847 Y145.382 E9.9305
G1 X64.351 Y144.673 E9.9650
G1 X63.739 Y144.062 E9.9995
G1 X63.031 Y143.565 E10.0340
G1 X62.247 Y143.200 E10.0686
G1 X61.412 Y142.976 E10.1031
G1 X60.550 Y142.901 E10.1376
G1 X59.688 Y142.976 E10.1721
G1 X58.853 Y143.200 E10.2066
G1 X58.069 Y143.565 E10.2412
G1 X57.361 Y144.062 E10.2757
G1 X56.749 Y144.673 E10.3102
G1 X56.282 Y145.340 E10.3427
G1 X55.980 Y145.245 E10.3553
G1 X55.980 Y91.154 E12.5142
G1 X57.094 Y91.140 E12.5587
G1 X57.981 Y90.974 E12.5947
G1 X58.826 Y90.658 E12.6307
G1 X59.604 Y90.201 E12.6667
G1 X60.291 Y89.616 E12.7027
G1 X60.867 Y88.922 E12.7388
G1 X61.315 Y88.139 E12.7748
G1 X61.622 Y87.290 E12.8108
G1 X61.777 Y86.401 E12.8468
G1 X61.777 Y85.499 E12.8828
G1 X61.622 Y84.610 E12.9188
G1 X61.315 Y83.761 E12.9548
G1 X60.867 Y82.978 E12.9908
G1 X60.291 Y82.284 E13.0269
G1 X59.604 Y81.699 E13.0629
G1 X58.826 Y81.242 E13.0989
G1 X57.981 Y80.926 E13.1349
G1 X57.094 Y80.760 E13.1709
G1 X55.980 Y80.746 E13.2154
G1 X55.980 Y78.454 E13.3069
G1 X57.094 Y78.440 E13.3513
G1 X57.981 Y78.274 E13.3874
G1 X58.826 Y77.958 E13.4234
G1 X59.604 Y77.501 E13.4594
G1 X60.291 Y76.916 E13.4954
G1 X60.867 Y76.222 E13.5314
G1 X61.315 Y75.439 E13.5674
G1 X61.622 Y74.590 E13.6034
G1 X61.777 Y73.701 E13.6395
G1 X61.777 Y72.799 E13.6755
G1 X61.622 Y71.910 E13.7115
G1 X61.315 Y71.061 E13.7475
G1 X60.867 Y70.278 E13.7835
G1 X60.291 Y69.584 E13.8195
G1 X59.604 Y68.999 E13.8555
G1 X58.826 Y68.542 E13.8915
G1 X57.981 Y68.226 E13.9276
G1 X57.094 Y68.060 E13.9636
G1 X55.980 Y68.046 E14.0080
G1 X55.980 Y64.755 E14.1394
G1 X56.282 Y64.660 E14.1520
G1 X56.749 Y65.327 E14.1845
G1 X57.361 Y65.938 E14.2190
G1 X58.069 Y66.435 E14.2536
G1 X58.853 Y66.800 E14.2881
G1 X59.688 Y67.024 E14.3226
G1 X60.550 Y67.099 E14.3571
G1 X61.412 Y67.024 E14.3916
G1 X62.247 Y66.800 E14.4262
G1 X63.031 Y66.435 E14.4607
G1 X63.739 Y65.938 E14.4952
G1 X64.351 Y65.327 E14.5297
G1 X64.847 Y64.618 E14.5642
G1 X65.213 Y63.835 E14.5988
G1 X65.436 Y62.999 E14.6333
G1 X65.512 Y62.137 E14.6678
G1 X65.436 Y61.276 E14.7023
G1 X65.213 Y60.440 E14.7368
G1 X64.847 Y59.657 E14.7714
G1 X64.351 Y58.948 E14.8059
G1 X63.739 Y58.337 E14.8404
G1 X63.031 Y57.840 E14.8749
G1 X62.247 Y57.475 E14.9094
G1 X61.412 Y57.251 E14.9440
G1 X60.550 Y57.176 E14.9785
G1 X59.688 Y57.251 E15.0130
G1 X58.853 Y57.475 E15.0475
G1 X58.069 Y57.840 E15.0820
G1 X57.361 Y58.337 E15.1166
G1 X56.749 Y58.948 E15.1511
G1 X56.282 Y59.615 E15.1836
G1 X55.980 Y59.520 E15.1962
G1 X55.980 Y54.392 E15.4009
G1 X154.020 Y54.392 E19.3138
G1 X154.020 Y59.520 E19.5185
G1 X153.718 Y59.615 E19.5311
G1 X153.251 Y58.948 E19.5636
G1 X152.639 Y58.337 E19.5981
G1 X151.931 Y57.840 E19.6327
G1 X151.147 Y57.475 E19.6672
G1 X150.312 Y57.251 E19.7017
G1 X149.450 Y57.176 E19.7362
G1 X148.588 Y57.251 E19.7707
G1 X147.753 Y57.475 E19.8053
G1 X146.969 Y57.840 E19.8398
G1 X146.261 Y58.337 E19.8743
G1 X145.649 Y58.948 E19.9088
G1 X145.153 Y59.657 E19.9433
G1 X144.787 Y60.440 E19.9779
G1 X144.561 Y61.285 E20.0127
G1 X144.492 Y62.181 E20.0486
G1 X144.564 Y62.999 E20.0814
G1 X144.787 Y63.835 E20.1159
G1 X145.153 Y64.618 E20.1504
G1 X145.649 Y65.327 E20.1850
G1 X146.261 Y65.938 E20.2195
G1 X146.969 Y66.435 E20.2540
G1 X147.753 Y66.800 E20.2885
G1 X148.588 Y67.024 E20.3230
G1 X149.450 Y67.099 E20.3576
G1 X150.312 Y67.024 E20.3921
G1 X151.147 Y66.800 E20.4266
G1 X151.931 Y66.435 E20.4611
G1 X152.639 Y65.938 E20.4956
G1 X153.251 Y65.327 E20.5302
G1 X153.718 Y64.660 E20.5627
G1 X154.020 Y64.755 E20.5753
G1 X154.020 Y68.046 E20.7066
G1 X152.906 Y68.060 E20.7511
G1 X152.019 Y68.226 E20.7871
G1 X151.174 Y68.542 E20.8231
G1 X150.396 Y68.999 E20.8592
G1 X149.709 Y69.584 E20.8952
G1 X149.133 Y70.278 E20.9312
G1 X148.685 Y71.061 E20.9672
G1 X148.378 Y71.910 E21.0032
G1 X148.223 Y72.799 E21.0392
G1 X148.223 Y73.701 E21.0752
G1 X148.378 Y74.590 E21.1112
G1 X148.685 Y75.439 E21.1473
G1 X149.133 Y76.222 E21.1833
G1 X149.709 Y76.916 E21.2193
G1 X150.396 Y77.501 E21.2553
G1 X151.174 Y77.958 E21.2913
G1 X152.019 Y78.274 E21.3273
G1 X152.906 Y78.440 E21.3633
G1 X154.020 Y78.454 E21.4078
G1 X154.020 Y80.746 E21.4993
G1 X152.906 Y80.760 E21.5438
G1 X152.019 Y80.926 E21.5798
G1 X151.174 Y81.242 E21.6158
G1 X150.396 Y81.699 E21.6518
G1 X149.709 Y82.284 E21.6878
G1 X149.133 Y82.978 E21.7238
G1 X148.685 Y83.761 E21.7598
G1 X148.378 Y84.610 E21.7959
G1 X148.223 Y85.499 E21.8319
G1 X148.223 Y86.401 E21.8679
G1 X148.378 Y87.290 E21.9039
G1 X148.685 Y88.139 E21.9399
G1 X149.133 Y88.922 E21.9759
G1 X149.709 Y89.616 E22.0119
G1 X150.396 Y90.201 E22.0480
G1 X151.174 Y90.658 E22.0840
G1 X152.019 Y90.974 E22.1200
G1 X152.906 Y91.140 E22.1560
G1 X154.020 Y91.154 E22.2005
G1 X154.020 Y97.013 E22.4343
G1 X153.321 Y96.662 E22.4655
G1 X151.941 Y95.900 E22.5284
G1 X150.363 Y94.702 E22.6075
G1 X148.544 Y92.951 E22.7083
G1 X146.439 Y90.519 E22.8367
G1 X144.050 Y87.352 E22.9950
G1 X140.254 Y81.761 E23.2647
G1 X136.379 Y75.850 E23.5468
G1 X132.787 Y70.674 E23.7983
G1 X129.919 Y67.019 E23.9837
G1 X127.627 Y64.515 E24.1192
G1 X125.268 Y62.387 E24.2460
G1 X123.220 Y60.930 E24.3463
G1 X122.387 Y60.441 E24.3848
G1 X120.471 Y59.542 E24.4693
G1 X118.533 Y58.951 E24.5502
G1 X116.516 Y58.667 E24.6315
G1 X114.402 Y58.726 E24.7159
G1 X112.913 Y58.985 E24.7762
G1 X110.863 Y59.638 E24.8621
G1 X108.769 Y60.667 E24.9552
G1 X106.669 Y62.071 E25.0560
G1 X104.490 Y63.911 E25.1698
G1 X102.191 Y66.255 E25.3009
G1 X99.683 Y69.228 E25.4561
G1 X97.012 Y72.773 E25.6333
G1 X93.210 Y78.234 E25.8989
G1 X88.456 Y85.118 E26.2328
G1 X85.342 Y89.232 E26.4387
G1 X82.873 Y92.054 E26.5884
G1 X81.101 Y93.748 E26.6862
G1 X79.579 Y94.925 E26.7630
G1 X78.103 Y95.774 E26.8310
G1 X77.192 Y96.126 E26.8699
G1 X76.380 Y96.309 E26.9032
G1 X75.033 Y96.402 E26.9570
G1 X74.407 Y96.554 E26.9828
G1 X73.817 Y96.806 E27.0084
G1 X73.277 Y97.151 E27.0340
G1 X72.801 Y97.581 E27.0595
G1 X72.403 Y98.083 E27.0851
G1 X72.092 Y98.644 E27.1107
G1 X71.878 Y99.248 E27.1363
G1 X71.765 Y99.884 E27.1621
G1 X71.762 Y100.536 E27.1881
G1 X71.859 Y101.154 E27.2131
G1 X72.062 Y101.762 E27.2386
G1 X72.361 Y102.329 E27.2642
G1 X72.750 Y102.838 E27.2898
G1 X73.217 Y103.277 E27.3154
G1 X73.751 Y103.633 E27.3410
G1 X74.335 Y103.896 E27.3666
G1 X74.955 Y104.060 E27.3922
G1 X75.593 Y104.119 E27.4177
G1 X77.620 Y103.972 E27.4988
G1 X79.580 Y103.511 E27.5792
G1 X81.530 Y102.738 E27.6629
G1 X83.530 Y101.614 E27.7545
G1 X85.534 Y100.152 E27.8535
G1 X87.956 Y97.948 E27.9842
G1 X90.618 Y95.021 E28.1421
G1 X93.716 Y91.064 E28.3427
G1 X97.841 Y85.203 E28.6287
G1 X102.165 Y78.901 E28.9338
G1 X105.390 Y74.512 E29.1512
G1 X107.715 Y71.708 E29.2965
G1 X109.725 Y69.633 E29.4118
G1 X111.467 Y68.169 E29.5026
G1 X112.966 Y67.211 E29.5737
G1 X114.052 Y66.728 E29.6211
G1 X114.989 Y66.479 E29.6598
G1 X115.721 Y66.410 E29.6891
G1 X116.510 Y66.464 E29.7207
G1 X117.310 Y66.653 E29.7535
G1 X118.200 Y67.008 E29.7917
G1 X119.617 Y67.843 E29.8574
G1 X121.383 Y69.272 E29.9481
G1 X123.464 Y71.410 E30.0671
G1 X125.983 Y74.516 E30.2268
G1 X129.227 Y79.100 E30.4509
G1 X134.893 Y87.708 E30.8622
G1 X138.727 Y93.210 E31.1299
G1 X141.185 Y96.336 E31.2886
G1 X143.481 Y98.871 E31.4251
G1 X145.640 Y100.867 E31.5424
G1 X147.730 Y102.417 E31.6463
G1 X149.866 Y103.604 E31.7438
G1 X150.374 Y103.829 E31.7660
G1 X150.955 Y104.019 E31.7904
G1 X151.625 Y104.114 E31.8174
G1 X152.302 Y104.092 E31.8444
G1 X152.964 Y103.952 E31.8714
G1 X153.592 Y103.700 E31.8984
G1 X154.020 Y103.433 E31.9186
G1 X154.020 Y119.414 E32.5564
G1 X153.725 Y119.513 E32.5688
G1 X150.741 Y115.564 E32.7664
G1 X148.052 Y112.485 E32.9296
G1 X145.615 Y110.168 E33.0638
G1 X143.617 Y108.635 E33.1643
G1 X141.630 Y107.449 E33.2566
G1 X139.685 Y106.614 E33.3411
G1 X137.771 Y106.101 E33.4202
G1 X135.738 Y105.885 E33.5018
