; G-Code generated by Simplify3D(R) Version 4.1.2
; Dec 24, 2020 at 3:41:38 PM
; Settings Summary
;   processName,Process1
;   applyToModels,14-base-right
;   profileName,HBot (modified)
;   profileVersion,2019-10-26 23:38:43
;   baseProfile,Default
;   printMaterial,PETG - SUNLU
;   printQuality,Medium
;   printExtruders,
;   extruderName,Extruder 1
;   extruderToolheadNumber,0
;   extruderDiameter,0.4
;   extruderAutoWidth,1
;   extruderWidth,0.48
;   extrusionMultiplier,1
;   extruderUseRetract,1
;   extruderRetractionDistance,4
;   extruderExtraRestartDistance,0
;   extruderRetractionZLift,0
;   extruderRetractionSpeed,5400
;   extruderUseCoasting,1
;   extruderCoastingDistance,0.2
;   extruderUseWipe,1
;   extruderWipeDistance,5
;   primaryExtruder,0
;   layerHeight,0.2
;   topSolidLayers,4
;   bottomSolidLayers,4
;   perimeterOutlines,4
;   printPerimetersInsideOut,1
;   startPointOption,3
;   startPointOriginX,110
;   startPointOriginY,300
;   sequentialIslands,0
;   spiralVaseMode,0
;   firstLayerHeightPercentage,100
;   firstLayerWidthPercentage,100
;   firstLayerUnderspeed,0.5
;   useRaft,0
;   raftExtruder,0
;   raftTopLayers,3
;   raftBaseLayers,2
;   raftOffset,3
;   raftSeparationDistance,0.18
;   raftTopInfill,100
;   aboveRaftSpeedMultiplier,0.3
;   useSkirt,0
;   skirtExtruder,0
;   skirtLayers,1
;   skirtOutlines,10
;   skirtOffset,0
;   usePrimePillar,0
;   primePillarExtruder,999
;   primePillarWidth,12
;   primePillarLocation,7
;   primePillarSpeedMultiplier,1
;   useOozeShield,0
;   oozeShieldExtruder,999
;   oozeShieldOffset,0.9
;   oozeShieldOutlines,2
;   oozeShieldSidewallShape,0
;   oozeShieldSidewallAngle,30
;   oozeShieldSpeedMultiplier,1.5
;   infillExtruder,0
;   internalInfillPattern,Fast Honeycomb
;   externalInfillPattern,Rectilinear
;   infillPercentage,20
;   outlineOverlapPercentage,25
;   infillExtrusionWidthPercentage,100
;   minInfillLength,5
;   infillLayerInterval,1
;   internalInfillAngles,0
;   overlapInternalInfillAngles,0
;   externalInfillAngles,45,-45
;   generateSupport,1
;   supportExtruder,0
;   supportInfillPercentage,25
;   supportExtraInflation,0
;   supportBaseLayers,0
;   denseSupportExtruder,0
;   denseSupportLayers,0
;   denseSupportInfillPercentage,70
;   supportLayerInterval,1
;   supportHorizontalPartOffset,0.3
;   supportUpperSeparationLayers,1
;   supportLowerSeparationLayers,1
;   supportType,0
;   supportGridSpacing,4
;   maxOverhangAngle,25
;   supportAngles,0
;   temperatureName,Extruder 1,Heated Bed
;   temperatureNumber,0,1
;   temperatureSetpointCount,2,1
;   temperatureSetpointLayers,1,2,1
;   temperatureSetpointTemperatures,235,225,85
;   temperatureStabilizeAtStartup,1,1
;   temperatureHeatedBed,0,1
;   fanLayers,1,5,10
;   fanSpeeds,0,5,20
;   blipFanToFullPower,1
;   adjustSpeedForCooling,1
;   minSpeedLayerTime,15
;   minCoolingSpeedSlowdown,20
;   increaseFanForCooling,0
;   minFanLayerTime,45
;   maxCoolingFanSpeed,35
;   increaseFanForBridging,1
;   bridgingFanSpeed,85
;   use5D,1
;   relativeEdistances,0
;   allowEaxisZeroing,1
;   independentExtruderAxes,0
;   includeM10123,0
;   stickySupport,1
;   applyToolheadOffsets,0
;   gcodeXoffset,0
;   gcodeYoffset,0
;   gcodeZoffset,0
;   overrideMachineDefinition,1
;   machineTypeOverride,0
;   strokeXoverride,210
;   strokeYoverride,210
;   strokeZoverride,150
;   originOffsetXoverride,0
;   originOffsetYoverride,0
;   originOffsetZoverride,0
;   homeXdirOverride,-1
;   homeYdirOverride,-1
;   homeZdirOverride,-1
;   flipXoverride,1
;   flipYoverride,-1
;   flipZoverride,1
;   toolheadOffsets,0,0|0,0|0,0|0,0|0,0|0,0
;   overrideFirmwareConfiguration,1
;   firmwareTypeOverride,RepRap (Marlin/Repetier/Sprinter)
;   GPXconfigOverride,r2
;   baudRateOverride,115200
;   overridePrinterModels,0
;   printerModelsOverride
;   startingGcode,G28 ; home all axes,G32 ; run bed.g -- probe bed and enable compensation
;   layerChangeGcode,
;   retractionGcode,
;   toolChangeGcode,
;   endingGcode,M0 ; call stop.g
;   exportFileFormat,gcode
;   celebration,0
;   celebrationSong,Random Song
;   postProcessing,
;   defaultSpeed,3600
;   outlineUnderspeed,0.5
;   solidInfillUnderspeed,0.8
;   supportUnderspeed,0.8
;   rapidXYspeed,18000
;   rapidZspeed,1200
;   minBridgingArea,50
;   bridgingExtraInflation,0
;   bridgingExtrusionMultiplier,0.96
;   bridgingSpeedMultiplier,1
;   useFixedBridgingAngle,0
;   fixedBridgingAngle,0
;   applyBridgingToPerimeters,0
;   filamentDiameters,1.75|1.75|1.75|1.75|1.75|1.75
;   filamentPricesPerKg,46|46|46|46|46|46
;   filamentDensities,1.25|1.25|1.25|1.25|1.25|1.25
;   useMinPrintHeight,0
;   minPrintHeight,20
;   useMaxPrintHeight,0
;   maxPrintHeight,15
;   useDiaphragm,0
;   diaphragmLayerInterval,20
;   robustSlicing,1
;   mergeAllIntoSolid,0
;   onlyRetractWhenCrossingOutline,1
;   retractBetweenLayers,0
;   useRetractionMinTravel,1
;   retractionMinTravel,3
;   retractWhileWiping,1
;   onlyWipeOutlines,1
;   avoidCrossingOutline,1
;   maxMovementDetourFactor,5
;   toolChangeRetractionDistance,12
;   toolChangeExtraRestartDistance,-0.5
;   toolChangeRetractionSpeed,600
;   externalThinWallType,1
;   internalThinWallType,1
;   thinWallAllowedOverlapPercentage,10
;   singleExtrusionMinLength,1
;   singleExtrusionMinPrintingWidthPercentage,50
;   singleExtrusionMaxPrintingWidthPercentage,150
;   singleExtrusionEndpointExtension,0.2
;   horizontalSizeCompensation,-0.1
G90
M82
M106 S0
M140 S85
M190 S85
M104 S235 T0
M109 S235 T0
G28 ; home all axes
G32 ; run bed.g -- probe bed and enable compensation
; process Process1
; layer 1, Z = 0.200
T0
G92 E0.0000
G1 E-4.0000 F5400
; feature inner perimeter
; tool H0.200 W0.480
G1 Z0.200 F1200
G1 X154.532 Y155.607 F18000
G1 E0.0000 F5400
G92 E0.0000
G1 X57.964 Y155.607 E3.8542 F1350
G1 X57.964 Y150.480 E4.0589
G1 X58.266 Y150.385 E4.0715
G1 X58.733 Y151.052 E4.1040
G1 X59.345 Y151.663 E4.1385
G1 X60.054 Y152.160 E4.1730
G1 X60.837 Y152.525 E4.2075
G1 X61.673 Y152.749 E4.2421
G1 X62.534 Y152.824 E4.2766
G1 X63.396 Y152.749 E4.3111
G1 X64.231 Y152.525 E4.3456
G1 X65.015 Y152.160 E4.3801
G1 X65.724 Y151.663 E4.4147
G1 X66.335 Y151.052 E4.4492
G1 X66.831 Y150.343 E4.4837
G1 X67.197 Y149.560 E4.5182
G1 X67.421 Y148.724 E4.5527
G1 X67.496 Y147.863 E4.5873
G1 X67.421 Y147.001 E4.6218
G1 X67.197 Y146.165 E4.6563
G1 X66.831 Y145.382 E4.6908
G1 X66.335 Y144.673 E4.7253
G1 X65.724 Y144.062 E4.7599
G1 X65.015 Y143.565 E4.7944
G1 X64.231 Y143.200 E4.8289
G1 X63.396 Y142.976 E4.8634
G1 X62.534 Y142.901 E4.8979
G1 X61.673 Y142.976 E4.9325
G1 X60.837 Y143.200 E4.9670
G1 X60.053 Y143.565 E5.0015
G1 X59.341 Y144.064 E5.0362
G1 X58.721 Y144.691 E5.0714
G1 X58.266 Y145.340 E5.1030
G1 X57.964 Y145.245 E5.1157
G1 X57.964 Y64.755 E8.3282
G1 X58.266 Y64.660 E8.3408
G1 X58.736 Y65.331 E8.3735
G1 X59.363 Y65.951 E8.4087
G1 X60.053 Y66.435 E8.4424
G1 X60.837 Y66.800 E8.4769
G1 X61.673 Y67.024 E8.5114
G1 X62.534 Y67.099 E8.5459
G1 X63.396 Y67.024 E8.5804
G1 X64.231 Y66.800 E8.6149
G1 X65.015 Y66.435 E8.6495
G1 X65.724 Y65.938 E8.6840
G1 X66.335 Y65.327 E8.7185
G1 X66.831 Y64.618 E8.7530
G1 X67.197 Y63.835 E8.7875
G1 X67.421 Y62.999 E8.8221
G1 X67.496 Y62.137 E8.8566
G1 X67.421 Y61.276 E8.8911
G1 X67.197 Y60.440 E8.9256
G1 X66.831 Y59.657 E8.9601
G1 X66.335 Y58.948 E8.9947
G1 X65.724 Y58.337 E9.0292
G1 X65.015 Y57.840 E9.0637
G1 X64.231 Y57.475 E9.0982
G1 X63.396 Y57.251 E9.1327
G1 X62.534 Y57.176 E9.1673
G1 X61.673 Y57.251 E9.2018
G1 X60.837 Y57.475 E9.2363
G1 X60.053 Y57.840 E9.2708
G1 X59.345 Y58.337 E9.3053
G1 X58.733 Y58.948 E9.3399
G1 X58.266 Y59.615 E9.3724
G1 X57.964 Y59.520 E9.3850
G1 X57.964 Y54.392 E9.5896
G1 X154.532 Y54.392 E13.4439
G1 X155.126 Y54.444 E13.4677
G1 X155.627 Y54.579 E13.4884
G1 X156.097 Y54.798 E13.5091
G1 X156.522 Y55.095 E13.5298
G1 X156.889 Y55.462 E13.5505
G1 X157.186 Y55.887 E13.5712
G1 X157.406 Y56.357 E13.5919
G1 X157.540 Y56.858 E13.6126
G1 X157.592 Y57.453 E13.6364
G1 X157.592 Y152.547 E17.4318
G1 X157.540 Y153.142 E17.4556
G1 X157.406 Y153.643 E17.4763
G1 X157.186 Y154.113 E17.4971
G1 X156.889 Y154.538 E17.5178
G1 X156.522 Y154.905 E17.5385
G1 X156.097 Y155.202 E17.5592
G1 X155.627 Y155.421 E17.5799
G1 X155.126 Y155.555 E17.6006
G1 X154.731 Y155.590 E17.6164
G1 X154.532 Y155.607 F1350
G1 X138.014 Y143.953 F18000
G1 X139.819 Y150.284
G1 X139.889 Y150.669
G1 X139.896 Y151.071
G1 X139.835 Y151.469
G1 X139.711 Y151.852
G1 X139.525 Y152.208
G1 X139.282 Y152.530
G1 X138.990 Y152.807
G1 X138.657 Y153.032
G1 X138.291 Y153.199
G1 X137.902 Y153.304
G1 X137.502 Y153.344
G1 X137.100 Y153.317
G1 X136.709 Y153.224
G1 X136.338 Y153.068
G1 X135.998 Y152.853
G1 X135.697 Y152.585
G1 X135.445 Y152.271
G1 X135.248 Y151.920
G1 X135.117 Y151.558
G1 X133.194 Y144.833
G1 X131.364 Y139.261
G1 X55.807 Y85.950
G92 E0.0000
G1 X54.671 Y87.034 E0.0627 F1350
G1 X54.472 Y87.167 E0.0722
G1 X54.253 Y87.264 E0.0818
G1 X54.020 Y87.321 E0.0914
G1 X53.781 Y87.338 E0.1009
G1 X53.543 Y87.314 E0.1105
G1 X53.312 Y87.249 E0.1200
G1 X53.096 Y87.145 E0.1296
G1 X52.901 Y87.006 E0.1392
G1 X52.733 Y86.835 E0.1487
G1 X52.597 Y86.638 E0.1583
G1 X52.497 Y86.420 E0.1678
G1 X52.435 Y86.189 E0.1774
G1 X52.415 Y85.950 E0.1870
G1 X52.435 Y85.711 E0.1965
G1 X52.497 Y85.480 E0.2061
G1 X52.597 Y85.262 E0.2157
G1 X52.733 Y85.065 E0.2252
G1 X52.901 Y84.894 E0.2348
G1 X53.096 Y84.755 E0.2443
G1 X53.312 Y84.651 E0.2539
G1 X53.543 Y84.586 E0.2635
G1 X53.781 Y84.562 E0.2730
G1 X54.020 Y84.579 E0.2826
G1 X54.253 Y84.636 E0.2922
G1 X54.472 Y84.733 E0.3017
G1 X54.671 Y84.866 E0.3113
G1 X55.663 Y85.812 E0.3660
G1 X55.807 Y85.950 F1350
G1 X55.445 Y83.651 F18000
G1 X55.575 Y83.738
G1 X56.524 Y84.644
G1 X56.524 Y74.556
G1 X55.575 Y75.462
G1 X55.168 Y75.733
G1 X54.721 Y75.931
G1 X54.245 Y76.049
G1 X54.020 Y74.621
G92 E0.0000
G1 X53.781 Y74.638 E0.0096 F1350
G1 X53.543 Y74.614 E0.0191
G1 X53.312 Y74.549 E0.0287
G1 X53.096 Y74.445 E0.0382
G1 X52.901 Y74.306 E0.0478
G1 X52.733 Y74.135 E0.0574
G1 X52.597 Y73.938 E0.0669
G1 X52.497 Y73.720 E0.0765
G1 X52.435 Y73.489 E0.0861
G1 X52.415 Y73.250 E0.0956
G1 X52.435 Y73.011 E0.1052
G1 X52.497 Y72.780 E0.1147
G1 X52.597 Y72.562 E0.1243
G1 X52.733 Y72.365 E0.1339
G1 X52.901 Y72.194 E0.1434
G1 X53.096 Y72.055 E0.1530
G1 X53.312 Y71.951 E0.1626
G1 X53.543 Y71.886 E0.1721
G1 X53.781 Y71.862 E0.1817
G1 X54.020 Y71.879 E0.1912
G1 X54.253 Y71.936 E0.2008
G1 X54.472 Y72.033 E0.2104
G1 X54.671 Y72.166 E0.2199
G1 X55.807 Y73.250 E0.2826
G1 X54.671 Y74.334 E0.3453
G1 X54.472 Y74.467 E0.3548
G1 X54.253 Y74.564 E0.3644
G1 X54.214 Y74.573 E0.3660
G1 X54.020 Y74.621 F1350
G1 X54.095 Y75.097 F18000
G92 E0.0000
G1 X53.774 Y75.120 E0.0129 F1350
G1 X53.452 Y75.087 E0.0258
G1 X53.142 Y74.999 E0.0386
G1 X52.851 Y74.860 E0.0515
G1 X52.589 Y74.672 E0.0644
G1 X52.362 Y74.442 E0.0773
G1 X52.179 Y74.176 E0.0902
G1 X52.044 Y73.884 E0.1030
G1 X51.961 Y73.571 E0.1159
G1 X51.933 Y73.250 E0.1288
G1 X51.961 Y72.929 E0.1417
G1 X52.044 Y72.617 E0.1546
G1 X52.179 Y72.323 E0.1674
G1 X52.362 Y72.058 E0.1803
G1 X52.588 Y71.828 E0.1932
G1 X52.851 Y71.640 E0.2061
G1 X53.142 Y71.501 E0.2190
G1 X53.453 Y71.413 E0.2318
G1 X53.774 Y71.380 E0.2447
G1 X54.095 Y71.403 E0.2576
G1 X54.409 Y71.481 E0.2705
G1 X54.704 Y71.611 E0.2834
G1 X54.972 Y71.790 E0.2962
G1 X56.503 Y73.250 E0.3807
G1 X54.972 Y74.710 E0.4651
G1 X54.704 Y74.889 E0.4780
G1 X54.409 Y75.019 E0.4908
G1 X54.290 Y75.049 E0.4957
G1 X54.095 Y75.097 F1350
G1 X54.061 Y76.062 F18000
G1 X54.246 Y76.049
G1 X54.721 Y75.931
G1 X55.168 Y75.733
G1 X55.575 Y75.462
G1 X56.524 Y74.556
G1 X56.524 Y84.644
G1 X55.575 Y83.738
G1 X55.168 Y83.467
G1 X54.721 Y83.269
G1 X54.246 Y83.151
G1 X53.808 Y83.120
G1 X53.773 Y84.080
G92 E0.0000
G1 X54.096 Y84.103 E0.0129 F1350
G1 X54.409 Y84.181 E0.0258
G1 X54.704 Y84.311 E0.0386
G1 X54.972 Y84.490 E0.0515
G1 X56.503 Y85.950 E0.1359
G1 X54.972 Y87.410 E0.2204
G1 X54.704 Y87.589 E0.2332
G1 X54.409 Y87.719 E0.2461
G1 X54.096 Y87.797 E0.2590
G1 X53.774 Y87.820 E0.2719
G1 X53.453 Y87.787 E0.2848
G1 X53.142 Y87.699 E0.2976
G1 X52.851 Y87.560 E0.3105
G1 X52.588 Y87.372 E0.3234
G1 X52.362 Y87.142 E0.3363
G1 X52.179 Y86.876 E0.3492
G1 X52.044 Y86.583 E0.3620
G1 X51.961 Y86.271 E0.3749
G1 X51.933 Y85.950 E0.3878
G1 X51.961 Y85.629 E0.4007
G1 X52.044 Y85.317 E0.4136
G1 X52.179 Y85.023 E0.4264
G1 X52.362 Y84.758 E0.4393
G1 X52.588 Y84.528 E0.4522
G1 X52.851 Y84.340 E0.4651
G1 X53.142 Y84.201 E0.4780
G1 X53.452 Y84.113 E0.4908
G1 X53.575 Y84.101 E0.4957
G1 X53.773 Y84.080 F1350
G1 X53.891 Y83.126 F18000
G1 X54.246 Y83.151
G1 X54.721 Y83.269
G1 X55.168 Y83.467
G1 X55.575 Y83.738
G1 X56.524 Y84.644
G1 X56.524 Y74.556
G1 X55.575 Y75.462
G1 X55.168 Y75.733
G1 X54.779 Y75.905
G1 X55.393 Y70.917
G1 X55.575 Y71.038
G1 X56.524 Y71.944
G1 X56.524 Y61.717
G1 X57.484 Y53.913
G92 E0.0000
G1 X154.553 Y53.913 E3.8742 F1350
G1 X155.210 Y53.970 E3.9005
G1 X155.792 Y54.126 E3.9246
G1 X156.338 Y54.381 E3.9486
G1 X156.832 Y54.726 E3.9727
G1 X157.258 Y55.153 E3.9968
G1 X157.604 Y55.646 E4.0208
G1 X157.858 Y56.193 E4.0449
G1 X158.014 Y56.775 E4.0689
G1 X158.072 Y57.432 E4.0952
G1 X158.072 Y152.568 E7.8924
G1 X158.014 Y153.225 E7.9187
G1 X157.858 Y153.807 E7.9427
G1 X157.604 Y154.354 E7.9668
G1 X157.258 Y154.847 E7.9908
G1 X156.832 Y155.274 E8.0149
G1 X156.338 Y155.619 E8.0389
G1 X155.792 Y155.874 E8.0630
G1 X155.210 Y156.030 E8.0871
G1 X154.553 Y156.087 E8.1134
G1 X57.484 Y156.087 E11.9876
G1 X57.484 Y54.112 E16.0576
G1 X57.484 Y53.913 F1350
G1 X57.004 Y53.432 F18000
G92 E0.0000
G1 X154.574 Y53.432 E3.8942 F1350
G1 X155.293 Y53.495 E3.9230
G1 X155.957 Y53.673 E3.9504
G1 X156.579 Y53.963 E3.9779
G1 X157.142 Y54.357 E4.0053
G1 X157.627 Y54.843 E4.0327
G1 X158.021 Y55.405 E4.0601
G1 X158.311 Y56.028 E4.0875
G1 X158.489 Y56.691 E4.1149
G1 X158.552 Y57.411 E4.1437
G1 X158.552 Y152.589 E7.9425
G1 X158.489 Y153.309 E7.9713
G1 X158.311 Y153.972 E7.9987
G1 X158.021 Y154.595 E8.0262
G1 X157.627 Y155.157 E8.0536
G1 X157.142 Y155.643 E8.0810
G1 X156.579 Y156.037 E8.1084
G1 X155.957 Y156.327 E8.1358
G1 X155.293 Y156.505 E8.1632
G1 X154.574 Y156.567 E8.1920
G1 X57.004 Y156.567 E12.0862
G1 X57.004 Y86.135 E14.8973
G1 X55.273 Y87.786 E14.9928
G1 X54.936 Y88.011 E15.0090
G1 X54.565 Y88.175 E15.0252
G1 X54.171 Y88.273 E15.0414
G1 X53.766 Y88.302 E15.0576
G1 X53.362 Y88.260 E15.0738
G1 X52.972 Y88.150 E15.0900
G1 X52.606 Y87.974 E15.1062
G1 X52.276 Y87.738 E15.1224
G1 X51.991 Y87.449 E15.1386
G1 X51.760 Y87.115 E15.1548
G1 X51.590 Y86.747 E15.1710
G1 X51.486 Y86.354 E15.1872
G1 X51.451 Y85.950 E15.2034
G1 X51.486 Y85.546 E15.2196
G1 X51.590 Y85.153 E15.2358
G1 X51.760 Y84.785 E15.2520
G1 X51.991 Y84.451 E15.2682
G1 X52.275 Y84.162 E15.2844
G1 X52.606 Y83.926 E15.3006
G1 X52.972 Y83.750 E15.3168
G1 X53.362 Y83.640 E15.3330
G1 X53.766 Y83.598 E15.3492
G1 X54.171 Y83.627 E15.3654
G1 X54.565 Y83.725 E15.3816
G1 X54.936 Y83.889 E15.3978
G1 X55.273 Y84.114 E15.4140
G1 X57.004 Y85.765 E15.5094
G1 X57.004 Y73.435 E16.0016
G1 X55.273 Y75.086 E16.0970
G1 X54.936 Y75.311 E16.1132
G1 X54.565 Y75.475 E16.1294
G1 X54.171 Y75.573 E16.1456
G1 X53.766 Y75.602 E16.1618
G1 X53.362 Y75.560 E16.1780
G1 X52.972 Y75.450 E16.1942
G1 X52.606 Y75.274 E16.2104
G1 X52.276 Y75.038 E16.2266
G1 X51.991 Y74.749 E16.2428
G1 X51.760 Y74.415 E16.2590
G1 X51.590 Y74.047 E16.2752
G1 X51.486 Y73.654 E16.2914
G1 X51.451 Y73.250 E16.3076
G1 X51.486 Y72.846 E16.3238
G1 X51.590 Y72.453 E16.3400
G1 X51.760 Y72.085 E16.3562
G1 X51.991 Y71.751 E16.3724
G1 X52.276 Y71.462 E16.3886
G1 X52.606 Y71.226 E16.4048
G1 X52.972 Y71.050 E16.4210
G1 X53.362 Y70.940 E16.4372
G1 X53.766 Y70.898 E16.4534
G1 X54.171 Y70.927 E16.4696
G1 X54.565 Y71.025 E16.4858
G1 X54.936 Y71.189 E16.5020
G1 X55.273 Y71.414 E16.5182
G1 X57.004 Y73.065 E16.6137
G1 X57.004 Y53.632 E17.3892
G1 X57.004 Y53.432 F1350
; feature outer perimeter
G1 X56.524 Y52.953 F18000
G92 E0.0000
G1 X154.595 Y52.953 E3.9142 F900
G1 X155.377 Y53.021 E3.9455
G1 X156.121 Y53.220 E3.9763
G1 X156.820 Y53.546 E4.0071
G1 X157.451 Y53.988 E4.0378
G1 X157.996 Y54.533 E4.0686
G1 X158.438 Y55.164 E4.0993
G1 X158.764 Y55.863 E4.1301
G1 X158.963 Y56.607 E4.1609
