; G-Code generated by Simplify3D(R) Version 4.1.2
; Dec 24, 2020 at 10:41:26 PM
; Settings Summary
;   processName,Process6
;   applyToModels,15-base-foot-quantity-5(2)
;   profileName,HBot (modified)
;   profileVersion,2019-10-26 23:38:43
;   baseProfile,Default
;   printMaterial,PETG - SUNLU
;   printQuality,Medium
;   printExtruders,
;   extruderName,Extruder 1
;   extruderToolheadNumber,0
;   extruderDiameter,0.4
;   extruderAutoWidth,1
;   extruderWidth,0.48
;   extrusionMultiplier,1
;   extruderUseRetract,1
;   extruderRetractionDistance,4
;   extruderExtraRestartDistance,0
;   extruderRetractionZLift,0
;   extruderRetractionSpeed,5400
;   extruderUseCoasting,1
;   extruderCoastingDistance,0.2
;   extruderUseWipe,1
;   extruderWipeDistance,5
;   primaryExtruder,0
;   layerHeight,0.2
;   topSolidLayers,4
;   bottomSolidLayers,4
;   perimeterOutlines,4
;   printPerimetersInsideOut,1
;   startPointOption,3
;   startPointOriginX,110
;   startPointOriginY,300
;   sequentialIslands,0
;   spiralVaseMode,0
;   firstLayerHeightPercentage,100
;   firstLayerWidthPercentage,100
;   firstLayerUnderspeed,0.5
;   useRaft,0
;   raftExtruder,0
;   raftTopLayers,3
;   raftBaseLayers,2
;   raftOffset,3
;   raftSeparationDistance,0.18
;   raftTopInfill,100
;   aboveRaftSpeedMultiplier,0.3
;   useSkirt,0
;   skirtExtruder,0
;   skirtLayers,1
;   skirtOutlines,10
;   skirtOffset,0
;   usePrimePillar,0
;   primePillarExtruder,999
;   primePillarWidth,12
;   primePillarLocation,7
;   primePillarSpeedMultiplier,1
;   useOozeShield,0
;   oozeShieldExtruder,999
;   oozeShieldOffset,0.9
;   oozeShieldOutlines,2
;   oozeShieldSidewallShape,0
;   oozeShieldSidewallAngle,30
;   oozeShieldSpeedMultiplier,1.5
;   infillExtruder,0
;   internalInfillPattern,Fast Honeycomb
;   externalInfillPattern,Rectilinear
;   infillPercentage,20
;   outlineOverlapPercentage,25
;   infillExtrusionWidthPercentage,100
;   minInfillLength,5
;   infillLayerInterval,1
;   internalInfillAngles,0
;   overlapInternalInfillAngles,0
;   externalInfillAngles,45,-45
;   generateSupport,1
;   supportExtruder,0
;   supportInfillPercentage,25
;   supportExtraInflation,0
;   supportBaseLayers,0
;   denseSupportExtruder,0
;   denseSupportLayers,0
;   denseSupportInfillPercentage,70
;   supportLayerInterval,1
;   supportHorizontalPartOffset,0.3
;   supportUpperSeparationLayers,1
;   supportLowerSeparationLayers,1
;   supportType,0
;   supportGridSpacing,4
;   maxOverhangAngle,25
;   supportAngles,0
;   temperatureName,Extruder 1,Heated Bed
;   temperatureNumber,0,1
;   temperatureSetpointCount,2,1
;   temperatureSetpointLayers,1,2,1
;   temperatureSetpointTemperatures,235,225,85
;   temperatureStabilizeAtStartup,1,1
;   temperatureHeatedBed,0,1
;   fanLayers,1,5,10
;   fanSpeeds,0,5,20
;   blipFanToFullPower,1
;   adjustSpeedForCooling,1
;   minSpeedLayerTime,15
;   minCoolingSpeedSlowdown,20
;   increaseFanForCooling,0
;   minFanLayerTime,45
;   maxCoolingFanSpeed,35
;   increaseFanForBridging,1
;   bridgingFanSpeed,85
;   use5D,1
;   relativeEdistances,0
;   allowEaxisZeroing,1
;   independentExtruderAxes,0
;   includeM10123,0
;   stickySupport,1
;   applyToolheadOffsets,0
;   gcodeXoffset,0
;   gcodeYoffset,0
;   gcodeZoffset,0
;   overrideMachineDefinition,1
;   machineTypeOverride,0
;   strokeXoverride,210
;   strokeYoverride,210
;   strokeZoverride,150
;   originOffsetXoverride,0
;   originOffsetYoverride,0
;   originOffsetZoverride,0
;   homeXdirOverride,-1
;   homeYdirOverride,-1
;   homeZdirOverride,-1
;   flipXoverride,1
;   flipYoverride,-1
;   flipZoverride,1
;   toolheadOffsets,0,0|0,0|0,0|0,0|0,0|0,0
;   overrideFirmwareConfiguration,1
;   firmwareTypeOverride,RepRap (Marlin/Repetier/Sprinter)
;   GPXconfigOverride,r2
;   baudRateOverride,115200
;   overridePrinterModels,0
;   printerModelsOverride
;   startingGcode,G28 ; home all axes,G32 ; run bed.g -- probe bed and enable compensation
;   layerChangeGcode,
;   retractionGcode,
;   toolChangeGcode,
;   endingGcode,M0 ; call stop.g
;   exportFileFormat,gcode
;   celebration,0
;   celebrationSong,Random Song
;   postProcessing,
;   defaultSpeed,3600
;   outlineUnderspeed,0.5
;   solidInfillUnderspeed,0.8
;   supportUnderspeed,0.8
;   rapidXYspeed,18000
;   rapidZspeed,1200
;   minBridgingArea,50
;   bridgingExtraInflation,0
;   bridgingExtrusionMultiplier,0.96
;   bridgingSpeedMultiplier,1
;   useFixedBridgingAngle,0
;   fixedBridgingAngle,0
;   applyBridgingToPerimeters,0
;   filamentDiameters,1.75|1.75|1.75|1.75|1.75|1.75
;   filamentPricesPerKg,46|46|46|46|46|46
;   filamentDensities,1.25|1.25|1.25|1.25|1.25|1.25
;   useMinPrintHeight,0
;   minPrintHeight,20
;   useMaxPrintHeight,0
;   maxPrintHeight,15
;   useDiaphragm,0
;   diaphragmLayerInterval,20
;   robustSlicing,1
;   mergeAllIntoSolid,0
;   onlyRetractWhenCrossingOutline,1
;   retractBetweenLayers,0
;   useRetractionMinTravel,1
;   retractionMinTravel,3
;   retractWhileWiping,1
;   onlyWipeOutlines,1
;   avoidCrossingOutline,1
;   maxMovementDetourFactor,5
;   toolChangeRetractionDistance,12
;   toolChangeExtraRestartDistance,-0.5
;   toolChangeRetractionSpeed,600
;   externalThinWallType,1
;   internalThinWallType,1
;   thinWallAllowedOverlapPercentage,10
;   singleExtrusionMinLength,1
;   singleExtrusionMinPrintingWidthPercentage,50
;   singleExtrusionMaxPrintingWidthPercentage,150
;   singleExtrusionEndpointExtension,0.2
;   horizontalSizeCompensation,-0.1
G90
M82
M106 S0
M140 S85
M190 S85
M104 S235 T0
M109 S235 T0
G28 ; home all axes
G32 ; run bed.g -- probe bed and enable compensation
; process Process6
; layer 1, Z = 0.200
T0
G92 E0.0000
G1 E-4.0000 F5400
; feature inner perimeter
; tool H0.200 W0.480
G1 Z0.200 F1200
G1 X170.739 Y191.353 F18000
G1 E0.0000 F5400
G92 E0.0000
G1 X170.606 Y191.266 E0.0063 F1350
G1 X170.490 Y191.159 E0.0127
G1 X170.399 Y191.042 E0.0186
G1 X170.315 Y190.889 E0.0255
G1 X170.265 Y190.743 E0.0317
G1 X170.239 Y190.587 E0.0380
G1 X170.239 Y190.428 E0.0444
G1 X170.265 Y190.271 E0.0507
G1 X170.316 Y190.121 E0.0571
G1 X170.392 Y189.981 E0.0634
G1 X170.490 Y189.856 E0.0697
G1 X170.606 Y189.748 E0.0761
G1 X170.739 Y189.661 E0.0824
G1 X170.885 Y189.597 E0.0888
G1 X171.039 Y189.559 E0.0951
G1 X171.271 Y189.539 E0.1044
G1 X196.524 Y189.539 E1.1123
G1 X196.756 Y189.559 E1.1216
G1 X196.910 Y189.597 E1.1279
G1 X197.055 Y189.661 E1.1343
G1 X197.188 Y189.748 E1.1406
G1 X197.305 Y189.856 E1.1469
G1 X197.403 Y189.981 E1.1533
G1 X197.478 Y190.121 E1.1596
G1 X197.530 Y190.271 E1.1660
G1 X197.556 Y190.428 E1.1723
G1 X197.556 Y190.587 E1.1786
G1 X197.530 Y190.743 E1.1850
G1 X197.482 Y190.884 E1.1909
G1 X197.400 Y191.037 E1.1978
G1 X197.305 Y191.159 E1.2040
G1 X197.188 Y191.266 E1.2103
G1 X197.055 Y191.353 E1.2167
G1 X196.910 Y191.417 E1.2230
G1 X196.756 Y191.456 E1.2294
G1 X196.524 Y191.475 E1.2386
G1 X171.271 Y191.475 E2.2465
G1 X171.039 Y191.456 E2.2558
G1 X170.925 Y191.427 E2.2605
G1 X170.885 Y191.417 F1350
G1 X170.739 Y191.353
G1 X170.510 Y191.777 F18000
G92 E0.0000
G1 X170.311 Y191.646 E0.0095 F1350
G1 X170.135 Y191.485 E0.0190
G1 X169.996 Y191.306 E0.0281
G1 X169.874 Y191.084 E0.0382
G1 X169.798 Y190.862 E0.0476
G1 X169.759 Y190.626 E0.0571
G1 X169.759 Y190.388 E0.0666
G1 X169.798 Y190.153 E0.0761
G1 X169.875 Y189.927 E0.0856
G1 X169.989 Y189.718 E0.0951
G1 X170.135 Y189.530 E0.1047
G1 X170.311 Y189.368 E0.1142
G1 X170.510 Y189.238 E0.1237
G1 X170.729 Y189.142 E0.1332
G1 X170.960 Y189.083 E0.1427
G1 X171.251 Y189.059 E0.1544
G1 X196.544 Y189.059 E1.1639
G1 X196.835 Y189.083 E1.1755
G1 X197.066 Y189.142 E1.1851
G1 X197.284 Y189.238 E1.1946
G1 X197.484 Y189.368 E1.2041
G1 X197.659 Y189.530 E1.2136
G1 X197.806 Y189.718 E1.2231
G1 X197.919 Y189.927 E1.2326
G1 X197.997 Y190.153 E1.2421
G1 X198.036 Y190.388 E1.2517
G1 X198.036 Y190.627 E1.2612
G1 X197.997 Y190.862 E1.2707
G1 X197.923 Y191.076 E1.2797
G1 X197.804 Y191.300 E1.2899
G1 X197.659 Y191.485 E1.2992
G1 X197.484 Y191.646 E1.3087
G1 X197.284 Y191.777 E1.3183
G1 X197.066 Y191.873 E1.3278
G1 X196.835 Y191.931 E1.3373
G1 X196.544 Y191.955 E1.3490
G1 X171.251 Y191.955 E2.3584
G1 X170.960 Y191.931 E2.3701
G1 X170.729 Y191.873 E2.3796
G1 X170.693 Y191.857 E2.3812
G1 X170.510 Y191.777 F1350
G1 X170.281 Y192.200 F18000
G92 E0.0000
G1 X170.015 Y192.026 E0.0127 F1350
G1 X169.781 Y191.811 E0.0254
G1 X169.594 Y191.571 E0.0375
G1 X169.434 Y191.278 E0.0508
G1 X169.331 Y190.980 E0.0634
G1 X169.279 Y190.666 E0.0761
G1 X169.279 Y190.348 E0.0888
G1 X169.331 Y190.035 E0.1015
G1 X169.434 Y189.734 E0.1142
G1 X169.586 Y189.454 E0.1269
G1 X169.781 Y189.203 E0.1396
G1 X170.015 Y188.988 E0.1523
G1 X170.281 Y188.814 E0.1650
G1 X170.572 Y188.686 E0.1777
G1 X170.880 Y188.608 E0.1903
G1 X171.231 Y188.579 E0.2044
G1 X196.563 Y188.579 E1.2155
G1 X196.914 Y188.608 E1.2295
G1 X197.222 Y188.686 E1.2422
G1 X197.514 Y188.814 E1.2549
G1 X197.780 Y188.988 E1.2676
G1 X198.014 Y189.203 E1.2803
G1 X198.209 Y189.454 E1.2930
G1 X198.360 Y189.734 E1.3056
G1 X198.464 Y190.035 E1.3183
G1 X198.516 Y190.348 E1.3310
G1 X198.516 Y190.666 E1.3437
G1 X198.464 Y190.980 E1.3564
G1 X198.365 Y191.268 E1.3686
G1 X198.208 Y191.562 E1.3819
G1 X198.014 Y191.811 E1.3945
G1 X197.780 Y192.026 E1.4072
G1 X197.514 Y192.200 E1.4199
G1 X197.222 Y192.328 E1.4325
G1 X196.914 Y192.406 E1.4452
G1 X196.563 Y192.435 E1.4593
G1 X171.231 Y192.435 E2.4703
G1 X170.880 Y192.406 E2.4844
G1 X170.572 Y192.328 E2.4971
G1 X170.464 Y192.281 E2.5018
G1 X170.281 Y192.200 F1350
; feature outer perimeter
G1 X170.052 Y192.624 F18000
G92 E0.0000
G1 X169.719 Y192.407 E0.0159 F900
G1 X169.427 Y192.137 E0.0317
G1 X169.191 Y191.835 E0.0470
G1 X168.993 Y191.473 E0.0635
G1 X168.864 Y191.098 E0.0793
G1 X168.799 Y190.706 E0.0952
G1 X168.799 Y190.309 E0.1110
G1 X168.864 Y189.916 E0.1269
G1 X168.993 Y189.540 E0.1428
G1 X169.182 Y189.191 E0.1586
G1 X169.427 Y188.877 E0.1745
G1 X169.719 Y188.608 E0.1904
G1 X170.052 Y188.391 E0.2062
G1 X170.416 Y188.231 E0.2221
G1 X170.801 Y188.133 E0.2380
G1 X171.211 Y188.099 E0.2544
G1 X196.583 Y188.099 E1.2670
G1 X196.993 Y188.133 E1.2835
G1 X197.379 Y188.231 E1.2993
G1 X197.743 Y188.391 E1.3152
G1 X198.076 Y188.608 E1.3311
G1 X198.368 Y188.877 E1.3469
G1 X198.612 Y189.191 E1.3628
G1 X198.801 Y189.540 E1.3787
G1 X198.930 Y189.916 E1.3945
G1 X198.996 Y190.309 E1.4104
G1 X198.996 Y190.706 E1.4263
G1 X198.930 Y191.098 E1.4421
G1 X198.806 Y191.460 E1.4574
G1 X198.612 Y191.824 E1.4739
G1 X198.368 Y192.137 E1.4897
G1 X198.076 Y192.407 E1.5056
G1 X197.743 Y192.624 E1.5214
G1 X197.379 Y192.784 E1.5373
G1 X196.993 Y192.881 E1.5532
G1 X196.583 Y192.915 E1.5696
G1 X171.211 Y192.915 E2.5823
G1 X170.801 Y192.881 E2.5987
G1 X170.416 Y192.784 E2.6145
G1 X170.235 Y192.704 E2.6224
G1 X170.052 Y192.624 F900
G1 X169.719 Y192.407 F900
G1 X169.427 Y192.137
G1 X169.191 Y191.835
G1 X168.993 Y191.473
G1 X168.864 Y191.098
G1 X168.799 Y190.706
G1 X168.799 Y190.309
G1 X168.864 Y189.916
G1 X168.993 Y189.540
G1 X169.182 Y189.191
G1 X169.427 Y188.877
G1 X169.719 Y188.608
G1 X169.912 Y188.482
; feature solid layer
G1 X171.608 Y191.115 F18000
G92 E0.0000
G1 X170.686 Y190.194 E0.0520 F1440
G1 X170.695 Y190.179 E0.0527
G1 X170.755 Y190.100 E0.0567
G1 X170.828 Y190.033 E0.0606
G1 X170.911 Y189.979 E0.0646
G1 X171.002 Y189.939 E0.0685
G1 X171.089 Y189.917 E0.0721
G1 X172.287 Y191.115 E0.1397
G1 X172.965 Y191.115 E0.1668
G1 X171.749 Y189.899 E0.2354
G1 X172.428 Y189.899 E0.2625
G1 X173.644 Y191.115 E0.3312
G1 X174.323 Y191.115 E0.3583
G1 X173.107 Y189.899 E0.4269
G1 X173.786 Y189.899 E0.4540
G1 X175.002 Y191.115 E0.5226
G1 X175.681 Y191.115 E0.5497
G1 X174.465 Y189.899 E0.6183
G1 X175.143 Y189.899 E0.6454
G1 X176.359 Y191.115 E0.7141
G1 X177.038 Y191.115 E0.7412
G1 X175.822 Y189.899 E0.8098
G1 X176.501 Y189.899 E0.8369
G1 X177.717 Y191.115 E0.9055
G1 X178.396 Y191.115 E0.9326
G1 X177.180 Y189.899 E1.0013
G1 X177.859 Y189.899 E1.0284
G1 X179.075 Y191.115 E1.0970
G1 X179.754 Y191.115 E1.1241
G1 X178.538 Y189.899 E1.1927
G1 X179.216 Y189.899 E1.2198
G1 X180.432 Y191.115 E1.2884
G1 X181.111 Y191.115 E1.3155
G1 X179.895 Y189.899 E1.3842
G1 X180.574 Y189.899 E1.4113
G1 X181.790 Y191.115 E1.4799
G1 X182.469 Y191.115 E1.5070
G1 X181.253 Y189.899 E1.5756
G1 X181.932 Y189.899 E1.6027
G1 X183.148 Y191.115 E1.6714
G1 X183.826 Y191.115 E1.6984
G1 X182.611 Y189.899 E1.7671
G1 X183.289 Y189.899 E1.7942
G1 X184.505 Y191.115 E1.8628
G1 X185.184 Y191.115 E1.8899
G1 X183.968 Y189.899 E1.9585
G1 X184.647 Y189.899 E1.9856
G1 X185.863 Y191.115 E2.0543
G1 X186.542 Y191.115 E2.0814
G1 X185.326 Y189.899 E2.1500
G1 X186.005 Y189.899 E2.1771
G1 X187.221 Y191.115 E2.2457
G1 X187.899 Y191.115 E2.2728
G1 X186.683 Y189.899 E2.3415
G1 X187.362 Y189.899 E2.3685
G1 X188.578 Y191.115 E2.4372
G1 X189.257 Y191.115 E2.4643
G1 X188.041 Y189.899 E2.5329
G1 X188.720 Y189.899 E2.5600
G1 X189.936 Y191.115 E2.6286
G1 X190.615 Y191.115 E2.6557
G1 X189.399 Y189.899 E2.7244
G1 X190.078 Y189.899 E2.7515
G1 X191.294 Y191.115 E2.8201
G1 X191.972 Y191.115 E2.8472
G1 X190.756 Y189.899 E2.9158
G1 X191.435 Y189.899 E2.9429
G1 X192.651 Y191.115 E3.0116
G1 X193.330 Y191.115 E3.0386
G1 X192.114 Y189.899 E3.1073
G1 X192.793 Y189.899 E3.1344
G1 X194.009 Y191.115 E3.2030
G1 X194.688 Y191.115 E3.2301
G1 X193.472 Y189.899 E3.2987
G1 X194.150 Y189.899 E3.3258
G1 X195.366 Y191.115 E3.3945
G1 X196.045 Y191.115 E3.4216
G1 X194.829 Y189.899 E3.4902
G1 X195.508 Y189.899 E3.5173
G1 X196.706 Y191.097 E3.5849
G1 X196.792 Y191.075 E3.5885
G1 X196.883 Y191.036 E3.5924
G1 X196.966 Y190.981 E3.5964
G1 X197.039 Y190.914 E3.6003
G1 X197.097 Y190.840 E3.6041
G1 X197.108 Y190.820 E3.6050
G1 X196.328 Y190.041 E3.6490
G1 X196.187 Y189.899 F1440
; layer 2, Z = 0.400
M104 S225 T0
; feature inner perimeter
G1 Z0.400 F1200
G1 X170.705 Y191.417 F18000
G92 E0.0000
G1 X170.562 Y191.324 E0.0068 F1505
G1 X170.436 Y191.208 E0.0136
G1 X170.351 Y191.099 E0.0191
G1 X170.245 Y190.910 E0.0278
G1 X170.194 Y190.761 E0.0341
G1 X170.166 Y190.593 E0.0409
G1 X170.166 Y190.422 E0.0477
G1 X170.194 Y190.253 E0.0545
G1 X170.250 Y190.092 E0.0614
G1 X170.331 Y189.941 E0.0682
G1 X170.436 Y189.806 E0.0750
G1 X170.562 Y189.691 E0.0818
G1 X170.705 Y189.597 E0.0886
G1 X170.861 Y189.529 E0.0955
G1 X171.027 Y189.487 E0.1023
G1 X171.271 Y189.466 E0.1121
G1 X196.524 Y189.466 E1.1199
G1 X196.768 Y189.487 E1.1297
G1 X196.933 Y189.529 E1.1365
G1 X197.090 Y189.597 E1.1434
G1 X197.233 Y189.691 E1.1502
G1 X197.359 Y189.806 E1.1570
G1 X197.464 Y189.941 E1.1638
G1 X197.545 Y190.092 E1.1706
G1 X197.600 Y190.253 E1.1775
G1 X197.628 Y190.422 E1.1843
G1 X197.628 Y190.593 E1.1911
G1 X197.600 Y190.761 E1.1979
G1 X197.556 Y190.892 E1.2034
G1 X197.455 Y191.084 E1.2121
G1 X197.359 Y191.208 E1.2184
G1 X197.233 Y191.324 E1.2252
G1 X197.090 Y191.417 E1.2320
G1 X196.933 Y191.486 E1.2388
G1 X196.768 Y191.528 E1.2456
G1 X196.524 Y191.548 E1.2554
G1 X171.271 Y191.548 E2.2633
G1 X171.027 Y191.528 E2.2731
G1 X170.890 Y191.493 E2.2787
G1 X170.861 Y191.486 F1505
G1 X170.705 Y191.417
G1 X170.476 Y191.841 F18000
G92 E0.0000
G1 X170.266 Y191.704 E0.0100 F1505
G1 X170.082 Y191.534 E0.0200
G1 X169.950 Y191.365 E0.0285
G1 X169.806 Y191.107 E0.0403
G1 X169.727 Y190.880 E0.0500
G1 X169.686 Y190.632 E0.0599
G1 X169.686 Y190.382 E0.0699
G1 X169.727 Y190.135 E0.0799
G1 X169.809 Y189.898 E0.0899
G1 X169.928 Y189.678 E0.0999
G1 X170.082 Y189.480 E0.1099
G1 X170.266 Y189.311 E0.1199
G1 X170.476 Y189.174 E0.1299
G1 X170.705 Y189.073 E0.1399
G1 X170.948 Y189.012 E0.1499
G1 X171.251 Y188.986 E0.1621
G1 X196.544 Y188.986 E1.1715
G1 X196.847 Y189.012 E1.1837
G1 X197.090 Y189.073 E1.1937
G1 X197.319 Y189.174 E1.2037
G1 X197.529 Y189.311 E1.2137
G1 X197.713 Y189.480 E1.2237
G1 X197.867 Y189.678 E1.2337
G1 X197.986 Y189.898 E1.2437
G1 X198.067 Y190.135 E1.2536
G1 X198.108 Y190.382 E1.2636
G1 X198.108 Y190.632 E1.2736
G1 X198.067 Y190.880 E1.2836
G1 X197.998 Y191.082 E1.2922
G1 X197.861 Y191.344 E1.3040
G1 X197.713 Y191.534 E1.3136
G1 X197.529 Y191.704 E1.3236
G1 X197.319 Y191.841 E1.3336
G1 X197.090 Y191.941 E1.3436
G1 X196.847 Y192.003 E1.3536
G1 X196.544 Y192.028 E1.3657
G1 X171.251 Y192.028 E2.3752
