; G-Code generated by Simplify3D(R) Version 4.1.2
; Dec 26, 2020 at 11:04:09 PM
; Settings Summary
;   processName,Process1
;   applyToModels,2-top-face-mid
;   profileName,HBot (modified)
;   profileVersion,2019-10-26 23:38:43
;   baseProfile,Default
;   printMaterial,PLA - ERYONE
;   printQuality,Medium
;   printExtruders,
;   extruderName,Extruder 1
;   extruderToolheadNumber,0
;   extruderDiameter,0.4
;   extruderAutoWidth,1
;   extruderWidth,0.48
;   extrusionMultiplier,1
;   extruderUseRetract,1
;   extruderRetractionDistance,4
;   extruderExtraRestartDistance,0
;   extruderRetractionZLift,0
;   extruderRetractionSpeed,5400
;   extruderUseCoasting,0
;   extruderCoastingDistance,0.2
;   extruderUseWipe,1
;   extruderWipeDistance,5
;   primaryExtruder,0
;   layerHeight,0.2
;   topSolidLayers,4
;   bottomSolidLayers,4
;   perimeterOutlines,4
;   printPerimetersInsideOut,1
;   startPointOption,3
;   startPointOriginX,110
;   startPointOriginY,300
;   sequentialIslands,0
;   spiralVaseMode,0
;   firstLayerHeightPercentage,100
;   firstLayerWidthPercentage,100
;   firstLayerUnderspeed,0.5
;   useRaft,0
;   raftExtruder,0
;   raftTopLayers,3
;   raftBaseLayers,2
;   raftOffset,3
;   raftSeparationDistance,0.18
;   raftTopInfill,100
;   aboveRaftSpeedMultiplier,0.3
;   useSkirt,1
;   skirtExtruder,0
;   skirtLayers,1
;   skirtOutlines,10
;   skirtOffset,0
;   usePrimePillar,0
;   primePillarExtruder,999
;   primePillarWidth,12
;   primePillarLocation,7
;   primePillarSpeedMultiplier,1
;   useOozeShield,0
;   oozeShieldExtruder,999
;   oozeShieldOffset,0.9
;   oozeShieldOutlines,2
;   oozeShieldSidewallShape,0
;   oozeShieldSidewallAngle,30
;   oozeShieldSpeedMultiplier,1.5
;   infillExtruder,0
;   internalInfillPattern,Fast Honeycomb
;   externalInfillPattern,Rectilinear
;   infillPercentage,20
;   outlineOverlapPercentage,25
;   infillExtrusionWidthPercentage,100
;   minInfillLength,5
;   infillLayerInterval,1
;   internalInfillAngles,0
;   overlapInternalInfillAngles,0
;   externalInfillAngles,45,-45
;   generateSupport,0
;   supportExtruder,0
;   supportInfillPercentage,25
;   supportExtraInflation,0
;   supportBaseLayers,0
;   denseSupportExtruder,0
;   denseSupportLayers,0
;   denseSupportInfillPercentage,70
;   supportLayerInterval,1
;   supportHorizontalPartOffset,0.3
;   supportUpperSeparationLayers,1
;   supportLowerSeparationLayers,1
;   supportType,0
;   supportGridSpacing,2
;   maxOverhangAngle,25
;   supportAngles,0
;   temperatureName,Extruder 1,Heated Bed
;   temperatureNumber,0,1
;   temperatureSetpointCount,2,1
;   temperatureSetpointLayers,1,2,1
;   temperatureSetpointTemperatures,215,215,65
;   temperatureStabilizeAtStartup,1,1
;   temperatureHeatedBed,0,1
;   fanLayers,1,10
;   fanSpeeds,0,20
;   blipFanToFullPower,1
;   adjustSpeedForCooling,0
;   minSpeedLayerTime,15
;   minCoolingSpeedSlowdown,20
;   increaseFanForCooling,1
;   minFanLayerTime,15
;   maxCoolingFanSpeed,40
;   increaseFanForBridging,1
;   bridgingFanSpeed,85
;   use5D,1
;   relativeEdistances,0
;   allowEaxisZeroing,1
;   independentExtruderAxes,0
;   includeM10123,0
;   stickySupport,1
;   applyToolheadOffsets,0
;   gcodeXoffset,0
;   gcodeYoffset,0
;   gcodeZoffset,0
;   overrideMachineDefinition,1
;   machineTypeOverride,0
;   strokeXoverride,210
;   strokeYoverride,210
;   strokeZoverride,150
;   originOffsetXoverride,0
;   originOffsetYoverride,0
;   originOffsetZoverride,0
;   homeXdirOverride,-1
;   homeYdirOverride,-1
;   homeZdirOverride,-1
;   flipXoverride,1
;   flipYoverride,-1
;   flipZoverride,1
;   toolheadOffsets,0,0|0,0|0,0|0,0|0,0|0,0
;   overrideFirmwareConfiguration,1
;   firmwareTypeOverride,RepRap (Marlin/Repetier/Sprinter)
;   GPXconfigOverride,r2
;   baudRateOverride,115200
;   overridePrinterModels,0
;   printerModelsOverride
;   startingGcode,G28 ; home all axes,G32 ; run bed.g -- probe bed and enable compensation
;   layerChangeGcode,
;   retractionGcode,
;   toolChangeGcode,
;   endingGcode,M0 ; call stop.g
;   exportFileFormat,gcode
;   celebration,0
;   celebrationSong,Random Song
;   postProcessing,
;   defaultSpeed,3600
;   outlineUnderspeed,0.5
;   solidInfillUnderspeed,0.8
;   supportUnderspeed,0.8
;   rapidXYspeed,18000
;   rapidZspeed,1200
;   minBridgingArea,50
;   bridgingExtraInflation,0
;   bridgingExtrusionMultiplier,0.96
;   bridgingSpeedMultiplier,1
;   useFixedBridgingAngle,0
;   fixedBridgingAngle,0
;   applyBridgingToPerimeters,0
;   filamentDiameters,1.75|1.75|1.75|1.75|1.75|1.75
;   filamentPricesPerKg,46|46|46|46|46|46
;   filamentDensities,1.25|1.25|1.25|1.25|1.25|1.25
;   useMinPrintHeight,0
;   minPrintHeight,20
;   useMaxPrintHeight,0
;   maxPrintHeight,15
;   useDiaphragm,0
;   diaphragmLayerInterval,20
;   robustSlicing,1
;   mergeAllIntoSolid,0
;   onlyRetractWhenCrossingOutline,1
;   retractBetweenLayers,0
;   useRetractionMinTravel,1
;   retractionMinTravel,3
;   retractWhileWiping,1
;   onlyWipeOutlines,1
;   avoidCrossingOutline,1
;   maxMovementDetourFactor,5
;   toolChangeRetractionDistance,12
;   toolChangeExtraRestartDistance,-0.5
;   toolChangeRetractionSpeed,600
;   externalThinWallType,0
;   internalThinWallType,2
;   thinWallAllowedOverlapPercentage,10
;   singleExtrusionMinLength,1
;   singleExtrusionMinPrintingWidthPercentage,50
;   singleExtrusionMaxPrintingWidthPercentage,150
;   singleExtrusionEndpointExtension,0.2
;   horizontalSizeCompensation,-0.1
G90
M82
M106 S0
M140 S65
M190 S65
M104 S215 T0
M109 S215 T0
G28 ; home all axes
G32 ; run bed.g -- probe bed and enable compensation
; process Process1
; layer 1, Z = 0.200
T0
G92 E0.0000
G1 E-4.0000 F5400
; feature skirt
; tool H0.200 W0.480
G1 Z0.200 F1200
G1 X157.589 Y160.006 F18000
G1 E0.0000 F5400
G92 E0.0000
G1 X52.411 Y160.006 E4.1979 F1800
G1 X49.740 Y157.335 E4.3486
G1 X49.740 Y52.665 E8.5262
G1 X52.411 Y49.994 E8.6770
G1 X157.589 Y49.994 E12.8749
G1 X160.260 Y52.665 E13.0256
G1 X160.260 Y157.335 E17.2032
G1 X157.589 Y160.006 E17.3540
G1 X157.390 Y159.526 F18000
G92 E0.0000
G1 X52.610 Y159.526 E4.1820 F1800
G1 X50.220 Y157.136 E4.3169
G1 X50.220 Y52.864 E8.4786
G1 X52.610 Y50.474 E8.6135
G1 X157.390 Y50.474 E12.7955
G1 X159.780 Y52.864 E12.9304
G1 X159.780 Y157.136 E17.0921
G1 X157.390 Y159.526 E17.2270
G1 X157.191 Y159.046 F18000
G92 E0.0000
G1 X52.809 Y159.046 E4.1661 F1800
G1 X50.700 Y156.937 E4.2852
G1 X50.700 Y53.063 E8.4310
G1 X52.809 Y50.954 E8.5500
G1 X157.191 Y50.954 E12.7162
G1 X159.300 Y53.063 E12.8352
G1 X159.300 Y156.937 E16.9810
G1 X157.191 Y159.046 E17.1001
G1 X156.992 Y158.566 F18000
G92 E0.0000
G1 X53.008 Y158.566 E4.1503 F1800
G1 X51.180 Y156.738 E4.2534
G1 X51.180 Y53.262 E8.3834
G1 X53.008 Y51.434 E8.4866
G1 X156.992 Y51.434 E12.6368
G1 X158.820 Y53.262 E12.7400
G1 X158.820 Y156.738 E16.8699
G1 X156.992 Y158.566 E16.9731
G1 X156.793 Y158.086 F18000
G92 E0.0000
G1 X53.206 Y158.086 E4.1344 F1800
G1 X51.660 Y156.540 E4.2217
G1 X51.660 Y53.460 E8.3358
G1 X53.206 Y51.914 E8.4231
G1 X156.793 Y51.914 E12.5575
G1 X158.340 Y53.460 E12.6447
G1 X158.340 Y156.540 E16.7588
G1 X156.793 Y158.086 E16.8461
G1 X156.595 Y157.606 F18000
G92 E0.0000
G1 X53.405 Y157.606 E4.1185 F1800
G1 X52.140 Y156.341 E4.1899
G1 X52.140 Y53.659 E8.2882
G1 X53.405 Y52.394 E8.3596
G1 X156.595 Y52.394 E12.4781
G1 X157.860 Y53.659 E12.5495
G1 X157.860 Y156.341 E16.6478
G1 X156.595 Y157.606 E16.7192
G1 X156.396 Y157.126 F18000
G92 E0.0000
G1 X53.604 Y157.126 E4.1026 F1800
G1 X52.620 Y156.142 E4.1582
G1 X52.620 Y53.858 E8.2406
G1 X53.604 Y52.874 E8.2961
G1 X156.396 Y52.874 E12.3987
G1 X157.380 Y53.858 E12.4543
G1 X157.380 Y156.142 E16.5367
G1 X156.396 Y157.126 E16.5922
G1 X156.197 Y156.646 F18000
G92 E0.0000
G1 X53.803 Y156.646 E4.0868 F1800
G1 X53.100 Y155.943 E4.1264
G1 X53.100 Y54.057 E8.1929
G1 X53.803 Y53.354 E8.2326
G1 X156.197 Y53.354 E12.3194
G1 X156.900 Y54.057 E12.3591
G1 X156.900 Y155.943 E16.4256
G1 X156.197 Y156.646 E16.4652
G1 X155.998 Y156.166 F18000
G92 E0.0000
G1 X54.002 Y156.166 E4.0709 F1800
G1 X53.580 Y155.744 E4.0947
G1 X53.580 Y54.256 E8.1453
G1 X54.002 Y53.834 E8.1691
G1 X155.998 Y53.834 E12.2400
G1 X156.420 Y54.256 E12.2638
G1 X156.420 Y155.744 E16.3145
G1 X155.998 Y156.166 E16.3383
G1 X155.799 Y155.686 F18000
G92 E0.0000
G1 X54.201 Y155.686 E4.0550 F1800
G1 X54.060 Y155.545 E4.0630
G1 X54.060 Y54.455 E8.0977
G1 X54.201 Y54.314 E8.1057
G1 X155.799 Y54.314 E12.1607
G1 X155.940 Y54.455 E12.1686
G1 X155.940 Y155.545 E16.2034
G1 X155.799 Y155.686 E16.2113
G92 E0.0000
G1 E-4.0000 F5400
; feature inner perimeter
G1 X155.460 Y155.206 F18000
G1 X151.563 Y155.206
G1 X117.023 Y151.293
G1 E0.0000 F5400
G92 E0.0000
G1 X119.014 Y150.931 E0.0807 F1350
G1 X120.946 Y150.265 E0.1623
G1 X123.124 Y149.132 E0.2603
G1 X125.067 Y147.772 E0.3550
G1 X127.390 Y145.720 E0.4787
G1 X129.835 Y143.080 E0.6223
G1 X132.658 Y139.502 E0.8042
G1 X136.164 Y134.474 E1.0489
G1 X139.343 Y129.630 E1.2801
G1 X139.563 Y130.103 E1.3009
G1 X139.821 Y130.471 E1.3189
G1 X140.139 Y130.789 E1.3368
G1 X140.508 Y131.047 E1.3548
G1 X140.916 Y131.237 E1.3727
G1 X141.350 Y131.354 E1.3907
G1 X141.721 Y131.386 E1.4055
G1 X152.812 Y131.386 E1.8482
G1 X153.183 Y131.354 E1.8630
G1 X153.617 Y131.237 E1.8810
G1 X154.020 Y131.050 E1.8987
G1 X154.020 Y153.766 E2.8054
G1 X55.980 Y153.766 E6.7184
G1 X55.980 Y56.234 E10.6111
G1 X154.020 Y56.234 E14.5241
G1 X154.020 Y78.950 E15.4307
G1 X153.617 Y78.763 E15.4485
G1 X153.183 Y78.646 E15.4664
G1 X152.812 Y78.614 E15.4813
G1 X145.787 Y78.614 E15.7617
G1 X145.778 Y75.630 E15.8808
G1 X145.664 Y74.934 E15.9089
G1 X145.468 Y74.356 E15.9333
G1 X145.196 Y73.840 E15.9565
G1 X144.859 Y73.391 E15.9790
G1 X144.461 Y72.999 E16.0013
G1 X144.005 Y72.673 E16.0236
G1 X143.468 Y72.404 E16.0476
G1 X142.852 Y72.206 E16.0734
G1 X142.113 Y72.079 E16.1033
G1 X141.454 Y72.049 E16.1297
G1 X139.188 Y72.060 E16.2201
G1 X139.188 Y72.049 E16.2205
G1 X139.168 Y72.049 E16.2213
G1 X139.168 Y70.247 E16.2933
G1 X134.377 Y70.247 E16.4845
G1 X134.377 Y72.049 E16.5564
G1 X131.986 Y72.051 E16.6519
G1 X131.334 Y72.104 E16.6779
G1 X130.745 Y72.254 E16.7022
G1 X130.316 Y72.437 E16.7209
G1 X129.935 Y72.669 E16.7387
G1 X129.581 Y72.974 E16.7573
G1 X129.268 Y73.349 E16.7768
G1 X129.017 Y73.768 E16.7963
G1 X128.819 Y74.285 E16.8184
G1 X128.715 Y74.789 E16.8389
G1 X128.684 Y75.284 E16.8587
G1 X128.709 Y75.710 E16.8758
G1 X128.742 Y75.912 E16.8839
G1 X128.742 Y78.614 E16.9918
G1 X121.782 Y78.614 E17.2696
G1 X121.411 Y78.646 E17.2844
G1 X120.977 Y78.763 E17.3024
G1 X120.569 Y78.953 E17.3203
G1 X120.200 Y79.211 E17.3383
G1 X119.882 Y79.529 E17.3562
G1 X119.471 Y80.117 E17.3849
G1 X114.636 Y72.991 E17.7286
G1 X111.397 Y68.608 E17.9461
G1 X108.682 Y65.403 E18.1137
G1 X106.245 Y62.987 E18.2507
G1 X104.249 Y61.369 E18.3532
G1 X102.289 Y60.112 E18.4462
G1 X100.326 Y59.181 E18.5329
G1 X98.386 Y58.579 E18.6140
G1 X96.378 Y58.282 E18.6950
G1 X94.295 Y58.324 E18.7781
G1 X92.934 Y58.541 E18.8331
G1 X90.919 Y59.140 E18.9170
G1 X88.861 Y60.106 E19.0078
G1 X86.790 Y61.442 E19.1061
G1 X84.680 Y63.181 E19.2153
G1 X82.453 Y65.409 E19.3410
G1 X80.041 Y68.233 E19.4893
G1 X78.500 Y70.273 E19.5913
G1 X78.205 Y70.174 E19.6037
G1 X78.205 Y62.060 E19.9275
G1 X78.173 Y61.689 E19.9424
G1 X78.056 Y61.255 E19.9603
G1 X77.866 Y60.847 E19.9783
G1 X77.608 Y60.479 E19.9962
G1 X77.290 Y60.161 E20.0142
G1 X76.922 Y59.903 E20.0321
G1 X76.514 Y59.713 E20.0501
G1 X76.079 Y59.596 E20.0680
G1 X75.709 Y59.564 E20.0829
G1 X72.837 Y59.564 E20.1975
G1 X72.065 Y59.581 E20.2283
G1 X71.574 Y59.713 E20.2486
G1 X71.166 Y59.903 E20.2666
G1 X70.480 Y60.383 E20.3000
G1 X70.422 Y59.689 E20.3278
G1 X70.310 Y59.199 E20.3478
G1 X70.147 Y58.790 E20.3654
G1 X69.915 Y58.403 E20.3834
G1 X69.640 Y58.077 E20.4005
G1 X69.323 Y57.799 E20.4173
G1 X68.962 Y57.573 E20.4343
G1 X68.566 Y57.402 E20.4515
G1 X68.118 Y57.277 E20.4701
G1 X67.538 Y57.195 E20.4934
G1 X64.590 Y57.163 E20.6111
G1 X64.590 Y62.030 E20.8053
G1 X65.584 Y62.030 E20.8450
G1 X65.594 Y67.093 E21.0470
G1 X70.481 Y67.093 E21.2421
G1 X70.480 Y63.892 E21.3698
G1 X71.166 Y64.372 E21.4032
G1 X71.574 Y64.562 E21.4212
G1 X72.008 Y64.679 E21.4391
G1 X72.379 Y64.711 E21.4539
G1 X73.057 Y64.711 E21.4810
G1 X73.057 Y69.882 E21.6874
G1 X72.379 Y69.882 E21.7145
G1 X72.008 Y69.915 E21.7294
G1 X71.574 Y70.031 E21.7473
G1 X71.166 Y70.221 E21.7653
G1 X70.797 Y70.479 E21.7832
G1 X70.479 Y70.798 E21.8012
G1 X70.221 Y71.166 E21.8191
G1 X70.031 Y71.574 E21.8371
G1 X69.915 Y72.008 E21.8550
G1 X69.876 Y72.456 E21.8730
G1 X69.915 Y72.904 E21.8910
G1 X70.031 Y73.339 E21.9089
G1 X70.221 Y73.746 E21.9269
G1 X70.479 Y74.115 E21.9448
G1 X70.798 Y74.433 E21.9628
G1 X71.166 Y74.691 E21.9807
G1 X71.574 Y74.881 E21.9987
G1 X72.008 Y74.998 E22.0166
G1 X72.379 Y75.030 E22.0315
G1 X73.068 Y75.030 E22.0590
G1 X73.090 Y75.286 E22.0692
G1 X73.206 Y75.720 E22.0872
G1 X73.396 Y76.128 E22.1051
G1 X73.654 Y76.496 E22.1231
G1 X73.926 Y76.768 E22.1384
G1 X73.786 Y76.971 E22.1483
G1 X72.690 Y78.614 E22.2271
G1 X72.379 Y78.614 E22.2395
G1 X72.008 Y78.646 E22.2543
G1 X71.574 Y78.763 E22.2723
G1 X71.166 Y78.953 E22.2903
G1 X70.797 Y79.211 E22.3082
G1 X70.226 Y79.782 E22.3405
G1 X69.945 Y78.875 E22.3784
G1 X69.623 Y78.230 E22.4071
G1 X69.246 Y77.699 E22.4332
G1 X68.813 Y77.248 E22.4581
G1 X68.306 Y76.863 E22.4835
G1 X67.720 Y76.548 E22.5101
G1 X67.007 Y76.299 E22.5402
G1 X67.007 Y75.859 E22.5578
G1 X65.658 Y76.074 E22.6123
G1 X64.240 Y75.827 E22.6697
G1 X64.240 Y76.323 E22.6895
G1 X63.781 Y76.462 E22.7086
G1 X63.193 Y76.738 E22.7346
G1 X62.633 Y77.125 E22.7617
G1 X62.159 Y77.584 E22.7881
G1 X61.734 Y78.158 E22.8166
G1 X61.417 Y78.778 E22.8444
G1 X61.170 Y79.521 E22.8756
G1 X61.024 Y80.356 E22.9094
G1 X60.981 Y81.204 E22.9434
G1 X61.048 Y82.240 E22.9848
G1 X61.248 Y83.145 E23.0218
G1 X61.499 Y83.796 E23.0496
G1 X61.822 Y84.362 E23.0756
G1 X62.109 Y84.741 E23.0946
G1 X62.541 Y85.181 E23.1192
G1 X63.045 Y85.553 E23.1442
G1 X63.634 Y85.858 E23.1707
G1 X64.240 Y86.061 E23.1962
G1 X64.240 Y86.507 E23.2140
G1 X65.598 Y86.298 E23.2689
G1 X67.007 Y86.535 E23.3259
G1 X67.007 Y86.067 E23.3446
G1 X67.567 Y85.894 E23.3680
G1 X68.156 Y85.611 E23.3941
G1 X68.700 Y85.233 E23.4205
G1 X69.167 Y84.782 E23.4464
G1 X69.588 Y84.214 E23.4746
G1 X69.919 Y83.576 E23.5033
G1 X70.241 Y82.608 E23.5440
G1 X70.797 Y83.164 E23.5754
G1 X71.166 Y83.422 E23.5934
G1 X71.574 Y83.612 E23.6114
G1 X72.008 Y83.729 E23.6293
G1 X72.379 Y83.761 E23.6441
G1 X72.727 Y83.761 E23.6581
G1 X73.183 Y84.200 E23.6833
G1 X73.090 Y84.549 E23.6978
G1 X73.057 Y84.920 E23.7126
G1 X73.057 Y88.139 E23.8411
G1 X72.379 Y88.139 E23.8682
G1 X72.008 Y88.171 E23.8830
G1 X71.574 Y88.288 E23.9010
G1 X71.166 Y88.478 E23.9189
G1 X70.797 Y88.736 E23.9369
G1 X70.479 Y89.054 E23.9548
G1 X70.221 Y89.422 E23.9728
G1 X70.031 Y89.830 E23.9907
G1 X69.915 Y90.264 E24.0087
G1 X69.876 Y90.712 E24.0266
G1 X69.915 Y91.161 E24.0446
G1 X70.031 Y91.595 E24.0625
G1 X70.221 Y92.003 E24.0805
G1 X70.479 Y92.371 E24.0984
G1 X70.797 Y92.689 E24.1164
G1 X71.166 Y92.947 E24.1344
G1 X71.574 Y93.137 E24.1523
G1 X72.008 Y93.254 E24.1703
G1 X72.379 Y93.286 E24.1851
G1 X73.057 Y93.286 E24.2122
G1 X73.057 Y97.664 E24.3869
G1 X72.379 Y97.664 E24.4140
G1 X72.008 Y97.696 E24.4289
G1 X71.574 Y97.813 E24.4468
G1 X71.166 Y98.003 E24.4648
G1 X70.480 Y98.483 E24.4982
G1 X70.422 Y97.789 E24.5260
G1 X70.310 Y97.299 E24.5460
G1 X70.147 Y96.890 E24.5636
G1 X69.916 Y96.503 E24.5816
G1 X69.640 Y96.177 E24.5986
G1 X69.323 Y95.899 E24.6155
G1 X68.962 Y95.674 E24.6325
G1 X68.566 Y95.502 E24.6497
G1 X68.118 Y95.377 E24.6682
G1 X67.538 Y95.295 E24.6916
G1 X64.590 Y95.263 E24.8093
G1 X64.590 Y98.130 E24.9237
G1 X60.643 Y98.130 E25.0812
G1 X60.643 Y102.790 E25.2672
G1 X65.589 Y102.790 E25.4646
G1 X65.594 Y104.799 E25.5448
G1 X64.590 Y104.788 E25.5849
G1 X64.590 Y109.655 E25.7791
G1 X65.584 Y109.655 E25.8187
G1 X65.594 Y114.718 E26.0208
G1 X70.481 Y114.718 E26.2158
G1 X70.480 Y111.517 E26.3436
G1 X71.166 Y111.997 E26.3770
G1 X71.574 Y112.187 E26.3949
G1 X72.008 Y112.304 E26.4129
G1 X72.379 Y112.336 E26.4277
G1 X72.723 Y112.336 E26.4415
G1 X73.216 Y112.802 E26.4685
G1 X73.766 Y113.167 E26.4949
