; G-Code generated by Simplify3D(R) Version 4.1.2
; Dec 26, 2020 at 3:36:34 PM
; Settings Summary
;   processName,Process1
;   applyToModels,4-slider-rack,8-driving-gear-10t,9-driven-gear-20t,7-angle-pointer
;   profileName,HBot (modified)
;   profileVersion,2019-10-26 23:38:43
;   baseProfile,Default
;   printMaterial,PETG - SUNLU
;   printQuality,Medium
;   printExtruders,
;   extruderName,Extruder 1
;   extruderToolheadNumber,0
;   extruderDiameter,0.4
;   extruderAutoWidth,1
;   extruderWidth,0.48
;   extrusionMultiplier,1.02
;   extruderUseRetract,1
;   extruderRetractionDistance,4
;   extruderExtraRestartDistance,0
;   extruderRetractionZLift,0
;   extruderRetractionSpeed,5400
;   extruderUseCoasting,0
;   extruderCoastingDistance,0.2
;   extruderUseWipe,1
;   extruderWipeDistance,5
;   primaryExtruder,0
;   layerHeight,0.2
;   topSolidLayers,4
;   bottomSolidLayers,4
;   perimeterOutlines,4
;   printPerimetersInsideOut,1
;   startPointOption,3
;   startPointOriginX,110
;   startPointOriginY,300
;   sequentialIslands,0
;   spiralVaseMode,0
;   firstLayerHeightPercentage,100
;   firstLayerWidthPercentage,100
;   firstLayerUnderspeed,0.5
;   useRaft,0
;   raftExtruder,0
;   raftTopLayers,3
;   raftBaseLayers,2
;   raftOffset,3
;   raftSeparationDistance,0.18
;   raftTopInfill,100
;   aboveRaftSpeedMultiplier,0.3
;   useSkirt,0
;   skirtExtruder,0
;   skirtLayers,1
;   skirtOutlines,10
;   skirtOffset,0
;   usePrimePillar,0
;   primePillarExtruder,999
;   primePillarWidth,12
;   primePillarLocation,7
;   primePillarSpeedMultiplier,1
;   useOozeShield,0
;   oozeShieldExtruder,999
;   oozeShieldOffset,0.9
;   oozeShieldOutlines,2
;   oozeShieldSidewallShape,0
;   oozeShieldSidewallAngle,30
;   oozeShieldSpeedMultiplier,1.5
;   infillExtruder,0
;   internalInfillPattern,Fast Honeycomb
;   externalInfillPattern,Rectilinear
;   infillPercentage,20
;   outlineOverlapPercentage,25
;   infillExtrusionWidthPercentage,100
;   minInfillLength,5
;   infillLayerInterval,1
;   internalInfillAngles,0
;   overlapInternalInfillAngles,0
;   externalInfillAngles,45,-45
;   generateSupport,0
;   supportExtruder,0
;   supportInfillPercentage,25
;   supportExtraInflation,0
;   supportBaseLayers,0
;   denseSupportExtruder,0
;   denseSupportLayers,0
;   denseSupportInfillPercentage,70
;   supportLayerInterval,1
;   supportHorizontalPartOffset,0.3
;   supportUpperSeparationLayers,1
;   supportLowerSeparationLayers,1
;   supportType,0
;   supportGridSpacing,2
;   maxOverhangAngle,25
;   supportAngles,0
;   temperatureName,Extruder 1,Heated Bed
;   temperatureNumber,0,1
;   temperatureSetpointCount,2,1
;   temperatureSetpointLayers,1,2,1
;   temperatureSetpointTemperatures,215,215,85
;   temperatureStabilizeAtStartup,1,1
;   temperatureHeatedBed,0,1
;   fanLayers,1,5,10
;   fanSpeeds,0,5,20
;   blipFanToFullPower,1
;   adjustSpeedForCooling,0
;   minSpeedLayerTime,15
;   minCoolingSpeedSlowdown,20
;   increaseFanForCooling,1
;   minFanLayerTime,15
;   maxCoolingFanSpeed,40
;   increaseFanForBridging,1
;   bridgingFanSpeed,85
;   use5D,1
;   relativeEdistances,0
;   allowEaxisZeroing,1
;   independentExtruderAxes,0
;   includeM10123,0
;   stickySupport,1
;   applyToolheadOffsets,0
;   gcodeXoffset,0
;   gcodeYoffset,0
;   gcodeZoffset,0
;   overrideMachineDefinition,1
;   machineTypeOverride,0
;   strokeXoverride,210
;   strokeYoverride,210
;   strokeZoverride,150
;   originOffsetXoverride,0
;   originOffsetYoverride,0
;   originOffsetZoverride,0
;   homeXdirOverride,-1
;   homeYdirOverride,-1
;   homeZdirOverride,-1
;   flipXoverride,1
;   flipYoverride,-1
;   flipZoverride,1
;   toolheadOffsets,0,0|0,0|0,0|0,0|0,0|0,0
;   overrideFirmwareConfiguration,1
;   firmwareTypeOverride,RepRap (Marlin/Repetier/Sprinter)
;   GPXconfigOverride,r2
;   baudRateOverride,115200
;   overridePrinterModels,0
;   printerModelsOverride
;   startingGcode,G28 ; home all axes,G32 ; run bed.g -- probe bed and enable compensation
;   layerChangeGcode,
;   retractionGcode,
;   toolChangeGcode,
;   endingGcode,M0 ; call stop.g
;   exportFileFormat,gcode
;   celebration,0
;   celebrationSong,Random Song
;   postProcessing,
;   defaultSpeed,3600
;   outlineUnderspeed,0.5
;   solidInfillUnderspeed,0.8
;   supportUnderspeed,0.8
;   rapidXYspeed,18000
;   rapidZspeed,1200
;   minBridgingArea,50
;   bridgingExtraInflation,0
;   bridgingExtrusionMultiplier,0.96
;   bridgingSpeedMultiplier,1
;   useFixedBridgingAngle,0
;   fixedBridgingAngle,0
;   applyBridgingToPerimeters,0
;   filamentDiameters,1.75|1.75|1.75|1.75|1.75|1.75
;   filamentPricesPerKg,46|46|46|46|46|46
;   filamentDensities,1.25|1.25|1.25|1.25|1.25|1.25
;   useMinPrintHeight,0
;   minPrintHeight,20
;   useMaxPrintHeight,0
;   maxPrintHeight,15
;   useDiaphragm,0
;   diaphragmLayerInterval,20
;   robustSlicing,1
;   mergeAllIntoSolid,0
;   onlyRetractWhenCrossingOutline,1
;   retractBetweenLayers,0
;   useRetractionMinTravel,1
;   retractionMinTravel,3
;   retractWhileWiping,1
;   onlyWipeOutlines,1
;   avoidCrossingOutline,1
;   maxMovementDetourFactor,5
;   toolChangeRetractionDistance,12
;   toolChangeExtraRestartDistance,-0.5
;   toolChangeRetractionSpeed,600
;   externalThinWallType,0
;   internalThinWallType,2
;   thinWallAllowedOverlapPercentage,10
;   singleExtrusionMinLength,1
;   singleExtrusionMinPrintingWidthPercentage,50
;   singleExtrusionMaxPrintingWidthPercentage,150
;   singleExtrusionEndpointExtension,0.2
;   horizontalSizeCompensation,-0.1
G90
M82
M106 S0
M140 S85
M190 S85
M104 S215 T0
M109 S215 T0
G28 ; home all axes
G32 ; run bed.g -- probe bed and enable compensation
; process Process1
; layer 1, Z = 0.200
T0
G92 E0.0000
G1 E-4.0000 F5400
; feature inner perimeter
; tool H0.200 W0.480
G1 Z0.200 F1200
G1 X85.226 Y119.106 F18000
G1 E0.0000 F5400
G92 E0.0000
G1 X84.863 Y118.092 E0.0438 F1350
G1 X84.305 Y115.244 E0.1620
G1 X81.570 Y115.323 E0.2733
G1 X78.836 Y115.244 E0.3847
G1 X78.278 Y118.092 E0.5028
G1 X77.915 Y119.105 E0.5467
G1 X77.567 Y119.057 E0.5610
G1 X77.518 Y118.336 E0.5904
G1 X77.557 Y117.534 E0.6231
G1 X77.917 Y115.104 E0.7231
G1 X75.253 Y114.322 E0.8361
G1 X72.677 Y113.403 E0.9474
G1 X71.266 Y115.939 E1.0656
G1 X70.587 Y116.816 E1.1107
G1 X70.276 Y116.675 E1.1246
G1 X70.324 Y116.428 E1.1349
G1 X70.659 Y115.414 E1.1784
G1 X71.827 Y112.972 E1.2886
G1 X69.554 Y111.419 E1.4007
G1 X67.388 Y109.748 E1.5120
G1 X65.263 Y111.724 E1.6302
G1 X64.373 Y112.330 E1.6740
G1 X64.120 Y112.077 E1.6886
G1 X64.727 Y111.187 E1.7324
G1 X66.702 Y109.062 E1.8506
G1 X65.032 Y106.896 E1.9619
G1 X63.488 Y104.638 E2.0733
G1 X60.856 Y105.860 E2.1914
G1 X59.822 Y106.162 E2.2353
G1 X59.660 Y105.843 E2.2498
G1 X60.512 Y105.184 E2.2937
G1 X63.048 Y103.773 E2.4118
G1 X62.128 Y101.197 E2.5232
G1 X61.358 Y98.572 E2.6345
G1 X58.477 Y98.921 E2.7527
G1 X57.401 Y98.889 E2.7965
G1 X57.345 Y98.536 E2.8111
G1 X58.358 Y98.173 E2.8549
G1 X61.206 Y97.614 E2.9731
G1 X61.127 Y94.880 E3.0844
G1 X61.206 Y92.146 E3.1958
G1 X58.358 Y91.587 E3.3139
G1 X57.344 Y91.224 E3.3578
G1 X57.400 Y90.871 E3.3723
G1 X58.477 Y90.838 E3.4162
G1 X61.358 Y91.188 E3.5343
G1 X62.128 Y88.563 E3.6457
G1 X63.048 Y85.987 E3.7570
G1 X60.512 Y84.576 E3.8752
G1 X59.660 Y83.917 E3.9190
G1 X59.822 Y83.598 E3.9336
G1 X60.856 Y83.900 E3.9774
G1 X63.488 Y85.122 E4.0956
G1 X65.031 Y82.864 E4.2069
G1 X66.702 Y80.698 E4.3183
G1 X64.727 Y78.572 E4.4364
G1 X64.120 Y77.683 E4.4803
G1 X64.373 Y77.430 E4.4948
G1 X65.263 Y78.036 E4.5387
G1 X67.388 Y80.012 E4.6568
G1 X69.554 Y78.341 E4.7682
G1 X71.827 Y76.788 E4.8803
G1 X70.659 Y74.346 E4.9905
G1 X70.324 Y73.332 E5.0339
G1 X70.276 Y73.085 E5.0442
G1 X70.587 Y72.944 E5.0581
G1 X71.266 Y73.821 E5.1032
G1 X72.677 Y76.357 E5.2214
G1 X75.253 Y75.438 E5.3327
G1 X77.917 Y74.656 E5.4458
G1 X77.557 Y72.226 E5.5458
G1 X77.518 Y71.424 E5.5785
G1 X77.567 Y70.703 E5.6079
G1 X77.915 Y70.655 E5.6222
G1 X78.278 Y71.668 E5.6660
G1 X78.836 Y74.516 E5.7841
G1 X81.570 Y74.437 E5.8955
G1 X84.305 Y74.516 E6.0069
G1 X84.863 Y71.668 E6.1250
G1 X85.226 Y70.654 E6.1688
G1 X85.580 Y70.710 E6.1834
G1 X85.612 Y71.787 E6.2272
G1 X85.263 Y74.667 E6.3454
G1 X87.887 Y75.438 E6.4567
G1 X90.464 Y76.357 E6.5681
G1 X91.875 Y73.821 E6.6862
G1 X92.533 Y72.970 E6.7301
G1 X92.852 Y73.132 E6.7447
G1 X92.550 Y74.166 E6.7885
G1 X91.328 Y76.798 E6.9066
G1 X93.586 Y78.341 E7.0180
G1 X95.752 Y80.012 E7.1294
G1 X97.878 Y78.036 E7.2475
G1 X98.767 Y77.430 E7.2913
G1 X99.021 Y77.683 E7.3059
G1 X98.414 Y78.572 E7.3497
G1 X96.438 Y80.698 E7.4679
G1 X98.109 Y82.864 E7.5793
G1 X99.653 Y85.122 E7.6906
G1 X102.285 Y83.900 E7.8088
G1 X103.318 Y83.598 E7.8526
G1 X103.481 Y83.917 E7.8672
G1 X102.629 Y84.576 E7.9110
G1 X100.093 Y85.987 E8.0291
G1 X101.013 Y88.563 E8.1405
G1 X101.783 Y91.188 E8.2519
G1 X104.664 Y90.838 E8.3700
G1 X105.740 Y90.871 E8.4138
G1 X105.796 Y91.224 E8.4284
G1 X104.782 Y91.587 E8.4723
G1 X101.935 Y92.146 E8.5904
G1 X102.013 Y94.880 E8.7018
G1 X101.935 Y97.614 E8.8131
G1 X104.782 Y98.173 E8.9313
G1 X105.796 Y98.536 E8.9751
G1 X105.740 Y98.889 E8.9897
G1 X104.664 Y98.921 E9.0335
G1 X101.783 Y98.572 E9.1516
G1 X101.013 Y101.197 E9.2630
G1 X100.093 Y103.773 E9.3744
G1 X102.629 Y105.184 E9.4925
G1 X103.481 Y105.843 E9.5363
G1 X103.318 Y106.162 E9.5509
G1 X102.285 Y105.860 E9.5948
G1 X99.653 Y104.638 E9.7129
G1 X98.109 Y106.896 E9.8243
G1 X96.438 Y109.062 E9.9356
G1 X98.414 Y111.188 E10.0538
G1 X99.021 Y112.077 E10.0976
G1 X98.767 Y112.330 E10.1122
G1 X97.878 Y111.724 E10.1560
G1 X95.752 Y109.748 E10.2742
G1 X93.586 Y111.419 E10.3855
G1 X91.328 Y112.962 E10.4969
G1 X92.550 Y115.594 E10.6150
G1 X92.852 Y116.628 E10.6589
G1 X92.533 Y116.790 E10.6734
G1 X91.875 Y115.939 E10.7173
G1 X90.464 Y113.403 E10.8354
G1 X87.887 Y114.322 E10.9468
G1 X85.263 Y115.093 E11.0581
G1 X85.612 Y117.973 E11.1763
G1 X85.580 Y119.050 E11.2201
G1 X85.226 Y119.106 E11.2347
G1 X84.848 Y119.473 F18000
G92 E0.0000
G1 X84.399 Y118.220 E0.0542 F1350
G1 X83.912 Y115.736 E0.1573
G1 X81.570 Y115.803 E0.2526
G1 X79.229 Y115.736 E0.3480
G1 X78.742 Y118.220 E0.4511
G1 X78.293 Y119.474 E0.5053
G1 X77.432 Y121.069 E0.5791
G1 X77.119 Y119.549 E0.6422
G1 X77.037 Y118.341 E0.6915
G1 X77.079 Y117.487 E0.7263
G1 X77.381 Y115.447 E0.8103
G1 X75.105 Y114.779 E0.9069
G1 X72.898 Y113.991 E1.0022
G1 X71.668 Y116.204 E1.1053
G1 X70.853 Y117.257 E1.1595
G1 X69.577 Y118.475 E1.2313
G1 X69.644 Y117.414 E1.2746
G1 X69.859 Y116.306 E1.3206
G1 X70.213 Y115.235 E1.3665
G1 X71.216 Y113.136 E1.4612
G1 X69.272 Y111.807 E1.5571
G1 X67.417 Y110.376 E1.6525
G1 X65.563 Y112.100 E1.7555
G1 X64.463 Y112.850 E1.8097
G1 X63.219 Y113.448 E1.8659
G1 X63.003 Y113.231 E1.8783
G1 X63.600 Y111.987 E1.9345
G1 X64.350 Y110.887 E1.9887
G1 X66.074 Y109.033 E2.0918
G1 X64.643 Y107.178 E2.1871
G1 X63.321 Y105.244 E2.2825
G1 X61.025 Y106.311 E2.3856
G1 X59.747 Y106.684 E2.4398
G1 X58.380 Y106.868 E2.4959
G1 X58.241 Y106.595 E2.5084
G1 X59.193 Y105.597 E2.5646
G1 X60.247 Y104.782 E2.6188
G1 X62.459 Y103.552 E2.7218
G1 X61.671 Y101.345 E2.8172
G1 X61.012 Y99.098 E2.9126
G1 X58.499 Y99.402 E3.0156
G1 X57.167 Y99.363 E3.0698
G1 X55.810 Y99.115 E3.1260
G1 X55.762 Y98.813 E3.1385
G1 X56.977 Y98.158 E3.1946
G1 X58.230 Y97.708 E3.2489
G1 X60.714 Y97.222 E3.3519
G1 X60.647 Y94.880 E3.4473
G1 X60.714 Y92.538 E3.5426
G1 X58.230 Y92.051 E3.6457
G1 X56.977 Y91.602 E3.6999
G1 X55.762 Y90.947 E3.7561
G1 X55.810 Y90.645 E3.7685
G1 X57.167 Y90.397 E3.8247
G1 X58.499 Y90.358 E3.8789
G1 X61.012 Y90.662 E3.9820
G1 X61.671 Y88.414 E4.0773
G1 X62.459 Y86.208 E4.1727
G1 X60.247 Y84.977 E4.2758
G1 X59.193 Y84.163 E4.3300
G1 X58.241 Y83.165 E4.3861
G1 X58.380 Y82.892 E4.3986
G1 X59.747 Y83.076 E4.4548
G1 X61.025 Y83.449 E4.5090
G1 X63.321 Y84.516 E4.6120
G1 X64.643 Y82.582 E4.7074
G1 X66.074 Y80.727 E4.8028
G1 X64.350 Y78.873 E4.9058
G1 X63.600 Y77.773 E4.9600
G1 X63.003 Y76.529 E5.0162
G1 X63.219 Y76.312 E5.0287
G1 X64.463 Y76.910 E5.0848
G1 X65.563 Y77.660 E5.1390
G1 X67.417 Y79.384 E5.2421
G1 X69.272 Y77.953 E5.3375
G1 X71.217 Y76.624 E5.4334
G1 X70.213 Y74.525 E5.5280
G1 X69.859 Y73.454 E5.5740
G1 X69.644 Y72.346 E5.6199
G1 X69.577 Y71.285 E5.6632
G1 X70.853 Y72.503 E5.7351
G1 X71.668 Y73.556 E5.7893
G1 X72.898 Y75.768 E5.8923
G1 X75.105 Y74.981 E5.9877
G1 X77.381 Y74.313 E6.0843
G1 X77.079 Y72.273 E6.1682
G1 X77.037 Y71.419 E6.2030
G1 X77.119 Y70.211 E6.2523
G1 X77.432 Y68.691 E6.3155
G1 X78.293 Y70.286 E6.3893
G1 X78.742 Y71.540 E6.4435
G1 X79.229 Y74.024 E6.5466
G1 X81.570 Y73.957 E6.6419
G1 X83.912 Y74.024 E6.7373
G1 X84.399 Y71.540 E6.8403
G1 X84.848 Y70.286 E6.8945
G1 X85.503 Y69.072 E6.9507
G1 X85.805 Y69.120 E6.9632
G1 X86.053 Y70.477 E7.0193
G1 X86.093 Y71.808 E7.0736
G1 X85.788 Y74.321 E7.1766
G1 X88.036 Y74.981 E7.2720
G1 X90.242 Y75.768 E7.3673
G1 X91.473 Y73.556 E7.4704
G1 X92.287 Y72.503 E7.5246
G1 X93.285 Y71.550 E7.5808
G1 X93.558 Y71.689 E7.5932
G1 X93.374 Y73.057 E7.6494
G1 X93.001 Y74.335 E7.7036
G1 X91.935 Y76.631 E7.8067
G1 X93.868 Y77.953 E7.9020
G1 X95.723 Y79.384 E7.9974
G1 X97.577 Y77.660 E8.1005
G1 X98.678 Y76.910 E8.1547
G1 X99.921 Y76.312 E8.2108
G1 X100.138 Y76.529 E8.2233
G1 X99.540 Y77.773 E8.2795
G1 X98.790 Y78.873 E8.3337
G1 X97.067 Y80.727 E8.4367
G1 X98.497 Y82.582 E8.5321
G1 X99.819 Y84.516 E8.6275
G1 X102.115 Y83.449 E8.7305
G1 X103.394 Y83.076 E8.7847
G1 X104.761 Y82.892 E8.8409
G1 X104.900 Y83.165 E8.8534
G1 X103.947 Y84.163 E8.9095
G1 X102.894 Y84.978 E8.9638
G1 X100.682 Y86.208 E9.0668
G1 X101.469 Y88.414 E9.1622
G1 X102.129 Y90.662 E9.2575
G1 X104.642 Y90.358 E9.3606
G1 X105.973 Y90.397 E9.4148
G1 X107.330 Y90.645 E9.4710
G1 X107.378 Y90.947 E9.4834
G1 X106.164 Y91.602 E9.5396
G1 X104.910 Y92.051 E9.5938
G1 X102.426 Y92.538 E9.6969
G1 X102.493 Y94.880 E9.7922
G1 X102.426 Y97.222 E9.8876
G1 X104.910 Y97.708 E9.9907
G1 X106.164 Y98.158 E10.0449
G1 X107.378 Y98.813 E10.1010
G1 X107.330 Y99.115 E10.1135
G1 X105.973 Y99.363 E10.1697
G1 X104.642 Y99.402 E10.2239
G1 X102.129 Y99.098 E10.3269
G1 X101.469 Y101.346 E10.4223
G1 X100.682 Y103.552 E10.5177
G1 X102.894 Y104.782 E10.6207
G1 X103.947 Y105.597 E10.6749
G1 X104.900 Y106.595 E10.7311
G1 X104.761 Y106.868 E10.7436
G1 X103.394 Y106.684 E10.7997
G1 X102.115 Y106.311 E10.8539
G1 X99.819 Y105.244 E10.9570
G1 X98.497 Y107.178 E11.0524
G1 X97.067 Y109.033 E11.1477
G1 X98.790 Y110.887 E11.2508
G1 X99.540 Y111.987 E11.3050
G1 X100.138 Y113.231 E11.3612
G1 X99.921 Y113.448 E11.3736
G1 X98.678 Y112.850 E11.4298
G1 X97.577 Y112.100 E11.4840
G1 X95.723 Y110.376 E11.5871
G1 X93.869 Y111.807 E11.6824
G1 X91.935 Y113.129 E11.7778
G1 X93.001 Y115.425 E11.8808
G1 X93.374 Y116.703 E11.9351
G1 X93.558 Y118.070 E11.9912
G1 X93.285 Y118.210 E12.0037
G1 X92.287 Y117.257 E12.0599
G1 X91.473 Y116.204 E12.1141
G1 X90.242 Y113.991 E12.2171
G1 X88.036 Y114.779 E12.3125
G1 X85.788 Y115.439 E12.4079
G1 X86.093 Y117.951 E12.5109
G1 X86.053 Y119.283 E12.5651
G1 X85.805 Y120.640 E12.6213
G1 X85.503 Y120.688 E12.6338
G1 X84.848 Y119.473 E12.6899
G1 X83.935 Y118.348 F18000
G92 E0.0000
G1 X83.519 Y116.227 E0.0880 F1350
G1 X81.570 Y116.283 E0.1673
G1 X79.621 Y116.227 E0.2467
G1 X79.206 Y118.348 E0.3347
G1 X78.732 Y119.670 E0.3918
G1 X78.066 Y120.905 E0.4490
G1 X77.481 Y121.683 E0.4886
G1 X77.173 Y121.634 E0.5013
G1 X76.897 Y120.851 E0.5351
G1 X76.642 Y119.614 E0.5865
G1 X76.556 Y118.345 E0.6383
G1 X76.601 Y117.440 E0.6752
G1 X76.845 Y115.790 E0.7431
G1 X74.956 Y115.236 E0.8232
G1 X73.120 Y114.580 E0.9026
G1 X72.070 Y116.469 E0.9905
G1 X71.211 Y117.579 E1.0477
G1 X70.195 Y118.549 E1.1049
G1 X69.398 Y119.107 E1.1445
G1 X69.110 Y118.960 E1.1576
G1 X69.091 Y118.548 E1.1744
G1 X69.167 Y117.353 E1.2232
G1 X69.393 Y116.185 E1.2716
G1 X69.766 Y115.055 E1.3201
G1 X70.606 Y113.300 E1.3993
G1 X68.990 Y112.196 E1.4790
G1 X67.446 Y111.005 E1.5583
G1 X65.863 Y112.476 E1.6463
G1 X64.703 Y113.267 E1.7035
G1 X63.438 Y113.875 E1.7606
G1 X62.508 Y114.160 E1.8002
G1 X62.290 Y113.943 E1.8127
G1 X62.575 Y113.013 E1.8523
G1 X63.183 Y111.747 E1.9095
G1 X63.974 Y110.587 E1.9667
G1 X65.445 Y109.004 E2.0546
G1 X64.255 Y107.461 E2.1340
G1 X63.154 Y105.851 E2.2134
G1 X61.195 Y106.761 E2.3013
