; G-Code generated by Simplify3D(R) Version 4.1.2
; Feb 24, 2021 at 6:41:30 PM
; Settings Summary
;   processName,Process1
;   applyToModels,ef-50mm-f1-8-stm
;   profileName,HBot (modified)
;   profileVersion,2019-10-26 23:38:43
;   baseProfile,Default
;   printMaterial,PETG - SUNLU
;   printQuality,Medium
;   printExtruders,
;   extruderName,Extruder 1
;   extruderToolheadNumber,0
;   extruderDiameter,0.4
;   extruderAutoWidth,1
;   extruderWidth,0.48
;   extrusionMultiplier,1.02
;   extruderUseRetract,1
;   extruderRetractionDistance,3
;   extruderExtraRestartDistance,0
;   extruderRetractionZLift,0
;   extruderRetractionSpeed,5400
;   extruderUseCoasting,0
;   extruderCoastingDistance,0.2
;   extruderUseWipe,1
;   extruderWipeDistance,2
;   primaryExtruder,0
;   layerHeight,0.2
;   topSolidLayers,4
;   bottomSolidLayers,4
;   perimeterOutlines,3
;   printPerimetersInsideOut,1
;   startPointOption,3
;   startPointOriginX,110
;   startPointOriginY,300
;   sequentialIslands,0
;   spiralVaseMode,0
;   firstLayerHeightPercentage,100
;   firstLayerWidthPercentage,100
;   firstLayerUnderspeed,0.5
;   useRaft,0
;   raftExtruder,0
;   raftTopLayers,3
;   raftBaseLayers,2
;   raftOffset,3
;   raftSeparationDistance,0.18
;   raftTopInfill,100
;   aboveRaftSpeedMultiplier,0.3
;   useSkirt,0
;   skirtExtruder,0
;   skirtLayers,1
;   skirtOutlines,5
;   skirtOffset,0
;   usePrimePillar,0
;   primePillarExtruder,999
;   primePillarWidth,12
;   primePillarLocation,7
;   primePillarSpeedMultiplier,1
;   useOozeShield,0
;   oozeShieldExtruder,999
;   oozeShieldOffset,0.9
;   oozeShieldOutlines,2
;   oozeShieldSidewallShape,0
;   oozeShieldSidewallAngle,30
;   oozeShieldSpeedMultiplier,1.5
;   infillExtruder,0
;   internalInfillPattern,Fast Honeycomb
;   externalInfillPattern,Rectilinear
;   infillPercentage,15
;   outlineOverlapPercentage,25
;   infillExtrusionWidthPercentage,100
;   minInfillLength,5
;   infillLayerInterval,1
;   internalInfillAngles,0
;   overlapInternalInfillAngles,0
;   externalInfillAngles,45,-45
;   generateSupport,0
;   supportExtruder,0
;   supportInfillPercentage,25
;   supportExtraInflation,0
;   supportBaseLayers,1
;   denseSupportExtruder,0
;   denseSupportLayers,0
;   denseSupportInfillPercentage,70
;   supportLayerInterval,1
;   supportHorizontalPartOffset,0.3
;   supportUpperSeparationLayers,1
;   supportLowerSeparationLayers,1
;   supportType,0
;   supportGridSpacing,2
;   maxOverhangAngle,25
;   supportAngles,0
;   temperatureName,Extruder 1,Heated Bed
;   temperatureNumber,0,1
;   temperatureSetpointCount,2,1
;   temperatureSetpointLayers,1,2,1
;   temperatureSetpointTemperatures,215,215,85
;   temperatureStabilizeAtStartup,1,1
;   temperatureHeatedBed,0,1
;   fanLayers,1,5,10
;   fanSpeeds,0,5,20
;   blipFanToFullPower,1
;   adjustSpeedForCooling,0
;   minSpeedLayerTime,15
;   minCoolingSpeedSlowdown,20
;   increaseFanForCooling,1
;   minFanLayerTime,15
;   maxCoolingFanSpeed,40
;   increaseFanForBridging,1
;   bridgingFanSpeed,85
;   use5D,1
;   relativeEdistances,0
;   allowEaxisZeroing,1
;   independentExtruderAxes,0
;   includeM10123,0
;   stickySupport,1
;   applyToolheadOffsets,0
;   gcodeXoffset,0
;   gcodeYoffset,0
;   gcodeZoffset,0
;   overrideMachineDefinition,1
;   machineTypeOverride,0
;   strokeXoverride,210
;   strokeYoverride,210
;   strokeZoverride,150
;   originOffsetXoverride,0
;   originOffsetYoverride,0
;   originOffsetZoverride,0
;   homeXdirOverride,-1
;   homeYdirOverride,-1
;   homeZdirOverride,-1
;   flipXoverride,1
;   flipYoverride,-1
;   flipZoverride,1
;   toolheadOffsets,0,0|0,0|0,0|0,0|0,0|0,0
;   overrideFirmwareConfiguration,1
;   firmwareTypeOverride,RepRap (Marlin/Repetier/Sprinter)
;   GPXconfigOverride,r2
;   baudRateOverride,115200
;   overridePrinterModels,0
;   printerModelsOverride
;   startingGcode,G28 ; home all axes,G32 ; run bed.g -- probe bed and enable compensation
;   layerChangeGcode,
;   retractionGcode,
;   toolChangeGcode,
;   endingGcode,M0 ; call stop.g
;   exportFileFormat,gcode
;   celebration,0
;   celebrationSong,Random Song
;   postProcessing,
;   defaultSpeed,3600
;   outlineUnderspeed,0.5
;   solidInfillUnderspeed,0.8
;   supportUnderspeed,0.8
;   rapidXYspeed,18000
;   rapidZspeed,1200
;   minBridgingArea,50
;   bridgingExtraInflation,0
;   bridgingExtrusionMultiplier,0.96
;   bridgingSpeedMultiplier,1
;   useFixedBridgingAngle,0
;   fixedBridgingAngle,0
;   applyBridgingToPerimeters,0
;   filamentDiameters,1.75|1.75|1.75|1.75|1.75|1.75
;   filamentPricesPerKg,46|46|46|46|46|46
;   filamentDensities,1.25|1.25|1.25|1.25|1.25|1.25
;   useMinPrintHeight,0
;   minPrintHeight,17.2
;   useMaxPrintHeight,0
;   maxPrintHeight,4
;   useDiaphragm,0
;   diaphragmLayerInterval,20
;   robustSlicing,1
;   mergeAllIntoSolid,0
;   onlyRetractWhenCrossingOutline,1
;   retractBetweenLayers,0
;   useRetractionMinTravel,1
;   retractionMinTravel,3
;   retractWhileWiping,1
;   onlyWipeOutlines,1
;   avoidCrossingOutline,1
;   maxMovementDetourFactor,5
;   toolChangeRetractionDistance,12
;   toolChangeExtraRestartDistance,-0.5
;   toolChangeRetractionSpeed,600
;   externalThinWallType,0
;   internalThinWallType,2
;   thinWallAllowedOverlapPercentage,10
;   singleExtrusionMinLength,1
;   singleExtrusionMinPrintingWidthPercentage,50
;   singleExtrusionMaxPrintingWidthPercentage,150
;   singleExtrusionEndpointExtension,0.2
;   horizontalSizeCompensation,0
G90
M82
M106 S0
M140 S85
M190 S85
M104 S215 T0
M109 S215 T0
G28 ; home all axes
G32 ; run bed.g -- probe bed and enable compensation
; process Process1
; layer 1, Z = 0.200
T0
G92 E0.0000
G1 E-3.0000 F5400
; feature inner perimeter
; tool H0.200 W0.480
G1 Z0.200 F1200
G1 X104.432 Y140.315 F18000
G1 E0.0000 F5400
G92 E0.0000
G1 X103.445 Y140.295 E0.0402 F1350
G1 X102.417 Y140.235 E0.0821
G1 X101.562 Y140.161 E0.1170
G1 X100.708 Y140.067 E0.1520
G1 X99.857 Y139.953 E0.1870
G1 X99.009 Y139.817 E0.2220
G1 X98.164 Y139.661 E0.2569
G1 X97.326 Y139.486 E0.2918
G1 X95.823 Y139.117 E0.3548
G1 X94.175 Y138.630 E0.4247
G1 X92.553 Y138.064 E0.4947
G1 X90.960 Y137.420 E0.5646
G1 X89.401 Y136.699 E0.6346
G1 X87.878 Y135.903 E0.7045
G1 X86.393 Y135.033 E0.7746
G1 X85.527 Y134.478 E0.8165
G1 X84.816 Y133.996 E0.8514
G1 X84.117 Y133.497 E0.8864
G1 X83.431 Y132.981 E0.9213
G1 X82.757 Y132.448 E0.9563
G1 X82.096 Y131.899 E0.9913
G1 X81.449 Y131.334 E1.0263
G1 X80.815 Y130.754 E1.0612
G1 X80.196 Y130.159 E1.0962
G1 X79.592 Y129.548 E1.1312
G1 X79.002 Y128.923 E1.1662
G1 X78.429 Y128.284 E1.2011
G1 X77.870 Y127.631 E1.2361
G1 X77.328 Y126.965 E1.2711
G1 X76.802 Y126.285 E1.3060
G1 X76.293 Y125.594 E1.3410
G1 X75.801 Y124.889 E1.3760
G1 X75.326 Y124.174 E1.4110
G1 X74.869 Y123.447 E1.4459
G1 X74.429 Y122.708 E1.4809
G1 X74.007 Y121.960 E1.5159
G1 X73.604 Y121.202 E1.5508
G1 X73.220 Y120.433 E1.5858
G1 X72.854 Y119.656 E1.6208
G1 X72.507 Y118.870 E1.6558
G1 X72.179 Y118.077 E1.6907
G1 X71.871 Y117.274 E1.7257
G1 X71.582 Y116.465 E1.7607
G1 X71.314 Y115.649 E1.7956
G1 X71.064 Y114.827 E1.8306
G1 X70.836 Y114.000 E1.8656
G1 X70.627 Y113.165 E1.9006
G1 X70.439 Y112.328 E1.9355
G1 X70.270 Y111.485 E1.9705
G1 X70.123 Y110.639 E2.0055
G1 X69.996 Y109.789 E2.0405
G1 X69.890 Y108.937 E2.0754
G1 X69.805 Y108.082 E2.1104
G1 X69.740 Y107.226 E2.1454
G1 X69.697 Y106.368 E2.1803
G1 X69.670 Y105.377 E2.2207
G1 X70.532 Y106.267 E2.2711
G1 X70.596 Y106.354 E2.2755
G1 X70.657 Y106.460 E2.2805
G1 X70.706 Y106.572 E2.2855
G1 X70.744 Y106.688 E2.2905
G1 X70.770 Y106.808 E2.2954
G1 X70.786 Y106.952 E2.3014
G1 X70.843 Y107.786 E2.3354
G1 X70.924 Y108.641 E2.3703
G1 X71.026 Y109.493 E2.4053
G1 X71.149 Y110.342 E2.4402
G1 X71.293 Y111.189 E2.4752
G1 X71.459 Y112.031 E2.5101
G1 X71.646 Y112.869 E2.5451
G1 X71.853 Y113.702 E2.5800
G1 X72.082 Y114.530 E2.6150
G1 X72.330 Y115.351 E2.6499
G1 X72.600 Y116.166 E2.6849
G1 X72.890 Y116.974 E2.7198
G1 X73.200 Y117.775 E2.7548
G1 X73.530 Y118.567 E2.7897
G1 X73.880 Y119.351 E2.8246
G1 X74.249 Y120.126 E2.8596
G1 X74.637 Y120.891 E2.8945
G1 X75.046 Y121.650 E2.9296
G1 X75.693 Y122.758 E2.9818
G1 X76.378 Y123.847 E3.0342
G1 X76.861 Y124.560 E3.0693
G1 X77.359 Y125.258 E3.1042
G1 X77.875 Y125.945 E3.1392
G1 X78.408 Y126.618 E3.1741
G1 X78.958 Y127.277 E3.2091
G1 X79.524 Y127.922 E3.2440
G1 X80.106 Y128.553 E3.2790
G1 X80.704 Y129.169 E3.3139
G1 X81.317 Y129.770 E3.3489
G1 X81.945 Y130.356 E3.3838
G1 X82.587 Y130.925 E3.4187
G1 X83.244 Y131.478 E3.4537
G1 X83.914 Y132.015 E3.4887
G1 X84.597 Y132.535 E3.5236
G1 X85.293 Y133.037 E3.5585
G1 X86.002 Y133.522 E3.5935
G1 X86.722 Y133.989 E3.6284
G1 X87.454 Y134.438 E3.6634
G1 X88.197 Y134.868 E3.6983
G1 X88.950 Y135.279 E3.7333
G1 X89.714 Y135.672 E3.7682
G1 X90.487 Y136.045 E3.8032
G1 X91.271 Y136.400 E3.8382
G1 X92.458 Y136.890 E3.8905
G1 X93.662 Y137.340 E3.9428
G1 X94.478 Y137.615 E3.9779
G1 X95.299 Y137.868 E4.0128
G1 X96.125 Y138.101 E4.0478
G1 X96.957 Y138.313 E4.0828
G1 X97.794 Y138.504 E4.1177
G1 X98.635 Y138.674 E4.1526
G1 X99.481 Y138.823 E4.1876
G1 X100.330 Y138.950 E4.2225
G1 X101.182 Y139.057 E4.2575
G1 X102.036 Y139.142 E4.2924
G1 X102.869 Y139.203 E4.3264
G1 X103.013 Y139.220 E4.3324
G1 X103.133 Y139.246 E4.3373
G1 X103.249 Y139.285 E4.3423
G1 X103.360 Y139.335 E4.3473
G1 X103.466 Y139.397 E4.3523
G1 X103.554 Y139.462 E4.3567
G1 X104.432 Y140.315 E4.4066
G1 X104.780 Y139.968 F18000
G1 X105.098 Y140.182
G1 X105.310 Y140.284
G1 X105.631 Y140.393
G1 X106.071 Y140.463
G1 X106.300 Y140.466
G1 X107.171 Y140.424
G1 X108.037 Y140.360
G1 X108.901 Y140.275
G1 X109.762 Y140.169
G1 X110.621 Y140.042
G1 X111.476 Y139.894
G1 X112.328 Y139.725
G1 X113.175 Y139.536
G1 X114.017 Y139.325
G1 X114.854 Y139.095
G1 X115.685 Y138.843
G1 X116.509 Y138.572
G1 X117.327 Y138.280
G1 X118.137 Y137.969
G1 X118.940 Y137.638
G1 X119.734 Y137.287
G1 X120.519 Y136.917
G1 X121.295 Y136.528
G1 X122.061 Y136.120
G1 X122.817 Y135.693
G1 X123.563 Y135.248
G1 X124.297 Y134.785
G1 X125.020 Y134.305
G1 X125.730 Y133.806
G1 X126.429 Y133.290
G1 X127.114 Y132.758
G1 X127.787 Y132.209
G1 X128.445 Y131.643
G1 X129.090 Y131.062
G1 X129.720 Y130.465
G1 X130.335 Y129.853
G1 X130.936 Y129.225
G1 X131.804 Y128.257
G1 X132.641 Y127.260
G1 X133.178 Y126.576
G1 X133.697 Y125.881
G1 X134.199 Y125.172
G1 X134.684 Y124.452
G1 X135.151 Y123.720
G1 X135.600 Y122.977
G1 X136.030 Y122.224
G1 X136.442 Y121.460
G1 X136.836 Y120.686
G1 X137.210 Y119.902
G1 X137.564 Y119.110
G1 X137.900 Y118.309
G1 X138.215 Y117.501
G1 X138.511 Y116.685
G1 X138.787 Y115.862
G1 X139.043 Y115.032
G1 X139.278 Y114.196
G1 X139.492 Y113.355
G1 X139.686 Y112.509
G1 X139.860 Y111.659
G1 X140.012 Y110.804
G1 X140.144 Y109.946
G1 X140.254 Y109.085
G1 X140.344 Y108.221
G1 X140.412 Y107.356
G1 X140.459 Y106.485
G1 X140.457 Y106.256
G1 X140.389 Y105.813
G1 X140.237 Y105.392
G1 X140.123 Y105.182
G1 X139.972 Y104.979
G1 X140.330 Y104.623
G92 E0.0000
G1 X139.468 Y103.733 E0.0504 F1350
G1 X139.404 Y103.646 E0.0548
G1 X139.343 Y103.540 E0.0598
G1 X139.294 Y103.428 E0.0648
G1 X139.256 Y103.312 E0.0698
G1 X139.230 Y103.192 E0.0748
G1 X139.214 Y103.048 E0.0807
G1 X139.157 Y102.214 E0.1147
G1 X139.076 Y101.359 E0.1496
G1 X138.974 Y100.507 E0.1846
G1 X138.851 Y99.658 E0.2195
G1 X138.707 Y98.811 E0.2545
G1 X138.541 Y97.969 E0.2894
G1 X138.354 Y97.131 E0.3244
G1 X138.147 Y96.298 E0.3593
G1 X137.918 Y95.471 E0.3943
G1 X137.670 Y94.649 E0.4292
G1 X137.400 Y93.834 E0.4642
G1 X137.110 Y93.026 E0.4991
G1 X136.800 Y92.225 E0.5341
G1 X136.470 Y91.433 E0.5690
G1 X136.120 Y90.649 E0.6040
G1 X135.751 Y89.874 E0.6389
G1 X135.363 Y89.108 E0.6739
G1 X134.955 Y88.353 E0.7088
G1 X134.529 Y87.608 E0.7437
G1 X134.084 Y86.874 E0.7787
G1 X133.621 Y86.151 E0.8136
G1 X133.139 Y85.440 E0.8486
G1 X132.641 Y84.742 E0.8835
G1 X132.125 Y84.055 E0.9185
G1 X131.592 Y83.382 E0.9534
G1 X131.042 Y82.723 E0.9884
G1 X130.476 Y82.078 E1.0233
G1 X129.894 Y81.447 E1.0583
G1 X129.296 Y80.831 E1.0932
G1 X128.683 Y80.230 E1.1282
G1 X128.055 Y79.644 E1.1631
G1 X127.413 Y79.075 E1.1981
G1 X126.756 Y78.522 E1.2330
G1 X126.086 Y77.985 E1.2680
G1 X125.403 Y77.465 E1.3029
G1 X124.707 Y76.963 E1.3378
G1 X123.998 Y76.478 E1.3728
G1 X123.278 Y76.011 E1.4078
G1 X122.544 Y75.561 E1.4428
G1 X121.428 Y74.927 E1.4951
G1 X120.289 Y74.329 E1.5474
G1 X119.513 Y73.955 E1.5825
G1 X118.729 Y73.600 E1.6175
G1 X117.542 Y73.110 E1.6698
G1 X116.338 Y72.660 E1.7222
G1 X115.521 Y72.385 E1.7572
G1 X114.701 Y72.132 E1.7922
G1 X113.875 Y71.899 E1.8271
G1 X113.043 Y71.687 E1.8621
G1 X112.206 Y71.496 E1.8970
G1 X111.365 Y71.326 E1.9320
G1 X110.519 Y71.177 E1.9669
G1 X109.670 Y71.050 E2.0019
G1 X108.818 Y70.943 E2.0368
G1 X107.964 Y70.858 E2.0717
G1 X107.131 Y70.797 E2.1057
G1 X106.987 Y70.780 E2.1117
G1 X106.867 Y70.754 E2.1167
G1 X106.751 Y70.715 E2.1216
G1 X106.640 Y70.665 E2.1266
G1 X106.534 Y70.603 E2.1316
G1 X106.446 Y70.538 E2.1361
G1 X105.554 Y69.671 E2.1867
G1 X106.550 Y69.704 E2.2273
G1 X107.584 Y69.766 E2.2694
G1 X108.265 Y69.821 E2.2973
G1 X109.292 Y69.933 E2.3393
G1 X110.143 Y70.047 E2.3743
G1 X110.991 Y70.183 E2.4092
G1 X111.835 Y70.338 E2.4442
G1 X112.674 Y70.514 E2.4791
G1 X114.177 Y70.883 E2.5421
G1 X115.825 Y71.370 E2.6120
G1 X117.447 Y71.936 E2.6820
G1 X119.040 Y72.580 E2.7519
G1 X120.599 Y73.301 E2.8219
G1 X122.121 Y74.096 E2.8918
G1 X123.607 Y74.967 E2.9619
G1 X124.473 Y75.522 E3.0038
G1 X125.184 Y76.004 E3.0387
G1 X125.883 Y76.503 E3.0737
G1 X126.569 Y77.019 E3.1086
G1 X127.244 Y77.552 E3.1436
G1 X127.904 Y78.100 E3.1786
G1 X128.551 Y78.666 E3.2136
G1 X129.185 Y79.246 E3.2485
G1 X129.804 Y79.841 E3.2835
G1 X130.408 Y80.452 E3.3185
G1 X130.997 Y81.077 E3.3534
G1 X131.571 Y81.716 E3.3884
G1 X132.130 Y82.369 E3.4234
G1 X132.672 Y83.035 E3.4584
G1 X133.198 Y83.715 E3.4934
G1 X133.707 Y84.406 E3.5283
G1 X134.199 Y85.111 E3.5633
G1 X134.674 Y85.826 E3.5983
G1 X135.131 Y86.553 E3.6332
G1 X135.571 Y87.292 E3.6682
G1 X135.993 Y88.040 E3.7032
G1 X136.396 Y88.799 E3.7381
G1 X136.780 Y89.567 E3.7731
G1 X137.146 Y90.344 E3.8081
G1 X137.493 Y91.130 E3.8431
G1 X137.821 Y91.924 E3.8780
G1 X138.129 Y92.726 E3.9130
G1 X138.418 Y93.535 E3.9480
G1 X138.686 Y94.350 E3.9829
G1 X138.936 Y95.173 E4.0179
G1 X139.164 Y96.001 E4.0529
G1 X139.373 Y96.834 E4.0879
G1 X139.561 Y97.672 E4.1228
G1 X139.729 Y98.515 E4.1578
G1 X139.877 Y99.361 E4.1928
G1 X140.004 Y100.211 E4.2277
G1 X140.110 Y101.063 E4.2627
G1 X140.195 Y101.918 E4.2977
G1 X140.260 Y102.774 E4.3326
G1 X140.303 Y103.633 E4.3676
G1 X140.330 Y104.623 E4.4080
; feature outer perimeter
G1 X140.806 Y104.484 F18000
G92 E0.0000
G1 X140.808 Y105.355 E0.0354 F900
G1 X140.789 Y106.226 E0.0709
G1 X140.749 Y107.095 E0.1063
G1 X140.687 Y107.964 E0.1418
G1 X140.604 Y108.831 E0.1772
G1 X140.501 Y109.695 E0.2127
G1 X140.376 Y110.557 E0.2481
G1 X140.231 Y111.415 E0.2836
G1 X140.064 Y112.270 E0.3190
G1 X139.877 Y113.120 E0.3545
G1 X139.669 Y113.966 E0.3899
G1 X139.441 Y114.806 E0.4254
G1 X139.193 Y115.640 E0.4608
G1 X138.924 Y116.469 E0.4963
G1 X138.635 Y117.290 E0.5317
G1 X138.326 Y118.104 E0.5671
G1 X137.998 Y118.911 E0.6026
G1 X137.650 Y119.709 E0.6380
G1 X137.282 Y120.498 E0.6735
G1 X136.896 Y121.279 E0.7089
G1 X136.491 Y122.049 E0.7444
G1 X136.067 Y122.810 E0.7798
G1 X135.625 Y123.560 E0.8153
G1 X135.165 Y124.299 E0.8507
G1 X134.686 Y125.027 E0.8862
G1 X134.191 Y125.743 E0.9216
G1 X133.678 Y126.446 E0.9571
G1 X133.148 Y127.137 E0.9925
G1 X132.601 Y127.815 E1.0280
G1 X132.039 Y128.479 E1.0634
G1 X131.460 Y129.130 E1.0989
G1 X130.865 Y129.766 E1.1343
G1 X130.255 Y130.387 E1.1698
G1 X129.630 Y130.994 E1.2052
G1 X128.991 Y131.585 E1.2406
G1 X128.338 Y132.161 E1.2761
G1 X127.671 Y132.720 E1.3115
G1 X126.990 Y133.263 E1.3470
G1 X126.296 Y133.789 E1.3824
G1 X125.590 Y134.299 E1.4179
G1 X124.871 Y134.791 E1.4533
G1 X124.142 Y135.265 E1.4888
G1 X123.248 Y135.810 E1.5314
G1 X122.648 Y136.159 E1.5596
G1 X121.729 Y136.661 E1.6023
G1 X121.112 Y136.981 E1.6306
G1 X120.170 Y137.436 E1.6732
G1 X119.539 Y137.726 E1.7014
G1 X118.575 Y138.136 E1.7441
G1 X117.931 Y138.394 E1.7723
G1 X116.949 Y138.756 E1.8149
G1 X116.125 Y139.037 E1.8504
G1 X115.295 Y139.297 E1.8858
