; G-Code generated by Simplify3D(R) Version 4.1.2
; Feb 24, 2021 at 7:15:59 PM
; Settings Summary
;   processName,Process1
;   applyToModels,ef-50mm-f1-8-stm
;   profileName,HBot (modified)
;   profileVersion,2019-10-26 23:38:43
;   baseProfile,Default
;   printMaterial,PETG - SUNLU
;   printQuality,Medium
;   printExtruders,
;   extruderName,Extruder 1
;   extruderToolheadNumber,0
;   extruderDiameter,0.4
;   extruderAutoWidth,1
;   extruderWidth,0.48
;   extrusionMultiplier,1.02
;   extruderUseRetract,1
;   extruderRetractionDistance,3
;   extruderExtraRestartDistance,0
;   extruderRetractionZLift,0
;   extruderRetractionSpeed,5400
;   extruderUseCoasting,0
;   extruderCoastingDistance,0.2
;   extruderUseWipe,1
;   extruderWipeDistance,2
;   primaryExtruder,0
;   layerHeight,0.2
;   topSolidLayers,4
;   bottomSolidLayers,4
;   perimeterOutlines,3
;   printPerimetersInsideOut,1
;   startPointOption,3
;   startPointOriginX,110
;   startPointOriginY,300
;   sequentialIslands,0
;   spiralVaseMode,0
;   firstLayerHeightPercentage,100
;   firstLayerWidthPercentage,100
;   firstLayerUnderspeed,0.5
;   useRaft,0
;   raftExtruder,0
;   raftTopLayers,3
;   raftBaseLayers,2
;   raftOffset,3
;   raftSeparationDistance,0.18
;   raftTopInfill,100
;   aboveRaftSpeedMultiplier,0.3
;   useSkirt,0
;   skirtExtruder,0
;   skirtLayers,1
;   skirtOutlines,5
;   skirtOffset,0
;   usePrimePillar,0
;   primePillarExtruder,999
;   primePillarWidth,12
;   primePillarLocation,7
;   primePillarSpeedMultiplier,1
;   useOozeShield,0
;   oozeShieldExtruder,999
;   oozeShieldOffset,0.9
;   oozeShieldOutlines,2
;   oozeShieldSidewallShape,0
;   oozeShieldSidewallAngle,30
;   oozeShieldSpeedMultiplier,1.5
;   infillExtruder,0
;   internalInfillPattern,Fast Honeycomb
;   externalInfillPattern,Rectilinear
;   infillPercentage,15
;   outlineOverlapPercentage,25
;   infillExtrusionWidthPercentage,100
;   minInfillLength,5
;   infillLayerInterval,1
;   internalInfillAngles,0
;   overlapInternalInfillAngles,0
;   externalInfillAngles,45,-45
;   generateSupport,0
;   supportExtruder,0
;   supportInfillPercentage,25
;   supportExtraInflation,0
;   supportBaseLayers,1
;   denseSupportExtruder,0
;   denseSupportLayers,0
;   denseSupportInfillPercentage,70
;   supportLayerInterval,1
;   supportHorizontalPartOffset,0.3
;   supportUpperSeparationLayers,1
;   supportLowerSeparationLayers,1
;   supportType,0
;   supportGridSpacing,2
;   maxOverhangAngle,25
;   supportAngles,0
;   temperatureName,Extruder 1,Heated Bed
;   temperatureNumber,0,1
;   temperatureSetpointCount,2,1
;   temperatureSetpointLayers,1,2,1
;   temperatureSetpointTemperatures,215,215,85
;   temperatureStabilizeAtStartup,1,1
;   temperatureHeatedBed,0,1
;   fanLayers,1,5,10
;   fanSpeeds,0,5,20
;   blipFanToFullPower,1
;   adjustSpeedForCooling,0
;   minSpeedLayerTime,15
;   minCoolingSpeedSlowdown,20
;   increaseFanForCooling,1
;   minFanLayerTime,15
;   maxCoolingFanSpeed,40
;   increaseFanForBridging,1
;   bridgingFanSpeed,85
;   use5D,1
;   relativeEdistances,0
;   allowEaxisZeroing,1
;   independentExtruderAxes,0
;   includeM10123,0
;   stickySupport,1
;   applyToolheadOffsets,0
;   gcodeXoffset,0
;   gcodeYoffset,0
;   gcodeZoffset,0
;   overrideMachineDefinition,1
;   machineTypeOverride,0
;   strokeXoverride,210
;   strokeYoverride,210
;   strokeZoverride,150
;   originOffsetXoverride,0
;   originOffsetYoverride,0
;   originOffsetZoverride,0
;   homeXdirOverride,-1
;   homeYdirOverride,-1
;   homeZdirOverride,-1
;   flipXoverride,1
;   flipYoverride,-1
;   flipZoverride,1
;   toolheadOffsets,0,0|0,0|0,0|0,0|0,0|0,0
;   overrideFirmwareConfiguration,1
;   firmwareTypeOverride,RepRap (Marlin/Repetier/Sprinter)
;   GPXconfigOverride,r2
;   baudRateOverride,115200
;   overridePrinterModels,0
;   printerModelsOverride
;   startingGcode,G28 ; home all axes,G32 ; run bed.g -- probe bed and enable compensation
;   layerChangeGcode,
;   retractionGcode,
;   toolChangeGcode,
;   endingGcode,M0 ; call stop.g
;   exportFileFormat,gcode
;   celebration,0
;   celebrationSong,Random Song
;   postProcessing,
;   defaultSpeed,3600
;   outlineUnderspeed,0.5
;   solidInfillUnderspeed,0.8
;   supportUnderspeed,0.8
;   rapidXYspeed,18000
;   rapidZspeed,1200
;   minBridgingArea,50
;   bridgingExtraInflation,0
;   bridgingExtrusionMultiplier,0.96
;   bridgingSpeedMultiplier,1
;   useFixedBridgingAngle,0
;   fixedBridgingAngle,0
;   applyBridgingToPerimeters,0
;   filamentDiameters,1.75|1.75|1.75|1.75|1.75|1.75
;   filamentPricesPerKg,46|46|46|46|46|46
;   filamentDensities,1.25|1.25|1.25|1.25|1.25|1.25
;   useMinPrintHeight,0
;   minPrintHeight,17.2
;   useMaxPrintHeight,0
;   maxPrintHeight,4
;   useDiaphragm,0
;   diaphragmLayerInterval,20
;   robustSlicing,1
;   mergeAllIntoSolid,0
;   onlyRetractWhenCrossingOutline,1
;   retractBetweenLayers,0
;   useRetractionMinTravel,1
;   retractionMinTravel,3
;   retractWhileWiping,1
;   onlyWipeOutlines,1
;   avoidCrossingOutline,1
;   maxMovementDetourFactor,5
;   toolChangeRetractionDistance,12
;   toolChangeExtraRestartDistance,-0.5
;   toolChangeRetractionSpeed,600
;   externalThinWallType,0
;   internalThinWallType,2
;   thinWallAllowedOverlapPercentage,10
;   singleExtrusionMinLength,1
;   singleExtrusionMinPrintingWidthPercentage,50
;   singleExtrusionMaxPrintingWidthPercentage,150
;   singleExtrusionEndpointExtension,0.2
;   horizontalSizeCompensation,0
G90
M82
M106 S0
M140 S85
M190 S85
M104 S215 T0
M109 S215 T0
G28 ; home all axes
G32 ; run bed.g -- probe bed and enable compensation
; process Process1
; layer 1, Z = 0.200
T0
G92 E0.0000
G1 E-3.0000 F5400
; feature inner perimeter
; tool H0.200 W0.480
G1 Z0.200 F1200
G1 X128.411 Y79.671 F18000
G1 E0.0000 F5400
G92 E0.0000
G1 X128.304 Y79.654 E0.0044 F1350
G1 X128.186 Y79.622 E0.0094
G1 X128.071 Y79.579 E0.0144
G1 X127.962 Y79.524 E0.0193
G1 X127.859 Y79.458 E0.0243
G1 X127.746 Y79.367 E0.0303
G1 X127.114 Y78.820 E0.0643
G1 X126.452 Y78.274 E0.0992
G1 X125.775 Y77.745 E0.1342
G1 X125.086 Y77.234 E0.1691
G1 X124.384 Y76.739 E0.2040
G1 X123.671 Y76.262 E0.2390
G1 X122.945 Y75.804 E0.2740
G1 X122.208 Y75.363 E0.3089
G1 X121.460 Y74.942 E0.3438
G1 X120.702 Y74.539 E0.3788
G1 X119.934 Y74.155 E0.4137
G1 X119.157 Y73.791 E0.4487
G1 X118.371 Y73.446 E0.4836
G1 X117.576 Y73.121 E0.5186
G1 X116.774 Y72.816 E0.5535
G1 X115.964 Y72.531 E0.5885
G1 X115.144 Y72.266 E0.6236
G1 X113.911 Y71.911 E0.6758
G1 X112.664 Y71.598 E0.7281
G1 X111.822 Y71.416 E0.7632
G1 X110.978 Y71.255 E0.7982
G1 X110.131 Y71.116 E0.8331
G1 X109.281 Y70.998 E0.8680
G1 X108.428 Y70.902 E0.9030
G1 X107.573 Y70.827 E0.9379
G1 X106.716 Y70.773 E0.9729
G1 X105.858 Y70.741 E1.0079
G1 X105.000 Y70.730 E1.0428
G1 X104.142 Y70.741 E1.0777
G1 X103.284 Y70.773 E1.1127
G1 X102.427 Y70.827 E1.1476
G1 X101.572 Y70.902 E1.1826
G1 X100.719 Y70.998 E1.2175
G1 X99.869 Y71.116 E1.2525
G1 X99.019 Y71.256 E1.2875
G1 X97.760 Y71.506 E1.3398
G1 X96.508 Y71.799 E1.3921
G1 X95.676 Y72.023 E1.4272
G1 X94.853 Y72.267 E1.4622
G1 X94.036 Y72.531 E1.4971
G1 X93.226 Y72.816 E1.5321
G1 X92.424 Y73.121 E1.5670
G1 X91.629 Y73.446 E1.6020
G1 X90.843 Y73.791 E1.6369
G1 X90.066 Y74.155 E1.6718
G1 X89.298 Y74.539 E1.7068
G1 X88.540 Y74.942 E1.7418
G1 X87.792 Y75.363 E1.7767
G1 X87.055 Y75.804 E1.8116
G1 X86.329 Y76.262 E1.8466
G1 X85.616 Y76.739 E1.8815
G1 X84.914 Y77.234 E1.9165
G1 X84.225 Y77.745 E1.9514
G1 X83.548 Y78.274 E1.9864
G1 X82.886 Y78.820 E2.0213
G1 X82.254 Y79.367 E2.0553
G1 X82.141 Y79.458 E2.0613
G1 X82.038 Y79.524 E2.0662
G1 X81.929 Y79.579 E2.0712
G1 X81.814 Y79.622 E2.0762
G1 X81.696 Y79.654 E2.0812
G1 X81.588 Y79.671 E2.0856
G1 X80.364 Y79.691 E2.1355
G1 X81.074 Y79.005 E2.1757
G1 X81.842 Y78.320 E2.2176
G1 X82.497 Y77.765 E2.2525
G1 X83.166 Y77.226 E2.2875
G1 X83.847 Y76.703 E2.3224
G1 X84.542 Y76.197 E2.3574
G1 X85.248 Y75.708 E2.3924
G1 X85.963 Y75.239 E2.4272
G1 X87.285 Y74.433 E2.4903
G1 X88.792 Y73.608 E2.5602
G1 X90.337 Y72.857 E2.6301
G1 X91.917 Y72.182 E2.7001
G1 X93.528 Y71.585 E2.7700
G1 X95.166 Y71.067 E2.8400
G1 X96.831 Y70.628 E2.9101
G1 X97.835 Y70.405 E2.9519
G1 X98.677 Y70.241 E2.9869
G1 X99.525 Y70.097 E3.0218
G1 X100.375 Y69.975 E3.0568
G1 X101.228 Y69.872 E3.0918
G1 X102.082 Y69.791 E3.1267
G1 X102.940 Y69.731 E3.1617
G1 X103.798 Y69.691 E3.1967
G1 X104.657 Y69.672 E3.2317
G1 X105.516 Y69.674 E3.2666
G1 X106.375 Y69.697 E3.3016
G1 X107.232 Y69.741 E3.3366
G1 X108.089 Y69.806 E3.3716
G1 X108.944 Y69.891 E3.4066
G1 X109.796 Y69.997 E3.4415
G1 X110.646 Y70.124 E3.4765
G1 X111.492 Y70.272 E3.5115
G1 X112.334 Y70.440 E3.5464
G1 X113.173 Y70.629 E3.5814
G1 X114.006 Y70.838 E3.6164
G1 X114.834 Y71.067 E3.6513
G1 X115.656 Y71.316 E3.6863
G1 X116.472 Y71.585 E3.7213
G1 X117.281 Y71.874 E3.7563
G1 X118.082 Y72.182 E3.7912
G1 X118.877 Y72.510 E3.8262
G1 X119.662 Y72.857 E3.8612
G1 X120.440 Y73.223 E3.8961
G1 X121.208 Y73.608 E3.9311
G1 X121.966 Y74.010 E3.9661
G1 X122.715 Y74.432 E4.0011
G1 X123.453 Y74.872 E4.0360
G1 X124.180 Y75.330 E4.0710
G1 X124.895 Y75.805 E4.1060
G1 X125.599 Y76.297 E4.1410
G1 X126.291 Y76.806 E4.1759
G1 X126.971 Y77.333 E4.2109
G1 X127.636 Y77.875 E4.2459
G1 X128.289 Y78.433 E4.2808
G1 X128.929 Y79.008 E4.3158
G1 X129.649 Y79.687 E4.3562
G1 X128.411 Y79.671 E4.4066
G1 X128.423 Y80.151 F18000
G1 X129.464 Y80.165
G1 X129.906 Y80.228
G1 X130.334 Y80.379
G1 X130.725 Y80.609
G1 X131.056 Y80.904
G1 X131.645 Y81.556
G1 X132.210 Y82.215
G1 X132.759 Y82.887
G1 X133.292 Y83.573
G1 X133.807 Y84.271
G1 X134.306 Y84.982
G1 X134.787 Y85.705
G1 X135.250 Y86.439
G1 X135.694 Y87.184
G1 X136.121 Y87.941
G1 X136.529 Y88.707
G1 X136.918 Y89.483
G1 X137.288 Y90.268
G1 X137.639 Y91.062
G1 X137.970 Y91.865
G1 X138.281 Y92.675
G1 X138.573 Y93.493
G1 X138.844 Y94.317
G1 X139.095 Y95.148
G1 X139.326 Y95.985
G1 X139.536 Y96.827
G1 X139.726 Y97.674
G1 X139.894 Y98.526
G1 X140.042 Y99.381
G1 X140.169 Y100.240
G1 X140.275 Y101.101
G1 X140.360 Y101.965
G1 X140.424 Y102.831
G1 X140.466 Y103.698
G1 X140.487 Y104.566
G1 X140.487 Y105.434
G1 X140.466 Y106.302
G1 X140.424 Y107.169
G1 X140.360 Y108.035
G1 X140.275 Y108.899
G1 X140.169 Y109.760
G1 X140.042 Y110.619
G1 X139.894 Y111.474
G1 X139.726 Y112.326
G1 X139.536 Y113.173
G1 X139.326 Y114.015
G1 X139.095 Y114.852
G1 X138.844 Y115.683
G1 X138.573 Y116.507
G1 X138.281 Y117.325
G1 X137.970 Y118.135
G1 X137.639 Y118.938
G1 X137.288 Y119.732
G1 X136.918 Y120.517
G1 X136.529 Y121.293
G1 X136.121 Y122.059
G1 X135.694 Y122.816
G1 X135.250 Y123.561
G1 X134.787 Y124.295
G1 X134.306 Y125.018
G1 X133.807 Y125.729
G1 X133.292 Y126.427
G1 X132.759 Y127.113
G1 X132.210 Y127.785
G1 X131.645 Y128.444
G1 X131.060 Y129.091
G1 X130.897 Y129.252
G1 X130.537 Y129.514
G1 X130.234 Y129.664
G1 X130.012 Y129.743
G1 X129.624 Y129.820
G1 X129.636 Y130.309
G92 E0.0000
G1 X128.926 Y130.995 E0.0402 F1350
G1 X128.158 Y131.680 E0.0821
G1 X127.503 Y132.235 E0.1170
G1 X126.834 Y132.774 E0.1520
G1 X126.153 Y133.297 E0.1870
G1 X125.458 Y133.803 E0.2220
G1 X124.752 Y134.292 E0.2569
G1 X124.037 Y134.761 E0.2918
G1 X122.715 Y135.567 E0.3548
G1 X121.208 Y136.392 E0.4247
G1 X119.663 Y137.143 E0.4947
G1 X118.082 Y137.818 E0.5646
G1 X116.472 Y138.415 E0.6346
G1 X114.834 Y138.933 E0.7045
G1 X113.169 Y139.372 E0.7746
G1 X112.165 Y139.595 E0.8165
G1 X111.322 Y139.759 E0.8514
G1 X110.475 Y139.903 E0.8864
G1 X109.625 Y140.025 E0.9213
G1 X108.772 Y140.128 E0.9563
G1 X107.917 Y140.209 E0.9913
G1 X107.060 Y140.269 E1.0263
G1 X106.202 Y140.309 E1.0612
G1 X105.343 Y140.328 E1.0962
G1 X104.484 Y140.326 E1.1312
G1 X103.625 Y140.303 E1.1662
G1 X102.768 Y140.259 E1.2011
G1 X101.911 Y140.194 E1.2361
G1 X101.056 Y140.109 E1.2711
G1 X100.204 Y140.002 E1.3060
G1 X99.354 Y139.876 E1.3410
G1 X98.508 Y139.728 E1.3760
G1 X97.666 Y139.560 E1.4109
G1 X96.827 Y139.371 E1.4459
G1 X95.994 Y139.162 E1.4809
G1 X95.166 Y138.934 E1.5159
G1 X94.344 Y138.684 E1.5509
G1 X93.528 Y138.415 E1.5858
G1 X92.719 Y138.126 E1.6208
G1 X91.918 Y137.818 E1.6557
G1 X91.123 Y137.490 E1.6907
G1 X90.338 Y137.143 E1.7257
G1 X89.560 Y136.777 E1.7607
G1 X88.792 Y136.392 E1.7957
G1 X88.034 Y135.990 E1.8306
G1 X87.285 Y135.567 E1.8656
G1 X86.547 Y135.128 E1.9006
G1 X85.820 Y134.670 E1.9355
G1 X85.105 Y134.195 E1.9705
G1 X84.401 Y133.703 E2.0055
G1 X83.709 Y133.194 E2.0405
G1 X83.030 Y132.668 E2.0754
G1 X82.363 Y132.125 E2.1104
G1 X81.710 Y131.567 E2.1454
G1 X81.072 Y130.993 E2.1803
G1 X80.351 Y130.313 E2.2207
G1 X81.589 Y130.329 E2.2711
G1 X81.696 Y130.346 E2.2755
G1 X81.814 Y130.378 E2.2805
G1 X81.929 Y130.421 E2.2855
G1 X82.038 Y130.476 E2.2905
G1 X82.141 Y130.542 E2.2954
G1 X82.255 Y130.633 E2.3014
G1 X82.886 Y131.180 E2.3354
G1 X83.548 Y131.726 E2.3703
G1 X84.225 Y132.255 E2.4053
G1 X84.914 Y132.767 E2.4402
G1 X85.616 Y133.261 E2.4752
G1 X86.329 Y133.738 E2.5101
G1 X87.055 Y134.196 E2.5451
G1 X87.792 Y134.636 E2.5800
G1 X88.540 Y135.058 E2.6150
G1 X89.298 Y135.461 E2.6499
G1 X90.066 Y135.845 E2.6849
G1 X90.843 Y136.209 E2.7198
G1 X91.629 Y136.554 E2.7547
G1 X92.424 Y136.879 E2.7897
G1 X93.226 Y137.184 E2.8246
G1 X94.036 Y137.469 E2.8596
G1 X94.853 Y137.733 E2.8945
G1 X95.676 Y137.977 E2.9295
G1 X96.505 Y138.200 E2.9644
G1 X97.339 Y138.403 E2.9994
G1 X98.178 Y138.584 E3.0343
G1 X99.022 Y138.745 E3.0693
G1 X99.869 Y138.884 E3.1042
G1 X100.719 Y139.002 E3.1392
G1 X101.572 Y139.098 E3.1741
G1 X102.427 Y139.173 E3.2091
G1 X103.284 Y139.227 E3.2440
G1 X104.142 Y139.259 E3.2790
G1 X105.000 Y139.270 E3.3139
G1 X105.858 Y139.259 E3.3489
G1 X106.716 Y139.227 E3.3838
G1 X107.573 Y139.173 E3.4188
G1 X108.428 Y139.098 E3.4537
G1 X109.281 Y139.002 E3.4887
G1 X110.131 Y138.884 E3.5236
G1 X110.981 Y138.744 E3.5587
G1 X112.240 Y138.494 E3.6109
G1 X113.492 Y138.201 E3.6633
G1 X114.324 Y137.977 E3.6983
G1 X115.147 Y137.733 E3.7333
G1 X115.964 Y137.469 E3.7682
G1 X116.774 Y137.184 E3.8032
G1 X117.576 Y136.879 E3.8381
G1 X118.371 Y136.554 E3.8731
G1 X119.157 Y136.209 E3.9080
G1 X119.934 Y135.845 E3.9430
G1 X120.702 Y135.461 E3.9779
G1 X121.460 Y135.058 E4.0129
G1 X122.208 Y134.636 E4.0478
G1 X122.945 Y134.196 E4.0828
G1 X123.671 Y133.738 E4.1177
G1 X124.384 Y133.261 E4.1527
G1 X125.086 Y132.767 E4.1876
G1 X125.775 Y132.255 E4.2225
G1 X126.452 Y131.726 E4.2575
G1 X127.114 Y131.180 E4.2924
G1 X127.745 Y130.633 E4.3265
G1 X127.859 Y130.542 E4.3324
G1 X127.962 Y130.476 E4.3374
G1 X128.071 Y130.421 E4.3423
G1 X128.186 Y130.378 E4.3473
G1 X128.304 Y130.346 E4.3523
G1 X128.412 Y130.329 E4.3568
G1 X129.636 Y130.309 E4.4066
; feature outer perimeter
G1 X130.506 Y130.136 F18000
G92 E0.0000
G1 X129.253 Y131.347 E0.0709 F900
G1 X128.473 Y132.042 E0.1135
G1 X127.809 Y132.605 E0.1489
G1 X127.131 Y133.152 E0.1844
G1 X126.440 Y133.681 E0.2198
G1 X125.737 Y134.194 E0.2552
G1 X125.020 Y134.690 E0.2907
G1 X124.294 Y135.167 E0.3261
G1 X122.956 Y135.983 E0.3899
G1 X121.428 Y136.819 E0.4608
G1 X119.862 Y137.580 E0.5317
G1 X118.260 Y138.264 E0.6026
G1 X116.628 Y138.869 E0.6735
G1 X114.968 Y139.394 E0.7443
G1 X113.283 Y139.839 E0.8153
G1 X112.262 Y140.065 E0.8578
G1 X111.408 Y140.231 E0.8932
G1 X110.550 Y140.377 E0.9287
G1 X109.688 Y140.501 E0.9641
G1 X108.823 Y140.605 E0.9996
G1 X107.957 Y140.687 E1.0350
G1 X107.088 Y140.749 E1.0705
G1 X106.218 Y140.789 E1.1059
G1 X105.348 Y140.808 E1.1414
G1 X104.477 Y140.806 E1.1768
G1 X103.607 Y140.782 E1.2123
G1 X102.737 Y140.738 E1.2477
G1 X101.869 Y140.672 E1.2832
G1 X101.003 Y140.586 E1.3186
G1 X100.138 Y140.478 E1.3541
G1 X99.277 Y140.349 E1.3895
G1 X98.420 Y140.200 E1.4249
G1 X97.566 Y140.029 E1.4604
G1 X96.716 Y139.838 E1.4958
G1 X95.872 Y139.627 E1.5313
G1 X95.032 Y139.394 E1.5667
G1 X94.199 Y139.142 E1.6022
G1 X93.372 Y138.869 E1.6376
G1 X92.552 Y138.577 E1.6731
G1 X91.739 Y138.264 E1.7085
G1 X90.935 Y137.932 E1.7440
G1 X90.138 Y137.580 E1.7794
G1 X89.350 Y137.209 E1.8149
G1 X88.572 Y136.819 E1.8503
G1 X87.803 Y136.410 E1.8858
G1 X87.044 Y135.983 E1.9212
G1 X86.297 Y135.537 E1.9567
G1 X85.560 Y135.074 E1.9921
G1 X84.834 Y134.592 E2.0276
G1 X84.121 Y134.093 E2.0630
G1 X83.420 Y133.577 E2.0985
G1 X82.731 Y133.044 E2.1339
G1 X82.056 Y132.494 E2.1693
G1 X81.394 Y131.928 E2.2048
