; G-Code generated by Simplify3D(R) Version 4.1.2
; Feb 22, 2021 at 7:25:35 PM
; Settings Summary
;   processName,Process1
;   applyToModels,efs-18-55-is-ii-kit
;   profileName,HBot (modified)
;   profileVersion,2019-10-26 23:38:43
;   baseProfile,Default
;   printMaterial,PETG - SUNLU
;   printQuality,Medium
;   printExtruders,
;   extruderName,Extruder 1
;   extruderToolheadNumber,0
;   extruderDiameter,0.4
;   extruderAutoWidth,1
;   extruderWidth,0.48
;   extrusionMultiplier,1.02
;   extruderUseRetract,1
;   extruderRetractionDistance,3
;   extruderExtraRestartDistance,0
;   extruderRetractionZLift,0
;   extruderRetractionSpeed,5400
;   extruderUseCoasting,0
;   extruderCoastingDistance,0.2
;   extruderUseWipe,1
;   extruderWipeDistance,2
;   primaryExtruder,0
;   layerHeight,0.2
;   topSolidLayers,4
;   bottomSolidLayers,4
;   perimeterOutlines,3
;   printPerimetersInsideOut,1
;   startPointOption,3
;   startPointOriginX,110
;   startPointOriginY,300
;   sequentialIslands,0
;   spiralVaseMode,0
;   firstLayerHeightPercentage,100
;   firstLayerWidthPercentage,100
;   firstLayerUnderspeed,0.5
;   useRaft,0
;   raftExtruder,0
;   raftTopLayers,3
;   raftBaseLayers,2
;   raftOffset,3
;   raftSeparationDistance,0.18
;   raftTopInfill,100
;   aboveRaftSpeedMultiplier,0.3
;   useSkirt,0
;   skirtExtruder,0
;   skirtLayers,1
;   skirtOutlines,5
;   skirtOffset,0
;   usePrimePillar,0
;   primePillarExtruder,999
;   primePillarWidth,12
;   primePillarLocation,7
;   primePillarSpeedMultiplier,1
;   useOozeShield,0
;   oozeShieldExtruder,999
;   oozeShieldOffset,0.9
;   oozeShieldOutlines,2
;   oozeShieldSidewallShape,0
;   oozeShieldSidewallAngle,30
;   oozeShieldSpeedMultiplier,1.5
;   infillExtruder,0
;   internalInfillPattern,Fast Honeycomb
;   externalInfillPattern,Rectilinear
;   infillPercentage,15
;   outlineOverlapPercentage,25
;   infillExtrusionWidthPercentage,100
;   minInfillLength,5
;   infillLayerInterval,1
;   internalInfillAngles,0
;   overlapInternalInfillAngles,0
;   externalInfillAngles,45,-45
;   generateSupport,0
;   supportExtruder,0
;   supportInfillPercentage,25
;   supportExtraInflation,0
;   supportBaseLayers,1
;   denseSupportExtruder,0
;   denseSupportLayers,0
;   denseSupportInfillPercentage,70
;   supportLayerInterval,1
;   supportHorizontalPartOffset,0.3
;   supportUpperSeparationLayers,1
;   supportLowerSeparationLayers,1
;   supportType,0
;   supportGridSpacing,2
;   maxOverhangAngle,25
;   supportAngles,0
;   temperatureName,Extruder 1,Heated Bed
;   temperatureNumber,0,1
;   temperatureSetpointCount,2,1
;   temperatureSetpointLayers,1,2,1
;   temperatureSetpointTemperatures,215,215,85
;   temperatureStabilizeAtStartup,1,1
;   temperatureHeatedBed,0,1
;   fanLayers,1,5,10
;   fanSpeeds,0,5,20
;   blipFanToFullPower,1
;   adjustSpeedForCooling,0
;   minSpeedLayerTime,15
;   minCoolingSpeedSlowdown,20
;   increaseFanForCooling,1
;   minFanLayerTime,15
;   maxCoolingFanSpeed,40
;   increaseFanForBridging,1
;   bridgingFanSpeed,85
;   use5D,1
;   relativeEdistances,0
;   allowEaxisZeroing,1
;   independentExtruderAxes,0
;   includeM10123,0
;   stickySupport,1
;   applyToolheadOffsets,0
;   gcodeXoffset,0
;   gcodeYoffset,0
;   gcodeZoffset,0
;   overrideMachineDefinition,1
;   machineTypeOverride,0
;   strokeXoverride,210
;   strokeYoverride,210
;   strokeZoverride,150
;   originOffsetXoverride,0
;   originOffsetYoverride,0
;   originOffsetZoverride,0
;   homeXdirOverride,-1
;   homeYdirOverride,-1
;   homeZdirOverride,-1
;   flipXoverride,1
;   flipYoverride,-1
;   flipZoverride,1
;   toolheadOffsets,0,0|0,0|0,0|0,0|0,0|0,0
;   overrideFirmwareConfiguration,1
;   firmwareTypeOverride,RepRap (Marlin/Repetier/Sprinter)
;   GPXconfigOverride,r2
;   baudRateOverride,115200
;   overridePrinterModels,0
;   printerModelsOverride
;   startingGcode,G28 ; home all axes,G32 ; run bed.g -- probe bed and enable compensation
;   layerChangeGcode,
;   retractionGcode,
;   toolChangeGcode,
;   endingGcode,M0 ; call stop.g
;   exportFileFormat,gcode
;   celebration,0
;   celebrationSong,Random Song
;   postProcessing,
;   defaultSpeed,3600
;   outlineUnderspeed,0.5
;   solidInfillUnderspeed,0.8
;   supportUnderspeed,0.8
;   rapidXYspeed,18000
;   rapidZspeed,1200
;   minBridgingArea,50
;   bridgingExtraInflation,0
;   bridgingExtrusionMultiplier,0.96
;   bridgingSpeedMultiplier,1
;   useFixedBridgingAngle,0
;   fixedBridgingAngle,0
;   applyBridgingToPerimeters,0
;   filamentDiameters,1.75|1.75|1.75|1.75|1.75|1.75
;   filamentPricesPerKg,46|46|46|46|46|46
;   filamentDensities,1.25|1.25|1.25|1.25|1.25|1.25
;   useMinPrintHeight,0
;   minPrintHeight,17.2
;   useMaxPrintHeight,1
;   maxPrintHeight,4
;   useDiaphragm,0
;   diaphragmLayerInterval,20
;   robustSlicing,1
;   mergeAllIntoSolid,0
;   onlyRetractWhenCrossingOutline,1
;   retractBetweenLayers,0
;   useRetractionMinTravel,1
;   retractionMinTravel,3
;   retractWhileWiping,1
;   onlyWipeOutlines,1
;   avoidCrossingOutline,1
;   maxMovementDetourFactor,5
;   toolChangeRetractionDistance,12
;   toolChangeExtraRestartDistance,-0.5
;   toolChangeRetractionSpeed,600
;   externalThinWallType,0
;   internalThinWallType,2
;   thinWallAllowedOverlapPercentage,10
;   singleExtrusionMinLength,1
;   singleExtrusionMinPrintingWidthPercentage,50
;   singleExtrusionMaxPrintingWidthPercentage,150
;   singleExtrusionEndpointExtension,0.2
;   horizontalSizeCompensation,0
G90
M82
M106 S0
M140 S85
M190 S85
M104 S215 T0
M109 S215 T0
G28 ; home all axes
G32 ; run bed.g -- probe bed and enable compensation
; process Process1
; layer 1, Z = 0.200
T0
G92 E0.0000
G1 E-3.0000 F5400
; feature inner perimeter
; tool H0.200 W0.480
G1 Z0.200 F1200
G1 X77.890 Y122.703 F18000
G1 E0.0000 F5400
G92 E0.0000
G1 X77.560 Y122.190 E0.0248 F1350
G1 X77.131 Y121.486 E0.0584
G1 X76.721 Y120.772 E0.0919
G1 X76.329 Y120.048 E0.1254
G1 X75.956 Y119.314 E0.1590
G1 X75.601 Y118.570 E0.1925
G1 X75.265 Y117.818 E0.2260
G1 X74.949 Y117.057 E0.2596
G1 X74.652 Y116.289 E0.2931
G1 X74.374 Y115.514 E0.3266
G1 X74.117 Y114.732 E0.3601
G1 X73.879 Y113.943 E0.3937
G1 X73.662 Y113.148 E0.4272
G1 X73.465 Y112.348 E0.4608
G1 X73.288 Y111.544 E0.4943
G1 X73.132 Y110.735 E0.5278
G1 X72.996 Y109.923 E0.5613
G1 X72.882 Y109.111 E0.5947
G1 X72.751 Y107.878 E0.6452
G1 X72.662 Y106.644 E0.6956
G1 X72.631 Y105.823 E0.7290
G1 X72.620 Y105.000 E0.7625
G1 X72.631 Y104.177 E0.7960
G1 X72.662 Y103.353 E0.8296
G1 X72.714 Y102.531 E0.8631
G1 X72.788 Y101.711 E0.8966
G1 X72.882 Y100.892 E0.9302
G1 X72.996 Y100.077 E0.9637
G1 X73.132 Y99.265 E0.9972
G1 X73.288 Y98.459 E1.0307
G1 X73.564 Y97.250 E1.0811
G1 X73.770 Y96.455 E1.1146
G1 X73.998 Y95.664 E1.1481
G1 X74.245 Y94.877 E1.1817
G1 X74.513 Y94.099 E1.2152
G1 X74.800 Y93.327 E1.2487
G1 X75.106 Y92.562 E1.2822
G1 X75.432 Y91.806 E1.3158
G1 X75.777 Y91.058 E1.3493
G1 X76.142 Y90.319 E1.3828
G1 X76.524 Y89.590 E1.4164
G1 X76.925 Y88.871 E1.4499
G1 X77.345 Y88.162 E1.4834
G1 X77.782 Y87.464 E1.5169
G1 X77.897 Y87.289 E1.5255
G1 X78.206 Y87.384 E1.5386
G1 X78.203 Y87.668 E1.5502
G1 X78.321 Y88.247 E1.5742
G1 X78.328 Y88.316 E1.5771
G1 X78.317 Y88.397 E1.5804
G1 X77.469 Y89.858 E1.6491
G1 X77.077 Y90.595 E1.6831
G1 X76.703 Y91.342 E1.7172
G1 X76.023 Y92.853 E1.7846
G1 X75.566 Y94.013 E1.8354
G1 X75.152 Y95.187 E1.8860
G1 X74.901 Y95.983 E1.9200
G1 X74.673 Y96.783 E1.9539
G1 X74.467 Y97.588 E1.9877
G1 X74.281 Y98.399 E2.0216
G1 X74.117 Y99.214 E2.0554
G1 X73.975 Y100.032 E2.0892
G1 X73.854 Y100.858 E2.1232
G1 X73.717 Y102.093 E2.1738
G1 X73.624 Y103.335 E2.2245
G1 X73.591 Y104.169 E2.2585
G1 X73.580 Y105.000 E2.2923
G1 X73.591 Y105.831 E2.3262
G1 X73.624 Y106.662 E2.3600
G1 X73.679 Y107.492 E2.3939
G1 X73.756 Y108.319 E2.4277
G1 X73.855 Y109.145 E2.4615
G1 X73.975 Y109.968 E2.4954
G1 X74.117 Y110.786 E2.5292
G1 X74.281 Y111.601 E2.5631
G1 X74.467 Y112.412 E2.5969
G1 X74.673 Y113.217 E2.6308
G1 X74.902 Y114.020 E2.6647
G1 X75.285 Y115.202 E2.7153
G1 X75.710 Y116.372 E2.7660
G1 X76.022 Y117.146 E2.8000
G1 X76.354 Y117.908 E2.8338
G1 X76.706 Y118.662 E2.8677
G1 X77.077 Y119.405 E2.9015
G1 X77.468 Y120.139 E2.9353
G1 X77.878 Y120.862 E2.9692
G1 X78.284 Y121.536 E3.0012
G1 X78.313 Y121.598 E3.0040
G1 X78.330 Y121.675 E3.0072
G1 X78.231 Y122.159 E3.0273
G1 X78.190 Y122.629 E3.0465
G1 X77.890 Y122.703 E3.0591
G1 X78.945 Y123.301 F18000
G1 X79.399 Y123.931
G1 X79.893 Y124.581
G1 X80.404 Y125.219
G1 X80.930 Y125.843
G1 X81.474 Y126.455
G1 X82.317 Y127.340
G1 X83.191 Y128.199
G1 X83.795 Y128.751
G1 X84.411 Y129.287
G1 X85.041 Y129.807
G1 X85.683 Y130.311
G1 X86.339 Y130.798
G1 X87.007 Y131.269
G1 X87.687 Y131.721
G1 X88.378 Y132.157
G1 X89.080 Y132.574
G1 X89.793 Y132.974
G1 X90.880 Y133.535
G1 X91.987 Y134.060
G1 X92.738 Y134.384
G1 X93.496 Y134.689
G1 X94.261 Y134.974
G1 X95.034 Y135.240
G1 X95.813 Y135.486
G1 X96.598 Y135.711
G1 X97.389 Y135.917
G1 X98.583 Y136.184
G1 X99.787 Y136.410
G1 X100.595 Y136.534
G1 X101.407 Y136.637
G1 X102.381 Y136.724
G1 X102.566 Y136.704
G1 X102.586 Y136.698
G1 X103.141 Y137.012
G92 E0.0000
G1 X103.388 Y136.873 E0.0116 F1350
G1 X103.831 Y136.482 E0.0356
G1 X103.888 Y136.440 E0.0385
G1 X103.963 Y136.409 E0.0418
G1 X105.652 Y136.413 E0.1105
G1 X106.486 Y136.385 E0.1445
G1 X107.316 Y136.335 E0.1784
G1 X108.144 Y136.262 E0.2122
G1 X108.970 Y136.168 E0.2461
G1 X109.793 Y136.052 E0.2799
G1 X110.613 Y135.915 E0.3137
G1 X111.429 Y135.755 E0.3476
G1 X112.241 Y135.574 E0.3814
G1 X113.047 Y135.372 E0.4153
G1 X113.848 Y135.149 E0.4491
G1 X114.642 Y134.904 E0.4830
G1 X115.430 Y134.638 E0.5168
G1 X116.211 Y134.352 E0.5507
G1 X116.983 Y134.045 E0.5845
G1 X117.748 Y133.718 E0.6184
G1 X118.506 Y133.369 E0.6523
G1 X119.616 Y132.811 E0.7029
G1 X120.707 Y132.212 E0.7536
G1 X121.425 Y131.785 E0.7876
G1 X122.128 Y131.341 E0.8214
G1 X122.818 Y130.879 E0.8553
G1 X123.497 Y130.399 E0.8891
G1 X124.162 Y129.900 E0.9230
G1 X124.814 Y129.385 E0.9568
G1 X125.452 Y128.852 E0.9906
G1 X126.079 Y128.300 E1.0246
G1 X126.982 Y127.447 E1.0752
G1 X127.858 Y126.558 E1.1260
G1 X128.692 Y125.633 E1.1767
G1 X129.495 Y124.677 E1.2275
G1 X130.254 Y123.689 E1.2782
G1 X130.977 Y122.675 E1.3289
G1 X131.437 Y121.979 E1.3629
G1 X131.877 Y121.274 E1.3968
G1 X132.298 Y120.557 E1.4306
G1 X132.678 Y119.869 E1.4626
G1 X132.729 Y119.796 E1.4662
G1 X132.793 Y119.753 E1.4694
G1 X133.400 Y119.543 E1.4955
G1 X133.651 Y119.406 E1.5071
G1 X133.879 Y119.625 E1.5200
G1 X133.671 Y120.048 E1.5392
G1 X132.867 Y121.488 E1.6063
G1 X132.217 Y122.538 E1.6566
G1 X131.763 Y123.223 E1.6901
G1 X131.291 Y123.897 E1.7236
G1 X130.802 Y124.561 E1.7571
G1 X130.296 Y125.210 E1.7907
G1 X129.774 Y125.847 E1.8242
G1 X129.236 Y126.471 E1.8577
G1 X128.682 Y127.080 E1.8912
G1 X128.112 Y127.676 E1.9248
G1 X127.529 Y128.256 E1.9583
G1 X126.929 Y128.822 E1.9918
G1 X126.317 Y129.371 E2.0254
G1 X125.690 Y129.906 E2.0589
G1 X125.050 Y130.424 E2.0924
G1 X124.396 Y130.926 E2.1260
G1 X123.731 Y131.411 E2.1595
G1 X123.053 Y131.879 E2.1930
G1 X122.364 Y132.329 E2.2265
G1 X121.663 Y132.762 E2.2601
G1 X120.951 Y133.177 E2.2936
G1 X120.230 Y133.573 E2.3271
G1 X119.498 Y133.952 E2.3607
G1 X118.756 Y134.311 E2.3942
G1 X118.007 Y134.652 E2.4277
G1 X117.249 Y134.973 E2.4612
G1 X116.482 Y135.275 E2.4948
G1 X115.708 Y135.557 E2.5283
G1 X114.928 Y135.819 E2.5618
G1 X114.140 Y136.062 E2.5954
G1 X113.347 Y136.285 E2.6289
G1 X112.549 Y136.487 E2.6624
G1 X111.745 Y136.669 E2.6960
G1 X110.938 Y136.830 E2.7295
G1 X110.126 Y136.971 E2.7630
G1 X109.311 Y137.091 E2.7966
G1 X108.494 Y137.190 E2.8301
G1 X107.673 Y137.269 E2.8637
G1 X106.853 Y137.326 E2.8972
G1 X106.030 Y137.363 E2.9307
G1 X105.206 Y137.379 E2.9642
G1 X104.383 Y137.373 E2.9977
G1 X103.559 Y137.347 E3.0313
G1 X103.214 Y137.327 E3.0454
G1 X103.141 Y137.012 E3.0585
G1 X103.813 Y135.952 F18000
G1 X103.834 Y135.943
G1 X103.911 Y135.929
G1 X105.644 Y135.933
G1 X106.463 Y135.905
G1 X107.281 Y135.856
G1 X108.096 Y135.785
G1 X108.909 Y135.692
G1 X109.720 Y135.578
G1 X110.527 Y135.442
G1 X111.331 Y135.285
G1 X112.130 Y135.107
G1 X112.924 Y134.908
G1 X113.713 Y134.688
G1 X114.495 Y134.447
G1 X115.271 Y134.186
G1 X116.039 Y133.904
G1 X116.800 Y133.601
G1 X117.553 Y133.279
G1 X118.297 Y132.937
G1 X119.392 Y132.386
G1 X120.469 Y131.795
G1 X121.174 Y131.376
G1 X121.866 Y130.939
G1 X122.546 Y130.484
G1 X123.214 Y130.011
G1 X123.869 Y129.520
G1 X124.512 Y129.012
G1 X125.140 Y128.488
G1 X125.755 Y127.946
G1 X126.646 Y127.104
G1 X127.509 Y126.228
G1 X128.330 Y125.318
G1 X129.121 Y124.377
G1 X129.868 Y123.404
G1 X130.581 Y122.404
G1 X131.033 Y121.720
G1 X131.466 Y121.025
G1 X131.881 Y120.320
G1 X132.270 Y119.616
G1 X132.360 Y119.486
G1 X132.416 Y119.428
G1 X132.577 Y119.320
G1 X133.205 Y119.102
G1 X133.366 Y119.015
G1 X133.619 Y118.806
G1 X133.776 Y118.604
G1 X133.857 Y118.456
G1 X134.195 Y117.706
G1 X134.511 Y116.952
G1 X134.808 Y116.191
G1 X135.086 Y115.423
G1 X135.343 Y114.648
G1 X135.581 Y113.866
G1 X135.798 Y113.079
G1 X135.995 Y112.286
G1 X136.172 Y111.488
G1 X136.396 Y110.286
G1 X136.578 Y109.074
G1 X136.673 Y108.262
G1 X136.746 Y107.448
G1 X136.798 Y106.633
G1 X136.830 Y105.817
G1 X136.840 Y105.000
G1 X136.830 Y104.183
G1 X136.798 Y103.367
G1 X136.746 Y102.552
G1 X136.673 Y101.738
G1 X136.578 Y100.927
G1 X136.464 Y100.118
G1 X136.328 Y99.313
G1 X136.172 Y98.511
G1 X135.995 Y97.714
G1 X135.798 Y96.921
G1 X135.581 Y96.134
G1 X135.343 Y95.352
G1 X135.086 Y94.577
G1 X134.808 Y93.809
G1 X134.511 Y93.048
G1 X134.195 Y92.294
G1 X133.854 Y91.537
G1 X133.679 Y91.261
G1 X133.434 Y91.032
G1 X133.208 Y90.898
G1 X132.674 Y90.719
G1 X132.537 Y90.658
G1 X132.526 Y90.650
G1 X132.784 Y90.243
G92 E0.0000
G1 X132.720 Y90.193 E0.0033 F1350
G1 X131.879 Y88.729 E0.0721
G1 X131.437 Y88.021 E0.1061
G1 X130.979 Y87.327 E0.1399
G1 X130.502 Y86.646 E0.1738
G1 X130.006 Y85.975 E0.2077
G1 X129.232 Y85.003 E0.2583
G1 X128.422 Y84.057 E0.3090
G1 X127.858 Y83.442 E0.3430
G1 X127.280 Y82.845 E0.3768
G1 X126.685 Y82.263 E0.4107
G1 X126.077 Y81.698 E0.4445
G1 X125.452 Y81.148 E0.4784
G1 X124.812 Y80.613 E0.5123
G1 X123.830 Y79.851 E0.5629
G1 X122.821 Y79.123 E0.6136
G1 X122.127 Y78.659 E0.6475
G1 X121.422 Y78.213 E0.6815
G1 X120.348 Y77.587 E0.7321
G1 X119.252 Y76.998 E0.7828
G1 X118.503 Y76.629 E0.8168
G1 X117.747 Y76.282 E0.8506
G1 X116.983 Y75.955 E0.8845
G1 X116.210 Y75.648 E0.9183
G1 X115.430 Y75.362 E0.9522
G1 X114.639 Y75.095 E0.9861
G1 X113.449 Y74.740 E1.0367
G1 X112.244 Y74.426 E1.0874
G1 X111.429 Y74.245 E1.1214
G1 X110.613 Y74.085 E1.1552
G1 X109.793 Y73.948 E1.1891
G1 X108.970 Y73.832 E1.2229
G1 X108.144 Y73.738 E1.2568
G1 X107.316 Y73.665 E1.2906
G1 X106.486 Y73.615 E1.3244
G1 X105.655 Y73.587 E1.3583
G1 X104.824 Y73.580 E1.3921
G1 X104.038 Y73.595 E1.4241
G1 X103.969 Y73.590 E1.4269
G1 X103.894 Y73.565 E1.4302
G1 X103.524 Y73.238 E1.4503
G1 X103.138 Y72.967 E1.4695
G1 X103.225 Y72.670 E1.4820
G1 X103.970 Y72.637 E1.5124
G1 X104.794 Y72.621 E1.5460
G1 X105.617 Y72.627 E1.5795
G1 X106.441 Y72.653 E1.6130
G1 X107.263 Y72.700 E1.6466
G1 X108.084 Y72.768 E1.6801
G1 X108.903 Y72.857 E1.7136
G1 X109.717 Y72.966 E1.7471
G1 X110.938 Y73.170 E1.7975
G1 X112.150 Y73.420 E1.8478
G1 X112.949 Y73.611 E1.8813
G1 X113.745 Y73.824 E1.9148
G1 X114.534 Y74.056 E1.9483
G1 X115.318 Y74.309 E1.9819
G1 X116.096 Y74.581 E2.0154
G1 X116.866 Y74.873 E2.0489
G1 X117.629 Y75.185 E2.0825
G1 X118.382 Y75.515 E2.1160
G1 X119.128 Y75.865 E2.1495
G1 X119.865 Y76.234 E2.1831
G1 X120.592 Y76.622 E2.2166
G1 X121.308 Y77.027 E2.2501
G1 X122.015 Y77.451 E2.2836
G1 X122.710 Y77.893 E2.3172
G1 X123.394 Y78.352 E2.3507
G1 X124.065 Y78.828 E2.3842
G1 X124.725 Y79.322 E2.4178
G1 X125.372 Y79.832 E2.4513
G1 X126.006 Y80.358 E2.4849
G1 X126.625 Y80.900 E2.5184
G1 X127.231 Y81.458 E2.5519
G1 X127.823 Y82.031 E2.5854
G1 X128.400 Y82.619 E2.6190
G1 X128.962 Y83.222 E2.6525
G1 X129.508 Y83.838 E2.6860
G1 X130.038 Y84.468 E2.7195
G1 X130.552 Y85.112 E2.7531
G1 X131.050 Y85.768 E2.7866
G1 X131.531 Y86.437 E2.8202
G1 X131.994 Y87.118 E2.8537
G1 X132.440 Y87.810 E2.8872
G1 X132.869 Y88.514 E2.9207
G1 X133.279 Y89.228 E2.9543
G1 X133.671 Y89.952 E2.9878
