; G-Code generated by Simplify3D(R) Version 4.1.2
; Feb 22, 2021 at 9:08:33 PM
; Settings Summary
;   processName,Process1
;   applyToModels,efs-18-55-is-ii-kit
;   profileName,HBot (modified)
;   profileVersion,2019-10-26 23:38:43
;   baseProfile,Default
;   printMaterial,PETG - SUNLU
;   printQuality,Medium
;   printExtruders,
;   extruderName,Extruder 1
;   extruderToolheadNumber,0
;   extruderDiameter,0.4
;   extruderAutoWidth,1
;   extruderWidth,0.48
;   extrusionMultiplier,1.02
;   extruderUseRetract,1
;   extruderRetractionDistance,3
;   extruderExtraRestartDistance,0
;   extruderRetractionZLift,0
;   extruderRetractionSpeed,5400
;   extruderUseCoasting,0
;   extruderCoastingDistance,0.2
;   extruderUseWipe,1
;   extruderWipeDistance,2
;   primaryExtruder,0
;   layerHeight,0.2
;   topSolidLayers,4
;   bottomSolidLayers,4
;   perimeterOutlines,3
;   printPerimetersInsideOut,1
;   startPointOption,3
;   startPointOriginX,110
;   startPointOriginY,300
;   sequentialIslands,0
;   spiralVaseMode,0
;   firstLayerHeightPercentage,100
;   firstLayerWidthPercentage,100
;   firstLayerUnderspeed,0.5
;   useRaft,0
;   raftExtruder,0
;   raftTopLayers,3
;   raftBaseLayers,2
;   raftOffset,3
;   raftSeparationDistance,0.18
;   raftTopInfill,100
;   aboveRaftSpeedMultiplier,0.3
;   useSkirt,0
;   skirtExtruder,0
;   skirtLayers,1
;   skirtOutlines,5
;   skirtOffset,0
;   usePrimePillar,0
;   primePillarExtruder,999
;   primePillarWidth,12
;   primePillarLocation,7
;   primePillarSpeedMultiplier,1
;   useOozeShield,0
;   oozeShieldExtruder,999
;   oozeShieldOffset,0.9
;   oozeShieldOutlines,2
;   oozeShieldSidewallShape,0
;   oozeShieldSidewallAngle,30
;   oozeShieldSpeedMultiplier,1.5
;   infillExtruder,0
;   internalInfillPattern,Fast Honeycomb
;   externalInfillPattern,Rectilinear
;   infillPercentage,15
;   outlineOverlapPercentage,25
;   infillExtrusionWidthPercentage,100
;   minInfillLength,5
;   infillLayerInterval,1
;   internalInfillAngles,0
;   overlapInternalInfillAngles,0
;   externalInfillAngles,45,-45
;   generateSupport,0
;   supportExtruder,0
;   supportInfillPercentage,25
;   supportExtraInflation,0
;   supportBaseLayers,1
;   denseSupportExtruder,0
;   denseSupportLayers,0
;   denseSupportInfillPercentage,70
;   supportLayerInterval,1
;   supportHorizontalPartOffset,0.3
;   supportUpperSeparationLayers,1
;   supportLowerSeparationLayers,1
;   supportType,0
;   supportGridSpacing,2
;   maxOverhangAngle,25
;   supportAngles,0
;   temperatureName,Extruder 1,Heated Bed
;   temperatureNumber,0,1
;   temperatureSetpointCount,2,1
;   temperatureSetpointLayers,1,2,1
;   temperatureSetpointTemperatures,215,215,85
;   temperatureStabilizeAtStartup,1,1
;   temperatureHeatedBed,0,1
;   fanLayers,1,5,10
;   fanSpeeds,0,5,20
;   blipFanToFullPower,1
;   adjustSpeedForCooling,0
;   minSpeedLayerTime,15
;   minCoolingSpeedSlowdown,20
;   increaseFanForCooling,1
;   minFanLayerTime,15
;   maxCoolingFanSpeed,40
;   increaseFanForBridging,1
;   bridgingFanSpeed,85
;   use5D,1
;   relativeEdistances,0
;   allowEaxisZeroing,1
;   independentExtruderAxes,0
;   includeM10123,0
;   stickySupport,1
;   applyToolheadOffsets,0
;   gcodeXoffset,0
;   gcodeYoffset,0
;   gcodeZoffset,0
;   overrideMachineDefinition,1
;   machineTypeOverride,0
;   strokeXoverride,210
;   strokeYoverride,210
;   strokeZoverride,150
;   originOffsetXoverride,0
;   originOffsetYoverride,0
;   originOffsetZoverride,0
;   homeXdirOverride,-1
;   homeYdirOverride,-1
;   homeZdirOverride,-1
;   flipXoverride,1
;   flipYoverride,-1
;   flipZoverride,1
;   toolheadOffsets,0,0|0,0|0,0|0,0|0,0|0,0
;   overrideFirmwareConfiguration,1
;   firmwareTypeOverride,RepRap (Marlin/Repetier/Sprinter)
;   GPXconfigOverride,r2
;   baudRateOverride,115200
;   overridePrinterModels,0
;   printerModelsOverride
;   startingGcode,G28 ; home all axes,G32 ; run bed.g -- probe bed and enable compensation
;   layerChangeGcode,
;   retractionGcode,
;   toolChangeGcode,
;   endingGcode,M0 ; call stop.g
;   exportFileFormat,gcode
;   celebration,0
;   celebrationSong,Random Song
;   postProcessing,
;   defaultSpeed,3600
;   outlineUnderspeed,0.5
;   solidInfillUnderspeed,0.8
;   supportUnderspeed,0.8
;   rapidXYspeed,18000
;   rapidZspeed,1200
;   minBridgingArea,50
;   bridgingExtraInflation,0
;   bridgingExtrusionMultiplier,0.96
;   bridgingSpeedMultiplier,1
;   useFixedBridgingAngle,0
;   fixedBridgingAngle,0
;   applyBridgingToPerimeters,0
;   filamentDiameters,1.75|1.75|1.75|1.75|1.75|1.75
;   filamentPricesPerKg,46|46|46|46|46|46
;   filamentDensities,1.25|1.25|1.25|1.25|1.25|1.25
;   useMinPrintHeight,0
;   minPrintHeight,17.2
;   useMaxPrintHeight,0
;   maxPrintHeight,4
;   useDiaphragm,0
;   diaphragmLayerInterval,20
;   robustSlicing,1
;   mergeAllIntoSolid,0
;   onlyRetractWhenCrossingOutline,1
;   retractBetweenLayers,0
;   useRetractionMinTravel,1
;   retractionMinTravel,3
;   retractWhileWiping,1
;   onlyWipeOutlines,1
;   avoidCrossingOutline,1
;   maxMovementDetourFactor,5
;   toolChangeRetractionDistance,12
;   toolChangeExtraRestartDistance,-0.5
;   toolChangeRetractionSpeed,600
;   externalThinWallType,0
;   internalThinWallType,2
;   thinWallAllowedOverlapPercentage,10
;   singleExtrusionMinLength,1
;   singleExtrusionMinPrintingWidthPercentage,50
;   singleExtrusionMaxPrintingWidthPercentage,150
;   singleExtrusionEndpointExtension,0.2
;   horizontalSizeCompensation,0
G90
M82
M106 S0
M140 S85
M190 S85
M104 S215 T0
M109 S215 T0
G28 ; home all axes
G32 ; run bed.g -- probe bed and enable compensation
; process Process1
; layer 1, Z = 0.200
T0
G92 E0.0000
G1 E-3.0000 F5400
; feature inner perimeter
; tool H0.200 W0.480
G1 Z0.200 F1200
G1 X77.917 Y122.745 F18000
G1 E0.0000 F5400
G92 E0.0000
G1 X77.560 Y122.190 E0.0269 F1350
G1 X77.131 Y121.486 E0.0604
G1 X76.721 Y120.772 E0.0939
G1 X76.329 Y120.048 E0.1275
G1 X75.956 Y119.314 E0.1610
G1 X75.601 Y118.570 E0.1945
G1 X75.265 Y117.818 E0.2281
G1 X74.949 Y117.057 E0.2616
G1 X74.652 Y116.289 E0.2951
G1 X74.374 Y115.514 E0.3287
G1 X74.117 Y114.732 E0.3622
G1 X73.879 Y113.943 E0.3957
G1 X73.662 Y113.148 E0.4293
G1 X73.465 Y112.348 E0.4628
G1 X73.288 Y111.544 E0.4963
G1 X73.132 Y110.735 E0.5299
G1 X72.996 Y109.923 E0.5634
G1 X72.882 Y109.108 E0.5969
G1 X72.788 Y108.289 E0.6305
G1 X72.714 Y107.469 E0.6640
G1 X72.662 Y106.647 E0.6975
G1 X72.631 Y105.823 E0.7311
G1 X72.620 Y105.000 E0.7646
G1 X72.631 Y104.177 E0.7981
G1 X72.662 Y103.353 E0.8316
G1 X72.714 Y102.531 E0.8652
G1 X72.788 Y101.711 E0.8987
G1 X72.882 Y100.892 E0.9322
G1 X72.996 Y100.077 E0.9658
G1 X73.132 Y99.265 E0.9993
G1 X73.288 Y98.459 E1.0327
G1 X73.564 Y97.250 E1.0832
G1 X73.770 Y96.455 E1.1166
G1 X73.998 Y95.664 E1.1501
G1 X74.245 Y94.877 E1.1837
G1 X74.513 Y94.099 E1.2172
G1 X74.800 Y93.327 E1.2508
G1 X75.106 Y92.562 E1.2843
G1 X75.432 Y91.806 E1.3178
G1 X75.777 Y91.058 E1.3513
G1 X76.142 Y90.319 E1.3849
G1 X76.524 Y89.590 E1.4184
G1 X76.925 Y88.871 E1.4519
G1 X77.345 Y88.162 E1.4855
G1 X77.782 Y87.464 E1.5190
G1 X77.928 Y87.243 E1.5298
G1 X78.233 Y87.329 E1.5427
G1 X78.243 Y87.711 E1.5582
G1 X78.366 Y88.305 E1.5829
G1 X78.366 Y88.396 E1.5866
G1 X78.318 Y88.505 E1.5914
G1 X77.542 Y89.830 E1.6540
G1 X77.161 Y90.540 E1.6868
G1 X76.800 Y91.259 E1.7195
G1 X76.139 Y92.707 E1.7843
G1 X75.831 Y93.456 E1.8173
G1 X75.282 Y94.954 E1.8823
G1 X74.808 Y96.483 E1.9474
G1 X74.413 Y98.035 E2.0126
G1 X74.097 Y99.604 E2.0778
G1 X73.862 Y101.188 E2.1430
G1 X73.708 Y102.781 E2.2081
G1 X73.632 Y104.457 E2.2764
G1 X73.702 Y104.772 E2.2896
G1 X73.854 Y105.000 E2.3007
G1 X73.702 Y105.228 E2.3119
G1 X73.633 Y105.539 E2.3248
G1 X73.662 Y106.425 E2.3609
G1 X73.775 Y108.012 E2.4257
G1 X73.863 Y108.817 E2.4587
G1 X74.097 Y110.396 E2.5236
G1 X74.413 Y111.965 E2.5888
G1 X74.808 Y113.517 E2.6540
G1 X75.282 Y115.046 E2.7191
G1 X75.833 Y116.548 E2.7843
G1 X76.458 Y118.017 E2.8493
G1 X76.804 Y118.750 E2.8823
G1 X77.539 Y120.166 E2.9472
G1 X78.324 Y121.504 E3.0104
G1 X78.355 Y121.571 E3.0134
G1 X78.371 Y121.647 E3.0166
G1 X78.259 Y122.198 E3.0394
G1 X78.217 Y122.671 E3.0588
G1 X77.917 Y122.745 E3.0713
G1 X79.003 Y123.381 F18000
G1 X79.427 Y123.969
G1 X79.920 Y124.616
G1 X80.430 Y125.251
G1 X80.955 Y125.872
G1 X81.497 Y126.480
G1 X82.054 Y127.074
G1 X82.917 Y127.934
G1 X83.811 Y128.766
G1 X84.426 Y129.300
G1 X85.054 Y129.818
G1 X85.695 Y130.320
G1 X86.349 Y130.805
G1 X87.014 Y131.274
G1 X87.692 Y131.725
G1 X88.729 Y132.366
G1 X89.789 Y132.972
G1 X90.510 Y133.352
G1 X91.239 Y133.713
G1 X91.978 Y134.055
G1 X92.725 Y134.379
G1 X93.480 Y134.683
G1 X94.242 Y134.968
G1 X95.011 Y135.233
G1 X95.788 Y135.478
G1 X96.962 Y135.806
G1 X98.149 Y136.094
G1 X98.947 Y136.259
G1 X99.748 Y136.404
G1 X100.552 Y136.528
G1 X101.361 Y136.631
G1 X101.646 Y136.657
G1 X102.743 Y137.300
G92 E0.0000
G1 X103.488 Y136.748 E0.0378 F1350
G1 X103.838 Y136.428 E0.0571
G1 X103.890 Y136.390 E0.0597
G1 X103.965 Y136.359 E0.0630
G1 X105.593 Y136.364 E0.1293
G1 X106.401 Y136.339 E0.1622
G1 X107.993 Y136.227 E0.2271
G1 X109.582 Y136.034 E0.2923
G1 X111.155 Y135.760 E0.3573
G1 X111.947 Y135.591 E0.3903
G1 X113.489 Y135.200 E0.4551
G1 X114.266 Y134.970 E0.4880
G1 X115.778 Y134.460 E0.5530
G1 X117.267 Y133.872 E0.6182
G1 X118.724 Y133.209 E0.6833
G1 X120.213 Y132.437 E0.7516
G1 X120.452 Y132.219 E0.7648
G1 X120.563 Y131.994 E0.7750
G1 X121.043 Y131.954 E0.7946
G1 X121.897 Y131.431 E0.8354
G1 X122.571 Y130.987 E0.8682
G1 X123.871 Y130.060 E0.9332
G1 X125.124 Y129.065 E0.9984
G1 X126.326 Y128.007 E1.0636
G1 X127.472 Y126.889 E1.1287
G1 X128.556 Y125.717 E1.1937
G1 X129.080 Y125.106 E1.2265
G1 X129.588 Y124.481 E1.2593
G1 X130.547 Y123.206 E1.3242
G1 X131.440 Y121.883 E1.3892
G1 X131.867 Y121.195 E1.4222
G1 X132.631 Y119.850 E1.4852
G1 X132.673 Y119.790 E1.4881
G1 X132.731 Y119.737 E1.4913
G1 X133.264 Y119.560 E1.5142
G1 X133.696 Y119.359 E1.5336
G1 X133.910 Y119.583 E1.5462
G1 X133.476 Y120.410 E1.5842
G1 X133.074 Y121.130 E1.6177
G1 X132.655 Y121.838 E1.6512
G1 X132.218 Y122.536 E1.6848
G1 X131.763 Y123.223 E1.7183
G1 X131.291 Y123.897 E1.7518
G1 X130.802 Y124.561 E1.7854
G1 X130.296 Y125.210 E1.8189
G1 X129.774 Y125.847 E1.8524
G1 X129.236 Y126.471 E1.8860
G1 X128.682 Y127.080 E1.9195
G1 X128.114 Y127.674 E1.9529
G1 X127.233 Y128.540 E2.0033
G1 X126.005 Y129.642 E2.0704
G1 X124.725 Y130.678 E2.1374
G1 X123.393 Y131.648 E2.2045
G1 X122.015 Y132.549 E2.2716
G1 X120.590 Y133.379 E2.3387
G1 X119.496 Y133.953 E2.3890
G1 X118.756 Y134.311 E2.4224
G1 X118.007 Y134.652 E2.4560
G1 X117.249 Y134.973 E2.4895
G1 X116.482 Y135.275 E2.5230
G1 X115.708 Y135.557 E2.5565
G1 X114.928 Y135.819 E2.5901
G1 X114.140 Y136.062 E2.6236
G1 X113.347 Y136.285 E2.6571
G1 X112.549 Y136.487 E2.6907
G1 X111.745 Y136.669 E2.7242
G1 X110.938 Y136.830 E2.7577
G1 X110.126 Y136.971 E2.7913
G1 X109.311 Y137.091 E2.8248
G1 X108.494 Y137.190 E2.8583
G1 X107.673 Y137.269 E2.8919
G1 X106.853 Y137.326 E2.9254
G1 X106.030 Y137.363 E2.9589
G1 X105.206 Y137.379 E2.9924
G1 X104.383 Y137.373 E3.0260
G1 X103.559 Y137.347 E3.0595
G1 X102.743 Y137.300 E3.0928
G1 X103.539 Y136.053 F18000
G1 X103.654 Y135.969
G1 X103.837 Y135.893
G1 X103.914 Y135.879
G1 X105.586 Y135.884
G1 X106.376 Y135.859
G1 X107.947 Y135.749
G1 X109.512 Y135.559
G1 X111.064 Y135.289
G1 X111.837 Y135.124
G1 X113.362 Y134.737
G1 X114.121 Y134.513
G1 X115.613 Y134.010
G1 X117.079 Y133.430
G1 X118.514 Y132.777
G1 X119.936 Y132.040
G1 X120.061 Y131.925
G1 X120.122 Y131.802
G1 X120.140 Y131.694
G1 X120.557 Y131.453
G1 X120.644 Y131.506
G1 X120.890 Y131.485
G1 X121.639 Y131.025
G1 X122.300 Y130.591
G1 X123.582 Y129.676
G1 X124.816 Y128.696
G1 X125.999 Y127.654
G1 X127.128 Y126.554
G1 X128.197 Y125.398
G1 X128.711 Y124.798
G1 X129.210 Y124.186
G1 X130.156 Y122.927
G1 X131.037 Y121.622
G1 X131.454 Y120.949
G1 X132.224 Y119.595
G1 X132.310 Y119.470
G1 X132.457 Y119.339
G1 X132.524 Y119.301
G1 X133.086 Y119.113
G1 X133.373 Y118.980
G1 X133.524 Y118.870
G1 X133.748 Y118.630
G1 X133.876 Y118.415
G1 X134.214 Y117.663
G1 X134.528 Y116.912
G1 X134.823 Y116.153
G1 X135.098 Y115.387
G1 X135.354 Y114.615
G1 X135.590 Y113.836
G1 X135.805 Y113.051
G1 X136.001 Y112.261
G1 X136.177 Y111.465
G1 X136.399 Y110.267
G1 X136.580 Y109.060
G1 X136.674 Y108.250
G1 X136.747 Y107.438
G1 X136.814 Y106.222
G1 X136.840 Y105.001
G1 X136.830 Y104.186
G1 X136.798 Y103.373
G1 X136.746 Y102.561
G1 X136.674 Y101.750
G1 X136.580 Y100.941
G1 X136.466 Y100.136
G1 X136.332 Y99.333
G1 X136.177 Y98.534
G1 X136.001 Y97.739
G1 X135.805 Y96.949
G1 X135.590 Y96.164
G1 X135.354 Y95.385
G1 X135.098 Y94.613
G1 X134.823 Y93.847
G1 X134.528 Y93.088
G1 X134.213 Y92.336
G1 X133.801 Y91.444
G1 X133.583 Y91.181
G1 X133.310 Y90.984
G1 X133.082 Y90.885
G1 X132.628 Y90.741
G1 X132.492 Y90.681
G1 X132.481 Y90.672
G1 X132.740 Y90.266
G92 E0.0000
G1 X132.675 Y90.216 E0.0033 F1350
G1 X131.866 Y88.804 E0.0696
G1 X131.440 Y88.117 E0.1025
G1 X130.547 Y86.794 E0.1675
G1 X129.585 Y85.515 E0.2326
G1 X128.562 Y84.290 E0.2976
G1 X128.020 Y83.688 E0.3306
G1 X126.906 Y82.545 E0.3956
G1 X125.735 Y81.460 E0.4605
G1 X125.121 Y80.932 E0.4935
G1 X123.871 Y79.940 E0.5585
G1 X122.568 Y79.010 E0.6236
G1 X121.154 Y78.107 E0.6919
G1 X120.846 Y78.009 E0.7051
G1 X120.573 Y78.027 E0.7162
G1 X120.452 Y77.781 E0.7274
G1 X120.214 Y77.564 E0.7405
G1 X119.083 Y76.971 E0.7925
G1 X117.998 Y76.450 E0.8415
G1 X116.527 Y75.824 E0.9066
G1 X115.023 Y75.274 E0.9718
G1 X113.494 Y74.802 E1.0369
G1 X111.942 Y74.408 E1.1021
G1 X110.374 Y74.094 E1.1672
G1 X109.187 Y73.913 E1.2161
G1 X107.991 Y73.773 E1.2651
G1 X106.401 Y73.661 E1.3300
G1 X105.592 Y73.635 E1.3630
G1 X104.045 Y73.646 E1.4259
G1 X103.972 Y73.640 E1.4289
G1 X103.895 Y73.615 E1.4322
G1 X103.330 Y73.123 E1.4627
G1 X103.089 Y72.996 E1.4738
G1 X103.161 Y72.673 E1.4873
G1 X103.970 Y72.637 E1.5202
G1 X104.794 Y72.621 E1.5538
G1 X105.617 Y72.627 E1.5873
G1 X106.441 Y72.653 E1.6209
G1 X107.263 Y72.700 E1.6544
G1 X108.081 Y72.768 E1.6878
G1 X109.312 Y72.909 E1.7382
G1 X110.535 Y73.097 E1.7886
G1 X111.342 Y73.248 E1.8220
G1 X112.147 Y73.419 E1.8555
G1 X112.949 Y73.611 E1.8891
G1 X113.745 Y73.824 E1.9226
G1 X114.534 Y74.056 E1.9561
G1 X115.318 Y74.309 E1.9897
G1 X116.096 Y74.581 E2.0232
G1 X116.866 Y74.873 E2.0567
G1 X117.629 Y75.185 E2.0903
G1 X118.382 Y75.515 E2.1238
G1 X119.128 Y75.865 E2.1573
G1 X119.865 Y76.234 E2.1909
G1 X120.592 Y76.622 E2.2244
G1 X121.308 Y77.027 E2.2579
G1 X122.015 Y77.451 E2.2915
G1 X122.710 Y77.893 E2.3250
G1 X123.394 Y78.352 E2.3585
G1 X124.065 Y78.828 E2.3920
G1 X124.725 Y79.322 E2.4256
G1 X125.372 Y79.832 E2.4591
G1 X126.006 Y80.358 E2.4927
G1 X126.625 Y80.900 E2.5262
G1 X127.231 Y81.458 E2.5597
G1 X127.823 Y82.031 E2.5932
G1 X128.400 Y82.619 E2.6268
G1 X128.962 Y83.222 E2.6603
G1 X129.508 Y83.838 E2.6938
G1 X130.036 Y84.466 E2.7273
G1 X130.802 Y85.440 E2.7777
G1 X131.532 Y86.439 E2.8280
G1 X131.994 Y87.118 E2.8615
G1 X132.440 Y87.810 E2.8950
G1 X132.869 Y88.514 E2.9285
G1 X133.279 Y89.228 E2.9621
G1 X133.671 Y89.952 E2.9956
G1 X134.105 Y90.806 E3.0346
G1 X133.250 Y90.435 E3.0726
G1 X132.798 Y90.292 E3.0919
G1 X132.740 Y90.266 E3.0945
; feature outer perimeter
G1 X134.096 Y89.729 F18000
G92 E0.0000
G1 X134.475 Y90.474 E0.0340 F900
G1 X134.835 Y91.229 E0.0681
G1 X135.176 Y91.992 E0.1021
G1 X135.497 Y92.763 E0.1361
G1 X135.798 Y93.543 E0.1701
G1 X136.080 Y94.330 E0.2042
G1 X136.341 Y95.124 E0.2382
G1 X136.582 Y95.924 E0.2722
G1 X136.803 Y96.731 E0.3063
G1 X137.003 Y97.542 E0.3403
G1 X137.182 Y98.359 E0.3743
G1 X137.340 Y99.180 E0.4083
G1 X137.478 Y100.004 E0.4424
G1 X137.595 Y100.832 E0.4764
G1 X137.690 Y101.662 E0.5104
G1 X137.764 Y102.495 E0.5445
G1 X137.817 Y103.329 E0.5785
G1 X137.849 Y104.164 E0.6125
G1 X137.860 Y105.000 E0.6465
G1 X137.849 Y105.836 E0.6806
G1 X137.817 Y106.671 E0.7146
G1 X137.764 Y107.505 E0.7486
G1 X137.690 Y108.338 E0.7827
G1 X137.595 Y109.168 E0.8167
G1 X137.478 Y109.996 E0.8507
G1 X137.340 Y110.820 E0.8847
G1 X137.182 Y111.641 E0.9188
G1 X137.003 Y112.456 E0.9527
G1 X136.582 Y114.076 E1.0209
G1 X136.211 Y115.273 E1.0719
G1 X135.939 Y116.063 E1.1059
G1 X135.648 Y116.847 E1.1399
