; G-Code generated by Simplify3D(R) Version 4.1.2
; Feb 22, 2021 at 6:26:33 PM
; Settings Summary
;   processName,Process1
;   applyToModels,efs-18-55-is-ii-kit
;   profileName,HBot (modified)
;   profileVersion,2019-10-26 23:38:43
;   baseProfile,Default
;   printMaterial,PETG - SUNLU
;   printQuality,Medium
;   printExtruders,
;   extruderName,Extruder 1
;   extruderToolheadNumber,0
;   extruderDiameter,0.4
;   extruderAutoWidth,1
;   extruderWidth,0.48
;   extrusionMultiplier,1.02
;   extruderUseRetract,1
;   extruderRetractionDistance,3
;   extruderExtraRestartDistance,0
;   extruderRetractionZLift,0
;   extruderRetractionSpeed,5400
;   extruderUseCoasting,0
;   extruderCoastingDistance,0.2
;   extruderUseWipe,1
;   extruderWipeDistance,2
;   primaryExtruder,0
;   layerHeight,0.2
;   topSolidLayers,4
;   bottomSolidLayers,4
;   perimeterOutlines,3
;   printPerimetersInsideOut,1
;   startPointOption,3
;   startPointOriginX,110
;   startPointOriginY,300
;   sequentialIslands,0
;   spiralVaseMode,0
;   firstLayerHeightPercentage,100
;   firstLayerWidthPercentage,100
;   firstLayerUnderspeed,0.5
;   useRaft,0
;   raftExtruder,0
;   raftTopLayers,3
;   raftBaseLayers,2
;   raftOffset,3
;   raftSeparationDistance,0.18
;   raftTopInfill,100
;   aboveRaftSpeedMultiplier,0.3
;   useSkirt,0
;   skirtExtruder,0
;   skirtLayers,1
;   skirtOutlines,5
;   skirtOffset,0
;   usePrimePillar,0
;   primePillarExtruder,999
;   primePillarWidth,12
;   primePillarLocation,7
;   primePillarSpeedMultiplier,1
;   useOozeShield,0
;   oozeShieldExtruder,999
;   oozeShieldOffset,0.9
;   oozeShieldOutlines,2
;   oozeShieldSidewallShape,0
;   oozeShieldSidewallAngle,30
;   oozeShieldSpeedMultiplier,1.5
;   infillExtruder,0
;   internalInfillPattern,Fast Honeycomb
;   externalInfillPattern,Rectilinear
;   infillPercentage,15
;   outlineOverlapPercentage,25
;   infillExtrusionWidthPercentage,100
;   minInfillLength,5
;   infillLayerInterval,1
;   internalInfillAngles,0
;   overlapInternalInfillAngles,0
;   externalInfillAngles,45,-45
;   generateSupport,0
;   supportExtruder,0
;   supportInfillPercentage,25
;   supportExtraInflation,0
;   supportBaseLayers,1
;   denseSupportExtruder,0
;   denseSupportLayers,0
;   denseSupportInfillPercentage,70
;   supportLayerInterval,1
;   supportHorizontalPartOffset,0.3
;   supportUpperSeparationLayers,1
;   supportLowerSeparationLayers,1
;   supportType,0
;   supportGridSpacing,2
;   maxOverhangAngle,25
;   supportAngles,0
;   temperatureName,Extruder 1,Heated Bed
;   temperatureNumber,0,1
;   temperatureSetpointCount,2,1
;   temperatureSetpointLayers,1,2,1
;   temperatureSetpointTemperatures,215,215,85
;   temperatureStabilizeAtStartup,1,1
;   temperatureHeatedBed,0,1
;   fanLayers,1,5,10
;   fanSpeeds,0,5,20
;   blipFanToFullPower,1
;   adjustSpeedForCooling,0
;   minSpeedLayerTime,15
;   minCoolingSpeedSlowdown,20
;   increaseFanForCooling,1
;   minFanLayerTime,15
;   maxCoolingFanSpeed,40
;   increaseFanForBridging,1
;   bridgingFanSpeed,85
;   use5D,1
;   relativeEdistances,0
;   allowEaxisZeroing,1
;   independentExtruderAxes,0
;   includeM10123,0
;   stickySupport,1
;   applyToolheadOffsets,0
;   gcodeXoffset,0
;   gcodeYoffset,0
;   gcodeZoffset,0
;   overrideMachineDefinition,1
;   machineTypeOverride,0
;   strokeXoverride,210
;   strokeYoverride,210
;   strokeZoverride,150
;   originOffsetXoverride,0
;   originOffsetYoverride,0
;   originOffsetZoverride,0
;   homeXdirOverride,-1
;   homeYdirOverride,-1
;   homeZdirOverride,-1
;   flipXoverride,1
;   flipYoverride,-1
;   flipZoverride,1
;   toolheadOffsets,0,0|0,0|0,0|0,0|0,0|0,0
;   overrideFirmwareConfiguration,1
;   firmwareTypeOverride,RepRap (Marlin/Repetier/Sprinter)
;   GPXconfigOverride,r2
;   baudRateOverride,115200
;   overridePrinterModels,0
;   printerModelsOverride
;   startingGcode,G28 ; home all axes,G32 ; run bed.g -- probe bed and enable compensation
;   layerChangeGcode,
;   retractionGcode,
;   toolChangeGcode,
;   endingGcode,M0 ; call stop.g
;   exportFileFormat,gcode
;   celebration,0
;   celebrationSong,Random Song
;   postProcessing,
;   defaultSpeed,3600
;   outlineUnderspeed,0.5
;   solidInfillUnderspeed,0.8
;   supportUnderspeed,0.8
;   rapidXYspeed,18000
;   rapidZspeed,1200
;   minBridgingArea,50
;   bridgingExtraInflation,0
;   bridgingExtrusionMultiplier,0.96
;   bridgingSpeedMultiplier,1
;   useFixedBridgingAngle,0
;   fixedBridgingAngle,0
;   applyBridgingToPerimeters,0
;   filamentDiameters,1.75|1.75|1.75|1.75|1.75|1.75
;   filamentPricesPerKg,46|46|46|46|46|46
;   filamentDensities,1.25|1.25|1.25|1.25|1.25|1.25
;   useMinPrintHeight,0
;   minPrintHeight,17.2
;   useMaxPrintHeight,0
;   maxPrintHeight,7.5
;   useDiaphragm,0
;   diaphragmLayerInterval,20
;   robustSlicing,1
;   mergeAllIntoSolid,0
;   onlyRetractWhenCrossingOutline,1
;   retractBetweenLayers,0
;   useRetractionMinTravel,1
;   retractionMinTravel,3
;   retractWhileWiping,1
;   onlyWipeOutlines,1
;   avoidCrossingOutline,1
;   maxMovementDetourFactor,5
;   toolChangeRetractionDistance,12
;   toolChangeExtraRestartDistance,-0.5
;   toolChangeRetractionSpeed,600
;   externalThinWallType,0
;   internalThinWallType,2
;   thinWallAllowedOverlapPercentage,10
;   singleExtrusionMinLength,1
;   singleExtrusionMinPrintingWidthPercentage,50
;   singleExtrusionMaxPrintingWidthPercentage,150
;   singleExtrusionEndpointExtension,0.2
;   horizontalSizeCompensation,0
G90
M82
M106 S0
M140 S85
M190 S85
M104 S215 T0
M109 S215 T0
G28 ; home all axes
G32 ; run bed.g -- probe bed and enable compensation
; process Process1
; layer 1, Z = 0.200
T0
G92 E0.0000
G1 E-3.0000 F5400
; feature inner perimeter
; tool H0.200 W0.480
G1 Z0.200 F1200
G1 X106.240 Y137.356 F18000
G1 E0.0000 F5400
G92 E0.0000
G1 X105.414 Y137.377 E0.0337 F1350
G1 X104.586 Y137.377 E0.0673
G1 X103.760 Y137.356 E0.1010
G1 X102.934 Y137.314 E0.1347
G1 X102.109 Y137.251 E0.1683
G1 X101.287 Y137.166 E0.2020
G1 X100.466 Y137.061 E0.2357
G1 X99.649 Y136.935 E0.2693
G1 X98.835 Y136.788 E0.3030
G1 X98.025 Y136.620 E0.3367
G1 X97.220 Y136.431 E0.3703
G1 X96.420 Y136.222 E0.4040
G1 X95.625 Y135.993 E0.4377
G1 X94.837 Y135.744 E0.4713
G1 X94.055 Y135.474 E0.5050
G1 X93.280 Y135.185 E0.5387
G1 X92.513 Y134.875 E0.5723
G1 X91.754 Y134.547 E0.6060
G1 X91.004 Y134.199 E0.6397
G1 X90.263 Y133.832 E0.6734
G1 X89.532 Y133.446 E0.7070
G1 X88.810 Y133.042 E0.7407
G1 X88.099 Y132.619 E0.7743
G1 X87.399 Y132.178 E0.8080
G1 X86.711 Y131.720 E0.8417
G1 X86.034 Y131.244 E0.8754
G1 X85.371 Y130.752 E0.9090
G1 X84.719 Y130.241 E0.9427
G1 X84.081 Y129.716 E0.9764
G1 X83.457 Y129.174 E1.0100
G1 X82.847 Y128.615 E1.0437
G1 X82.250 Y128.041 E1.0774
G1 X81.670 Y127.453 E1.1110
G1 X81.104 Y126.850 E1.1447
G1 X80.553 Y126.233 E1.1784
G1 X80.019 Y125.602 E1.2120
G1 X79.501 Y124.957 E1.2457
G1 X79.000 Y124.299 E1.2794
G1 X78.516 Y123.629 E1.3130
G1 X78.048 Y122.946 E1.3467
G1 X77.599 Y122.252 E1.3804
G1 X77.167 Y121.547 E1.4140
G1 X76.754 Y120.830 E1.4477
G1 X76.359 Y120.105 E1.4814
G1 X75.982 Y119.367 E1.5151
G1 X75.625 Y118.622 E1.5487
G1 X75.286 Y117.867 E1.5824
G1 X74.968 Y117.105 E1.6160
G1 X74.668 Y116.333 E1.6497
G1 X74.389 Y115.555 E1.6834
G1 X74.129 Y114.770 E1.7170
G1 X73.890 Y113.978 E1.7507
G1 X73.671 Y113.181 E1.7844
G1 X73.472 Y112.378 E1.8180
G1 X73.294 Y111.570 E1.8517
G1 X73.136 Y110.758 E1.8854
G1 X73.000 Y109.943 E1.9191
G1 X72.884 Y109.124 E1.9527
G1 X72.789 Y108.302 E1.9864
G1 X72.715 Y107.479 E2.0201
G1 X72.662 Y106.654 E2.0537
G1 X72.631 Y105.827 E2.0874
G1 X72.620 Y105.000 E2.1211
G1 X72.631 Y104.173 E2.1547
G1 X72.662 Y103.346 E2.1884
G1 X72.715 Y102.521 E2.2221
G1 X72.789 Y101.698 E2.2557
G1 X72.884 Y100.876 E2.2894
G1 X73.000 Y100.057 E2.3231
G1 X73.136 Y99.242 E2.3567
G1 X73.294 Y98.430 E2.3904
G1 X73.472 Y97.622 E2.4241
G1 X73.671 Y96.819 E2.4577
G1 X73.890 Y96.022 E2.4914
G1 X74.129 Y95.230 E2.5251
G1 X74.389 Y94.445 E2.5587
G1 X74.668 Y93.667 E2.5924
G1 X74.968 Y92.895 E2.6261
G1 X75.286 Y92.133 E2.6597
G1 X75.625 Y91.378 E2.6934
G1 X75.982 Y90.633 E2.7271
G1 X76.359 Y89.895 E2.7608
G1 X76.754 Y89.170 E2.7944
G1 X77.167 Y88.453 E2.8281
G1 X77.599 Y87.748 E2.8618
G1 X78.048 Y87.054 E2.8954
G1 X78.522 Y86.363 E2.9295
G1 X79.000 Y85.701 E2.9628
G1 X79.501 Y85.043 E2.9964
G1 X80.019 Y84.398 E3.0301
G1 X80.553 Y83.767 E3.0637
G1 X81.104 Y83.150 E3.0974
G1 X81.670 Y82.547 E3.1311
G1 X82.250 Y81.959 E3.1647
G1 X82.847 Y81.385 E3.1984
G1 X83.457 Y80.826 E3.2321
G1 X84.081 Y80.284 E3.2658
G1 X84.719 Y79.759 E3.2994
G1 X85.371 Y79.248 E3.3331
G1 X86.035 Y78.755 E3.3668
G1 X86.711 Y78.280 E3.4004
G1 X87.399 Y77.822 E3.4341
G1 X88.099 Y77.381 E3.4678
G1 X88.810 Y76.958 E3.5014
G1 X89.532 Y76.554 E3.5351
G1 X90.263 Y76.168 E3.5688
G1 X91.004 Y75.801 E3.6024
G1 X91.754 Y75.453 E3.6361
G1 X92.513 Y75.124 E3.6698
G1 X93.281 Y74.815 E3.7035
G1 X94.055 Y74.526 E3.7371
G1 X94.837 Y74.256 E3.7708
G1 X95.625 Y74.007 E3.8044
G1 X96.420 Y73.778 E3.8381
G1 X97.220 Y73.569 E3.8718
G1 X98.025 Y73.380 E3.9054
G1 X98.835 Y73.212 E3.9391
G1 X99.649 Y73.065 E3.9728
G1 X100.466 Y72.939 E4.0065
G1 X101.287 Y72.834 E4.0401
G1 X102.110 Y72.749 E4.0738
G1 X102.934 Y72.686 E4.1075
G1 X103.760 Y72.644 E4.1411
G1 X104.586 Y72.623 E4.1748
G1 X105.414 Y72.623 E4.2085
G1 X106.240 Y72.644 E4.2421
G1 X107.066 Y72.686 E4.2758
G1 X107.890 Y72.749 E4.3095
G1 X108.713 Y72.834 E4.3431
G1 X109.534 Y72.939 E4.3768
G1 X110.351 Y73.065 E4.4105
G1 X111.165 Y73.212 E4.4441
G1 X111.975 Y73.380 E4.4778
G1 X112.780 Y73.569 E4.5115
G1 X113.580 Y73.778 E4.5451
G1 X114.375 Y74.007 E4.5788
G1 X115.163 Y74.256 E4.6125
G1 X115.945 Y74.526 E4.6462
G1 X116.719 Y74.815 E4.6798
G1 X117.487 Y75.124 E4.7135
G1 X118.246 Y75.453 E4.7471
G1 X118.996 Y75.801 E4.7808
G1 X119.737 Y76.168 E4.8145
G1 X120.468 Y76.554 E4.8481
G1 X121.190 Y76.958 E4.8818
G1 X121.901 Y77.381 E4.9155
G1 X122.601 Y77.822 E4.9492
G1 X123.289 Y78.280 E4.9828
G1 X123.965 Y78.755 E5.0165
G1 X124.629 Y79.248 E5.0501
G1 X125.281 Y79.759 E5.0838
G1 X125.919 Y80.284 E5.1175
G1 X126.543 Y80.826 E5.1511
G1 X127.153 Y81.385 E5.1848
G1 X127.750 Y81.959 E5.2185
G1 X128.330 Y82.547 E5.2522
G1 X128.896 Y83.149 E5.2858
G1 X129.447 Y83.767 E5.3195
G1 X129.981 Y84.398 E5.3532
G1 X130.499 Y85.043 E5.3868
G1 X131.000 Y85.701 E5.4205
G1 X131.485 Y86.371 E5.4542
G1 X131.952 Y87.054 E5.4878
G1 X132.401 Y87.748 E5.5215
G1 X132.833 Y88.453 E5.5552
G1 X133.246 Y89.170 E5.5888
G1 X133.641 Y89.896 E5.6225
G1 X134.018 Y90.632 E5.6562
G1 X134.375 Y91.378 E5.6899
G1 X134.714 Y92.133 E5.7235
G1 X135.032 Y92.896 E5.7572
G1 X135.332 Y93.667 E5.7909
G1 X135.611 Y94.445 E5.8245
G1 X135.871 Y95.230 E5.8582
G1 X136.110 Y96.022 E5.8919
G1 X136.329 Y96.819 E5.9255
G1 X136.528 Y97.622 E5.9592
G1 X136.706 Y98.430 E5.9929
G1 X136.864 Y99.242 E6.0265
G1 X137.000 Y100.057 E6.0602
G1 X137.116 Y100.876 E6.0939
G1 X137.211 Y101.697 E6.1275
G1 X137.285 Y102.521 E6.1612
G1 X137.338 Y103.346 E6.1948
G1 X137.369 Y104.173 E6.2285
G1 X137.380 Y105.000 E6.2622
G1 X137.369 Y105.827 E6.2958
G1 X137.338 Y106.654 E6.3296
G1 X137.285 Y107.479 E6.3632
G1 X137.211 Y108.302 E6.3969
G1 X137.116 Y109.124 E6.4305
G1 X137.000 Y109.943 E6.4642
G1 X136.864 Y110.758 E6.4979
G1 X136.706 Y111.570 E6.5315
G1 X136.528 Y112.378 E6.5652
G1 X136.329 Y113.181 E6.5989
G1 X136.110 Y113.978 E6.6325
G1 X135.871 Y114.770 E6.6662
G1 X135.611 Y115.555 E6.6999
G1 X135.332 Y116.333 E6.7335
G1 X135.032 Y117.104 E6.7672
G1 X134.714 Y117.867 E6.8009
G1 X134.375 Y118.622 E6.8345
G1 X134.018 Y119.368 E6.8682
G1 X133.641 Y120.104 E6.9019
G1 X133.246 Y120.830 E6.9355
G1 X132.833 Y121.547 E6.9692
G1 X132.401 Y122.252 E7.0029
G1 X131.952 Y122.946 E7.0366
G1 X131.485 Y123.629 E7.0702
G1 X131.000 Y124.299 E7.1039
G1 X130.499 Y124.957 E7.1375
G1 X129.981 Y125.602 E7.1712
G1 X129.447 Y126.233 E7.2049
G1 X128.896 Y126.851 E7.2386
G1 X128.330 Y127.453 E7.2722
G1 X127.750 Y128.041 E7.3059
G1 X127.153 Y128.615 E7.3396
G1 X126.543 Y129.174 E7.3732
G1 X125.919 Y129.716 E7.4069
G1 X125.281 Y130.242 E7.4406
G1 X124.629 Y130.752 E7.4743
G1 X123.966 Y131.244 E7.5079
G1 X123.289 Y131.720 E7.5416
G1 X122.601 Y132.178 E7.5752
G1 X121.901 Y132.619 E7.6089
G1 X121.190 Y133.042 E7.6426
G1 X120.468 Y133.446 E7.6763
G1 X119.737 Y133.832 E7.7099
G1 X118.996 Y134.199 E7.7436
G1 X118.246 Y134.547 E7.7773
G1 X117.487 Y134.875 E7.8109
G1 X116.720 Y135.185 E7.8446
G1 X115.945 Y135.474 E7.8783
G1 X115.163 Y135.744 E7.9119
G1 X114.375 Y135.993 E7.9456
G1 X113.580 Y136.222 E7.9793
G1 X112.780 Y136.431 E8.0129
G1 X111.975 Y136.620 E8.0466
G1 X111.165 Y136.788 E8.0803
G1 X110.351 Y136.935 E8.1139
G1 X109.534 Y137.061 E8.1476
G1 X108.713 Y137.166 E8.1813
G1 X107.890 Y137.251 E8.2149
G1 X107.066 Y137.314 E8.2486
G1 X106.240 Y137.356 E8.2823
; feature outer perimeter
G1 X106.258 Y137.836 F18000
G92 E0.0000
G1 X105.420 Y137.857 E0.0342 F900
G1 X104.580 Y137.857 E0.0683
G1 X103.742 Y137.836 E0.1025
G1 X102.903 Y137.793 E0.1367
G1 X102.066 Y137.729 E0.1708
G1 X101.232 Y137.643 E0.2050
G1 X100.399 Y137.536 E0.2392
G1 X99.569 Y137.408 E0.2733
G1 X98.744 Y137.259 E0.3075
G1 X97.922 Y137.089 E0.3417
G1 X97.104 Y136.897 E0.3758
G1 X96.293 Y136.685 E0.4100
G1 X95.486 Y136.453 E0.4442
G1 X94.686 Y136.199 E0.4783
G1 X93.893 Y135.926 E0.5125
G1 X93.106 Y135.632 E0.5467
G1 X92.328 Y135.318 E0.5808
G1 X91.558 Y134.985 E0.6150
G1 X90.797 Y134.632 E0.6492
G1 X90.045 Y134.259 E0.6833
G1 X89.302 Y133.868 E0.7175
G1 X88.570 Y133.458 E0.7517
G1 X87.849 Y133.029 E0.7858
G1 X87.138 Y132.581 E0.8200
G1 X86.440 Y132.116 E0.8542
G1 X85.753 Y131.634 E0.8883
G1 X85.079 Y131.133 E0.9225
G1 X84.419 Y130.616 E0.9567
G1 X83.771 Y130.082 E0.9908
G1 X83.137 Y129.532 E1.0250
G1 X82.518 Y128.965 E1.0592
G1 X81.913 Y128.383 E1.0933
G1 X81.324 Y127.786 E1.1275
G1 X80.749 Y127.174 E1.1617
G1 X80.191 Y126.547 E1.1958
G1 X79.649 Y125.907 E1.2300
G1 X79.123 Y125.253 E1.2642
G1 X78.614 Y124.585 E1.2983
G1 X78.123 Y123.905 E1.3325
G1 X77.649 Y123.212 E1.3667
G1 X77.193 Y122.508 E1.4008
G1 X76.755 Y121.792 E1.4350
G1 X76.335 Y121.065 E1.4692
G1 X75.934 Y120.328 E1.5033
G1 X75.552 Y119.581 E1.5375
G1 X75.189 Y118.824 E1.5717
G1 X74.846 Y118.058 E1.6058
G1 X74.522 Y117.284 E1.6400
G1 X74.218 Y116.501 E1.6742
G1 X73.935 Y115.712 E1.7083
G1 X73.671 Y114.915 E1.7425
G1 X73.428 Y114.111 E1.7767
G1 X73.206 Y113.302 E1.8108
G1 X73.004 Y112.487 E1.8450
G1 X72.824 Y111.667 E1.8792
G1 X72.664 Y110.844 E1.9133
G1 X72.525 Y110.016 E1.9475
G1 X72.408 Y109.185 E1.9817
G1 X72.311 Y108.351 E2.0158
G1 X72.236 Y107.515 E2.0500
G1 X72.183 Y106.678 E2.0842
G1 X72.151 Y105.839 E2.1183
G1 X72.140 Y105.000 E2.1525
G1 X72.151 Y104.161 E2.1867
G1 X72.183 Y103.322 E2.2208
G1 X72.236 Y102.485 E2.2550
G1 X72.311 Y101.649 E2.2892
G1 X72.408 Y100.815 E2.3233
G1 X72.525 Y99.984 E2.3575
G1 X72.664 Y99.156 E2.3917
G1 X72.824 Y98.332 E2.4258
G1 X73.004 Y97.513 E2.4600
G1 X73.206 Y96.698 E2.4942
G1 X73.428 Y95.889 E2.5283
G1 X73.671 Y95.085 E2.5625
G1 X73.935 Y94.288 E2.5967
G1 X74.218 Y93.499 E2.6308
G1 X74.522 Y92.716 E2.6650
G1 X74.846 Y91.942 E2.6992
G1 X75.189 Y91.176 E2.7333
G1 X75.552 Y90.419 E2.7675
G1 X75.934 Y89.672 E2.8017
G1 X76.335 Y88.935 E2.8358
G1 X76.755 Y88.208 E2.8700
G1 X77.193 Y87.492 E2.9042
G1 X77.649 Y86.787 E2.9384
G1 X78.129 Y86.087 E2.9729
G1 X78.614 Y85.415 E3.0067
G1 X79.123 Y84.747 E3.0409
G1 X79.649 Y84.093 E3.0750
G1 X80.191 Y83.453 E3.1092
G1 X80.749 Y82.826 E3.1433
G1 X81.324 Y82.214 E3.1775
G1 X81.913 Y81.617 E3.2117
G1 X82.518 Y81.035 E3.2459
G1 X83.137 Y80.468 E3.2800
G1 X83.771 Y79.918 E3.3142
G1 X84.418 Y79.384 E3.3483
G1 X85.079 Y78.867 E3.3825
G1 X85.753 Y78.366 E3.4167
G1 X86.440 Y77.884 E3.4508
G1 X87.139 Y77.418 E3.4850
G1 X87.849 Y76.971 E3.5192
G1 X88.570 Y76.542 E3.5534
G1 X89.302 Y76.132 E3.5875
G1 X90.045 Y75.741 E3.6217
G1 X90.797 Y75.368 E3.6559
G1 X91.558 Y75.015 E3.6900
G1 X92.328 Y74.682 E3.7242
G1 X93.106 Y74.368 E3.7583
G1 X93.893 Y74.074 E3.7925
G1 X94.686 Y73.801 E3.8267
G1 X95.486 Y73.547 E3.8609
G1 X96.293 Y73.315 E3.8950
G1 X97.104 Y73.103 E3.9292
G1 X97.922 Y72.911 E3.9634
G1 X98.744 Y72.741 E3.9975
G1 X99.569 Y72.592 E4.0317
