; G-Code generated by Simplify3D(R) Version 4.1.2
; Sep 16, 2021 at 3:29:37 PM
; Settings Summary
;   processName,Process1
;   applyToModels,riemen-halterung,riemen-halterung(2),riemen-halterung(3)
;   profileName,HSBot
;   profileVersion,2019-11-09 11:59:44
;   baseProfile,Default
;   printMaterial,PETG
;   printQuality,Medium
;   printExtruders,
;   extruderName,Extruder 1
;   extruderToolheadNumber,0
;   extruderDiameter,0.4
;   extruderAutoWidth,1
;   extruderWidth,0.48
;   extrusionMultiplier,1.04
;   extruderUseRetract,1
;   extruderRetractionDistance,3
;   extruderExtraRestartDistance,0
;   extruderRetractionZLift,0
;   extruderRetractionSpeed,3600
;   extruderUseCoasting,1
;   extruderCoastingDistance,0.2
;   extruderUseWipe,0
;   extruderWipeDistance,5
;   primaryExtruder,0
;   layerHeight,0.24
;   topSolidLayers,3
;   bottomSolidLayers,3
;   perimeterOutlines,3
;   printPerimetersInsideOut,1
;   startPointOption,2
;   startPointOriginX,0
;   startPointOriginY,0
;   sequentialIslands,0
;   spiralVaseMode,0
;   firstLayerHeightPercentage,100
;   firstLayerWidthPercentage,120
;   firstLayerUnderspeed,0.5
;   useRaft,0
;   raftExtruder,0
;   raftTopLayers,3
;   raftBaseLayers,2
;   raftOffset,3
;   raftSeparationDistance,0.18
;   raftTopInfill,100
;   aboveRaftSpeedMultiplier,0.3
;   useSkirt,1
;   skirtExtruder,0
;   skirtLayers,1
;   skirtOutlines,10
;   skirtOffset,0
;   usePrimePillar,0
;   primePillarExtruder,999
;   primePillarWidth,12
;   primePillarLocation,7
;   primePillarSpeedMultiplier,1
;   useOozeShield,0
;   oozeShieldExtruder,999
;   oozeShieldOffset,2
;   oozeShieldOutlines,1
;   oozeShieldSidewallShape,1
;   oozeShieldSidewallAngle,30
;   oozeShieldSpeedMultiplier,1
;   infillExtruder,0
;   internalInfillPattern,Rectilinear
;   externalInfillPattern,Rectilinear
;   infillPercentage,15
;   outlineOverlapPercentage,15
;   infillExtrusionWidthPercentage,150
;   minInfillLength,5
;   infillLayerInterval,1
;   internalInfillAngles,45,-45
;   overlapInternalInfillAngles,0
;   externalInfillAngles,45,-45
;   generateSupport,0
;   supportExtruder,0
;   supportInfillPercentage,30
;   supportExtraInflation,0
;   supportBaseLayers,1
;   denseSupportExtruder,0
;   denseSupportLayers,0
;   denseSupportInfillPercentage,70
;   supportLayerInterval,1
;   supportHorizontalPartOffset,0.3
;   supportUpperSeparationLayers,1
;   supportLowerSeparationLayers,1
;   supportType,0
;   supportGridSpacing,4
;   maxOverhangAngle,45
;   supportAngles,0
;   temperatureName,Extruder 1,Bed
;   temperatureNumber,0,0
;   temperatureSetpointCount,2,1
;   temperatureSetpointLayers,1,2,1
;   temperatureSetpointTemperatures,235,235,75
;   temperatureStabilizeAtStartup,1,1
;   temperatureHeatedBed,0,1
;   fanLayers,1,4,6
;   fanSpeeds,0,15,25
;   blipFanToFullPower,1
;   adjustSpeedForCooling,1
;   minSpeedLayerTime,15
;   minCoolingSpeedSlowdown,20
;   increaseFanForCooling,1
;   minFanLayerTime,45
;   maxCoolingFanSpeed,40
;   increaseFanForBridging,1
;   bridgingFanSpeed,80
;   use5D,1
;   relativeEdistances,0
;   allowEaxisZeroing,1
;   independentExtruderAxes,0
;   includeM10123,0
;   stickySupport,1
;   applyToolheadOffsets,0
;   gcodeXoffset,0
;   gcodeYoffset,0
;   gcodeZoffset,0
;   overrideMachineDefinition,1
;   machineTypeOverride,0
;   strokeXoverride,200
;   strokeYoverride,200
;   strokeZoverride,150
;   originOffsetXoverride,0
;   originOffsetYoverride,0
;   originOffsetZoverride,0
;   homeXdirOverride,-1
;   homeYdirOverride,-1
;   homeZdirOverride,-1
;   flipXoverride,1
;   flipYoverride,-1
;   flipZoverride,1
;   toolheadOffsets,0,0|0,0|0,0|0,0|0,0|0,0
;   overrideFirmwareConfiguration,0
;   firmwareTypeOverride,RepRap (Marlin/Repetier/Sprinter)
;   GPXconfigOverride,r2
;   baudRateOverride,115200
;   overridePrinterModels,0
;   printerModelsOverride
;   startingGcode,G28 ; home all axes,G32 ; run bed.g -- probe bed and enable compensation
;   layerChangeGcode,
;   retractionGcode,
;   toolChangeGcode,
;   endingGcode,M0 ; call stop.g
;   exportFileFormat,gcode
;   celebration,0
;   celebrationSong,Random Song
;   postProcessing,
;   defaultSpeed,3600
;   outlineUnderspeed,0.5
;   solidInfillUnderspeed,0.8
;   supportUnderspeed,0.8
;   rapidXYspeed,18000
;   rapidZspeed,1200
;   minBridgingArea,50
;   bridgingExtraInflation,0
;   bridgingExtrusionMultiplier,0.96
;   bridgingSpeedMultiplier,1
;   useFixedBridgingAngle,0
;   fixedBridgingAngle,0
;   applyBridgingToPerimeters,0
;   filamentDiameters,1.75|1.75|1.75|1.75|1.75|1.75
;   filamentPricesPerKg,25|46|46|46|46|46
;   filamentDensities,1.25|1.25|1.25|1.25|1.25|1.25
;   useMinPrintHeight,0
;   minPrintHeight,0
;   useMaxPrintHeight,0
;   maxPrintHeight,0
;   useDiaphragm,1
;   diaphragmLayerInterval,20
;   robustSlicing,1
;   mergeAllIntoSolid,0
;   onlyRetractWhenCrossingOutline,1
;   retractBetweenLayers,0
;   useRetractionMinTravel,1
;   retractionMinTravel,3
;   retractWhileWiping,1
;   onlyWipeOutlines,0
;   avoidCrossingOutline,1
;   maxMovementDetourFactor,3
;   toolChangeRetractionDistance,12
;   toolChangeExtraRestartDistance,-0.5
;   toolChangeRetractionSpeed,600
;   externalThinWallType,0
;   internalThinWallType,2
;   thinWallAllowedOverlapPercentage,10
;   singleExtrusionMinLength,1
;   singleExtrusionMinPrintingWidthPercentage,50
;   singleExtrusionMaxPrintingWidthPercentage,200
;   singleExtrusionEndpointExtension,0.2
;   horizontalSizeCompensation,0
G90
M82
M106 S0
M140 S75
M190 S75
G10 P0 S235 R{235-50}
M116 P0
G28 ; home all axes
G32 ; run bed.g -- probe bed and enable compensation
; process Process1
; layer 1, Z = 0.240
T0
G92 E0.0000
G1 E-3.0000 F3600
; feature skirt
; tool H0.240 W0.576
G1 Z0.240 F1200
G1 X83.945 Y80.132 F18000
G1 E0.0000 F3600
G92 E0.0000
G1 X84.132 Y79.945 E0.0158 F1800
G1 X85.378 Y78.990 E0.1096
G1 X85.606 Y78.858 E0.1254
G1 X87.056 Y78.257 E0.2192
G1 X87.312 Y78.189 E0.2350
G1 X88.802 Y77.993 E0.3249
G1 X88.934 Y77.984 E0.3328
G1 X111.066 Y77.984 E1.6556
G1 X111.198 Y77.993 E1.6635
G1 X112.688 Y78.189 E1.7534
G1 X112.943 Y78.257 E1.7692
G1 X114.394 Y78.858 E1.8630
G1 X114.622 Y78.990 E1.8788
G1 X115.868 Y79.945 E1.9726
G1 X116.054 Y80.132 E1.9884
G1 X117.010 Y81.378 E2.0822
G1 X117.142 Y81.607 E2.0980
G1 X117.743 Y83.056 E2.1919
G1 X117.811 Y83.312 E2.2076
G1 X118.016 Y84.868 E2.3015
G1 X118.016 Y85.132 E2.3173
G1 X117.811 Y86.688 E2.4111
G1 X117.743 Y86.943 E2.4269
G1 X117.142 Y88.393 E2.5207
G1 X117.010 Y88.622 E2.5365
G1 X116.054 Y89.868 E2.6303
G1 X115.868 Y90.054 E2.6461
G1 X114.622 Y91.010 E2.7399
G1 X114.393 Y91.142 E2.7557
G1 X112.943 Y91.743 E2.8495
G1 X112.688 Y91.811 E2.8653
G1 X111.197 Y92.007 E2.9552
G1 X111.065 Y92.016 E2.9631
G1 X88.881 Y92.009 E4.2891
G1 X88.750 Y92.000 E4.2970
G1 X87.312 Y91.811 E4.3837
G1 X87.056 Y91.743 E4.3995
G1 X85.607 Y91.142 E4.4933
G1 X85.378 Y91.010 E4.5091
G1 X84.132 Y90.054 E4.6029
G1 X83.945 Y89.868 E4.6187
G1 X82.990 Y88.622 E4.7125
G1 X82.858 Y88.393 E4.7283
G1 X82.257 Y86.943 E4.8221
G1 X82.189 Y86.688 E4.8379
G1 X81.984 Y85.132 E4.9317
G1 X81.984 Y84.868 E4.9475
G1 X82.189 Y83.312 E5.0413
G1 X82.257 Y83.056 E5.0571
G1 X82.858 Y81.607 E5.1509
G1 X82.990 Y81.378 E5.1667
G1 X83.945 Y80.132 E5.2606
G1 X84.379 Y80.513 F18000
G92 E0.0000
G1 X84.513 Y80.379 E0.0113 F1800
G1 X85.698 Y79.470 E0.1006
G1 X85.862 Y79.376 E0.1119
G1 X87.242 Y78.804 E0.2012
G1 X87.424 Y78.755 E0.2125
G1 X88.859 Y78.566 E0.2989
G1 X88.953 Y78.560 E0.3046
G1 X111.047 Y78.560 E1.6252
G1 X111.141 Y78.566 E1.6308
G1 X112.576 Y78.755 E1.7173
G1 X112.758 Y78.804 E1.7286
G1 X114.138 Y79.376 E1.8179
G1 X114.302 Y79.470 E1.8292
G1 X115.487 Y80.379 E1.9185
G1 X115.620 Y80.513 E1.9298
G1 X116.530 Y81.698 E2.0191
G1 X116.624 Y81.862 E2.0304
G1 X117.196 Y83.242 E2.1196
G1 X117.245 Y83.424 E2.1309
G1 X117.440 Y84.906 E2.2202
G1 X117.440 Y85.094 E2.2315
G1 X117.245 Y86.576 E2.3208
G1 X117.196 Y86.758 E2.3321
G1 X116.624 Y88.138 E2.4214
G1 X116.530 Y88.302 E2.4327
G1 X115.621 Y89.487 E2.5220
G1 X115.487 Y89.621 E2.5333
G1 X114.302 Y90.530 E2.6226
G1 X114.138 Y90.624 E2.6339
G1 X112.758 Y91.196 E2.7232
G1 X112.576 Y91.245 E2.7344
G1 X111.141 Y91.434 E2.8209
G1 X111.047 Y91.440 E2.8266
G1 X88.901 Y91.433 E4.1503
G1 X88.807 Y91.427 E4.1559
G1 X87.424 Y91.245 E4.2393
G1 X87.242 Y91.196 E4.2505
G1 X85.862 Y90.624 E4.3398
G1 X85.698 Y90.530 E4.3511
G1 X84.513 Y89.620 E4.4404
G1 X84.379 Y89.487 E4.4517
G1 X83.470 Y88.302 E4.5410
G1 X83.376 Y88.138 E4.5523
G1 X82.804 Y86.758 E4.6416
G1 X82.755 Y86.576 E4.6529
G1 X82.560 Y85.094 E4.7422
G1 X82.560 Y84.906 E4.7535
G1 X82.755 Y83.424 E4.8428
G1 X82.804 Y83.242 E4.8541
G1 X83.376 Y81.862 E4.9434
G1 X83.470 Y81.698 E4.9546
G1 X84.379 Y80.513 E5.0439
G1 X84.813 Y80.894 F18000
G92 E0.0000
G1 X84.894 Y80.813 E0.0068 F1800
G1 X86.019 Y79.950 E0.0916
G1 X86.117 Y79.893 E0.0983
G1 X87.428 Y79.350 E0.1831
G1 X87.537 Y79.321 E0.1899
G1 X88.915 Y79.140 E0.2730
G1 X88.972 Y79.136 E0.2764
G1 X111.028 Y79.136 E1.5947
G1 X111.085 Y79.140 E1.5981
G1 X112.463 Y79.321 E1.6812
G1 X112.572 Y79.350 E1.6880
G1 X113.883 Y79.893 E1.7728
G1 X113.981 Y79.950 E1.7795
G1 X115.106 Y80.813 E1.8643
G1 X115.186 Y80.894 E1.8711
G1 X116.050 Y82.019 E1.9559
G1 X116.107 Y82.117 E1.9627
G1 X116.650 Y83.428 E2.0474
G1 X116.679 Y83.537 E2.0542
G1 X116.864 Y84.943 E2.1390
G1 X116.864 Y85.057 E2.1458
G1 X116.679 Y86.463 E2.2306
G1 X116.650 Y86.572 E2.2373
G1 X116.107 Y87.883 E2.3221
G1 X116.050 Y87.981 E2.3289
G1 X115.187 Y89.106 E2.4137
G1 X115.106 Y89.187 E2.4204
G1 X113.981 Y90.050 E2.5052
G1 X113.883 Y90.107 E2.5120
G1 X112.572 Y90.650 E2.5968
G1 X112.463 Y90.679 E2.6036
G1 X111.085 Y90.860 E2.6867
G1 X111.028 Y90.864 E2.6901
G1 X88.920 Y90.857 E4.0115
G1 X88.863 Y90.853 E4.0149
G1 X87.537 Y90.679 E4.0949
G1 X87.428 Y90.650 E4.1016
G1 X86.117 Y90.107 E4.1864
G1 X86.019 Y90.050 E4.1932
G1 X84.894 Y89.186 E4.2780
G1 X84.813 Y89.106 E4.2848
G1 X83.950 Y87.981 E4.3695
G1 X83.893 Y87.883 E4.3763
G1 X83.350 Y86.572 E4.4611
G1 X83.321 Y86.463 E4.4679
G1 X83.136 Y85.057 E4.5527
G1 X83.136 Y84.943 E4.5594
G1 X83.321 Y83.537 E4.6442
G1 X83.350 Y83.428 E4.6510
G1 X83.893 Y82.117 E4.7358
G1 X83.950 Y82.019 E4.7425
G1 X84.813 Y80.894 E4.8273
G1 X85.247 Y81.274 F18000
G92 E0.0000
G1 X85.274 Y81.247 E0.0023 F1800
G1 X86.340 Y80.430 E0.0825
G1 X86.372 Y80.411 E0.0848
G1 X87.613 Y79.897 E0.1651
G1 X87.650 Y79.887 E0.1673
G1 X88.972 Y79.713 E0.2470
G1 X88.991 Y79.712 E0.2482
G1 X111.009 Y79.712 E1.5643
G1 X111.028 Y79.713 E1.5654
G1 X112.350 Y79.887 E1.6451
G1 X112.387 Y79.897 E1.6474
G1 X113.628 Y80.411 E1.7276
G1 X113.660 Y80.430 E1.7299
G1 X114.726 Y81.247 E1.8102
G1 X114.753 Y81.274 E1.8124
G1 X115.570 Y82.340 E1.8927
G1 X115.589 Y82.372 E1.8950
G1 X116.103 Y83.613 E1.9752
G1 X116.113 Y83.650 E1.9775
G1 X116.288 Y84.981 E2.0578
G1 X116.288 Y85.019 E2.0600
G1 X116.113 Y86.350 E2.1403
G1 X116.103 Y86.387 E2.1426
G1 X115.589 Y87.628 E2.2228
G1 X115.570 Y87.660 E2.2251
G1 X114.753 Y88.726 E2.3054
G1 X114.726 Y88.753 E2.3076
G1 X113.660 Y89.570 E2.3879
G1 X113.628 Y89.589 E2.3902
G1 X112.387 Y90.103 E2.4704
G1 X112.350 Y90.113 E2.4727
G1 X111.028 Y90.287 E2.5524
G1 X111.009 Y90.288 E2.5535
G1 X88.939 Y90.281 E3.8727
G1 X88.920 Y90.280 E3.8739
G1 X87.650 Y90.113 E3.9505
G1 X87.613 Y90.103 E3.9527
G1 X86.372 Y89.589 E4.0330
G1 X86.340 Y89.570 E4.0352
G1 X85.274 Y88.753 E4.1155
G1 X85.247 Y88.726 E4.1178
G1 X84.430 Y87.660 E4.1981
G1 X84.411 Y87.628 E4.2003
G1 X83.897 Y86.387 E4.2806
G1 X83.887 Y86.350 E4.2828
G1 X83.712 Y85.019 E4.3631
G1 X83.712 Y84.981 E4.3654
G1 X83.887 Y83.650 E4.4457
G1 X83.897 Y83.613 E4.4479
G1 X84.411 Y82.372 E4.5282
G1 X84.430 Y82.340 E4.5304
G1 X85.247 Y81.274 E4.6107
G92 E0.0000
G1 E-3.0000 F3600
G1 X81.341 Y77.849 F18000
G1 E0.0000 F3600
G92 E0.0000
G1 X81.849 Y77.342 E0.0429 F1800
G1 X83.453 Y76.110 E0.1638
G1 X84.075 Y75.752 E0.2067
G1 X85.943 Y74.978 E0.3276
G1 X86.636 Y74.792 E0.3704
G1 X88.464 Y74.551 E0.4806
G1 X88.821 Y74.528 E0.5020
G1 X111.179 Y74.528 E1.8384
G1 X111.536 Y74.551 E1.8598
G1 X113.364 Y74.792 E1.9700
G1 X114.057 Y74.978 E2.0129
G1 X115.926 Y75.752 E2.1338
G1 X116.547 Y76.110 E2.1766
G1 X118.151 Y77.341 E2.2975
G1 X118.658 Y77.848 E2.3404
G1 X119.890 Y79.454 E2.4613
G1 X120.249 Y80.075 E2.5042
G1 X121.022 Y81.943 E2.6251
G1 X121.208 Y82.636 E2.6679
G1 X121.472 Y84.641 E2.7888
G1 X121.472 Y85.359 E2.8317
G1 X121.208 Y87.364 E2.9526
G1 X121.022 Y88.057 E2.9955
G1 X120.249 Y89.925 E3.1163
G1 X119.890 Y90.546 E3.1592
G1 X118.658 Y92.151 E3.2801
G1 X118.310 Y92.500 E3.3096
G1 X118.658 Y92.849 E3.3391
G1 X119.890 Y94.454 E3.4600
G1 X120.249 Y95.075 E3.5029
G1 X121.022 Y96.943 E3.6238
G1 X121.208 Y97.636 E3.6666
G1 X121.472 Y99.641 E3.7875
G1 X121.472 Y100.359 E3.8304
G1 X121.208 Y102.364 E3.9513
G1 X121.022 Y103.057 E3.9942
G1 X120.249 Y104.925 E4.1150
G1 X119.890 Y105.546 E4.1579
G1 X118.658 Y107.151 E4.2788
G1 X118.310 Y107.500 E4.3083
G1 X118.658 Y107.849 E4.3378
G1 X119.890 Y109.454 E4.4587
G1 X120.249 Y110.075 E4.5016
G1 X121.022 Y111.943 E4.6225
G1 X121.208 Y112.636 E4.6653
G1 X121.472 Y114.641 E4.7862
G1 X121.472 Y115.359 E4.8291
G1 X121.208 Y117.364 E4.9500
G1 X121.022 Y118.057 E4.9929
G1 X120.249 Y119.925 E5.1137
G1 X119.890 Y120.546 E5.1566
G1 X118.658 Y122.151 E5.2775
G1 X118.151 Y122.658 E5.3204
G1 X116.546 Y123.890 E5.4413
G1 X115.925 Y124.249 E5.4842
G1 X114.057 Y125.022 E5.6051
G1 X113.364 Y125.208 E5.6480
G1 X111.536 Y125.449 E5.7582
G1 X111.177 Y125.472 E5.7796
G1 X88.767 Y125.465 E7.1192
G1 X88.410 Y125.442 E7.1405
G1 X86.636 Y125.208 E7.2475
G1 X85.943 Y125.022 E7.2904
G1 X84.075 Y124.249 E7.4112
G1 X83.454 Y123.890 E7.4541
G1 X81.848 Y122.658 E7.5751
G1 X81.341 Y122.151 E7.6179
G1 X80.110 Y120.546 E7.7388
G1 X79.751 Y119.925 E7.7817
G1 X78.978 Y118.057 E7.9026
G1 X78.792 Y117.364 E7.9455
G1 X78.528 Y115.359 E8.0663
G1 X78.528 Y114.641 E8.1092
G1 X78.792 Y112.636 E8.2301
G1 X78.978 Y111.943 E8.2730
G1 X79.751 Y110.075 E8.3938
G1 X80.110 Y109.454 E8.4367
G1 X81.342 Y107.849 E8.5577
G1 X81.690 Y107.500 E8.5871
G1 X81.341 Y107.151 E8.6166
G1 X80.110 Y105.546 E8.7375
G1 X79.751 Y104.925 E8.7804
G1 X78.978 Y103.057 E8.9013
G1 X78.792 Y102.364 E8.9442
G1 X78.528 Y100.359 E9.0650
G1 X78.528 Y99.641 E9.1079
G1 X78.792 Y97.636 E9.2288
G1 X78.978 Y96.943 E9.2717
G1 X79.751 Y95.075 E9.3925
G1 X80.110 Y94.454 E9.4354
G1 X81.341 Y92.849 E9.5563
G1 X81.690 Y92.500 E9.5858
G1 X81.341 Y92.151 E9.6153
G1 X80.110 Y90.546 E9.7362
G1 X79.751 Y89.925 E9.7791
G1 X78.978 Y88.057 E9.9000
G1 X78.792 Y87.364 E9.9429
G1 X78.528 Y85.359 E10.0637
G1 X78.528 Y84.641 E10.1066
G1 X78.792 Y82.636 E10.2275
G1 X78.978 Y81.943 E10.2704
G1 X79.751 Y80.075 E10.3913
G1 X80.110 Y79.454 E10.4341
G1 X81.341 Y77.849 E10.5550
G1 X81.775 Y78.229 F18000
G92 E0.0000
G1 X82.229 Y77.776 E0.0384 F1800
G1 X83.774 Y76.590 E0.1547
G1 X84.330 Y76.269 E0.1931
G1 X86.129 Y75.524 E0.3095
G1 X86.749 Y75.358 E0.3479
G1 X88.520 Y75.125 E0.4547
G1 X88.840 Y75.104 E0.4738
G1 X111.160 Y75.104 E1.8079
G1 X111.480 Y75.125 E1.8271
G1 X113.251 Y75.358 E1.9339
G1 X113.871 Y75.524 E1.9722
G1 X115.670 Y76.269 E2.0886
G1 X116.226 Y76.590 E2.1270
G1 X117.770 Y77.775 E2.2434
G1 X118.224 Y78.229 E2.2817
G1 X119.410 Y79.774 E2.3981
G1 X119.731 Y80.330 E2.4365
G1 X120.476 Y82.129 E2.5529
G1 X120.642 Y82.749 E2.5912
G1 X120.896 Y84.679 E2.7076
G1 X120.896 Y85.321 E2.7460
G1 X120.642 Y87.251 E2.8623
G1 X120.476 Y87.871 E2.9007
G1 X119.731 Y89.670 E3.0171
G1 X119.410 Y90.225 E3.0554
G1 X118.224 Y91.771 E3.1718
G1 X117.771 Y92.224 E3.2102
G1 X117.412 Y92.500 E3.2373
G1 X117.771 Y92.776 E3.2643
G1 X118.224 Y93.229 E3.3027
G1 X119.410 Y94.774 E3.4191
G1 X119.731 Y95.330 E3.4574
G1 X120.476 Y97.129 E3.5738
G1 X120.642 Y97.749 E3.6122
G1 X120.896 Y99.679 E3.7285
G1 X120.896 Y100.321 E3.7669
G1 X120.642 Y102.251 E3.8833
G1 X120.476 Y102.871 E3.9216
G1 X119.731 Y104.670 E4.0380
G1 X119.410 Y105.225 E4.0764
G1 X118.224 Y106.771 E4.1928
G1 X117.771 Y107.224 E4.2311
G1 X117.412 Y107.500 E4.2582
G1 X117.771 Y107.776 E4.2852
G1 X118.224 Y108.229 E4.3236
G1 X119.410 Y109.774 E4.4400
G1 X119.731 Y110.330 E4.4784
