; G-Code generated by Simplify3D(R) Version 4.1.2
; Aug 4, 2021 at 5:56:02 PM
; Settings Summary
;   processName,Process1
;   applyToModels,seite
;   profileName,HSBot
;   profileVersion,2019-11-09 11:59:44
;   baseProfile,Default
;   printMaterial,PETG
;   printQuality,Medium
;   printExtruders,
;   extruderName,Extruder 1
;   extruderToolheadNumber,0
;   extruderDiameter,0.4
;   extruderAutoWidth,1
;   extruderWidth,0.48
;   extrusionMultiplier,1.04
;   extruderUseRetract,1
;   extruderRetractionDistance,3
;   extruderExtraRestartDistance,0
;   extruderRetractionZLift,0
;   extruderRetractionSpeed,3600
;   extruderUseCoasting,1
;   extruderCoastingDistance,0.2
;   extruderUseWipe,0
;   extruderWipeDistance,5
;   primaryExtruder,0
;   layerHeight,0.24
;   topSolidLayers,3
;   bottomSolidLayers,3
;   perimeterOutlines,3
;   printPerimetersInsideOut,1
;   startPointOption,2
;   startPointOriginX,0
;   startPointOriginY,0
;   sequentialIslands,0
;   spiralVaseMode,0
;   firstLayerHeightPercentage,100
;   firstLayerWidthPercentage,120
;   firstLayerUnderspeed,0.5
;   useRaft,0
;   raftExtruder,0
;   raftTopLayers,3
;   raftBaseLayers,2
;   raftOffset,3
;   raftSeparationDistance,0.18
;   raftTopInfill,100
;   aboveRaftSpeedMultiplier,0.3
;   useSkirt,1
;   skirtExtruder,0
;   skirtLayers,1
;   skirtOutlines,10
;   skirtOffset,0
;   usePrimePillar,0
;   primePillarExtruder,999
;   primePillarWidth,12
;   primePillarLocation,7
;   primePillarSpeedMultiplier,1
;   useOozeShield,0
;   oozeShieldExtruder,999
;   oozeShieldOffset,2
;   oozeShieldOutlines,1
;   oozeShieldSidewallShape,1
;   oozeShieldSidewallAngle,30
;   oozeShieldSpeedMultiplier,1
;   infillExtruder,0
;   internalInfillPattern,Rectilinear
;   externalInfillPattern,Rectilinear
;   infillPercentage,20
;   outlineOverlapPercentage,15
;   infillExtrusionWidthPercentage,150
;   minInfillLength,5
;   infillLayerInterval,1
;   internalInfillAngles,45,-45
;   overlapInternalInfillAngles,0
;   externalInfillAngles,45,-45
;   generateSupport,1
;   supportExtruder,0
;   supportInfillPercentage,30
;   supportExtraInflation,0
;   supportBaseLayers,1
;   denseSupportExtruder,0
;   denseSupportLayers,0
;   denseSupportInfillPercentage,70
;   supportLayerInterval,1
;   supportHorizontalPartOffset,0.3
;   supportUpperSeparationLayers,1
;   supportLowerSeparationLayers,1
;   supportType,0
;   supportGridSpacing,4
;   maxOverhangAngle,45
;   supportAngles,0
;   temperatureName,Extruder 1,Bed
;   temperatureNumber,0,0
;   temperatureSetpointCount,2,1
;   temperatureSetpointLayers,1,2,1
;   temperatureSetpointTemperatures,235,235,75
;   temperatureStabilizeAtStartup,1,1
;   temperatureHeatedBed,0,1
;   fanLayers,1,4,6
;   fanSpeeds,0,15,25
;   blipFanToFullPower,1
;   adjustSpeedForCooling,1
;   minSpeedLayerTime,15
;   minCoolingSpeedSlowdown,20
;   increaseFanForCooling,1
;   minFanLayerTime,45
;   maxCoolingFanSpeed,40
;   increaseFanForBridging,1
;   bridgingFanSpeed,80
;   use5D,1
;   relativeEdistances,0
;   allowEaxisZeroing,1
;   independentExtruderAxes,0
;   includeM10123,0
;   stickySupport,1
;   applyToolheadOffsets,0
;   gcodeXoffset,0
;   gcodeYoffset,0
;   gcodeZoffset,0
;   overrideMachineDefinition,1
;   machineTypeOverride,0
;   strokeXoverride,200
;   strokeYoverride,200
;   strokeZoverride,150
;   originOffsetXoverride,0
;   originOffsetYoverride,0
;   originOffsetZoverride,0
;   homeXdirOverride,-1
;   homeYdirOverride,-1
;   homeZdirOverride,-1
;   flipXoverride,1
;   flipYoverride,-1
;   flipZoverride,1
;   toolheadOffsets,0,0|0,0|0,0|0,0|0,0|0,0
;   overrideFirmwareConfiguration,0
;   firmwareTypeOverride,RepRap (Marlin/Repetier/Sprinter)
;   GPXconfigOverride,r2
;   baudRateOverride,115200
;   overridePrinterModels,0
;   printerModelsOverride
;   startingGcode,G28 ; home all axes,G32 ; run bed.g -- probe bed and enable compensation
;   layerChangeGcode,
;   retractionGcode,
;   toolChangeGcode,
;   endingGcode,M0 ; call stop.g
;   exportFileFormat,gcode
;   celebration,0
;   celebrationSong,Random Song
;   postProcessing,
;   defaultSpeed,3600
;   outlineUnderspeed,0.5
;   solidInfillUnderspeed,0.8
;   supportUnderspeed,0.8
;   rapidXYspeed,18000
;   rapidZspeed,1200
;   minBridgingArea,50
;   bridgingExtraInflation,0
;   bridgingExtrusionMultiplier,0.96
;   bridgingSpeedMultiplier,1
;   useFixedBridgingAngle,0
;   fixedBridgingAngle,0
;   applyBridgingToPerimeters,0
;   filamentDiameters,1.75|1.75|1.75|1.75|1.75|1.75
;   filamentPricesPerKg,25|46|46|46|46|46
;   filamentDensities,1.25|1.25|1.25|1.25|1.25|1.25
;   useMinPrintHeight,0
;   minPrintHeight,0
;   useMaxPrintHeight,0
;   maxPrintHeight,0
;   useDiaphragm,1
;   diaphragmLayerInterval,20
;   robustSlicing,1
;   mergeAllIntoSolid,0
;   onlyRetractWhenCrossingOutline,1
;   retractBetweenLayers,0
;   useRetractionMinTravel,1
;   retractionMinTravel,3
;   retractWhileWiping,1
;   onlyWipeOutlines,0
;   avoidCrossingOutline,1
;   maxMovementDetourFactor,3
;   toolChangeRetractionDistance,12
;   toolChangeExtraRestartDistance,-0.5
;   toolChangeRetractionSpeed,600
;   externalThinWallType,0
;   internalThinWallType,2
;   thinWallAllowedOverlapPercentage,10
;   singleExtrusionMinLength,1
;   singleExtrusionMinPrintingWidthPercentage,50
;   singleExtrusionMaxPrintingWidthPercentage,200
;   singleExtrusionEndpointExtension,0.2
;   horizontalSizeCompensation,0
G90
M82
M106 S0
M140 S75
M190 S75
G10 P0 S235 R{235-50}
M116 P0
G28 ; home all axes
G32 ; run bed.g -- probe bed and enable compensation
; process Process1
; layer 1, Z = 0.240
T0
G92 E0.0000
G1 E-3.0000 F3600
; feature skirt
; tool H0.240 W0.576
G1 Z0.240 F1200
G1 X97.156 Y72.867 F18000
G1 E0.0000 F3600
G92 E0.0000
G1 X97.662 Y72.361 E0.0428 F1800
G1 X102.817 Y72.361 E0.3510
G1 X103.324 Y72.867 E0.3937
G1 X103.324 Y76.023 E0.5824
G1 X102.817 Y76.529 E0.6251
G1 X97.662 Y76.529 E0.9333
G1 X97.156 Y76.023 E0.9761
G1 X97.156 Y72.867 E1.1647
G1 X97.732 Y73.106 F18000
G92 E0.0000
G1 X97.900 Y72.937 E0.0143 F1800
G1 X102.579 Y72.937 E0.2939
G1 X102.748 Y73.106 E0.3082
G1 X102.748 Y75.784 E0.4683
G1 X102.579 Y75.953 E0.4825
G1 X97.900 Y75.953 E0.7622
G1 X97.732 Y75.784 E0.7765
G1 X97.732 Y73.106 E0.9366
G92 E0.0000
G1 E-3.0000 F3600
G1 X92.548 Y73.753 F18000
G1 E0.0000 F3600
G92 E0.0000
G1 X92.548 Y70.959 E0.1670 F1800
G1 X95.753 Y67.753 E0.4380
G1 X104.726 Y67.753 E0.9743
G1 X107.932 Y70.959 E1.2453
G1 X107.932 Y73.753 E1.4123
G1 X110.726 Y73.753 E1.5794
G1 X113.932 Y76.959 E1.8503
G1 X113.932 Y90.529 E2.6614
G1 X114.462 Y91.059 E2.7062
G1 X114.462 Y97.489 E3.0906
G1 X115.932 Y98.959 E3.2148
G1 X115.932 Y167.932 E7.3375
G1 X114.462 Y169.402 E7.4618
G1 X114.462 Y175.832 E7.8461
G1 X113.932 Y176.362 E7.8909
G1 X113.932 Y189.932 E8.7021
G1 X110.726 Y193.137 E8.9730
G1 X107.932 Y193.137 E9.1400
G1 X107.932 Y195.932 E9.3071
G1 X104.726 Y199.137 E9.5780
G1 X95.753 Y199.137 E10.1144
G1 X92.548 Y195.932 E10.3854
G1 X92.548 Y193.137 E10.5524
G1 X91.753 Y193.137 E10.5999
G1 X88.548 Y189.932 E10.8708
G1 X88.548 Y176.958 E11.6463
G1 X91.753 Y173.753 E11.9172
G1 X92.518 Y173.753 E11.9629
G1 X92.518 Y93.137 E16.7816
G1 X91.753 Y93.137 E16.8273
G1 X88.548 Y89.932 E17.0982
G1 X88.548 Y76.959 E17.8736
G1 X91.753 Y73.753 E18.1446
G1 X92.548 Y73.753 E18.1921
G1 X91.992 Y74.329 F18000
G92 E0.0000
G1 X93.124 Y74.329 E0.0677 F1800
G1 X93.124 Y71.197 E0.2549
G1 X95.992 Y68.329 E0.4973
G1 X104.488 Y68.329 E1.0051
G1 X107.356 Y71.197 E1.2476
G1 X107.356 Y74.329 E1.4348
G1 X110.488 Y74.329 E1.6220
G1 X113.356 Y77.197 E1.8644
G1 X113.356 Y90.767 E2.6755
G1 X113.886 Y91.297 E2.7203
G1 X113.886 Y97.727 E3.1047
G1 X115.356 Y99.197 E3.2289
G1 X115.356 Y167.693 E7.3231
G1 X113.886 Y169.163 E7.4474
G1 X113.886 Y175.593 E7.8317
G1 X113.356 Y176.123 E7.8765
G1 X113.356 Y189.693 E8.6876
G1 X110.488 Y192.561 E8.9300
G1 X107.356 Y192.561 E9.1173
G1 X107.356 Y195.693 E9.3045
G1 X104.488 Y198.561 E9.5469
G1 X95.992 Y198.561 E10.0547
G1 X93.124 Y195.693 E10.2972
G1 X93.124 Y192.561 E10.4844
G1 X91.992 Y192.561 E10.5520
G1 X89.124 Y189.693 E10.7945
G1 X89.124 Y177.197 E11.5414
G1 X91.992 Y174.329 E11.7838
G1 X93.094 Y174.329 E11.8497
G1 X93.094 Y92.561 E16.7372
G1 X91.992 Y92.561 E16.8030
G1 X89.124 Y89.693 E17.0455
G1 X89.124 Y77.197 E17.7924
G1 X91.992 Y74.329 E18.0348
G1 X92.230 Y74.905 F18000
G92 E0.0000
G1 X93.700 Y74.905 E0.0878 F1800
G1 X93.700 Y71.436 E0.2952
G1 X96.230 Y68.905 E0.5091
G1 X104.249 Y68.905 E0.9884
G1 X106.780 Y71.436 E1.2023
G1 X106.780 Y74.905 E1.4097
G1 X110.249 Y74.905 E1.6171
G1 X112.780 Y77.436 E1.8310
G1 X112.780 Y91.006 E2.6421
G1 X113.310 Y91.536 E2.6869
G1 X113.310 Y97.966 E3.0712
G1 X114.780 Y99.436 E3.1955
G1 X114.780 Y167.454 E7.2612
G1 X113.310 Y168.925 E7.3854
G1 X113.310 Y175.355 E7.7698
G1 X112.780 Y175.885 E7.8146
G1 X112.780 Y189.455 E8.6257
G1 X110.249 Y191.985 E8.8396
G1 X106.780 Y191.985 E9.0470
G1 X106.780 Y195.455 E9.2543
G1 X104.249 Y197.985 E9.4683
G1 X96.230 Y197.985 E9.9476
G1 X93.700 Y195.455 E10.1615
G1 X93.700 Y191.985 E10.3688
G1 X92.230 Y191.985 E10.4567
G1 X89.700 Y189.455 E10.6706
G1 X89.700 Y177.436 E11.3890
G1 X92.230 Y174.905 E11.6029
G1 X93.670 Y174.905 E11.6889
G1 X93.670 Y91.985 E16.6453
G1 X92.230 Y91.985 E16.7313
G1 X89.700 Y89.455 E16.9452
G1 X89.700 Y77.436 E17.6636
G1 X92.230 Y74.905 E17.8775
G1 X92.469 Y75.481 F18000
G92 E0.0000
G1 X94.276 Y75.481 E0.1080 F1800
G1 X94.276 Y71.674 E0.3355
G1 X96.469 Y69.481 E0.5209
G1 X104.010 Y69.481 E0.9717
G1 X106.204 Y71.674 E1.1571
G1 X106.204 Y75.453 E1.3830
G1 X106.232 Y75.481 E1.3853
G1 X110.010 Y75.481 E1.6112
G1 X112.204 Y77.674 E1.7966
G1 X112.204 Y91.244 E2.6077
G1 X112.734 Y91.774 E2.6525
G1 X112.734 Y98.204 E3.0368
G1 X114.204 Y99.674 E3.1611
G1 X114.204 Y167.216 E7.1982
G1 X112.734 Y168.686 E7.3225
G1 X112.734 Y175.116 E7.7068
G1 X112.204 Y175.646 E7.7516
G1 X112.204 Y189.216 E8.5627
G1 X110.010 Y191.409 E8.7481
G1 X106.232 Y191.409 E8.9740
G1 X106.204 Y191.437 E8.9764
G1 X106.204 Y195.216 E9.2022
G1 X104.010 Y197.409 E9.3876
G1 X96.469 Y197.409 E9.8384
G1 X94.276 Y195.216 E10.0238
G1 X94.276 Y191.409 E10.2513
G1 X92.469 Y191.409 E10.3593
G1 X90.276 Y189.216 E10.5447
G1 X90.276 Y177.674 E11.2346
G1 X92.469 Y175.481 E11.4200
G1 X94.246 Y175.481 E11.5262
G1 X94.246 Y91.409 E16.5514
G1 X92.469 Y91.409 E16.6576
G1 X90.276 Y89.216 E16.8430
G1 X90.276 Y77.674 E17.5329
G1 X92.469 Y75.481 E17.7182
G1 X92.707 Y76.057 F18000
G92 E0.0000
G1 X94.852 Y76.057 E0.1282 F1800
G1 X94.852 Y71.913 E0.3759
G1 X96.707 Y70.057 E0.5327
G1 X103.772 Y70.057 E0.9550
G1 X105.628 Y71.913 E1.1119
G1 X105.628 Y75.691 E1.3377
G1 X105.993 Y76.057 E1.3686
G1 X109.772 Y76.057 E1.5945
G1 X111.628 Y77.913 E1.7514
G1 X111.628 Y91.483 E2.5625
G1 X112.158 Y92.013 E2.6073
G1 X112.158 Y98.443 E2.9916
G1 X113.628 Y99.913 E3.1159
G1 X113.628 Y166.977 E7.1245
G1 X112.158 Y168.447 E7.2487
G1 X112.158 Y174.877 E7.6331
G1 X111.628 Y175.407 E7.6779
G1 X111.628 Y188.977 E8.4890
G1 X109.772 Y190.833 E8.6459
G1 X105.993 Y190.833 E8.8717
G1 X105.628 Y191.199 E8.9026
G1 X105.628 Y194.977 E9.1285
G1 X103.772 Y196.833 E9.2854
G1 X96.707 Y196.833 E9.7076
G1 X94.852 Y194.977 E9.8645
G1 X94.852 Y190.833 E10.1122
G1 X92.707 Y190.833 E10.2404
G1 X90.852 Y188.977 E10.3972
G1 X90.852 Y177.913 E11.0586
G1 X92.707 Y176.057 E11.2154
G1 X94.822 Y176.057 E11.3418
G1 X94.822 Y90.833 E16.4359
G1 X92.707 Y90.833 E16.5622
G1 X90.852 Y88.977 E16.7191
G1 X90.852 Y77.913 E17.3805
G1 X92.707 Y76.057 E17.5373
G1 X92.946 Y76.633 F18000
G92 E0.0000
G1 X95.398 Y76.633 E0.1465 F1800
G1 X95.398 Y76.460 E0.1569
G1 X95.428 Y76.430 E0.1594
G1 X95.428 Y72.151 E0.4152
G1 X96.946 Y70.633 E0.5435
G1 X103.533 Y70.633 E0.9372
G1 X105.052 Y72.151 E1.0656
G1 X105.052 Y75.930 E1.2914
G1 X105.582 Y76.460 E1.3362
G1 X105.582 Y76.633 E1.3466
G1 X109.533 Y76.633 E1.5828
G1 X111.052 Y78.151 E1.7111
G1 X111.052 Y91.721 E2.5223
G1 X111.582 Y92.251 E2.5671
G1 X111.582 Y98.681 E2.9514
G1 X113.052 Y100.151 E3.0757
G1 X113.052 Y166.739 E7.0557
G1 X111.582 Y168.209 E7.1800
G1 X111.582 Y174.639 E7.5643
G1 X111.052 Y175.169 E7.6091
G1 X111.052 Y188.739 E8.4203
G1 X109.533 Y190.257 E8.5486
G1 X105.582 Y190.257 E8.7848
G1 X105.582 Y190.430 E8.7952
G1 X105.052 Y190.960 E8.8400
G1 X105.052 Y194.739 E9.0658
G1 X103.533 Y196.257 E9.1941
G1 X96.946 Y196.257 E9.5879
G1 X95.428 Y194.739 E9.7162
G1 X95.428 Y190.460 E9.9720
G1 X95.398 Y190.430 E9.9745
G1 X95.398 Y190.257 E9.9849
G1 X92.946 Y190.257 E10.1314
G1 X91.428 Y188.739 E10.2597
G1 X91.428 Y178.151 E10.8926
G1 X92.946 Y176.633 E11.0209
G1 X95.398 Y176.633 E11.1675
G1 X95.398 Y90.257 E16.3304
G1 X92.946 Y90.257 E16.4769
G1 X91.428 Y88.739 E16.6053
G1 X91.428 Y78.151 E17.2381
G1 X92.946 Y76.633 E17.3664
G1 X93.185 Y77.209 F18000
G92 E0.0000
G1 X95.974 Y77.209 E0.1667 F1800
G1 X95.974 Y76.699 E0.1972
G1 X96.088 Y76.584 E0.2069
G1 X96.004 Y76.500 E0.2140
G1 X96.004 Y72.390 E0.4597
G1 X97.185 Y71.209 E0.5595
G1 X103.295 Y71.209 E0.9247
G1 X104.476 Y72.390 E1.0245
G1 X104.476 Y76.169 E1.2504
G1 X105.006 Y76.699 E1.2952
G1 X105.006 Y77.209 E1.3257
G1 X109.295 Y77.209 E1.5821
G1 X110.476 Y78.390 E1.6819
G1 X110.476 Y91.960 E2.4930
G1 X111.006 Y92.490 E2.5378
G1 X111.006 Y99.209 E2.9394
G1 X111.295 Y99.209 E2.9567
G1 X112.476 Y100.390 E3.0565
G1 X112.476 Y166.500 E7.0081
G1 X111.295 Y167.681 E7.1079
G1 X111.006 Y167.681 E7.1252
G1 X111.006 Y174.400 E7.5268
G1 X110.476 Y174.930 E7.5716
G1 X110.476 Y188.500 E8.3827
G1 X109.295 Y189.681 E8.4826
G1 X105.006 Y189.681 E8.7389
G1 X105.006 Y190.192 E8.7694
G1 X104.476 Y190.722 E8.8142
G1 X104.476 Y194.500 E9.0401
G1 X103.295 Y195.681 E9.1399
G1 X97.185 Y195.681 E9.5051
G1 X96.004 Y194.500 E9.6050
G1 X96.004 Y190.390 E9.8506
G1 X96.088 Y190.306 E9.8577
G1 X95.974 Y190.192 E9.8674
G1 X95.974 Y189.681 E9.8979
G1 X93.185 Y189.681 E10.0646
G1 X92.004 Y188.500 E10.1645
G1 X92.004 Y178.390 E10.7688
G1 X93.185 Y177.209 E10.8686
G1 X95.974 Y177.209 E11.0353
G1 X95.974 Y89.681 E16.2671
G1 X93.185 Y89.681 E16.4338
G1 X92.004 Y88.500 E16.5336
G1 X92.004 Y78.390 E17.1379
G1 X93.185 Y77.209 E17.2377
G1 X93.423 Y77.785 F18000
G92 E0.0000
G1 X96.550 Y77.785 E0.1869 F1800
G1 X96.550 Y76.937 E0.2376
G1 X96.902 Y76.584 E0.2674
G1 X96.580 Y76.262 E0.2947
G1 X96.580 Y72.629 E0.5118
G1 X97.423 Y71.785 E0.5831
G1 X103.056 Y71.785 E0.9198
G1 X103.900 Y72.629 E0.9911
G1 X103.900 Y76.262 E1.2083
G1 X103.827 Y76.334 E1.2144
G1 X104.430 Y76.937 E1.2654
G1 X104.430 Y77.785 E1.3161
G1 X109.056 Y77.785 E1.5926
G1 X109.900 Y78.629 E1.6639
G1 X109.900 Y92.199 E2.4750
G1 X110.430 Y92.729 E2.5198
G1 X110.430 Y99.785 E2.9416
G1 X111.056 Y99.785 E2.9790
G1 X111.900 Y100.629 E3.0503
G1 X111.900 Y166.262 E6.9734
G1 X111.056 Y167.105 E7.0447
G1 X110.430 Y167.105 E7.0821
G1 X110.430 Y174.162 E7.5039
G1 X109.900 Y174.692 E7.5487
G1 X109.900 Y188.262 E8.3598
G1 X109.056 Y189.105 E8.4311
G1 X104.430 Y189.105 E8.7077
G1 X104.430 Y189.953 E8.7584
G1 X103.827 Y190.556 E8.8093
G1 X103.900 Y190.629 E8.8155
G1 X103.900 Y194.262 E9.0326
G1 X103.056 Y195.105 E9.1039
G1 X97.423 Y195.105 E9.4406
G1 X96.580 Y194.262 E9.5119
G1 X96.580 Y190.629 E9.7291
G1 X96.902 Y190.306 E9.7564
G1 X96.550 Y189.953 E9.7862
G1 X96.550 Y189.105 E9.8369
G1 X93.423 Y189.105 E10.0237
G1 X92.580 Y188.262 E10.0950
G1 X92.580 Y178.629 E10.6708
G1 X93.423 Y177.785 E10.7421
G1 X96.550 Y177.785 E10.9290
G1 X96.550 Y89.105 E16.2296
G1 X93.423 Y89.105 E16.4165
G1 X92.580 Y88.262 E16.4878
G1 X92.580 Y78.629 E17.0636
G1 X93.423 Y77.785 E17.1349
G1 X93.662 Y78.361 F18000
G92 E0.0000
G1 X97.126 Y78.361 E0.2070 F1800
G1 X97.126 Y77.176 E0.2779
G1 X97.632 Y76.670 E0.3207
G1 X103.347 Y76.670 E0.6623
G1 X103.854 Y77.176 E0.7051
G1 X103.854 Y78.361 E0.7760
G1 X108.817 Y78.361 E1.0727
G1 X109.324 Y78.867 E1.1154
G1 X109.324 Y92.461 E1.9280
G1 X109.347 Y92.461 E1.9294
G1 X109.854 Y92.967 E1.9722
G1 X109.854 Y100.361 E2.4141
G1 X110.817 Y100.361 E2.4718
G1 X111.324 Y100.867 E2.5145
G1 X111.324 Y166.023 E6.4091
G1 X110.817 Y166.529 E6.4518
G1 X109.854 Y166.529 E6.5095
G1 X109.854 Y173.923 E6.9514
G1 X109.347 Y174.429 E6.9942
G1 X109.324 Y174.429 E6.9956
