; G-Code generated by Simplify3D(R) Version 4.1.2
; May 19, 2020 at 10:20:26 PM
; Settings Summary
;   processName,Process1
;   applyToModels,x-umlenkrolle-halterung-v2,x-umlenkrolle-halterung-v2(2)
;   profileName,HBot (modified)
;   profileVersion,2019-10-26 23:38:43
;   baseProfile,Default
;   printMaterial,PETG - SUNLU
;   printQuality,Medium
;   printExtruders,
;   extruderName,Extruder 1
;   extruderToolheadNumber,0
;   extruderDiameter,0.4
;   extruderAutoWidth,1
;   extruderWidth,0.48
;   extrusionMultiplier,0.98
;   extruderUseRetract,1
;   extruderRetractionDistance,4
;   extruderExtraRestartDistance,0
;   extruderRetractionZLift,0
;   extruderRetractionSpeed,3600
;   extruderUseCoasting,1
;   extruderCoastingDistance,0.2
;   extruderUseWipe,1
;   extruderWipeDistance,5
;   primaryExtruder,0
;   layerHeight,0.2
;   topSolidLayers,3
;   bottomSolidLayers,3
;   perimeterOutlines,3
;   printPerimetersInsideOut,1
;   startPointOption,3
;   startPointOriginX,200
;   startPointOriginY,100
;   sequentialIslands,0
;   spiralVaseMode,0
;   firstLayerHeightPercentage,100
;   firstLayerWidthPercentage,100
;   firstLayerUnderspeed,0.5
;   useRaft,0
;   raftExtruder,0
;   raftTopLayers,3
;   raftBaseLayers,2
;   raftOffset,3
;   raftSeparationDistance,0.18
;   raftTopInfill,100
;   aboveRaftSpeedMultiplier,0.3
;   useSkirt,1
;   skirtExtruder,0
;   skirtLayers,1
;   skirtOutlines,7
;   skirtOffset,0
;   usePrimePillar,0
;   primePillarExtruder,999
;   primePillarWidth,12
;   primePillarLocation,7
;   primePillarSpeedMultiplier,1
;   useOozeShield,0
;   oozeShieldExtruder,999
;   oozeShieldOffset,2
;   oozeShieldOutlines,1
;   oozeShieldSidewallShape,1
;   oozeShieldSidewallAngle,30
;   oozeShieldSpeedMultiplier,1
;   infillExtruder,0
;   internalInfillPattern,Rectilinear
;   externalInfillPattern,Rectilinear
;   infillPercentage,20
;   outlineOverlapPercentage,25
;   infillExtrusionWidthPercentage,100
;   minInfillLength,5
;   infillLayerInterval,1
;   internalInfillAngles,45,-45
;   overlapInternalInfillAngles,0
;   externalInfillAngles,45,-45
;   generateSupport,1
;   supportExtruder,0
;   supportInfillPercentage,30
;   supportExtraInflation,0
;   supportBaseLayers,1
;   denseSupportExtruder,0
;   denseSupportLayers,0
;   denseSupportInfillPercentage,70
;   supportLayerInterval,1
;   supportHorizontalPartOffset,0.3
;   supportUpperSeparationLayers,1
;   supportLowerSeparationLayers,1
;   supportType,0
;   supportGridSpacing,4
;   maxOverhangAngle,25
;   supportAngles,0
;   temperatureName,Extruder 1,Heated Bed
;   temperatureNumber,0,1
;   temperatureSetpointCount,2,1
;   temperatureSetpointLayers,1,2,1
;   temperatureSetpointTemperatures,235,225,75
;   temperatureStabilizeAtStartup,1,1
;   temperatureHeatedBed,0,1
;   fanLayers,1,5,10
;   fanSpeeds,0,5,20
;   blipFanToFullPower,1
;   adjustSpeedForCooling,1
;   minSpeedLayerTime,15
;   minCoolingSpeedSlowdown,20
;   increaseFanForCooling,0
;   minFanLayerTime,45
;   maxCoolingFanSpeed,35
;   increaseFanForBridging,1
;   bridgingFanSpeed,85
;   use5D,1
;   relativeEdistances,0
;   allowEaxisZeroing,1
;   independentExtruderAxes,0
;   includeM10123,0
;   stickySupport,1
;   applyToolheadOffsets,0
;   gcodeXoffset,0
;   gcodeYoffset,0
;   gcodeZoffset,0
;   overrideMachineDefinition,1
;   machineTypeOverride,0
;   strokeXoverride,200
;   strokeYoverride,200
;   strokeZoverride,150
;   originOffsetXoverride,0
;   originOffsetYoverride,0
;   originOffsetZoverride,0
;   homeXdirOverride,-1
;   homeYdirOverride,-1
;   homeZdirOverride,-1
;   flipXoverride,1
;   flipYoverride,-1
;   flipZoverride,1
;   toolheadOffsets,0,0|0,0|0,0|0,0|0,0|0,0
;   overrideFirmwareConfiguration,1
;   firmwareTypeOverride,RepRap (Marlin/Repetier/Sprinter)
;   GPXconfigOverride,r2
;   baudRateOverride,115200
;   overridePrinterModels,0
;   printerModelsOverride
;   startingGcode,G28 ; home all axes,G32 ; run bed.g -- probe bed and enable compensation
;   layerChangeGcode,
;   retractionGcode,
;   toolChangeGcode,
;   endingGcode,M0 ; call stop.g
;   exportFileFormat,gcode
;   celebration,0
;   celebrationSong,Random Song
;   postProcessing,
;   defaultSpeed,3600
;   outlineUnderspeed,0.5
;   solidInfillUnderspeed,0.8
;   supportUnderspeed,0.8
;   rapidXYspeed,18000
;   rapidZspeed,1200
;   minBridgingArea,50
;   bridgingExtraInflation,0
;   bridgingExtrusionMultiplier,0.96
;   bridgingSpeedMultiplier,1
;   useFixedBridgingAngle,0
;   fixedBridgingAngle,0
;   applyBridgingToPerimeters,0
;   filamentDiameters,1.75|1.75|1.75|1.75|1.75|1.75
;   filamentPricesPerKg,46|46|46|46|46|46
;   filamentDensities,1.25|1.25|1.25|1.25|1.25|1.25
;   useMinPrintHeight,0
;   minPrintHeight,0.2
;   useMaxPrintHeight,0
;   maxPrintHeight,0
;   useDiaphragm,0
;   diaphragmLayerInterval,20
;   robustSlicing,1
;   mergeAllIntoSolid,0
;   onlyRetractWhenCrossingOutline,1
;   retractBetweenLayers,0
;   useRetractionMinTravel,1
;   retractionMinTravel,3
;   retractWhileWiping,1
;   onlyWipeOutlines,1
;   avoidCrossingOutline,1
;   maxMovementDetourFactor,5
;   toolChangeRetractionDistance,12
;   toolChangeExtraRestartDistance,-0.5
;   toolChangeRetractionSpeed,600
;   externalThinWallType,0
;   internalThinWallType,2
;   thinWallAllowedOverlapPercentage,10
;   singleExtrusionMinLength,1
;   singleExtrusionMinPrintingWidthPercentage,50
;   singleExtrusionMaxPrintingWidthPercentage,150
;   singleExtrusionEndpointExtension,0.2
;   horizontalSizeCompensation,-0.1
G90
M82
M106 S0
M140 S75
M190 S75
M104 S235 T0
M109 S235 T0
G28 ; home all axes
G32 ; run bed.g -- probe bed and enable compensation
; process Process1
; layer 1, Z = 0.200
T0
G92 E0.0000
G1 E-4.0000 F3600
; feature skirt
; tool H0.200 W0.480
G1 Z0.200 F1200
G1 X132.638 Y109.510 F18000
G1 E0.0000 F3600
G92 E0.0000
G1 X132.163 Y110.657 E0.0485 F1800
G1 X127.638 Y115.182 E0.2989
G1 X127.638 Y140.123 E1.2744
G1 X125.810 Y141.951 E1.3755
G1 X83.426 Y141.951 E3.0333
G1 X81.598 Y140.124 E3.1344
G1 X81.595 Y115.179 E4.1101
G1 X77.073 Y110.657 E4.3602
G1 X76.598 Y109.510 E4.4088
G1 X76.598 Y100.898 E4.7456
G1 X71.174 Y100.898 E4.9578
G1 X69.347 Y99.071 E5.0589
G1 X69.347 Y63.299 E6.4580
G1 X69.822 Y62.152 E6.5066
G1 X74.347 Y57.627 E6.7569
G1 X74.347 Y32.686 E7.7324
G1 X76.174 Y30.858 E7.8335
G1 X118.559 Y30.858 E9.4914
G1 X120.387 Y32.686 E9.5925
G1 X120.387 Y57.627 E10.5680
G1 X124.912 Y62.152 E10.8183
G1 X125.387 Y63.299 E10.8669
G1 X125.387 Y71.911 E11.2037
G1 X130.810 Y71.911 E11.4159
G1 X132.638 Y73.739 E11.5170
G1 X132.638 Y109.510 E12.9161
G1 X132.158 Y109.415 F18000
G92 E0.0000
G1 X131.756 Y110.385 E0.0411 F1800
G1 X127.158 Y114.983 E0.2954
G1 X127.158 Y139.925 E1.2710
G1 X125.611 Y141.471 E1.3565
G1 X83.624 Y141.471 E2.9988
G1 X82.078 Y139.925 E3.0843
G1 X82.075 Y114.981 E4.0600
G1 X77.480 Y110.385 E4.3142
G1 X77.078 Y109.415 E4.3553
G1 X77.078 Y100.324 E4.7109
G1 X76.851 Y100.418 E4.7205
G1 X71.373 Y100.418 E4.9347
G1 X69.827 Y98.872 E5.0203
G1 X69.827 Y63.394 E6.4079
G1 X70.229 Y62.424 E6.4490
G1 X74.827 Y57.826 E6.7033
G1 X74.827 Y32.885 E7.6789
G1 X76.373 Y31.338 E7.7644
G1 X118.360 Y31.338 E9.4067
G1 X119.907 Y32.885 E9.4923
G1 X119.907 Y57.826 E10.4678
G1 X124.505 Y62.424 E10.7222
G1 X124.907 Y63.395 E10.7632
G1 X124.907 Y72.485 E11.1188
G1 X125.134 Y72.391 E11.1284
G1 X130.611 Y72.391 E11.3427
G1 X132.158 Y73.938 E11.4282
G1 X132.158 Y109.415 E12.8159
G1 X131.678 Y109.319 F18000
G92 E0.0000
G1 X131.349 Y110.113 E0.0336 F1800
G1 X126.678 Y114.784 E0.2920
G1 X126.678 Y139.726 E1.2676
G1 X125.412 Y140.991 E1.3375
G1 X83.823 Y140.991 E2.9643
G1 X82.558 Y139.726 E3.0342
G1 X82.555 Y114.782 E4.0099
G1 X77.887 Y110.113 E4.2682
G1 X77.558 Y109.319 E4.3018
G1 X77.558 Y99.600 E4.6819
G1 X77.549 Y99.609 E4.6824
G1 X76.755 Y99.938 E4.7160
G1 X71.572 Y99.938 E4.9187
G1 X70.307 Y98.673 E4.9887
G1 X70.307 Y63.490 E6.3649
G1 X70.636 Y62.696 E6.3985
G1 X75.307 Y58.025 E6.6569
G1 X75.307 Y33.083 E7.6324
G1 X76.572 Y31.818 E7.7024
G1 X118.161 Y31.818 E9.3291
G1 X119.427 Y33.084 E9.3991
G1 X119.427 Y58.025 E10.3747
G1 X124.098 Y62.696 E10.6331
G1 X124.427 Y63.490 E10.6667
G1 X124.427 Y73.209 E11.0468
G1 X124.436 Y73.200 E11.0473
G1 X125.229 Y72.871 E11.0809
G1 X130.412 Y72.871 E11.2836
G1 X131.678 Y74.136 E11.3536
G1 X131.678 Y109.319 E12.7298
G1 X131.198 Y109.224 F18000
G92 E0.0000
G1 X130.942 Y109.841 E0.0261 F1800
G1 X126.198 Y114.586 E0.2886
G1 X126.198 Y139.527 E1.2641
G1 X125.214 Y140.511 E1.3186
G1 X84.022 Y140.511 E2.9297
G1 X83.038 Y139.527 E2.9842
G1 X83.035 Y114.583 E3.9598
G1 X78.294 Y109.841 E4.2221
G1 X78.038 Y109.224 E4.2483
G1 X78.038 Y98.442 E4.6700
G1 X77.277 Y99.202 E4.7121
G1 X76.660 Y99.458 E4.7382
G1 X71.771 Y99.458 E4.9294
G1 X70.787 Y98.474 E4.9839
G1 X70.787 Y63.585 E6.3485
G1 X71.043 Y62.968 E6.3746
G1 X75.787 Y58.224 E6.6371
G1 X75.787 Y33.282 E7.6126
G1 X76.771 Y32.298 E7.6671
G1 X117.963 Y32.298 E9.2782
G1 X118.947 Y33.282 E9.3327
G1 X118.947 Y58.224 E10.3082
G1 X123.691 Y62.968 E10.5707
G1 X123.947 Y63.585 E10.5968
G1 X123.947 Y74.368 E11.0185
G1 X124.707 Y73.607 E11.0606
G1 X125.325 Y73.351 E11.0867
G1 X130.214 Y73.351 E11.2780
G1 X131.198 Y74.335 E11.3324
G1 X131.198 Y109.224 E12.6970
G1 X130.718 Y109.128 F18000
G92 E0.0000
G1 X130.535 Y109.569 E0.0187 F1800
G1 X125.718 Y114.387 E0.2851
G1 X125.718 Y139.328 E1.2607
G1 X125.015 Y140.031 E1.2996
G1 X84.221 Y140.031 E2.8952
G1 X83.518 Y139.328 E2.9341
G1 X83.515 Y114.384 E3.9097
G1 X78.700 Y109.569 E4.1761
G1 X78.518 Y109.128 E4.1947
G1 X78.518 Y74.978 E5.5305
G1 X78.467 Y74.978 E5.5325
G1 X78.467 Y97.075 E6.3968
G1 X78.284 Y97.517 E6.4155
G1 X77.005 Y98.796 E6.4862
G1 X76.564 Y98.978 E6.5049
G1 X71.970 Y98.978 E6.6846
G1 X71.267 Y98.275 E6.7235
G1 X71.267 Y63.681 E8.0766
G1 X71.450 Y63.240 E8.0953
G1 X76.267 Y58.423 E8.3617
G1 X76.267 Y33.481 E9.3373
G1 X76.970 Y32.778 E9.3762
G1 X117.764 Y32.778 E10.9718
G1 X118.467 Y33.481 E11.0107
G1 X118.467 Y58.423 E11.9862
G1 X123.284 Y63.240 E12.2527
G1 X123.467 Y63.681 E12.2714
G1 X123.467 Y97.831 E13.6071
G1 X123.518 Y97.831 E13.6091
G1 X123.518 Y75.734 E14.4734
G1 X123.700 Y75.293 E14.4921
G1 X124.979 Y74.014 E14.5628
G1 X125.420 Y73.831 E14.5815
G1 X130.015 Y73.831 E14.7612
G1 X130.718 Y74.534 E14.8001
G1 X130.718 Y109.128 E16.1532
G1 X130.238 Y109.033 F18000
G92 E0.0000
G1 X130.128 Y109.297 E0.0112 F1800
G1 X125.238 Y114.188 E0.2817
G1 X125.238 Y139.129 E1.2573
G1 X124.816 Y139.551 E1.2806
G1 X84.420 Y139.551 E2.8607
G1 X83.998 Y139.129 E2.8840
G1 X83.995 Y114.185 E3.8597
G1 X79.107 Y109.297 E4.1300
G1 X78.998 Y109.033 E4.1412
G1 X78.998 Y74.733 E5.4828
G1 X79.232 Y74.498 E5.4958
G1 X77.987 Y74.498 E5.5445
G1 X77.987 Y96.980 E6.4239
G1 X77.877 Y97.245 E6.4351
G1 X76.733 Y98.389 E6.4984
G1 X76.469 Y98.498 E6.5096
G1 X72.169 Y98.498 E6.6778
G1 X71.747 Y98.076 E6.7011
G1 X71.747 Y63.776 E8.0427
G1 X71.856 Y63.512 E8.0539
G1 X76.747 Y58.621 E8.3244
G1 X76.747 Y33.680 E9.3000
G1 X77.169 Y33.258 E9.3233
G1 X117.565 Y33.258 E10.9034
G1 X117.987 Y33.680 E10.9267
G1 X117.987 Y58.621 E11.9023
G1 X122.877 Y63.512 E12.1728
G1 X122.987 Y63.776 E12.1840
G1 X122.987 Y98.076 E13.5256
G1 X122.752 Y98.311 E13.5386
G1 X123.998 Y98.311 E13.5873
G1 X123.998 Y75.829 E14.4666
G1 X124.107 Y75.565 E14.4778
G1 X125.251 Y74.421 E14.5411
G1 X125.516 Y74.311 E14.5523
G1 X129.816 Y74.311 E14.7205
G1 X130.238 Y74.733 E14.7438
G1 X130.238 Y109.033 E16.0854
G92 E0.0000
G1 E-4.0000 F3600
G1 X129.278 Y108.790 F18000
G1 X129.278 Y107.648
G1 X122.507 Y97.878
G1 E0.0000 F3600
G92 E0.0000
G1 X122.366 Y98.018 E0.0078 F1800
G1 X118.360 Y98.018 E0.1645
G1 X118.272 Y97.982 E0.1682
G1 X117.263 Y96.973 E0.2240
G1 X117.227 Y96.885 E0.2277
G1 X117.227 Y74.018 E1.1221
G1 X77.507 Y74.018 E2.6757
G1 X77.507 Y96.885 E3.5701
G1 X77.470 Y96.973 E3.5739
G1 X76.461 Y97.982 E3.6297
G1 X76.373 Y98.018 E3.6334
G1 X72.367 Y98.018 E3.7901
G1 X72.227 Y97.878 E3.7979
G1 X72.227 Y63.872 E5.1280
G1 X72.263 Y63.784 E5.1317
G1 X77.227 Y58.820 E5.4062
G1 X77.227 Y33.879 E6.3818
G1 X77.367 Y33.738 E6.3896
G1 X117.366 Y33.738 E7.9541
G1 X117.507 Y33.879 E7.9619
G1 X117.507 Y58.820 E8.9374
G1 X122.470 Y63.784 E9.2120
G1 X122.507 Y63.872 E9.2157
G1 X122.507 Y97.878 E10.5458
G92 E0.0000
G1 E-4.0000 F3600
G1 X129.278 Y108.205 F18000
G1 X129.278 Y108.790
G1 X129.758 Y108.937
G1 E0.0000 F3600
G92 E0.0000
G1 X129.721 Y109.026 E0.0037 F1800
G1 X124.758 Y113.989 E0.2783
G1 X124.758 Y138.930 E1.2538
G1 X124.617 Y139.071 E1.2616
G1 X84.618 Y139.071 E2.8261
G1 X84.478 Y138.930 E2.8339
G1 X84.475 Y113.986 E3.8096
G1 X79.514 Y109.026 E4.0840
G1 X79.478 Y108.937 E4.0877
G1 X79.478 Y74.932 E5.4178
G1 X79.618 Y74.791 E5.4256
G1 X83.624 Y74.791 E5.5823
G1 X83.712 Y74.828 E5.5860
G1 X84.721 Y75.837 E5.6418
G1 X84.758 Y75.925 E5.6456
G1 X84.758 Y98.791 E6.5399
G1 X124.478 Y98.791 E8.0935
G1 X124.478 Y75.925 E8.9879
G1 X124.514 Y75.837 E8.9917
G1 X125.523 Y74.828 E9.0475
G1 X125.611 Y74.791 E9.0512
G1 X129.617 Y74.791 E9.2079
G1 X129.758 Y74.932 E9.2157
G1 X129.758 Y108.937 E10.5458
G92 E0.0000
G1 E-4.0000 F3600
G1 X129.278 Y108.790 F18000
G1 X129.278 Y108.532
G1 X114.347 Y95.911
G1 E0.0000 F3600
G92 E0.0000
G1 X114.347 Y76.898 E0.7437 F1800
G1 X87.638 Y76.898 E1.7884
G1 X87.638 Y95.911 E2.5320
G1 X114.347 Y95.911 E3.5767
G1 X114.827 Y96.391 F18000
G92 E0.0000
G1 X114.827 Y76.418 E0.7812 F1800
G1 X87.158 Y76.418 E1.8635
G1 X87.158 Y96.391 E2.6447
G1 X114.827 Y96.391 E3.7269
G1 X115.307 Y96.871 F18000
G92 E0.0000
G1 X115.307 Y75.938 E0.8188 F1800
G1 X86.678 Y75.938 E1.9386
G1 X86.678 Y96.871 E2.7573
G1 X115.307 Y96.871 E3.8771
G1 X115.861 Y97.351 F18000
G92 E0.0000
G1 X115.787 Y97.171 E0.0076 F1800
G1 X115.787 Y75.458 E0.8569
G1 X86.123 Y75.458 E2.0172
G1 X86.198 Y75.638 E2.0248
G1 X86.198 Y97.351 E2.8741
G1 X115.861 Y97.351 E4.0343
G1 X116.764 Y97.831 F18000
G92 E0.0000
G1 X116.450 Y97.517 E0.0174 F1800
G1 X116.267 Y97.075 E0.0361
G1 X116.267 Y74.978 E0.9004
G1 X85.221 Y74.978 E2.1147
G1 X85.535 Y75.293 E2.1321
G1 X85.718 Y75.734 E2.1508
G1 X85.718 Y97.831 E3.0151
G1 X116.764 Y97.831 E4.2294
G1 X117.923 Y98.311 F18000
G92 E0.0000
G1 X116.856 Y97.245 E0.0590 F1800
G1 X116.747 Y96.980 E0.0702
G1 X116.747 Y74.498 E0.9495
G1 X84.062 Y74.498 E2.2280
G1 X85.128 Y75.565 E2.2870
G1 X85.238 Y75.829 E2.2982
G1 X85.238 Y98.311 E3.1775
G1 X117.923 Y98.311 E4.4560
G92 E0.0000
G1 E-4.0000 F3600
; feature inner perimeter
G1 X118.508 Y97.538 F18000
G1 X119.325 Y97.538
G1 X121.067 Y96.578
G1 E0.0000 F3600
G92 E0.0000
G1 X118.905 Y96.578 E0.0845 F1350
G1 X118.667 Y96.340 E0.0977
G1 X118.667 Y72.578 E1.0271
G1 X76.067 Y72.578 E2.6934
G1 X76.067 Y96.340 E3.6228
G1 X75.828 Y96.578 E3.6360
G1 X73.667 Y96.578 E3.7205
G1 X73.667 Y64.417 E4.9785
G1 X78.667 Y59.417 E5.2551
G1 X78.667 Y35.178 E6.2031
G1 X116.067 Y35.178 E7.6660
G1 X116.067 Y59.417 E8.6141
G1 X121.067 Y64.417 E8.8906
G1 X121.067 Y96.378 E10.1408
G1 X121.067 Y96.578 F1350
G1 X121.547 Y97.058 F18000
G92 E0.0000
G1 X118.706 Y97.058 E0.1111 F1350
G1 X118.187 Y96.539 E0.1398
G1 X118.187 Y73.058 E1.0583
G1 X76.547 Y73.058 E2.6870
G1 X76.547 Y96.539 E3.6054
G1 X76.027 Y97.058 E3.6341
G1 X73.187 Y97.058 E3.7452
G1 X73.187 Y64.218 E5.0297
G1 X78.187 Y59.218 E5.3063
G1 X78.187 Y34.698 E6.2654
G1 X116.547 Y34.698 E7.7658
G1 X116.547 Y59.218 E8.7248
G1 X121.547 Y64.218 E9.0014
G1 X121.547 Y96.858 E10.2781
G1 X121.547 Y97.058 F1350
; feature outer perimeter
G1 X122.027 Y97.538 F18000
G92 E0.0000
G1 X118.508 Y97.538 E0.1376 F900
G1 X117.707 Y96.737 E0.1819
G1 X117.707 Y73.538 E1.0894
G1 X77.027 Y73.538 E2.6805
G1 X77.027 Y96.737 E3.5879
G1 X76.226 Y97.538 E3.6322
G1 X72.707 Y97.538 E3.7699
G1 X72.707 Y64.019 E5.0809
G1 X77.707 Y59.019 E5.3575
G1 X77.707 Y34.218 E6.3276
G1 X117.027 Y34.218 E7.8655
G1 X117.027 Y59.019 E8.8356
G1 X122.027 Y64.019 E9.1122
G1 X122.027 Y97.338 E10.4154
G1 X122.027 Y97.538 F900
G1 X118.508 Y97.538 F900
G1 X117.707 Y96.737
G1 X117.707 Y96.389
; feature inner perimeter
G1 X117.707 Y73.538 F18000
G1 X115.226 Y73.538
G1 X113.667 Y59.178
G92 E0.0000
G1 X113.667 Y36.578 E0.8840 F1350
G1 X81.067 Y36.578 E2.1591
G1 X81.067 Y59.178 E3.0431
G1 X113.467 Y59.178 E4.3104
