; G-Code generated by Simplify3D(R) Version 4.1.2
; Apr 29, 2020 at 8:25:24 PM
; Settings Summary
;   processName,Process1
;   applyToModels,x-riemen-halterung-platte,x-riemen-spanner,x-riemen-spanner-platte,x-riemen-halterung
;   profileName,HBot
;   profileVersion,2019-10-26 23:38:43
;   baseProfile,Default
;   printMaterial,PETG - SUNLU
;   printQuality,Medium
;   printExtruders,
;   extruderName,Extruder 1
;   extruderToolheadNumber,0
;   extruderDiameter,0.4
;   extruderAutoWidth,1
;   extruderWidth,0.48
;   extrusionMultiplier,0.98
;   extruderUseRetract,1
;   extruderRetractionDistance,3
;   extruderExtraRestartDistance,0
;   extruderRetractionZLift,0
;   extruderRetractionSpeed,3600
;   extruderUseCoasting,1
;   extruderCoastingDistance,0.2
;   extruderUseWipe,1
;   extruderWipeDistance,5
;   primaryExtruder,0
;   layerHeight,0.2
;   topSolidLayers,3
;   bottomSolidLayers,3
;   perimeterOutlines,3
;   printPerimetersInsideOut,1
;   startPointOption,3
;   startPointOriginX,200
;   startPointOriginY,100
;   sequentialIslands,0
;   spiralVaseMode,0
;   firstLayerHeightPercentage,100
;   firstLayerWidthPercentage,150
;   firstLayerUnderspeed,0.5
;   useRaft,0
;   raftExtruder,0
;   raftTopLayers,3
;   raftBaseLayers,2
;   raftOffset,3
;   raftSeparationDistance,0.18
;   raftTopInfill,100
;   aboveRaftSpeedMultiplier,0.3
;   useSkirt,1
;   skirtExtruder,0
;   skirtLayers,1
;   skirtOutlines,8
;   skirtOffset,0
;   usePrimePillar,0
;   primePillarExtruder,999
;   primePillarWidth,12
;   primePillarLocation,7
;   primePillarSpeedMultiplier,1
;   useOozeShield,0
;   oozeShieldExtruder,999
;   oozeShieldOffset,2
;   oozeShieldOutlines,1
;   oozeShieldSidewallShape,1
;   oozeShieldSidewallAngle,30
;   oozeShieldSpeedMultiplier,1
;   infillExtruder,0
;   internalInfillPattern,Rectilinear
;   externalInfillPattern,Rectilinear
;   infillPercentage,20
;   outlineOverlapPercentage,25
;   infillExtrusionWidthPercentage,150
;   minInfillLength,5
;   infillLayerInterval,1
;   internalInfillAngles,45,-45
;   overlapInternalInfillAngles,0
;   externalInfillAngles,45,-45
;   generateSupport,1
;   supportExtruder,0
;   supportInfillPercentage,30
;   supportExtraInflation,0
;   supportBaseLayers,1
;   denseSupportExtruder,0
;   denseSupportLayers,0
;   denseSupportInfillPercentage,70
;   supportLayerInterval,1
;   supportHorizontalPartOffset,0.3
;   supportUpperSeparationLayers,1
;   supportLowerSeparationLayers,1
;   supportType,0
;   supportGridSpacing,4
;   maxOverhangAngle,25
;   supportAngles,0
;   temperatureName,Extruder 1,Heated Bed
;   temperatureNumber,0,1
;   temperatureSetpointCount,1,1
;   temperatureSetpointLayers,1,1
;   temperatureSetpointTemperatures,225,75
;   temperatureStabilizeAtStartup,1,1
;   temperatureHeatedBed,0,1
;   fanLayers,1,2
;   fanSpeeds,0,20
;   blipFanToFullPower,1
;   adjustSpeedForCooling,1
;   minSpeedLayerTime,15
;   minCoolingSpeedSlowdown,20
;   increaseFanForCooling,1
;   minFanLayerTime,45
;   maxCoolingFanSpeed,35
;   increaseFanForBridging,1
;   bridgingFanSpeed,80
;   use5D,1
;   relativeEdistances,0
;   allowEaxisZeroing,1
;   independentExtruderAxes,0
;   includeM10123,0
;   stickySupport,1
;   applyToolheadOffsets,0
;   gcodeXoffset,0
;   gcodeYoffset,0
;   gcodeZoffset,0
;   overrideMachineDefinition,1
;   machineTypeOverride,0
;   strokeXoverride,200
;   strokeYoverride,200
;   strokeZoverride,150
;   originOffsetXoverride,0
;   originOffsetYoverride,0
;   originOffsetZoverride,0
;   homeXdirOverride,-1
;   homeYdirOverride,-1
;   homeZdirOverride,-1
;   flipXoverride,1
;   flipYoverride,-1
;   flipZoverride,1
;   toolheadOffsets,0,0|0,0|0,0|0,0|0,0|0,0
;   overrideFirmwareConfiguration,1
;   firmwareTypeOverride,RepRap (Marlin/Repetier/Sprinter)
;   GPXconfigOverride,r2
;   baudRateOverride,115200
;   overridePrinterModels,0
;   printerModelsOverride
;   startingGcode,G28 ; home all axes,G32 ; run bed.g -- probe bed and enable compensation
;   layerChangeGcode,
;   retractionGcode,
;   toolChangeGcode,
;   endingGcode,M0 ; call stop.g
;   exportFileFormat,gcode
;   celebration,0
;   celebrationSong,Random Song
;   postProcessing,
;   defaultSpeed,3600
;   outlineUnderspeed,0.5
;   solidInfillUnderspeed,0.8
;   supportUnderspeed,0.8
;   rapidXYspeed,18000
;   rapidZspeed,1200
;   minBridgingArea,50
;   bridgingExtraInflation,0
;   bridgingExtrusionMultiplier,0.96
;   bridgingSpeedMultiplier,1
;   useFixedBridgingAngle,0
;   fixedBridgingAngle,0
;   applyBridgingToPerimeters,0
;   filamentDiameters,1.75|1.75|1.75|1.75|1.75|1.75
;   filamentPricesPerKg,46|46|46|46|46|46
;   filamentDensities,1.25|1.25|1.25|1.25|1.25|1.25
;   useMinPrintHeight,0
;   minPrintHeight,0.2
;   useMaxPrintHeight,0
;   maxPrintHeight,0
;   useDiaphragm,0
;   diaphragmLayerInterval,20
;   robustSlicing,1
;   mergeAllIntoSolid,0
;   onlyRetractWhenCrossingOutline,1
;   retractBetweenLayers,0
;   useRetractionMinTravel,1
;   retractionMinTravel,3
;   retractWhileWiping,1
;   onlyWipeOutlines,1
;   avoidCrossingOutline,1
;   maxMovementDetourFactor,5
;   toolChangeRetractionDistance,12
;   toolChangeExtraRestartDistance,-0.5
;   toolChangeRetractionSpeed,600
;   externalThinWallType,0
;   internalThinWallType,2
;   thinWallAllowedOverlapPercentage,10
;   singleExtrusionMinLength,1
;   singleExtrusionMinPrintingWidthPercentage,50
;   singleExtrusionMaxPrintingWidthPercentage,150
;   singleExtrusionEndpointExtension,0.2
;   horizontalSizeCompensation,-0.1
G90
M82
M106 S0
M140 S75
M190 S75
M104 S225 T0
M109 S225 T0
G28 ; home all axes
G32 ; run bed.g -- probe bed and enable compensation
; process Process1
; layer 1, Z = 0.200
T0
G92 E0.0000
G1 E-3.0000 F3600
; feature skirt
; tool H0.200 W0.720
G1 Z0.200 F1200
G1 X130.550 Y104.137 F18000
G1 E0.0000 F3600
G92 E0.0000
G1 X127.387 Y107.300 E0.2625 F1800
G1 X121.777 Y107.300 E0.5916
G1 X118.957 Y110.120 E0.8256
G1 X114.120 Y110.120 E1.1094
G1 X114.120 Y110.957 E1.1585
G1 X110.957 Y114.120 E1.4209
G1 X103.567 Y114.120 E1.8545
G1 X101.550 Y116.137 E2.0218
G1 X101.550 Y125.637 E2.5792
G1 X98.387 Y128.800 E2.8417
G1 X92.777 Y128.800 E3.1708
G1 X89.957 Y131.620 E3.4048
G1 X85.120 Y131.620 E3.6886
G1 X85.120 Y132.457 E3.7377
G1 X81.957 Y135.620 E4.0001
G1 X73.043 Y135.620 E4.5231
G1 X69.880 Y132.457 E4.7856
G1 X69.880 Y126.067 E5.1605
G1 X69.450 Y125.637 E5.1962
G1 X69.450 Y115.063 E5.8165
G1 X69.950 Y114.563 E5.8580
G1 X69.950 Y114.363 E5.8697
G1 X73.113 Y111.200 E6.1322
G1 X77.450 Y111.200 E6.3866
G1 X77.450 Y95.620 E7.3007
G1 X72.293 Y95.620 E7.6033
G1 X69.130 Y92.457 E7.8657
G1 X69.130 Y83.543 E8.3887
G1 X72.293 Y80.380 E8.6512
G1 X73.130 Y80.380 E8.7003
G1 X73.130 Y79.543 E8.7494
G1 X76.293 Y76.380 E9.0118
G1 X77.450 Y76.380 E9.0797
G1 X77.450 Y66.363 E9.6674
G1 X80.613 Y63.200 E9.9298
G1 X100.887 Y63.200 E11.1193
G1 X101.250 Y63.563 E11.1495
G1 X101.613 Y63.200 E11.1796
G1 X115.187 Y63.200 E11.9760
G1 X115.617 Y63.630 E12.0116
G1 X122.857 Y63.630 E12.4364
G1 X126.020 Y66.793 E12.6989
G1 X126.020 Y75.707 E13.2218
G1 X122.857 Y78.870 E13.4843
G1 X122.020 Y78.870 E13.5334
G1 X122.020 Y79.707 E13.5825
G1 X118.857 Y82.870 E13.8450
G1 X118.350 Y82.870 E13.8747
G1 X118.350 Y89.700 E14.2754
G1 X127.387 Y89.700 E14.8056
G1 X130.550 Y92.863 E15.0681
G1 X130.550 Y104.137 E15.7295
G1 X129.830 Y103.838 F18000
G92 E0.0000
G1 X127.088 Y106.580 E0.2275 F1800
G1 X121.400 Y106.580 E0.5612
G1 X121.400 Y106.658 E0.5658
G1 X118.659 Y109.400 E0.7933
G1 X113.400 Y109.400 E1.1018
G1 X113.400 Y110.658 E1.1757
G1 X110.659 Y113.400 E1.4031
G1 X103.269 Y113.400 E1.8367
G1 X100.830 Y115.838 E2.0390
G1 X100.830 Y125.338 E2.5964
G1 X98.088 Y128.080 E2.8239
G1 X92.400 Y128.080 E3.1576
G1 X92.400 Y128.158 E3.1622
G1 X89.659 Y130.900 E3.3897
G1 X84.400 Y130.900 E3.6982
G1 X84.400 Y132.159 E3.7721
G1 X81.659 Y134.900 E3.9995
G1 X73.341 Y134.900 E4.4875
G1 X70.600 Y132.158 E4.7150
G1 X70.600 Y125.768 E5.0899
G1 X70.170 Y125.338 E5.1256
G1 X70.170 Y115.362 E5.7109
G1 X70.670 Y114.861 E5.7524
G1 X70.670 Y114.662 E5.7641
G1 X73.411 Y111.920 E5.9916
G1 X78.170 Y111.920 E6.2708
G1 X78.170 Y94.900 E7.2694
G1 X72.591 Y94.900 E7.5967
G1 X69.850 Y92.158 E7.8241
G1 X69.850 Y83.842 E8.3121
G1 X72.591 Y81.100 E8.5396
G1 X73.850 Y81.100 E8.6134
G1 X73.850 Y79.842 E8.6872
G1 X76.591 Y77.100 E8.9147
G1 X78.170 Y77.100 E9.0073
G1 X78.170 Y66.661 E9.6198
G1 X80.911 Y63.920 E9.8472
G1 X100.588 Y63.920 E11.0017
G1 X101.250 Y64.581 E11.0566
G1 X101.912 Y63.920 E11.1115
G1 X114.888 Y63.920 E11.8728
G1 X115.318 Y64.350 E11.9085
G1 X122.559 Y64.350 E12.3333
G1 X125.300 Y67.091 E12.5608
G1 X125.300 Y75.409 E13.0487
G1 X122.558 Y78.150 E13.2762
G1 X121.300 Y78.150 E13.3501
G1 X121.300 Y79.409 E13.4239
G1 X118.558 Y82.150 E13.6514
G1 X117.630 Y82.150 E13.7058
G1 X117.630 Y90.420 E14.1910
G1 X127.088 Y90.420 E14.7460
G1 X129.830 Y93.162 E14.9735
G1 X129.830 Y103.838 E15.5999
G1 X129.110 Y103.540 F18000
G92 E0.0000
G1 X126.790 Y105.860 E0.1925 F1800
G1 X120.680 Y105.860 E0.5510
G1 X120.680 Y106.360 E0.5803
G1 X118.360 Y108.680 E0.7728
G1 X112.680 Y108.680 E1.1061
G1 X112.680 Y110.360 E1.2046
G1 X110.360 Y112.680 E1.3971
G1 X102.640 Y112.680 E1.8501
G1 X102.610 Y112.650 E1.8526
G1 X102.610 Y113.040 E1.8754
G1 X100.290 Y115.360 E2.0679
G1 X100.110 Y115.360 E2.0785
G1 X100.110 Y125.040 E2.6464
G1 X97.790 Y127.360 E2.8389
G1 X91.680 Y127.360 E3.1974
G1 X91.680 Y127.860 E3.2268
G1 X89.360 Y130.180 E3.4192
G1 X83.680 Y130.180 E3.7525
G1 X83.680 Y131.860 E3.8511
G1 X81.360 Y134.180 E4.0436
G1 X73.640 Y134.180 E4.4965
G1 X71.320 Y131.860 E4.6890
G1 X71.320 Y125.470 E5.0639
G1 X70.890 Y125.040 E5.0996
G1 X70.890 Y115.660 E5.6500
G1 X71.390 Y115.160 E5.6914
G1 X71.390 Y114.960 E5.7032
G1 X73.710 Y112.640 E5.8957
G1 X78.890 Y112.640 E6.1996
G1 X78.890 Y94.180 E7.2827
G1 X72.890 Y94.180 E7.6347
G1 X70.570 Y91.860 E7.8272
G1 X70.570 Y84.140 E8.2801
G1 X72.890 Y81.820 E8.4726
G1 X74.570 Y81.820 E8.5712
G1 X74.570 Y80.140 E8.6698
G1 X76.890 Y77.820 E8.8623
G1 X78.890 Y77.820 E8.9796
G1 X78.890 Y66.960 E9.6168
G1 X81.210 Y64.640 E9.8093
G1 X100.290 Y64.640 E10.9287
G1 X101.250 Y65.600 E11.0084
G1 X102.210 Y64.640 E11.0880
G1 X114.590 Y64.640 E11.8144
G1 X115.020 Y65.070 E11.8501
G1 X122.260 Y65.070 E12.2748
G1 X124.580 Y67.390 E12.4673
G1 X124.580 Y75.110 E12.9203
G1 X122.260 Y77.430 E13.1128
G1 X120.580 Y77.430 E13.2113
G1 X120.580 Y79.110 E13.3099
G1 X118.260 Y81.430 E13.5024
G1 X116.910 Y81.430 E13.5816
G1 X116.910 Y91.140 E14.1513
G1 X126.790 Y91.140 E14.7310
G1 X129.110 Y93.460 E14.9235
G1 X129.110 Y103.540 E15.5149
G1 X128.390 Y103.242 F18000
G92 E0.0000
G1 X126.492 Y105.140 E0.1575 F1800
G1 X119.960 Y105.140 E0.5407
G1 X119.960 Y106.062 E0.5948
G1 X118.062 Y107.960 E0.7523
G1 X111.960 Y107.960 E1.1103
G1 X111.960 Y110.062 E1.2336
G1 X110.062 Y111.960 E1.3911
G1 X102.938 Y111.960 E1.8091
G1 X101.890 Y110.912 E1.8960
G1 X101.890 Y112.742 E2.0034
G1 X99.992 Y114.640 E2.1609
G1 X98.772 Y114.640 E2.2325
G1 X99.390 Y115.258 E2.2837
G1 X99.390 Y124.742 E2.8402
G1 X97.492 Y126.640 E2.9977
G1 X90.960 Y126.640 E3.3809
G1 X90.960 Y127.562 E3.4350
G1 X89.062 Y129.460 E3.5925
G1 X82.960 Y129.460 E3.9505
G1 X82.960 Y131.562 E4.0738
G1 X81.062 Y133.460 E4.2313
G1 X73.938 Y133.460 E4.6493
G1 X72.040 Y131.562 E4.8068
G1 X72.040 Y125.172 E5.1817
G1 X71.610 Y124.742 E5.2173
G1 X71.610 Y115.958 E5.7327
G1 X72.110 Y115.458 E5.7742
G1 X72.110 Y115.258 E5.7859
G1 X74.008 Y113.360 E5.9434
G1 X80.228 Y113.360 E6.3083
G1 X79.610 Y112.742 E6.3596
G1 X79.610 Y93.460 E7.4909
G1 X73.188 Y93.460 E7.8677
G1 X71.290 Y91.562 E8.0252
G1 X71.290 Y84.438 E8.4432
G1 X73.188 Y82.540 E8.6006
G1 X75.290 Y82.540 E8.7240
G1 X75.290 Y80.438 E8.8473
G1 X77.188 Y78.540 E9.0048
G1 X79.610 Y78.540 E9.1469
G1 X79.610 Y67.258 E9.8088
G1 X81.508 Y65.360 E9.9663
G1 X99.992 Y65.360 E11.0508
G1 X101.250 Y66.618 E11.1551
G1 X102.508 Y65.360 E11.2595
G1 X114.292 Y65.360 E11.9509
G1 X114.722 Y65.790 E11.9866
G1 X121.962 Y65.790 E12.4114
G1 X123.860 Y67.688 E12.5688
G1 X123.860 Y74.812 E12.9868
G1 X121.962 Y76.710 E13.1443
G1 X119.860 Y76.710 E13.2676
G1 X119.860 Y78.812 E13.3909
G1 X117.962 Y80.710 E13.5484
G1 X116.190 Y80.710 E13.6524
G1 X116.190 Y91.242 E14.2703
G1 X115.572 Y91.860 E14.3216
G1 X126.492 Y91.860 E14.9623
G1 X128.390 Y93.758 E15.1198
G1 X128.390 Y103.242 E15.6762
G92 E0.0000
G1 E-3.0000 F3600
G1 X101.170 Y112.444 F18000
G1 E0.0000 F3600
G92 E0.0000
G1 X99.694 Y113.920 E0.1225 F1800
G1 X81.806 Y113.920 E1.1720
G1 X80.330 Y112.444 E1.2945
G1 X80.330 Y92.740 E2.4505
G1 X73.486 Y92.740 E2.8520
G1 X72.010 Y91.264 E2.9745
G1 X72.010 Y84.736 E3.3575
G1 X73.486 Y83.260 E3.4800
G1 X76.010 Y83.260 E3.6280
G1 X76.010 Y80.736 E3.7761
G1 X77.486 Y79.260 E3.8986
G1 X80.330 Y79.260 E4.0655
G1 X80.330 Y67.556 E4.7521
G1 X81.806 Y66.080 E4.8746
G1 X99.694 Y66.080 E5.9241
G1 X101.170 Y67.556 E6.0466
G1 X101.170 Y112.444 E8.6802
G1 X100.450 Y112.146 F18000
G92 E0.0000
G1 X99.396 Y113.200 E0.0875 F1800
G1 X82.104 Y113.200 E1.1020
G1 X81.050 Y112.146 E1.1895
G1 X81.050 Y92.020 E2.3703
G1 X73.784 Y92.020 E2.7965
G1 X72.730 Y90.966 E2.8840
G1 X72.730 Y85.034 E3.2320
G1 X73.784 Y83.980 E3.3195
G1 X76.730 Y83.980 E3.4923
G1 X76.730 Y81.034 E3.6651
G1 X77.784 Y79.980 E3.7526
G1 X81.050 Y79.980 E3.9442
G1 X81.050 Y67.854 E4.6556
G1 X82.104 Y66.800 E4.7431
G1 X99.396 Y66.800 E5.7576
G1 X100.450 Y67.854 E5.8451
G1 X100.450 Y112.146 E8.4437
G1 X99.730 Y111.847 F18000
G92 E0.0000
G1 X99.097 Y112.480 E0.0525 F1800
G1 X82.403 Y112.480 E1.0320
G1 X81.770 Y111.847 E1.0845
G1 X81.770 Y91.300 E2.2900
G1 X74.083 Y91.300 E2.7410
G1 X73.450 Y90.667 E2.7935
G1 X73.450 Y85.333 E3.1065
G1 X74.083 Y84.700 E3.1590
G1 X77.450 Y84.700 E3.3566
G1 X77.450 Y81.333 E3.5541
G1 X78.083 Y80.700 E3.6066
G1 X81.770 Y80.700 E3.8230
G1 X81.770 Y68.153 E4.5591
G1 X82.403 Y67.520 E4.6116
G1 X99.097 Y67.520 E5.5911
G1 X99.730 Y68.153 E5.6436
G1 X99.730 Y111.847 E8.2072
G1 X99.010 Y111.549 F18000
G92 E0.0000
G1 X98.799 Y111.760 E0.0175 F1800
G1 X82.701 Y111.760 E0.9620
G1 X82.490 Y111.549 E0.9795
G1 X82.490 Y90.580 E2.2098
G1 X74.381 Y90.580 E2.6855
G1 X74.170 Y90.369 E2.7030
G1 X74.170 Y85.631 E2.9810
G1 X74.381 Y85.420 E2.9985
G1 X78.170 Y85.420 E3.2208
G1 X78.170 Y81.631 E3.4432
G1 X78.381 Y81.420 E3.4606
G1 X82.490 Y81.420 E3.7017
G1 X82.490 Y68.451 E4.4626
G1 X82.701 Y68.240 E4.4801
G1 X98.799 Y68.240 E5.4246
G1 X99.010 Y68.451 E5.4421
G1 X99.010 Y111.549 E7.9707
G92 E0.0000
G1 E-3.0000 F3600
G1 X98.670 Y115.556 F18000
G1 E0.0000 F3600
G92 E0.0000
G1 X98.670 Y124.444 E0.5214 F1800
G1 X97.194 Y125.920 E0.6439
G1 X90.240 Y125.920 E1.0519
G1 X90.240 Y127.264 E1.1308
G1 X88.764 Y128.740 E1.2532
G1 X82.240 Y128.740 E1.6360
G1 X82.240 Y131.264 E1.7841
G1 X80.764 Y132.740 E1.9066
G1 X74.236 Y132.740 E2.2895
G1 X72.760 Y131.264 E2.4120
G1 X72.760 Y124.874 E2.7869
G1 X72.330 Y124.444 E2.8226
G1 X72.330 Y116.256 E3.3030
G1 X72.830 Y115.756 E3.3445
G1 X72.830 Y115.556 E3.3562
G1 X74.306 Y114.080 E3.4787
G1 X97.194 Y114.080 E4.8215
G1 X98.670 Y115.556 E4.9440
G1 X97.950 Y115.854 F18000
G92 E0.0000
G1 X97.950 Y124.146 E0.4864 F1800
G1 X96.896 Y125.200 E0.5739
G1 X89.520 Y125.200 E1.0067
G1 X89.520 Y126.966 E1.1103
G1 X88.466 Y128.020 E1.1977
G1 X81.520 Y128.020 E1.6052
G1 X81.520 Y130.966 E1.7781
G1 X80.466 Y132.020 E1.8656
G1 X74.534 Y132.020 E2.2135
G1 X73.480 Y130.966 E2.3010
G1 X73.480 Y124.576 E2.6759
G1 X73.050 Y124.146 E2.7116
G1 X73.050 Y116.554 E3.1570
G1 X73.550 Y116.054 E3.1985
G1 X73.550 Y115.854 E3.2102
G1 X74.604 Y114.800 E3.2977
G1 X96.896 Y114.800 E4.6055
G1 X97.950 Y115.854 E4.6930
G1 X97.230 Y116.153 F18000
G92 E0.0000
G1 X97.230 Y123.847 E0.4515 F1800
G1 X96.597 Y124.480 E0.5039
G1 X88.800 Y124.480 E0.9614
G1 X88.800 Y126.667 E1.0898
G1 X88.167 Y127.300 E1.1423
G1 X80.800 Y127.300 E1.5745
G1 X80.800 Y130.667 E1.7721
G1 X80.167 Y131.300 E1.8246
G1 X74.833 Y131.300 E2.1376
G1 X74.200 Y130.667 E2.1900
G1 X74.200 Y124.277 E2.5649
G1 X73.770 Y123.847 E2.6006
G1 X73.770 Y116.853 E3.0110
G1 X74.270 Y116.353 E3.0525
G1 X74.270 Y116.153 E3.0642
G1 X74.903 Y115.520 E3.1167
G1 X76.597 Y115.520 E3.2162
