; G-Code generated by Simplify3D(R) Version 4.1.2
; Sep 13, 2020 at 8:26:22 PM
; Settings Summary
;   processName,Process1
;   applyToModels,x-umlenkrolle-halterung-v2
;   profileName,HBot (modified)
;   profileVersion,2019-10-26 23:38:43
;   baseProfile,Default
;   printMaterial,PETG - ERYONE
;   printQuality,Medium
;   printExtruders,
;   extruderName,Extruder 1
;   extruderToolheadNumber,0
;   extruderDiameter,0.4
;   extruderAutoWidth,1
;   extruderWidth,0.48
;   extrusionMultiplier,1
;   extruderUseRetract,1
;   extruderRetractionDistance,4
;   extruderExtraRestartDistance,0
;   extruderRetractionZLift,0.2
;   extruderRetractionSpeed,3600
;   extruderUseCoasting,1
;   extruderCoastingDistance,0.2
;   extruderUseWipe,1
;   extruderWipeDistance,5
;   primaryExtruder,0
;   layerHeight,0.24
;   topSolidLayers,4
;   bottomSolidLayers,4
;   perimeterOutlines,4
;   printPerimetersInsideOut,1
;   startPointOption,3
;   startPointOriginX,200
;   startPointOriginY,100
;   sequentialIslands,0
;   spiralVaseMode,0
;   firstLayerHeightPercentage,100
;   firstLayerWidthPercentage,100
;   firstLayerUnderspeed,0.5
;   useRaft,0
;   raftExtruder,0
;   raftTopLayers,3
;   raftBaseLayers,2
;   raftOffset,3
;   raftSeparationDistance,0.18
;   raftTopInfill,100
;   aboveRaftSpeedMultiplier,0.3
;   useSkirt,1
;   skirtExtruder,0
;   skirtLayers,1
;   skirtOutlines,15
;   skirtOffset,0
;   usePrimePillar,0
;   primePillarExtruder,999
;   primePillarWidth,12
;   primePillarLocation,7
;   primePillarSpeedMultiplier,1
;   useOozeShield,0
;   oozeShieldExtruder,999
;   oozeShieldOffset,0.9
;   oozeShieldOutlines,2
;   oozeShieldSidewallShape,0
;   oozeShieldSidewallAngle,30
;   oozeShieldSpeedMultiplier,1.5
;   infillExtruder,0
;   internalInfillPattern,Fast Honeycomb
;   externalInfillPattern,Rectilinear
;   infillPercentage,20
;   outlineOverlapPercentage,25
;   infillExtrusionWidthPercentage,100
;   minInfillLength,5
;   infillLayerInterval,1
;   internalInfillAngles,0
;   overlapInternalInfillAngles,0
;   externalInfillAngles,45,-45
;   generateSupport,1
;   supportExtruder,0
;   supportInfillPercentage,25
;   supportExtraInflation,0
;   supportBaseLayers,0
;   denseSupportExtruder,0
;   denseSupportLayers,0
;   denseSupportInfillPercentage,70
;   supportLayerInterval,1
;   supportHorizontalPartOffset,0.3
;   supportUpperSeparationLayers,1
;   supportLowerSeparationLayers,1
;   supportType,0
;   supportGridSpacing,4
;   maxOverhangAngle,25
;   supportAngles,0
;   temperatureName,Extruder 1,Heated Bed
;   temperatureNumber,0,1
;   temperatureSetpointCount,2,1
;   temperatureSetpointLayers,1,2,1
;   temperatureSetpointTemperatures,235,230,75
;   temperatureStabilizeAtStartup,1,1
;   temperatureHeatedBed,0,1
;   fanLayers,1,10
;   fanSpeeds,0,20
;   blipFanToFullPower,1
;   adjustSpeedForCooling,1
;   minSpeedLayerTime,15
;   minCoolingSpeedSlowdown,20
;   increaseFanForCooling,0
;   minFanLayerTime,45
;   maxCoolingFanSpeed,35
;   increaseFanForBridging,1
;   bridgingFanSpeed,85
;   use5D,1
;   relativeEdistances,0
;   allowEaxisZeroing,1
;   independentExtruderAxes,0
;   includeM10123,0
;   stickySupport,1
;   applyToolheadOffsets,0
;   gcodeXoffset,0
;   gcodeYoffset,0
;   gcodeZoffset,0
;   overrideMachineDefinition,1
;   machineTypeOverride,0
;   strokeXoverride,210
;   strokeYoverride,210
;   strokeZoverride,150
;   originOffsetXoverride,0
;   originOffsetYoverride,0
;   originOffsetZoverride,0
;   homeXdirOverride,-1
;   homeYdirOverride,-1
;   homeZdirOverride,-1
;   flipXoverride,1
;   flipYoverride,-1
;   flipZoverride,1
;   toolheadOffsets,0,0|0,0|0,0|0,0|0,0|0,0
;   overrideFirmwareConfiguration,1
;   firmwareTypeOverride,RepRap (Marlin/Repetier/Sprinter)
;   GPXconfigOverride,r2
;   baudRateOverride,115200
;   overridePrinterModels,0
;   printerModelsOverride
;   startingGcode,G28 ; home all axes,G32 ; run bed.g -- probe bed and enable compensation
;   layerChangeGcode,
;   retractionGcode,
;   toolChangeGcode,
;   endingGcode,M0 ; call stop.g
;   exportFileFormat,gcode
;   celebration,0
;   celebrationSong,Random Song
;   postProcessing,
;   defaultSpeed,3600
;   outlineUnderspeed,0.5
;   solidInfillUnderspeed,0.8
;   supportUnderspeed,0.8
;   rapidXYspeed,18000
;   rapidZspeed,1200
;   minBridgingArea,50
;   bridgingExtraInflation,0
;   bridgingExtrusionMultiplier,0.96
;   bridgingSpeedMultiplier,1
;   useFixedBridgingAngle,0
;   fixedBridgingAngle,0
;   applyBridgingToPerimeters,0
;   filamentDiameters,1.75|1.75|1.75|1.75|1.75|1.75
;   filamentPricesPerKg,46|46|46|46|46|46
;   filamentDensities,1.25|1.25|1.25|1.25|1.25|1.25
;   useMinPrintHeight,0
;   minPrintHeight,20
;   useMaxPrintHeight,0
;   maxPrintHeight,15
;   useDiaphragm,0
;   diaphragmLayerInterval,20
;   robustSlicing,1
;   mergeAllIntoSolid,0
;   onlyRetractWhenCrossingOutline,1
;   retractBetweenLayers,0
;   useRetractionMinTravel,1
;   retractionMinTravel,3
;   retractWhileWiping,1
;   onlyWipeOutlines,1
;   avoidCrossingOutline,1
;   maxMovementDetourFactor,5
;   toolChangeRetractionDistance,12
;   toolChangeExtraRestartDistance,-0.5
;   toolChangeRetractionSpeed,600
;   externalThinWallType,0
;   internalThinWallType,2
;   thinWallAllowedOverlapPercentage,10
;   singleExtrusionMinLength,1
;   singleExtrusionMinPrintingWidthPercentage,50
;   singleExtrusionMaxPrintingWidthPercentage,150
;   singleExtrusionEndpointExtension,0.2
;   horizontalSizeCompensation,-0.1
G90
M82
M106 S0
M140 S75
M190 S75
M104 S235 T0
M109 S235 T0
G28 ; home all axes
G32 ; run bed.g -- probe bed and enable compensation
; process Process1
; layer 1, Z = 0.240
T0
G92 E0.0000
G1 E-4.0000 F3600
; feature skirt
; tool H0.240 W0.480
G1 Z0.240 F1200
G1 X131.860 Y82.217 F18000
G1 E0.0000 F3600
G92 E0.0000
G1 X131.860 Y127.783 E2.1824 F1800
G1 X127.783 Y131.860 E2.4585
G1 X82.217 Y131.860 E4.6409
G1 X78.140 Y127.783 E4.9170
G1 X78.140 Y82.217 E7.0994
G1 X82.217 Y78.140 E7.3755
G1 X127.783 Y78.140 E9.5579
G1 X131.860 Y82.217 E9.8340
G1 X131.380 Y82.416 F18000
G92 E0.0000
G1 X131.380 Y127.584 E2.1633 F1800
G1 X127.584 Y131.380 E2.4204
G1 X82.416 Y131.380 E4.5837
G1 X78.620 Y127.584 E4.8408
G1 X78.620 Y82.416 E7.0042
G1 X82.416 Y78.620 E7.2613
G1 X127.584 Y78.620 E9.4246
G1 X131.380 Y82.416 E9.6817
G1 X130.900 Y82.615 F18000
G92 E0.0000
G1 X130.900 Y127.385 E2.1443 F1800
G1 X127.385 Y130.900 E2.3823
G1 X82.615 Y130.900 E4.5266
G1 X79.100 Y127.385 E4.7647
G1 X79.100 Y82.615 E6.9089
G1 X82.615 Y79.100 E7.1470
G1 X127.385 Y79.100 E9.2913
G1 X130.900 Y82.615 E9.5293
G1 X130.420 Y82.814 F18000
G92 E0.0000
G1 X130.420 Y127.186 E2.1252 F1800
G1 X127.186 Y130.420 E2.3442
G1 X82.814 Y130.420 E4.4695
G1 X79.580 Y127.186 E4.6885
G1 X79.580 Y82.814 E6.8137
G1 X82.814 Y79.580 E7.0327
G1 X127.186 Y79.580 E9.1579
G1 X130.420 Y82.814 E9.3770
G1 X129.940 Y83.012 F18000
G92 E0.0000
G1 X129.940 Y126.988 E2.1062 F1800
G1 X126.988 Y129.940 E2.3061
G1 X83.012 Y129.940 E4.4123
G1 X80.060 Y126.988 E4.6123
G1 X80.060 Y83.012 E6.7185
G1 X83.012 Y80.060 E6.9185
G1 X126.988 Y80.060 E9.0246
G1 X129.940 Y83.012 E9.2246
G1 X129.460 Y83.211 F18000
G92 E0.0000
G1 X129.460 Y126.789 E2.0871 F1800
G1 X126.789 Y129.460 E2.2681
G1 X83.211 Y129.460 E4.3552
G1 X80.540 Y126.789 E4.5361
G1 X80.540 Y83.211 E6.6232
G1 X83.211 Y80.540 E6.8042
G1 X126.789 Y80.540 E8.8913
G1 X129.460 Y83.211 E9.0722
G1 X128.980 Y83.410 F18000
G92 E0.0000
G1 X128.980 Y126.590 E2.0681 F1800
G1 X126.590 Y128.980 E2.2300
G1 X83.410 Y128.980 E4.2981
G1 X81.020 Y126.590 E4.4599
G1 X81.020 Y83.410 E6.5280
G1 X83.410 Y81.020 E6.6899
G1 X126.590 Y81.020 E8.7580
G1 X128.980 Y83.410 E8.9199
G1 X128.500 Y83.609 F18000
G92 E0.0000
G1 X128.500 Y126.391 E2.0490 F1800
G1 X126.391 Y128.500 E2.1919
G1 X83.609 Y128.500 E4.2409
G1 X81.500 Y126.391 E4.3838
G1 X81.500 Y83.609 E6.4328
G1 X83.609 Y81.500 E6.5756
G1 X126.391 Y81.500 E8.6247
G1 X128.500 Y83.609 E8.7675
G1 X128.020 Y83.808 F18000
G92 E0.0000
G1 X128.020 Y126.192 E2.0300 F1800
G1 X126.192 Y128.020 E2.1538
G1 X83.808 Y128.020 E4.1838
G1 X81.980 Y126.192 E4.3076
G1 X81.980 Y83.808 E6.3376
G1 X83.808 Y81.980 E6.4614
G1 X126.192 Y81.980 E8.4914
G1 X128.020 Y83.808 E8.6152
G1 X127.540 Y84.006 F18000
G92 E0.0000
G1 X127.540 Y125.994 E2.0110 F1800
G1 X125.994 Y127.540 E2.1157
G1 X84.006 Y127.540 E4.1267
G1 X82.460 Y125.994 E4.2314
G1 X82.460 Y84.006 E6.2424
G1 X84.006 Y82.460 E6.3471
G1 X125.994 Y82.460 E8.3581
G1 X127.540 Y84.006 E8.4628
G1 X127.060 Y84.205 F18000
G92 E0.0000
G1 X127.060 Y125.795 E1.9919 F1800
G1 X125.795 Y127.060 E2.0776
G1 X84.205 Y127.060 E4.0695
G1 X82.940 Y125.795 E4.1552
G1 X82.940 Y84.205 E6.1471
G1 X84.205 Y82.940 E6.2328
G1 X125.795 Y82.940 E8.2247
G1 X127.060 Y84.205 E8.3104
G1 X126.580 Y84.404 F18000
G92 E0.0000
G1 X126.580 Y125.596 E1.9729 F1800
G1 X125.596 Y126.580 E2.0395
G1 X84.404 Y126.580 E4.0124
G1 X83.420 Y125.596 E4.0790
G1 X83.420 Y84.404 E6.0519
G1 X84.404 Y83.420 E6.1186
G1 X125.596 Y83.420 E8.0914
G1 X126.580 Y84.404 E8.1581
G1 X126.100 Y84.603 F18000
G92 E0.0000
G1 X126.100 Y125.397 E1.9538 F1800
G1 X125.397 Y126.100 E2.0014
G1 X84.603 Y126.100 E3.9552
G1 X83.900 Y125.397 E4.0029
G1 X83.900 Y84.603 E5.9567
G1 X84.603 Y83.900 E6.0043
G1 X125.397 Y83.900 E7.9581
G1 X126.100 Y84.603 E8.0057
G1 X125.620 Y84.802 F18000
G92 E0.0000
G1 X125.620 Y125.198 E1.9348 F1800
G1 X125.198 Y125.620 E1.9633
G1 X84.802 Y125.620 E3.8981
G1 X84.380 Y125.198 E3.9267
G1 X84.380 Y84.802 E5.8615
G1 X84.802 Y84.380 E5.8900
G1 X125.198 Y84.380 E7.8248
G1 X125.620 Y84.802 E7.8534
G1 X125.140 Y85.001 F18000
G92 E0.0000
G1 X125.140 Y124.999 E1.9157 F1800
G1 X124.999 Y125.140 E1.9252
G1 X85.001 Y125.140 E3.8410
G1 X84.860 Y124.999 E3.8505
G1 X84.860 Y85.001 E5.7662
G1 X85.001 Y84.860 E5.7757
G1 X124.999 Y84.860 E7.6915
G1 X125.140 Y85.001 E7.7010
; feature inner perimeter
G1 X124.660 Y85.340 F18000
G1 X124.660 Y85.445
G1 X123.220 Y86.780
G92 E0.0000
G1 X123.220 Y123.220 E1.7453 F1350
G1 X86.780 Y123.220 E3.4906
G1 X86.780 Y86.780 E5.2358
G1 X112.902 Y86.780 E6.4869
G1 X112.975 Y87.121 E6.5036
G1 X110.590 Y88.204 E6.6291
G1 X110.080 Y88.378 E6.6549
G1 X110.080 Y87.220 E6.7104
G1 X88.220 Y87.220 E7.7573
G1 X88.220 Y102.780 E8.5026
G1 X93.220 Y102.780 E8.7420
G1 X93.220 Y110.780 E9.1252
G1 X121.780 Y110.780 E10.4931
G1 X121.780 Y95.220 E11.2383
G1 X113.455 Y95.220 E11.6370
G1 X113.456 Y86.780 E12.0412
G1 X123.020 Y86.780 E12.4993
G1 X123.220 Y86.780 F1350
G1 X123.700 Y86.300 F18000
G92 E0.0000
G1 X123.700 Y123.700 E1.7913 F1350
G1 X86.300 Y123.700 E3.5825
G1 X86.300 Y86.300 E5.3738
G1 X123.500 Y86.300 E7.1555
G1 X123.700 Y86.300 F1350
G1 X124.180 Y85.820 F18000
G92 E0.0000
G1 X124.180 Y124.180 E1.8372 F1350
G1 X85.820 Y124.180 E3.6745
G1 X85.820 Y85.820 E5.5117
G1 X123.980 Y85.820 E7.3394
G1 X124.180 Y85.820 F1350
; feature outer perimeter
G1 X124.660 Y85.340 F18000
G92 E0.0000
G1 X124.660 Y124.660 E1.8832 F900
G1 X85.340 Y124.660 E3.7664
G1 X85.340 Y85.340 E5.6496
G1 X124.460 Y85.340 E7.5233
G1 X124.660 Y85.340 F900
G1 X124.660 Y90.340 F900
; feature inner perimeter
G1 X121.300 Y95.700 F18000
G92 E0.0000
G1 X112.975 Y95.700 E0.3987 F1350
G1 X112.976 Y87.648 E0.7844
G1 X110.767 Y88.651 E0.9005
G1 X110.003 Y88.911 E0.9392
G1 X109.600 Y88.775 E0.9596
G1 X109.600 Y87.700 E1.0110
G1 X88.700 Y87.700 E2.0120
G1 X88.700 Y102.300 E2.7113
G1 X93.700 Y102.300 E2.9508
G1 X93.700 Y110.300 E3.3339
G1 X121.300 Y110.300 E4.6558
G1 X121.300 Y95.900 E5.3455
G1 X121.300 Y95.700 F1350
G1 X120.820 Y96.180 F18000
G92 E0.0000
G1 X112.495 Y96.180 E0.3987 F1350
G1 X112.496 Y88.393 E0.7717
G1 X110.944 Y89.098 E0.8533
G1 X110.003 Y89.418 E0.9009
G1 X109.120 Y89.119 E0.9455
G1 X109.120 Y88.180 E0.9905
G1 X89.180 Y88.180 E1.9455
G1 X89.180 Y101.820 E2.5988
G1 X94.180 Y101.820 E2.8383
G1 X94.180 Y109.820 E3.2214
G1 X120.820 Y109.820 E4.4973
G1 X120.820 Y96.380 E5.1410
G1 X120.820 Y96.180 F1350
; feature outer perimeter
G1 X120.340 Y96.660 F18000
G92 E0.0000
G1 X112.015 Y96.660 E0.3987 F900
G1 X112.016 Y89.138 E0.7590
G1 X111.121 Y89.545 E0.8060
G1 X110.499 Y89.756 E0.8375
G1 X110.491 Y98.660 E1.2639
G1 X109.505 Y98.660 E1.3111
G1 X109.506 Y89.756 E1.7376
G1 X108.885 Y89.546 E1.7690
G1 X108.640 Y89.435 E1.7819
G1 X108.640 Y88.660 E1.8190
G1 X89.660 Y88.660 E2.7280
G1 X89.660 Y101.340 E3.3353
G1 X94.660 Y101.340 E3.5748
G1 X94.660 Y109.340 E3.9579
G1 X120.340 Y109.340 E5.1879
G1 X120.340 Y96.860 E5.7856
G1 X120.340 Y96.660 F900
G1 X115.340 Y96.660 F900
; feature gap fill
G1 X112.015 Y96.660 F18000
G1 X112.016 Y89.138
G1 X111.121 Y89.545
G1 X110.499 Y89.756
G1 X110.492 Y97.826
G1 X110.132 Y97.913
G92 E0.0000
G1 X109.865 Y97.647 E0.0180 F1800
G1 X109.865 Y96.968 E0.0506
G1 X110.132 Y97.235 E0.0686
G1 X110.133 Y96.556 E0.1011
G1 X109.865 Y96.289 E0.1192
G1 X109.865 Y95.610 E0.1517
G1 X110.133 Y95.878 E0.1699
G1 X110.134 Y95.200 E0.2024
G1 X109.865 Y94.931 E0.2206
G1 X109.866 Y94.253 E0.2531
G1 X110.135 Y94.522 E0.2713
G1 X110.135 Y93.843 E0.3038
G1 X109.866 Y93.574 E0.3220
G1 X109.866 Y92.895 E0.3545
G1 X110.136 Y93.165 E0.3728
G1 X110.136 Y92.487 E0.4053
G1 X109.866 Y92.216 E0.4236
G1 X109.866 Y91.537 E0.4561
G1 X110.137 Y91.809 E0.4745
G1 X110.137 Y91.130 E0.5070
G1 X109.866 Y90.859 E0.5254
G1 X109.866 Y90.180 E0.5579
G1 X110.138 Y90.452 E0.5763
G1 X110.138 Y89.956 E0.6001
G1 X110.139 Y89.774 F1800
G1 X110.126 Y89.761
; feature solid layer
G1 X110.796 Y87.716 F18000
G92 E0.0000
G1 X110.440 Y87.360 E0.0241 F1440
G1 X110.440 Y87.140 E0.0346
G1 X110.899 Y87.140 E0.0566
G1 X111.262 Y87.504 E0.0812
G1 X111.729 Y87.291 E0.1058
G1 X111.719 Y87.281 E0.1065
G1 X111.578 Y87.140 F1440
G1 X113.867 Y94.860 F18000
G92 E0.0000
G1 X113.815 Y94.808 E0.0035 F1440
G1 X113.815 Y94.129 E0.0360
G1 X114.546 Y94.860 E0.0855
G1 X115.225 Y94.860 E0.1180
G1 X113.815 Y93.451 E0.2135
G1 X113.815 Y92.772 E0.2460
G1 X115.904 Y94.860 E0.3874
G1 X116.582 Y94.860 E0.4199
G1 X113.815 Y92.093 E0.6073
G1 X113.815 Y91.414 E0.6398
G1 X117.261 Y94.860 E0.8732
G1 X117.940 Y94.860 E0.9057
G1 X113.815 Y90.735 E1.1851
G1 X113.815 Y90.057 E1.2176
G1 X118.619 Y94.860 E1.5430
G1 X119.298 Y94.860 E1.5755
G1 X113.815 Y89.378 E1.9468
G1 X113.816 Y88.699 E1.9793
G1 X119.976 Y94.860 E2.3966
G1 X120.655 Y94.860 E2.4291
G1 X113.816 Y88.020 E2.8924
G1 X113.816 Y87.341 E2.9249
G1 X121.334 Y94.860 E3.4342
G1 X122.013 Y94.860 E3.4667
G1 X114.293 Y87.140 E3.9896
G1 X114.972 Y87.140 E4.0221
G1 X122.860 Y95.028 E4.5564
G1 X122.860 Y94.349 E4.5889
G1 X115.651 Y87.140 E5.0772
G1 X116.329 Y87.140 E5.1097
G1 X122.860 Y93.671 E5.5521
G1 X122.860 Y92.992 E5.5846
G1 X117.008 Y87.140 E5.9809
G1 X117.687 Y87.140 E6.0135
G1 X122.860 Y92.313 E6.3638
G1 X122.860 Y91.634 E6.3964
G1 X118.366 Y87.140 E6.7008
G1 X119.045 Y87.140 E6.7333
G1 X122.860 Y90.955 E6.9917
G1 X122.860 Y90.277 E7.0242
G1 X119.723 Y87.140 E7.2367
G1 X120.402 Y87.140 E7.2692
G1 X122.860 Y89.598 E7.4356
G1 X122.860 Y88.919 E7.4681
G1 X121.081 Y87.140 E7.5886
G1 X121.760 Y87.140 E7.6211
G1 X122.860 Y88.240 E7.6957
G1 X122.860 Y87.561 E7.7282
G1 X122.580 Y87.281 E7.7471
G1 X122.439 Y87.140 F1440
G1 X122.140 Y94.987 F18000
G92 E0.0000
G1 X122.860 Y95.707 E0.0488 F1440
G1 X122.860 Y96.386 E0.0813
G1 X122.140 Y95.666 E0.1300
G1 X122.140 Y96.345 E0.1626
G1 X122.860 Y97.065 E0.2113
G1 X122.860 Y97.744 E0.2438
G1 X122.140 Y97.024 E0.2926
G1 X122.140 Y97.702 E0.3251
G1 X122.860 Y98.422 E0.3739
G1 X122.860 Y99.101 E0.4064
G1 X122.140 Y98.381 E0.4552
G1 X122.140 Y99.060 E0.4877
G1 X122.860 Y99.780 E0.5364
G1 X122.860 Y100.459 E0.5690
G1 X122.140 Y99.739 E0.6177
G1 X122.140 Y100.418 E0.6502
G1 X122.860 Y101.138 E0.6990
G1 X122.860 Y101.816 E0.7315
G1 X122.140 Y101.096 E0.7803
G1 X122.140 Y101.775 E0.8128
G1 X122.860 Y102.495 E0.8616
G1 X122.860 Y103.174 E0.8941
G1 X122.140 Y102.454 E0.9428
G1 X122.140 Y103.133 E0.9754
G1 X122.860 Y103.853 E1.0241
G1 X122.860 Y104.532 E1.0566
G1 X122.140 Y103.812 E1.1054
G1 X122.140 Y104.491 E1.1379
G1 X122.860 Y105.211 E1.1867
G1 X122.860 Y105.889 E1.2192
G1 X122.140 Y105.169 E1.2680
G1 X122.140 Y105.848 E1.3005
G1 X122.860 Y106.568 E1.3492
G1 X122.860 Y107.247 E1.3818
G1 X122.140 Y106.527 E1.4305
