; G-Code generated by Simplify3D(R) Version 4.1.2
; May 11, 2020 at 8:11:36 PM
; Settings Summary
;   processName,Process1
;   applyToModels,y-endstop-halter,y-endstop-halter(2)
;   profileName,HBot (modified)
;   profileVersion,2019-10-26 23:38:43
;   baseProfile,Default
;   printMaterial,PETG - SUNLU
;   printQuality,Medium
;   printExtruders,
;   extruderName,Extruder 1
;   extruderToolheadNumber,0
;   extruderDiameter,0.4
;   extruderAutoWidth,1
;   extruderWidth,0.48
;   extrusionMultiplier,1
;   extruderUseRetract,1
;   extruderRetractionDistance,4
;   extruderExtraRestartDistance,0
;   extruderRetractionZLift,0
;   extruderRetractionSpeed,3600
;   extruderUseCoasting,1
;   extruderCoastingDistance,0.2
;   extruderUseWipe,1
;   extruderWipeDistance,5
;   primaryExtruder,0
;   layerHeight,0.2
;   topSolidLayers,3
;   bottomSolidLayers,3
;   perimeterOutlines,3
;   printPerimetersInsideOut,1
;   startPointOption,3
;   startPointOriginX,200
;   startPointOriginY,100
;   sequentialIslands,0
;   spiralVaseMode,0
;   firstLayerHeightPercentage,100
;   firstLayerWidthPercentage,100
;   firstLayerUnderspeed,0.5
;   useRaft,0
;   raftExtruder,0
;   raftTopLayers,3
;   raftBaseLayers,2
;   raftOffset,3
;   raftSeparationDistance,0.18
;   raftTopInfill,100
;   aboveRaftSpeedMultiplier,0.3
;   useSkirt,1
;   skirtExtruder,0
;   skirtLayers,1
;   skirtOutlines,5
;   skirtOffset,10
;   usePrimePillar,0
;   primePillarExtruder,999
;   primePillarWidth,12
;   primePillarLocation,7
;   primePillarSpeedMultiplier,1
;   useOozeShield,0
;   oozeShieldExtruder,999
;   oozeShieldOffset,2
;   oozeShieldOutlines,1
;   oozeShieldSidewallShape,1
;   oozeShieldSidewallAngle,30
;   oozeShieldSpeedMultiplier,1
;   infillExtruder,0
;   internalInfillPattern,Rectilinear
;   externalInfillPattern,Rectilinear
;   infillPercentage,20
;   outlineOverlapPercentage,25
;   infillExtrusionWidthPercentage,100
;   minInfillLength,5
;   infillLayerInterval,1
;   internalInfillAngles,45,-45
;   overlapInternalInfillAngles,0
;   externalInfillAngles,45,-45
;   generateSupport,0
;   supportExtruder,0
;   supportInfillPercentage,30
;   supportExtraInflation,0
;   supportBaseLayers,1
;   denseSupportExtruder,0
;   denseSupportLayers,0
;   denseSupportInfillPercentage,70
;   supportLayerInterval,1
;   supportHorizontalPartOffset,0.3
;   supportUpperSeparationLayers,1
;   supportLowerSeparationLayers,1
;   supportType,0
;   supportGridSpacing,4
;   maxOverhangAngle,25
;   supportAngles,0
;   temperatureName,Extruder 1,Heated Bed
;   temperatureNumber,0,1
;   temperatureSetpointCount,2,1
;   temperatureSetpointLayers,1,2,1
;   temperatureSetpointTemperatures,235,225,75
;   temperatureStabilizeAtStartup,1,1
;   temperatureHeatedBed,0,1
;   fanLayers,1,10
;   fanSpeeds,0,5
;   blipFanToFullPower,1
;   adjustSpeedForCooling,1
;   minSpeedLayerTime,15
;   minCoolingSpeedSlowdown,20
;   increaseFanForCooling,1
;   minFanLayerTime,45
;   maxCoolingFanSpeed,35
;   increaseFanForBridging,1
;   bridgingFanSpeed,80
;   use5D,1
;   relativeEdistances,0
;   allowEaxisZeroing,1
;   independentExtruderAxes,0
;   includeM10123,0
;   stickySupport,1
;   applyToolheadOffsets,0
;   gcodeXoffset,0
;   gcodeYoffset,0
;   gcodeZoffset,0
;   overrideMachineDefinition,1
;   machineTypeOverride,0
;   strokeXoverride,200
;   strokeYoverride,200
;   strokeZoverride,150
;   originOffsetXoverride,0
;   originOffsetYoverride,0
;   originOffsetZoverride,0
;   homeXdirOverride,-1
;   homeYdirOverride,-1
;   homeZdirOverride,-1
;   flipXoverride,1
;   flipYoverride,-1
;   flipZoverride,1
;   toolheadOffsets,0,0|0,0|0,0|0,0|0,0|0,0
;   overrideFirmwareConfiguration,1
;   firmwareTypeOverride,RepRap (Marlin/Repetier/Sprinter)
;   GPXconfigOverride,r2
;   baudRateOverride,115200
;   overridePrinterModels,0
;   printerModelsOverride
;   startingGcode,G28 ; home all axes,G32 ; run bed.g -- probe bed and enable compensation
;   layerChangeGcode,
;   retractionGcode,
;   toolChangeGcode,
;   endingGcode,M0 ; call stop.g
;   exportFileFormat,gcode
;   celebration,0
;   celebrationSong,Random Song
;   postProcessing,
;   defaultSpeed,3600
;   outlineUnderspeed,0.5
;   solidInfillUnderspeed,0.8
;   supportUnderspeed,0.8
;   rapidXYspeed,18000
;   rapidZspeed,1200
;   minBridgingArea,50
;   bridgingExtraInflation,0
;   bridgingExtrusionMultiplier,0.96
;   bridgingSpeedMultiplier,1
;   useFixedBridgingAngle,0
;   fixedBridgingAngle,0
;   applyBridgingToPerimeters,0
;   filamentDiameters,1.75|1.75|1.75|1.75|1.75|1.75
;   filamentPricesPerKg,46|46|46|46|46|46
;   filamentDensities,1.25|1.25|1.25|1.25|1.25|1.25
;   useMinPrintHeight,0
;   minPrintHeight,0.2
;   useMaxPrintHeight,0
;   maxPrintHeight,0
;   useDiaphragm,0
;   diaphragmLayerInterval,20
;   robustSlicing,1
;   mergeAllIntoSolid,0
;   onlyRetractWhenCrossingOutline,1
;   retractBetweenLayers,0
;   useRetractionMinTravel,1
;   retractionMinTravel,3
;   retractWhileWiping,1
;   onlyWipeOutlines,1
;   avoidCrossingOutline,1
;   maxMovementDetourFactor,5
;   toolChangeRetractionDistance,12
;   toolChangeExtraRestartDistance,-0.5
;   toolChangeRetractionSpeed,600
;   externalThinWallType,0
;   internalThinWallType,2
;   thinWallAllowedOverlapPercentage,10
;   singleExtrusionMinLength,1
;   singleExtrusionMinPrintingWidthPercentage,50
;   singleExtrusionMaxPrintingWidthPercentage,150
;   singleExtrusionEndpointExtension,0.2
;   horizontalSizeCompensation,-0.1
G90
M82
M106 S255
G4 P500
M106 S68
M140 S75
M190 S75
M104 S235 T0
M109 S235 T0
G28 ; home all axes
G32 ; run bed.g -- probe bed and enable compensation
; process Process1
; layer 1, Z = 0.200
T0
G92 E0.0000
G1 E-4.0000 F3600
; feature skirt
; tool H0.200 W0.480
G1 Z0.200 F1200
G1 X128.560 Y83.938 F18000
G1 E0.0000 F3600
G92 E0.0000
G1 X128.560 Y116.062 E1.2821 F1800
G1 X121.437 Y123.185 E1.6842
G1 X78.563 Y123.185 E3.3954
G1 X71.440 Y116.062 E3.7974
G1 X71.440 Y103.938 E4.2813
G1 X74.253 Y101.125 E4.4401
G1 X71.440 Y98.312 E4.5989
G1 X71.440 Y83.938 E5.1726
G1 X78.563 Y76.815 E5.5746
G1 X121.437 Y76.815 E7.2858
G1 X128.560 Y83.938 E7.6879
G1 X128.080 Y84.137 F18000
G92 E0.0000
G1 X128.080 Y115.863 E1.2663 F1800
G1 X121.238 Y122.705 E1.6524
G1 X78.762 Y122.705 E3.3478
G1 X71.920 Y115.863 E3.7339
G1 X71.920 Y104.137 E4.2020
G1 X74.932 Y101.125 E4.3720
G1 X71.920 Y98.113 E4.5420
G1 X71.920 Y84.137 E5.0998
G1 X78.762 Y77.295 E5.4860
G1 X121.238 Y77.295 E7.1813
G1 X128.080 Y84.137 E7.5675
G1 X127.600 Y84.336 F18000
G92 E0.0000
G1 X127.600 Y115.664 E1.2504 F1800
G1 X121.039 Y122.225 E1.6207
G1 X78.961 Y122.225 E3.3001
G1 X72.400 Y115.664 E3.6705
G1 X72.400 Y104.336 E4.1226
G1 X75.611 Y101.125 E4.3038
G1 X72.400 Y97.914 E4.4851
G1 X72.400 Y84.336 E5.0270
G1 X78.961 Y77.775 E5.3973
G1 X121.039 Y77.775 E7.0768
G1 X127.600 Y84.336 E7.4471
G1 X127.120 Y84.535 F18000
G92 E0.0000
G1 X127.120 Y115.465 E1.2345 F1800
G1 X120.840 Y121.745 E1.5890
G1 X79.160 Y121.745 E3.2525
G1 X72.880 Y115.465 E3.6070
G1 X72.880 Y104.535 E4.0432
G1 X76.290 Y101.125 E4.2357
G1 X72.880 Y97.715 E4.4282
G1 X72.880 Y84.535 E4.9542
G1 X79.160 Y78.255 E5.3087
G1 X120.840 Y78.255 E6.9722
G1 X127.120 Y84.535 E7.3267
G1 X126.640 Y84.733 F18000
G92 E0.0000
G1 X126.640 Y115.267 E1.2186 F1800
G1 X120.642 Y121.265 E1.5572
G1 X79.358 Y121.265 E3.2049
G1 X73.360 Y115.267 E3.5435
G1 X73.360 Y104.733 E3.9639
G1 X76.968 Y101.125 E4.1676
G1 X73.360 Y97.517 E4.3712
G1 X73.360 Y84.733 E4.8815
G1 X79.358 Y78.735 E5.2200
G1 X120.642 Y78.735 E6.8677
G1 X126.640 Y84.733 E7.2063
G92 E0.0000
G1 E-4.0000 F3600
; feature inner perimeter
G1 X116.160 Y89.215 F18000
G1 X116.160 Y93.372
G1 X112.340 Y96.521
G1 X112.340 Y109.215
G1 X102.840 Y109.215
G1 X97.160 Y109.034
G1 X96.200 Y109.825
G1 E0.0000 F3600
G92 E0.0000
G1 X94.300 Y109.825 E0.0758 F1350
G1 X94.300 Y92.075 E0.7843
G1 X84.800 Y92.075 E1.1634
G1 X84.800 Y90.175 E1.2393
G1 X96.200 Y90.175 E1.6943
G1 X96.200 Y109.625 E2.4706
G1 X96.200 Y109.825 F1350
G1 X96.680 Y110.305 F18000
G92 E0.0000
G1 X84.320 Y110.305 E0.4933 F1350
G1 X84.320 Y109.695 E0.5177
G1 X93.820 Y109.695 E0.8968
G1 X93.820 Y92.555 E1.5809
G1 X84.320 Y92.555 E1.9601
G1 X84.320 Y89.695 E2.0742
G1 X96.680 Y89.695 E2.5675
G1 X96.680 Y110.105 E3.3822
G1 X96.680 Y110.305 F1350
; feature outer perimeter
G1 X97.160 Y110.785 F18000
G92 E0.0000
G1 X83.840 Y110.785 E0.5316 F900
G1 X83.840 Y109.215 E0.5943
G1 X93.340 Y109.215 E0.9735
G1 X93.340 Y93.035 E1.6192
G1 X83.840 Y93.035 E1.9984
G1 X83.840 Y89.215 E2.1509
G1 X97.160 Y89.215 E2.6825
G1 X97.160 Y110.585 E3.5354
G1 X97.160 Y110.785 F900
G1 X92.160 Y110.785 F900
; feature solid layer
G1 X95.210 Y109.465 F18000
G92 E0.0000
G1 X94.660 Y108.915 E0.0310 F1440
G1 X94.660 Y108.236 E0.0581
G1 X95.840 Y109.416 E0.1247
G1 X95.840 Y108.738 E0.1518
G1 X94.660 Y107.558 E0.2184
G1 X94.660 Y106.879 E0.2455
G1 X95.840 Y108.059 E0.3121
G1 X95.840 Y107.380 E0.3392
G1 X94.660 Y106.200 E0.4058
G1 X94.660 Y105.521 E0.4329
G1 X95.840 Y106.701 E0.4995
G1 X95.840 Y106.022 E0.5266
G1 X94.660 Y104.842 E0.5932
G1 X94.660 Y104.164 E0.6203
G1 X95.840 Y105.344 E0.6869
G1 X95.840 Y104.665 E0.7140
G1 X94.660 Y103.485 E0.7806
G1 X94.660 Y102.806 E0.8077
G1 X95.840 Y103.986 E0.8743
G1 X95.840 Y103.307 E0.9014
G1 X94.660 Y102.127 E0.9680
G1 X94.660 Y101.448 E0.9951
G1 X95.840 Y102.628 E1.0617
G1 X95.840 Y101.949 E1.0888
G1 X94.660 Y100.769 E1.1554
G1 X94.660 Y100.091 E1.1825
G1 X95.840 Y101.271 E1.2491
G1 X95.840 Y100.592 E1.2762
G1 X94.660 Y99.412 E1.3428
G1 X94.660 Y98.733 E1.3699
G1 X95.840 Y99.913 E1.4365
G1 X95.840 Y99.234 E1.4636
G1 X94.660 Y98.054 E1.5302
G1 X94.660 Y97.375 E1.5573
G1 X95.840 Y98.555 E1.6239
G1 X95.840 Y97.876 E1.6510
G1 X94.660 Y96.696 E1.7176
G1 X94.660 Y96.018 E1.7447
G1 X95.840 Y97.198 E1.8113
G1 X95.840 Y96.519 E1.8384
G1 X94.660 Y95.339 E1.9050
G1 X94.660 Y94.660 E1.9321
G1 X95.840 Y95.840 E1.9987
G1 X95.840 Y95.161 E2.0258
G1 X94.660 Y93.981 E2.0924
G1 X94.660 Y93.302 E2.1195
G1 X95.840 Y94.482 E2.1861
G1 X95.840 Y93.804 E2.2132
G1 X94.801 Y92.765 E2.2718
G1 X94.660 Y92.624 F1440
G1 X95.287 Y90.535 F18000
G92 E0.0000
G1 X95.840 Y91.088 E0.0312 F1440
G1 X95.840 Y91.767 E0.0583
G1 X94.608 Y90.535 E0.1279
G1 X93.929 Y90.535 E0.1550
G1 X95.840 Y92.446 E0.2628
G1 X95.840 Y93.125 E0.2899
G1 X94.660 Y91.945 E0.3565
G1 X94.660 Y91.715 E0.3657
G1 X94.430 Y91.715 E0.3748
G1 X93.250 Y90.535 E0.4415
G1 X92.571 Y90.535 E0.4685
G1 X93.751 Y91.715 E0.5351
G1 X93.073 Y91.715 E0.5622
G1 X91.893 Y90.535 E0.6288
G1 X91.214 Y90.535 E0.6559
G1 X92.394 Y91.715 E0.7225
G1 X91.715 Y91.715 E0.7496
G1 X90.535 Y90.535 E0.8162
G1 X89.856 Y90.535 E0.8433
G1 X91.036 Y91.715 E0.9099
G1 X90.357 Y91.715 E0.9370
G1 X89.177 Y90.535 E1.0036
G1 X88.499 Y90.535 E1.0307
G1 X89.679 Y91.715 E1.0973
G1 X89.000 Y91.715 E1.1244
G1 X87.820 Y90.535 E1.1910
G1 X87.141 Y90.535 E1.2181
G1 X88.321 Y91.715 E1.2847
G1 X87.642 Y91.715 E1.3118
G1 X86.462 Y90.535 E1.3784
G1 X85.783 Y90.535 E1.4055
G1 X86.963 Y91.715 E1.4721
G1 X86.284 Y91.715 E1.4992
G1 X85.160 Y90.591 E1.5627
G1 X85.160 Y91.269 E1.5898
G1 X85.464 Y91.574 E1.6069
G1 X85.606 Y91.715 F1440
G92 E0.0000
G1 E-4.0000 F3600
; feature inner perimeter
G1 X87.763 Y93.035 F18000
G1 X93.340 Y93.035
G1 X93.340 Y96.448
G1 X97.160 Y98.786
G1 X97.160 Y110.785
G1 X102.840 Y110.785
G1 X102.840 Y109.215
G1 X112.340 Y109.215
G1 X112.340 Y108.075
G1 X115.200 Y109.825
G1 E0.0000 F3600
G92 E0.0000
G1 X113.300 Y109.825 E0.0758 F1350
G1 X113.300 Y92.075 E0.7843
G1 X103.800 Y92.075 E1.1634
G1 X103.800 Y90.175 E1.2393
G1 X115.200 Y90.175 E1.6943
G1 X115.200 Y109.625 E2.4706
G1 X115.200 Y109.825 F1350
G1 X115.680 Y110.305 F18000
G92 E0.0000
G1 X103.320 Y110.305 E0.4933 F1350
G1 X103.320 Y109.695 E0.5177
G1 X112.820 Y109.695 E0.8968
G1 X112.820 Y92.555 E1.5809
G1 X103.320 Y92.555 E1.9601
G1 X103.320 Y89.695 E2.0742
G1 X115.680 Y89.695 E2.5675
G1 X115.680 Y110.105 E3.3822
G1 X115.680 Y110.305 F1350
; feature outer perimeter
G1 X116.160 Y110.785 F18000
G92 E0.0000
G1 X102.840 Y110.785 E0.5316 F900
G1 X102.840 Y109.215 E0.5943
G1 X112.340 Y109.215 E0.9735
G1 X112.340 Y93.035 E1.6192
G1 X102.840 Y93.035 E1.9984
G1 X102.840 Y89.215 E2.1509
G1 X116.160 Y89.215 E2.6825
G1 X116.160 Y110.585 E3.5354
G1 X116.160 Y110.785 F900
G1 X111.160 Y110.785 F900
; feature solid layer
G1 X114.217 Y109.465 F18000
G92 E0.0000
G1 X113.660 Y108.908 E0.0314 F1440
G1 X113.660 Y108.229 E0.0585
G1 X114.840 Y109.409 E0.1251
G1 X114.840 Y108.731 E0.1522
G1 X113.660 Y107.551 E0.2188
G1 X113.660 Y106.872 E0.2459
G1 X114.840 Y108.052 E0.3125
G1 X114.840 Y107.373 E0.3396
G1 X113.660 Y106.193 E0.4062
G1 X113.660 Y105.514 E0.4333
G1 X114.840 Y106.694 E0.4999
G1 X114.840 Y106.015 E0.5270
G1 X113.660 Y104.835 E0.5936
G1 X113.660 Y104.156 E0.6207
G1 X114.840 Y105.336 E0.6873
G1 X114.840 Y104.658 E0.7144
G1 X113.660 Y103.478 E0.7810
G1 X113.660 Y102.799 E0.8081
G1 X114.840 Y103.979 E0.8747
G1 X114.840 Y103.300 E0.9018
G1 X113.660 Y102.120 E0.9684
G1 X113.660 Y101.441 E0.9955
G1 X114.840 Y102.621 E1.0621
G1 X114.840 Y101.942 E1.0892
G1 X113.660 Y100.762 E1.1558
G1 X113.660 Y100.084 E1.1829
G1 X114.840 Y101.264 E1.2495
G1 X114.840 Y100.585 E1.2766
G1 X113.660 Y99.405 E1.3432
G1 X113.660 Y98.726 E1.3703
G1 X114.840 Y99.906 E1.4369
G1 X114.840 Y99.227 E1.4640
G1 X113.660 Y98.047 E1.5306
G1 X113.660 Y97.368 E1.5577
G1 X114.840 Y98.548 E1.6243
G1 X114.840 Y97.869 E1.6514
G1 X113.660 Y96.689 E1.7180
G1 X113.660 Y96.011 E1.7451
G1 X114.840 Y97.191 E1.8117
G1 X114.840 Y96.512 E1.8388
G1 X113.660 Y95.332 E1.9054
G1 X113.660 Y94.653 E1.9325
G1 X114.840 Y95.833 E1.9991
G1 X114.840 Y95.154 E2.0262
G1 X113.660 Y93.974 E2.0928
G1 X113.660 Y93.295 E2.1199
G1 X114.840 Y94.475 E2.1865
G1 X114.840 Y93.796 E2.2136
G1 X113.801 Y92.758 E2.2722
G1 X113.660 Y92.616 F1440
G1 X114.294 Y90.535 F18000
G92 E0.0000
G1 X114.840 Y91.081 E0.0308 F1440
G1 X114.840 Y91.760 E0.0579
G1 X113.615 Y90.535 E0.1271
G1 X112.936 Y90.535 E0.1542
G1 X114.840 Y92.439 E0.2616
G1 X114.840 Y93.118 E0.2887
G1 X113.660 Y91.938 E0.3553
G1 X113.660 Y91.715 E0.3642
G1 X113.437 Y91.715 E0.3731
G1 X112.257 Y90.535 E0.4397
G1 X111.579 Y90.535 E0.4668
G1 X112.759 Y91.715 E0.5334
G1 X112.080 Y91.715 E0.5605
G1 X110.900 Y90.535 E0.6271
G1 X110.221 Y90.535 E0.6542
G1 X111.401 Y91.715 E0.7208
G1 X110.722 Y91.715 E0.7479
G1 X109.542 Y90.535 E0.8145
G1 X108.863 Y90.535 E0.8416
G1 X110.043 Y91.715 E0.9082
G1 X109.364 Y91.715 E0.9353
G1 X108.184 Y90.535 E1.0019
G1 X107.506 Y90.535 E1.0290
G1 X108.686 Y91.715 E1.0956
G1 X108.007 Y91.715 E1.1227
G1 X106.827 Y90.535 E1.1893
G1 X106.148 Y90.535 E1.2164
G1 X107.328 Y91.715 E1.2830
G1 X106.649 Y91.715 E1.3101
G1 X105.469 Y90.535 E1.3767
G1 X104.790 Y90.535 E1.4038
G1 X105.970 Y91.715 E1.4704
G1 X105.291 Y91.715 E1.4975
G1 X104.160 Y90.584 E1.5613
G1 X104.160 Y91.262 E1.5884
G1 X104.471 Y91.574 E1.6060
G1 X104.613 Y91.715 F1440
; layer 2, Z = 0.400
M106 S89
M104 S225 T0
; feature inner perimeter
G1 Z0.400 F1200
G1 X105.384 Y93.035 F18000
G1 X112.340 Y93.035
G1 X112.340 Y104.933
G1 X115.200 Y109.825
G92 E0.0000
G1 X113.300 Y109.825 E0.0758 F2700
G1 X113.300 Y92.075 E0.7843
G1 X103.800 Y92.075 E1.1634
G1 X103.800 Y90.175 E1.2393
G1 X115.200 Y90.175 E1.6943
G1 X115.200 Y109.625 E2.4706
G1 X115.200 Y109.825 F2700
G1 X115.680 Y110.305 F18000
G92 E0.0000
G1 X103.320 Y110.305 E0.4933 F2700
G1 X103.320 Y109.695 E0.5177
G1 X112.820 Y109.695 E0.8968
G1 X112.820 Y92.555 E1.5809
G1 X103.320 Y92.555 E1.9601
G1 X103.320 Y89.695 E2.0742
G1 X115.680 Y89.695 E2.5675
G1 X115.680 Y110.105 E3.3822
G1 X115.680 Y110.305 F2700
; feature outer perimeter
G1 X116.160 Y110.785 F18000
G92 E0.0000
G1 X102.840 Y110.785 E0.5316 F1800
G1 X102.840 Y109.215 E0.5943
G1 X112.340 Y109.215 E0.9735
G1 X112.340 Y93.035 E1.6192
G1 X102.840 Y93.035 E1.9984
G1 X102.840 Y89.215 E2.1509
G1 X116.160 Y89.215 E2.6825
G1 X116.160 Y110.585 E3.5354
G1 X116.160 Y110.785 F1800
G1 X111.160 Y110.785 F1800
; feature solid layer
G1 X114.840 Y108.919 F18000
G92 E0.0000
G1 X114.294 Y109.465 E0.0308 F2880
G1 X113.660 Y109.465 E0.0561
G1 X113.660 Y109.420 E0.0579
G1 X114.840 Y108.240 E0.1245
