; G-Code generated by Simplify3D(R) Version 4.1.2
; Apr 26, 2020 at 12:31:26 AM
; Settings Summary
;   processName,First Layer
;   applyToModels,top,bottom
;   profileName,HBot - First Layer (modified)
;   profileVersion,2019-10-26 23:38:43
;   baseProfile,Default
;   printMaterial,PETG - ERYONE
;   printQuality,High
;   printExtruders,
;   extruderName,Extruder 1
;   extruderToolheadNumber,0
;   extruderDiameter,0.4
;   extruderAutoWidth,1
;   extruderWidth,0.48
;   extrusionMultiplier,0.98
;   extruderUseRetract,1
;   extruderRetractionDistance,3
;   extruderExtraRestartDistance,0
;   extruderRetractionZLift,0
;   extruderRetractionSpeed,1500
;   extruderUseCoasting,0
;   extruderCoastingDistance,0.2
;   extruderUseWipe,0
;   extruderWipeDistance,5
;   primaryExtruder,0
;   layerHeight,0.1
;   topSolidLayers,4
;   bottomSolidLayers,4
;   perimeterOutlines,3
;   printPerimetersInsideOut,1
;   startPointOption,3
;   startPointOriginX,200
;   startPointOriginY,100
;   sequentialIslands,0
;   spiralVaseMode,0
;   firstLayerHeightPercentage,100
;   firstLayerWidthPercentage,150
;   firstLayerUnderspeed,1
;   useRaft,0
;   raftExtruder,0
;   raftTopLayers,3
;   raftBaseLayers,2
;   raftOffset,3
;   raftSeparationDistance,0.18
;   raftTopInfill,100
;   aboveRaftSpeedMultiplier,0.3
;   useSkirt,1
;   skirtExtruder,0
;   skirtLayers,1
;   skirtOutlines,3
;   skirtOffset,10
;   usePrimePillar,0
;   primePillarExtruder,999
;   primePillarWidth,12
;   primePillarLocation,7
;   primePillarSpeedMultiplier,1
;   useOozeShield,0
;   oozeShieldExtruder,999
;   oozeShieldOffset,2
;   oozeShieldOutlines,1
;   oozeShieldSidewallShape,1
;   oozeShieldSidewallAngle,30
;   oozeShieldSpeedMultiplier,1
;   infillExtruder,0
;   internalInfillPattern,Rectilinear
;   externalInfillPattern,Rectilinear
;   infillPercentage,30
;   outlineOverlapPercentage,25
;   infillExtrusionWidthPercentage,150
;   minInfillLength,5
;   infillLayerInterval,1
;   internalInfillAngles,45,-45
;   overlapInternalInfillAngles,0
;   externalInfillAngles,45,-45
;   generateSupport,1
;   supportExtruder,0
;   supportInfillPercentage,40
;   supportExtraInflation,0
;   supportBaseLayers,1
;   denseSupportExtruder,0
;   denseSupportLayers,0
;   denseSupportInfillPercentage,70
;   supportLayerInterval,1
;   supportHorizontalPartOffset,0.3
;   supportUpperSeparationLayers,1
;   supportLowerSeparationLayers,1
;   supportType,0
;   supportGridSpacing,4
;   maxOverhangAngle,25
;   supportAngles,0
;   temperatureName,Extruder 1,Heated Bed
;   temperatureNumber,0,1
;   temperatureSetpointCount,1,1
;   temperatureSetpointLayers,1,1
;   temperatureSetpointTemperatures,230,75
;   temperatureStabilizeAtStartup,1,1
;   temperatureHeatedBed,0,1
;   fanLayers,1
;   fanSpeeds,0
;   blipFanToFullPower,1
;   adjustSpeedForCooling,1
;   minSpeedLayerTime,15
;   minCoolingSpeedSlowdown,20
;   increaseFanForCooling,1
;   minFanLayerTime,45
;   maxCoolingFanSpeed,35
;   increaseFanForBridging,1
;   bridgingFanSpeed,80
;   use5D,1
;   relativeEdistances,0
;   allowEaxisZeroing,1
;   independentExtruderAxes,0
;   includeM10123,0
;   stickySupport,1
;   applyToolheadOffsets,0
;   gcodeXoffset,0
;   gcodeYoffset,0
;   gcodeZoffset,0
;   overrideMachineDefinition,1
;   machineTypeOverride,0
;   strokeXoverride,200
;   strokeYoverride,200
;   strokeZoverride,150
;   originOffsetXoverride,0
;   originOffsetYoverride,0
;   originOffsetZoverride,0
;   homeXdirOverride,-1
;   homeYdirOverride,-1
;   homeZdirOverride,-1
;   flipXoverride,1
;   flipYoverride,-1
;   flipZoverride,1
;   toolheadOffsets,0,0|0,0|0,0|0,0|0,0|0,0
;   overrideFirmwareConfiguration,1
;   firmwareTypeOverride,RepRap (Marlin/Repetier/Sprinter)
;   GPXconfigOverride,r2
;   baudRateOverride,115200
;   overridePrinterModels,0
;   printerModelsOverride
;   startingGcode,G28 ; home all axes,G32 ; run bed.g -- probe bed and enable compensation
;   layerChangeGcode,
;   retractionGcode,
;   toolChangeGcode,
;   endingGcode,M0 ; call stop.g
;   exportFileFormat,gcode
;   celebration,0
;   celebrationSong,Random Song
;   postProcessing,
;   defaultSpeed,1800
;   outlineUnderspeed,0.5
;   solidInfillUnderspeed,0.8
;   supportUnderspeed,0.8
;   rapidXYspeed,3600
;   rapidZspeed,1200
;   minBridgingArea,50
;   bridgingExtraInflation,0
;   bridgingExtrusionMultiplier,0.96
;   bridgingSpeedMultiplier,1
;   useFixedBridgingAngle,0
;   fixedBridgingAngle,0
;   applyBridgingToPerimeters,0
;   filamentDiameters,1.75|1.75|1.75|1.75|1.75|1.75
;   filamentPricesPerKg,46|46|46|46|46|46
;   filamentDensities,1.25|1.25|1.25|1.25|1.25|1.25
;   useMinPrintHeight,0
;   minPrintHeight,0
;   useMaxPrintHeight,1
;   maxPrintHeight,0.1
;   useDiaphragm,0
;   diaphragmLayerInterval,20
;   robustSlicing,1
;   mergeAllIntoSolid,0
;   onlyRetractWhenCrossingOutline,1
;   retractBetweenLayers,0
;   useRetractionMinTravel,1
;   retractionMinTravel,3
;   retractWhileWiping,1
;   onlyWipeOutlines,1
;   avoidCrossingOutline,1
;   maxMovementDetourFactor,5
;   toolChangeRetractionDistance,12
;   toolChangeExtraRestartDistance,-0.5
;   toolChangeRetractionSpeed,600
;   externalThinWallType,1
;   internalThinWallType,2
;   thinWallAllowedOverlapPercentage,10
;   singleExtrusionMinLength,1
;   singleExtrusionMinPrintingWidthPercentage,50
;   singleExtrusionMaxPrintingWidthPercentage,200
;   singleExtrusionEndpointExtension,0.2
;   horizontalSizeCompensation,-0.1
G90
M82
M106 S0
M140 S75
M190 S75
M104 S230 T0
M109 S230 T0
G28 ; home all axes
G32 ; run bed.g -- probe bed and enable compensation
; process First Layer
; layer 1, Z = 0.100
T0
G92 E0.0000
G1 E-3.0000 F1500
; feature skirt
; tool H0.100 W0.720
G1 Z0.100 F1200
G1 X137.275 Y120.638 F3600
G1 E0.0000 F1500
G92 E0.0000
G1 X130.363 Y127.550 E0.2868 F1800
G1 X108.379 Y127.550 E0.9317
G1 X103.564 Y129.527 E1.0844
G1 X101.660 Y127.600 E1.1638
G1 X76.121 Y127.600 E1.9130
G1 X71.755 Y125.775 E2.0518
G1 X64.543 Y118.474 E2.3529
G1 X62.775 Y114.167 E2.4895
G1 X62.775 Y79.312 E3.5120
G1 X69.687 Y72.400 E3.7987
G1 X98.587 Y72.400 E4.6465
G1 X98.637 Y72.350 E4.6486
G1 X130.363 Y72.350 E5.5793
G1 X137.275 Y79.262 E5.8660
G1 X137.275 Y120.638 E7.0798
G1 X136.555 Y120.339 F3600
G92 E0.0000
G1 X130.064 Y126.830 E0.2693 F1800
G1 X108.236 Y126.830 E0.9096
G1 X103.737 Y128.678 E1.0523
G1 X101.961 Y126.880 E1.1264
G1 X76.266 Y126.880 E1.8802
G1 X72.166 Y125.167 E2.0106
G1 X65.156 Y118.069 E2.3032
G1 X63.495 Y114.024 E2.4315
G1 X63.495 Y79.611 E3.4410
G1 X69.986 Y73.120 E3.7103
G1 X98.886 Y73.120 E4.5581
G1 X98.936 Y73.070 E4.5602
G1 X130.064 Y73.070 E5.4733
G1 X136.555 Y79.561 E5.7426
G1 X136.555 Y120.339 E6.9389
G1 X135.835 Y120.041 F3600
G92 E0.0000
G1 X129.766 Y126.110 E0.2518 F1800
G1 X108.094 Y126.110 E0.8875
G1 X103.910 Y127.828 E1.0202
G1 X102.262 Y126.160 E1.0890
G1 X76.410 Y126.160 E1.8474
G1 X72.577 Y124.558 E1.9693
G1 X65.768 Y117.664 E2.2535
G1 X64.215 Y113.882 E2.3734
G1 X64.215 Y79.909 E3.3701
G1 X70.284 Y73.840 E3.6218
G1 X99.184 Y73.840 E4.4696
G1 X99.234 Y73.790 E4.4717
G1 X129.766 Y73.790 E5.3674
G1 X135.835 Y79.859 E5.6192
G1 X135.835 Y120.041 E6.7979
G92 E0.0000
G1 E-3.0000 F1500
; feature inner perimeter
G1 X125.115 Y109.390 F3600
G1 X121.710 Y109.390
G1 X96.475 Y90.361
G1 E0.0000 F1500
G92 E0.0000
G1 X95.579 Y89.966 E0.0287 F1350
G1 X95.088 Y89.817 E0.0438
G1 X94.600 Y89.722 E0.0584
G1 X94.093 Y89.671 E0.0733
G1 X93.453 Y89.671 E0.0921
G1 X92.947 Y89.722 E0.1070
G1 X92.458 Y89.817 E0.1216
G1 X91.984 Y89.961 E0.1362
G1 X91.511 Y90.160 E0.1512
G1 X90.951 Y90.487 E0.1702
G1 X90.243 Y91.075 E0.1972
G1 X89.582 Y90.597 E0.2211
G1 X89.152 Y90.350 E0.2357
G1 X88.555 Y90.081 E0.2549
G1 X88.090 Y89.924 E0.2693
G1 X87.610 Y89.804 E0.2838
G1 X86.918 Y89.698 E0.3044
G1 X86.184 Y89.663 E0.3259
G1 X85.377 Y89.707 E0.3496
G1 X84.585 Y89.846 E0.3732
G1 X83.914 Y90.055 E0.3938
G1 X83.914 Y89.749 E0.4028
G1 X79.081 Y89.752 E0.5446
G1 X78.586 Y89.784 E0.5591
G1 X78.197 Y89.838 E0.5707
G1 X77.553 Y89.992 E0.5901
G1 X76.915 Y90.243 E0.6102
G1 X76.375 Y90.559 E0.6285
G1 X76.375 Y86.000 E0.7623
G1 X96.475 Y86.000 E1.3519
G1 X96.475 Y90.361 E1.4799
G1 X96.318 Y92.205 F3600
G1 X96.373 Y92.271
G1 X96.544 Y92.552
G1 X96.674 Y92.849
G1 X96.741 Y93.067
G1 X96.788 Y93.292
G1 X96.821 Y93.626
G1 X96.819 Y93.915
G1 X96.783 Y94.243
G1 X96.661 Y94.690
G1 X96.453 Y95.092
G1 X96.259 Y95.341
G1 X96.033 Y95.558
G1 X96.015 Y95.815
G1 X96.256 Y96.148
G1 X96.426 Y96.519
G1 X96.526 Y96.919
G1 X96.559 Y97.345
G1 X96.526 Y97.746
G1 X96.458 Y98.040
G1 X96.388 Y98.239
G1 X96.260 Y98.505
G1 X96.099 Y98.755
G1 X95.908 Y98.983
G1 X95.728 Y99.149
G1 X95.575 Y100.943
G92 E0.0000
G1 X95.575 Y106.950 E0.1762 F1350
G1 X96.475 Y106.950 E0.2026
G1 X96.475 Y114.000 E0.4094
G1 X79.240 Y114.000 E0.9150
G1 X76.375 Y111.099 E1.0346
G1 X76.375 Y107.800 E1.1314
G1 X77.225 Y107.800 E1.1564
G1 X77.225 Y102.650 E1.3074
G1 X76.375 Y102.650 E1.3324
G1 X76.375 Y100.372 E1.3992
G1 X77.191 Y100.758 E1.4257
G1 X77.662 Y100.928 E1.4404
G1 X78.293 Y101.075 E1.4594
G1 X78.822 Y101.142 E1.4750
G1 X79.340 Y101.169 E1.4902
G1 X83.914 Y101.171 E1.6244
G1 X83.914 Y100.842 E1.6341
G1 X84.801 Y101.092 E1.6611
G1 X85.361 Y101.195 E1.6778
G1 X85.946 Y101.248 E1.6950
G1 X86.541 Y101.253 E1.7125
G1 X87.041 Y101.220 E1.7272
G1 X87.708 Y101.116 E1.7470
G1 X88.201 Y100.990 E1.7619
G1 X88.819 Y100.763 E1.7812
G1 X89.263 Y100.549 E1.7957
G1 X89.808 Y100.213 E1.8144
G1 X90.404 Y99.752 E1.8366
G1 X90.595 Y99.979 E1.8453
G1 X90.933 Y100.291 E1.8588
G1 X91.249 Y100.528 E1.8703
G1 X91.858 Y100.865 E1.8908
G1 X92.323 Y101.039 E1.9053
G1 X92.700 Y101.143 E1.9168
G1 X93.418 Y101.247 E1.9381
G1 X93.935 Y101.254 E1.9533
G1 X94.417 Y101.217 E1.9674
G1 X94.878 Y101.134 E1.9812
G1 X95.575 Y100.943 E2.0024
G1 X95.021 Y100.348 F3600
G92 E0.0000
G1 X95.603 Y100.106 E0.0185 F1350
G1 X95.752 Y100.008 E0.0237
G1 X96.125 Y99.762 E0.0368
G1 X96.429 Y99.481 E0.0490
G1 X97.195 Y98.572 E0.0839
G1 X97.195 Y100.470 E0.1395
G1 X96.295 Y100.470 E0.1659
G1 X96.295 Y106.230 E0.3349
G1 X97.195 Y106.230 E0.3613
G1 X97.195 Y114.720 E0.6104
G1 X78.939 Y114.720 E1.1459
G1 X75.655 Y111.395 E1.2830
G1 X75.655 Y107.080 E1.4096
G1 X76.505 Y107.080 E1.4345
G1 X76.505 Y103.370 E1.5434
G1 X75.655 Y103.370 E1.5683
G1 X75.655 Y99.123 E1.6929
G1 X76.110 Y98.981 E1.7069
G1 X76.248 Y99.181 E1.7140
G1 X76.508 Y99.469 E1.7254
G1 X76.751 Y99.680 E1.7348
G1 X77.179 Y99.956 E1.7498
G1 X77.468 Y100.093 E1.7592
G1 X77.866 Y100.237 E1.7716
G1 X78.420 Y100.366 E1.7883
G1 X78.886 Y100.424 E1.8020
G1 X79.359 Y100.449 E1.8159
G1 X83.194 Y100.451 E1.9284
G1 X83.194 Y99.650 E1.9519
G1 X84.058 Y100.087 E1.9803
G1 X84.497 Y100.258 E1.9941
G1 X84.964 Y100.390 E2.0084
G1 X85.459 Y100.481 E2.0231
G1 X85.982 Y100.528 E2.0385
G1 X86.520 Y100.532 E2.0543
G1 X86.962 Y100.503 E2.0673
G1 X87.563 Y100.410 E2.0852
G1 X87.987 Y100.302 E2.0980
G1 X88.537 Y100.100 E2.1152
G1 X88.916 Y99.916 E2.1275
G1 X89.397 Y99.620 E2.1441
G1 X89.727 Y99.365 E2.1563
G1 X90.131 Y98.976 E2.1728
G1 X90.471 Y98.570 E2.1883
G1 X90.867 Y99.184 E2.2098
G1 X91.117 Y99.481 E2.2212
G1 X91.395 Y99.737 E2.2323
G1 X91.641 Y99.922 E2.2413
G1 X92.161 Y100.209 E2.2587
G1 X92.545 Y100.354 E2.2708
G1 X92.848 Y100.437 E2.2800
G1 X93.475 Y100.527 E2.2986
G1 X93.913 Y100.534 E2.3114
G1 X94.325 Y100.502 E2.3235
G1 X94.718 Y100.431 E2.3353
G1 X95.021 Y100.348 E2.3445
; feature outer perimeter
G1 X97.015 Y101.190 F3600
G92 E0.0000
G1 X97.015 Y105.510 E0.1267 F900
G1 X97.915 Y105.510 E0.1531
G1 X97.915 Y115.440 E0.4444
G1 X78.638 Y115.440 E1.0099
G1 X74.935 Y111.691 E1.1645
G1 X74.935 Y106.360 E1.3209
G1 X75.785 Y106.360 E1.3458
G1 X75.785 Y104.090 E1.4124
G1 X74.935 Y104.090 E1.4374
G1 X74.935 Y84.560 E2.0103
G1 X97.915 Y84.560 E2.6844
G1 X97.915 Y101.190 E3.1723
G1 X97.015 Y101.190 E3.1987
; feature inner perimeter
G1 X97.195 Y92.127 F3600
G92 E0.0000
G1 X96.616 Y91.443 E0.0263 F1350
G1 X96.282 Y91.153 E0.0393
G1 X95.827 Y90.862 E0.0551
G1 X95.329 Y90.642 E0.0711
G1 X94.914 Y90.517 E0.0838
G1 X94.495 Y90.435 E0.0963
G1 X94.057 Y90.391 E0.1092
G1 X93.489 Y90.391 E0.1259
G1 X93.052 Y90.435 E0.1388
G1 X92.632 Y90.517 E0.1513
G1 X92.228 Y90.639 E0.1637
G1 X91.833 Y90.805 E0.1763
G1 X91.366 Y91.079 E0.1922
G1 X90.938 Y91.433 E0.2085
G1 X90.587 Y91.849 E0.2244
G1 X90.370 Y92.206 E0.2367
G1 X89.663 Y91.544 E0.2651
G1 X89.191 Y91.203 E0.2822
G1 X88.824 Y90.992 E0.2946
G1 X88.291 Y90.752 E0.3117
G1 X87.887 Y90.615 E0.3243
G1 X87.468 Y90.510 E0.3369
G1 X86.846 Y90.415 E0.3554
G1 X86.186 Y90.384 E0.3748
G1 X85.459 Y90.423 E0.3961
G1 X84.755 Y90.547 E0.4171
G1 X84.085 Y90.756 E0.4377
G1 X83.194 Y91.168 E0.4665
G1 X83.194 Y90.469 E0.4870
G1 X79.105 Y90.472 E0.6069
G1 X78.659 Y90.501 E0.6200
G1 X78.331 Y90.546 E0.6298
G1 X77.769 Y90.681 E0.6467
G1 X77.230 Y90.893 E0.6637
G1 X76.759 Y91.168 E0.6797
G1 X76.493 Y91.373 E0.6896
G1 X75.655 Y92.216 E0.7244
G1 X75.655 Y85.280 E0.9279
G1 X97.195 Y85.280 E1.5598
G1 X97.195 Y92.127 E1.7606
G92 E0.0000
G1 E-3.0000 F1500
G1 X96.417 Y92.343 F3600
G1 X96.373 Y92.271
G1 X96.103 Y91.951
G1 X95.850 Y91.732
G1 X95.486 Y91.499
G1 X95.078 Y91.319
G1 X94.740 Y91.217
G1 X94.390 Y91.148
G1 X94.021 Y91.111
G1 X93.525 Y91.111
G1 X93.157 Y91.148
G1 X92.806 Y91.217
G1 X92.472 Y91.318
G1 X92.156 Y91.451
G1 X91.780 Y91.670
G1 X91.447 Y91.947
G1 X91.173 Y92.271
G1 X91.002 Y92.552
G1 X90.872 Y92.849
G1 X90.804 Y93.072
G1 X90.743 Y93.400
G1 X90.723 Y93.745
G1 X90.732 Y93.923
G1 X87.801 Y94.737
G1 E0.0000 F1500
G92 E0.0000
G1 X87.857 Y94.995 E0.0077 F1350
G1 X87.878 Y95.162 E0.0127
G1 X87.889 Y95.349 E0.0182
G1 X87.885 Y95.651 E0.0270
G1 X87.856 Y95.920 E0.0350
G1 X87.828 Y96.065 E0.0393
G1 X87.793 Y96.196 E0.0433
G1 X87.641 Y96.600 E0.0559
G1 X87.109 Y96.505 E0.0718
G1 X87.101 Y94.391 E0.1338
G1 X87.620 Y94.283 E0.1493
G1 X87.763 Y94.618 E0.1600
G1 X87.801 Y94.737 E0.1637
G1 X86.829 Y96.539 F3600
G92 E0.0000
G1 X86.866 Y97.148 E0.0179 F1350
G1 X86.504 Y97.192 E0.0286
G1 X86.277 Y97.197 E0.0352
G1 X86.065 Y97.187 E0.0415
G1 X85.747 Y97.141 E0.0509
G1 X85.790 Y96.539 E0.0686
G1 X86.829 Y96.539 E0.0991
G92 E0.0000
G1 E-3.0000 F1500
; feature outer perimeter
G1 X90.618 Y96.267 F3600
G1 E0.0000 F1500
G92 E0.0000
G1 X90.657 Y96.012 E0.0075 F900
G1 X90.725 Y94.620 E0.0485
G1 X91.287 Y95.341 E0.0753
G1 X91.649 Y95.688 E0.0900
G1 X91.368 Y96.026 E0.1029
G1 X91.124 Y96.445 E0.1171
G1 X90.618 Y96.267 E0.1328
G1 X90.576 Y96.537 F3600
G1 X90.489 Y96.884
G1 X90.461 Y96.962
G92 E0.0000
G1 X91.001 Y97.059 E0.0161 F900
G1 X90.995 Y97.537 E0.0301
G1 X91.022 Y97.755 E0.0366
G1 X91.089 Y98.040 E0.0451
G1 X91.159 Y98.239 E0.0513
G1 X91.286 Y98.505 E0.0600
G1 X91.447 Y98.755 E0.0687
G1 X91.639 Y98.983 E0.0774
G1 X91.856 Y99.183 E0.0861
G1 X92.032 Y99.316 E0.0926
G1 X92.463 Y99.554 E0.1070
G1 X92.768 Y99.668 E0.1166
G1 X92.995 Y99.731 E0.1235
G1 X93.532 Y99.808 E0.1394
G1 X93.891 Y99.814 E0.1499
G1 X94.233 Y99.787 E0.1600
G1 X94.559 Y99.729 E0.1697
G1 X94.786 Y99.666 E0.1766
G1 X95.264 Y99.467 E0.1918
G1 X95.680 Y99.193 E0.2064
G1 X95.908 Y98.983 E0.2155
G1 X96.099 Y98.755 E0.2242
G1 X96.260 Y98.505 E0.2330
G1 X96.388 Y98.239 E0.2416
G1 X96.458 Y98.040 E0.2478
G1 X96.526 Y97.746 E0.2567
G1 X96.559 Y97.345 E0.2685
G1 X96.526 Y96.919 E0.2810
G1 X96.426 Y96.519 E0.2931
G1 X96.256 Y96.148 E0.3051
G1 X95.913 Y95.673 E0.3222
G1 X96.259 Y95.341 E0.3363
G1 X96.453 Y95.092 E0.3456
G1 X96.661 Y94.690 E0.3589
G1 X96.783 Y94.243 E0.3725
G1 X96.819 Y93.915 E0.3821
G1 X96.821 Y93.626 E0.3906
G1 X96.788 Y93.292 E0.4004
G1 X96.741 Y93.067 E0.4072
G1 X96.674 Y92.849 E0.4139
G1 X96.544 Y92.552 E0.4234
G1 X96.373 Y92.271 E0.4330
G1 X96.103 Y91.951 E0.4453
G1 X95.850 Y91.732 E0.4552
G1 X95.486 Y91.499 E0.4678
G1 X95.078 Y91.319 E0.4809
G1 X94.740 Y91.217 E0.4913
G1 X94.390 Y91.148 E0.5017
G1 X94.021 Y91.111 E0.5126
G1 X93.525 Y91.111 E0.5272
G1 X93.157 Y91.148 E0.5380
G1 X92.806 Y91.217 E0.5485
G1 X92.472 Y91.318 E0.5587
G1 X92.156 Y91.451 E0.5688
G1 X91.780 Y91.670 E0.5816
G1 X91.447 Y91.947 E0.5943
G1 X91.173 Y92.271 E0.6067
G1 X91.002 Y92.552 E0.6164
G1 X90.872 Y92.849 E0.6259
G1 X90.804 Y93.072 E0.6327
