; G-Code generated by Simplify3D(R) Version 4.1.2
; Apr 26, 2020 at 1:13:54 AM
; Settings Summary
;   processName,Process2
;   applyToModels,top-v2
;   profileName,HBot (modified)
;   profileVersion,2019-10-26 23:38:43
;   baseProfile,Default
;   printMaterial,PETG - ERYONE
;   printQuality,Medium
;   printExtruders,
;   extruderName,Extruder 1
;   extruderToolheadNumber,0
;   extruderDiameter,0.4
;   extruderAutoWidth,1
;   extruderWidth,0.48
;   extrusionMultiplier,0.98
;   extruderUseRetract,1
;   extruderRetractionDistance,3
;   extruderExtraRestartDistance,-0.1
;   extruderRetractionZLift,0.2
;   extruderRetractionSpeed,3600
;   extruderUseCoasting,1
;   extruderCoastingDistance,0.2
;   extruderUseWipe,1
;   extruderWipeDistance,5
;   primaryExtruder,0
;   layerHeight,0.2
;   topSolidLayers,3
;   bottomSolidLayers,3
;   perimeterOutlines,3
;   printPerimetersInsideOut,1
;   startPointOption,3
;   startPointOriginX,200
;   startPointOriginY,100
;   sequentialIslands,0
;   spiralVaseMode,0
;   firstLayerHeightPercentage,100
;   firstLayerWidthPercentage,150
;   firstLayerUnderspeed,0.5
;   useRaft,0
;   raftExtruder,0
;   raftTopLayers,3
;   raftBaseLayers,2
;   raftOffset,3
;   raftSeparationDistance,0.18
;   raftTopInfill,100
;   aboveRaftSpeedMultiplier,0.3
;   useSkirt,1
;   skirtExtruder,0
;   skirtLayers,1
;   skirtOutlines,4
;   skirtOffset,5
;   usePrimePillar,0
;   primePillarExtruder,999
;   primePillarWidth,12
;   primePillarLocation,7
;   primePillarSpeedMultiplier,1
;   useOozeShield,0
;   oozeShieldExtruder,999
;   oozeShieldOffset,2
;   oozeShieldOutlines,1
;   oozeShieldSidewallShape,1
;   oozeShieldSidewallAngle,30
;   oozeShieldSpeedMultiplier,1
;   infillExtruder,0
;   internalInfillPattern,Rectilinear
;   externalInfillPattern,Rectilinear
;   infillPercentage,20
;   outlineOverlapPercentage,25
;   infillExtrusionWidthPercentage,150
;   minInfillLength,5
;   infillLayerInterval,1
;   internalInfillAngles,45,-45
;   overlapInternalInfillAngles,0
;   externalInfillAngles,45,-45
;   generateSupport,0
;   supportExtruder,0
;   supportInfillPercentage,30
;   supportExtraInflation,0
;   supportBaseLayers,1
;   denseSupportExtruder,0
;   denseSupportLayers,0
;   denseSupportInfillPercentage,70
;   supportLayerInterval,1
;   supportHorizontalPartOffset,0.3
;   supportUpperSeparationLayers,1
;   supportLowerSeparationLayers,1
;   supportType,0
;   supportGridSpacing,4
;   maxOverhangAngle,25
;   supportAngles,0
;   temperatureName,Extruder 1,Heated Bed
;   temperatureNumber,0,1
;   temperatureSetpointCount,1,1
;   temperatureSetpointLayers,1,1
;   temperatureSetpointTemperatures,230,75
;   temperatureStabilizeAtStartup,1,1
;   temperatureHeatedBed,0,1
;   fanLayers,1,2
;   fanSpeeds,0,20
;   blipFanToFullPower,1
;   adjustSpeedForCooling,1
;   minSpeedLayerTime,15
;   minCoolingSpeedSlowdown,20
;   increaseFanForCooling,1
;   minFanLayerTime,45
;   maxCoolingFanSpeed,35
;   increaseFanForBridging,1
;   bridgingFanSpeed,80
;   use5D,1
;   relativeEdistances,0
;   allowEaxisZeroing,1
;   independentExtruderAxes,0
;   includeM10123,0
;   stickySupport,1
;   applyToolheadOffsets,0
;   gcodeXoffset,0
;   gcodeYoffset,0
;   gcodeZoffset,0
;   overrideMachineDefinition,1
;   machineTypeOverride,0
;   strokeXoverride,200
;   strokeYoverride,200
;   strokeZoverride,150
;   originOffsetXoverride,0
;   originOffsetYoverride,0
;   originOffsetZoverride,0
;   homeXdirOverride,-1
;   homeYdirOverride,-1
;   homeZdirOverride,-1
;   flipXoverride,1
;   flipYoverride,-1
;   flipZoverride,1
;   toolheadOffsets,0,0|0,0|0,0|0,0|0,0|0,0
;   overrideFirmwareConfiguration,1
;   firmwareTypeOverride,RepRap (Marlin/Repetier/Sprinter)
;   GPXconfigOverride,r2
;   baudRateOverride,115200
;   overridePrinterModels,0
;   printerModelsOverride
;   startingGcode,G28 ; home all axes,G32 ; run bed.g -- probe bed and enable compensation
;   layerChangeGcode,
;   retractionGcode,
;   toolChangeGcode,
;   endingGcode,M0 ; call stop.g
;   exportFileFormat,gcode
;   celebration,0
;   celebrationSong,Random Song
;   postProcessing,
;   defaultSpeed,3600
;   outlineUnderspeed,0.5
;   solidInfillUnderspeed,0.8
;   supportUnderspeed,0.8
;   rapidXYspeed,18000
;   rapidZspeed,1200
;   minBridgingArea,50
;   bridgingExtraInflation,0
;   bridgingExtrusionMultiplier,0.96
;   bridgingSpeedMultiplier,1
;   useFixedBridgingAngle,0
;   fixedBridgingAngle,0
;   applyBridgingToPerimeters,0
;   filamentDiameters,1.75|1.75|1.75|1.75|1.75|1.75
;   filamentPricesPerKg,46|46|46|46|46|46
;   filamentDensities,1.25|1.25|1.25|1.25|1.25|1.25
;   useMinPrintHeight,0
;   minPrintHeight,0.1
;   useMaxPrintHeight,0
;   maxPrintHeight,0
;   useDiaphragm,0
;   diaphragmLayerInterval,20
;   robustSlicing,1
;   mergeAllIntoSolid,0
;   onlyRetractWhenCrossingOutline,1
;   retractBetweenLayers,0
;   useRetractionMinTravel,1
;   retractionMinTravel,3
;   retractWhileWiping,1
;   onlyWipeOutlines,1
;   avoidCrossingOutline,1
;   maxMovementDetourFactor,5
;   toolChangeRetractionDistance,12
;   toolChangeExtraRestartDistance,-0.5
;   toolChangeRetractionSpeed,600
;   externalThinWallType,1
;   internalThinWallType,2
;   thinWallAllowedOverlapPercentage,10
;   singleExtrusionMinLength,1
;   singleExtrusionMinPrintingWidthPercentage,50
;   singleExtrusionMaxPrintingWidthPercentage,150
;   singleExtrusionEndpointExtension,0.2
;   horizontalSizeCompensation,-0.1
G90
M82
M106 S0
M140 S75
M190 S75
M104 S230 T0
M109 S230 T0
G28 ; home all axes
G32 ; run bed.g -- probe bed and enable compensation
; process Process2
; layer 1, Z = 0.200
T0
G92 E0.0000
G1 E-3.0000 F3600
; feature skirt
; tool H0.200 W0.720
G1 Z0.200 F1200
G1 X119.420 Y118.965 F18000
G1 E-0.1000 F3600
G92 E0.0000
G1 X115.015 Y123.370 E0.3655 F1800
G1 X90.534 Y123.370 E1.8018
G1 X87.751 Y122.207 E1.9788
G1 X81.707 Y116.088 E2.4834
G1 X80.580 Y113.343 E2.6575
G1 X80.580 Y81.035 E4.5530
G1 X84.985 Y76.630 E4.9185
G1 X115.015 Y76.630 E6.6804
G1 X119.420 Y81.035 E7.0459
G1 X119.420 Y118.965 E9.2713
G1 X118.700 Y118.667 F18000
G92 E0.0000
G1 X114.717 Y122.650 E0.3305 F1800
G1 X90.678 Y122.650 E1.7409
G1 X88.162 Y121.599 E1.9009
G1 X82.319 Y115.683 E2.3887
G1 X81.300 Y113.201 E2.5461
G1 X81.300 Y81.333 E4.4158
G1 X85.283 Y77.350 E4.7463
G1 X114.717 Y77.350 E6.4732
G1 X118.700 Y81.333 E6.8037
G1 X118.700 Y118.667 E8.9941
G1 X117.980 Y118.368 F18000
G92 E0.0000
G1 X114.418 Y121.930 E0.2955 F1800
G1 X90.823 Y121.930 E1.6799
G1 X88.573 Y120.990 E1.8230
G1 X82.931 Y115.278 E2.2940
G1 X82.020 Y113.059 E2.4348
G1 X82.020 Y81.632 E4.2786
G1 X85.582 Y78.070 E4.5741
G1 X114.418 Y78.070 E6.2660
G1 X117.980 Y81.632 E6.5615
G1 X117.980 Y118.368 E8.7169
G1 X117.260 Y118.070 F18000
G92 E0.0000
G1 X114.120 Y121.210 E0.2605 F1800
G1 X90.967 Y121.210 E1.6189
G1 X88.984 Y120.381 E1.7451
G1 X83.543 Y114.873 E2.1993
G1 X82.740 Y112.916 E2.3234
G1 X82.740 Y81.930 E4.1414
G1 X85.880 Y78.790 E4.4019
G1 X114.120 Y78.790 E6.0588
G1 X117.260 Y81.930 E6.3193
G1 X117.260 Y118.070 E8.4397
G92 E0.0000
G1 E-3.0000 F3600
; feature inner perimeter
G1 Z0.400 F1200
G1 X111.540 Y115.490 F18000
G1 X111.540 Y105.510
G1 X110.590 Y105.510
G1 X110.590 Y101.190
G1 X110.663 Y101.190
G1 X110.100 Y99.750
G1 Z0.200 F1200
G1 E-0.1000 F3600
G92 E0.0000
G1 X109.150 Y99.750 E0.0557 F1350
G1 X109.150 Y106.950 E0.4782
G1 X110.100 Y106.950 E0.5339
G1 X110.100 Y114.050 E0.9505
G1 X92.794 Y114.050 E1.9658
G1 X89.900 Y111.120 E2.2075
G1 X89.900 Y107.800 E2.4022
G1 X90.800 Y107.800 E2.4550
G1 X90.800 Y102.650 E2.7572
G1 X89.900 Y102.650 E2.8100
G1 X89.900 Y85.950 E3.7898
G1 X110.100 Y85.950 E4.9750
G1 X110.100 Y99.550 E5.7729
G1 X110.100 Y99.750 F1350
G1 X109.870 Y100.470 F18000
G92 E0.0000
G1 X109.870 Y106.230 E0.3379 F1350
G1 X110.820 Y106.230 E0.3937
G1 X110.820 Y114.770 E0.8947
G1 X92.493 Y114.770 E1.9700
G1 X89.180 Y111.416 E2.2466
G1 X89.180 Y107.080 E2.5010
G1 X90.080 Y107.080 E2.5538
G1 X90.080 Y103.370 E2.7714
G1 X89.180 Y103.370 E2.8243
G1 X89.180 Y85.230 E3.8885
G1 X110.820 Y85.230 E5.1582
G1 X110.820 Y100.470 E6.0523
G1 X110.070 Y100.470 E6.0963
G1 X109.870 Y100.470 F1350
; feature outer perimeter
G1 X110.590 Y101.190 F18000
G92 E0.0000
G1 X110.590 Y105.510 E0.2535 F900
G1 X111.540 Y105.510 E0.3092
G1 X111.540 Y115.490 E0.8947
G1 X92.192 Y115.490 E2.0299
G1 X88.460 Y111.711 E2.3415
G1 X88.460 Y106.360 E2.6555
G1 X89.360 Y106.360 E2.7083
G1 X89.360 Y104.090 E2.8414
G1 X88.460 Y104.090 E2.8942
G1 X88.460 Y84.510 E4.0430
G1 X111.540 Y84.510 E5.3971
G1 X111.540 Y101.190 E6.3758
G1 X110.790 Y101.190 E6.4198
G1 X110.590 Y101.190 F900
G1 X110.590 Y105.510 F900
G1 X111.270 Y105.510
; feature solid layer
G1 X110.590 Y105.510 F18000
G1 X110.590 Y101.190
G1 X110.730 Y101.190
G1 X108.891 Y86.490
G92 E0.0000
G1 X109.560 Y87.159 E0.0555 F1440
G1 X109.560 Y88.177 E0.1152
G1 X107.873 Y86.490 E0.2552
G1 X106.855 Y86.490 E0.3150
G1 X109.560 Y89.195 E0.5394
G1 X109.560 Y90.214 E0.5992
G1 X105.836 Y86.490 E0.9081
G1 X104.818 Y86.490 E0.9679
G1 X109.560 Y91.232 E1.3613
G1 X109.560 Y92.250 E1.4210
G1 X103.800 Y86.490 E1.8990
G1 X102.782 Y86.490 E1.9587
G1 X109.560 Y93.268 E2.5211
G1 X109.560 Y94.286 E2.5809
G1 X101.764 Y86.490 E3.2278
G1 X100.745 Y86.490 E3.2875
G1 X109.560 Y95.305 E4.0189
G1 X109.560 Y96.323 E4.0786
G1 X99.727 Y86.490 E4.8945
G1 X98.709 Y86.490 E4.9542
G1 X109.560 Y97.341 E5.8546
G1 X109.560 Y98.359 E5.9143
G1 X97.691 Y86.490 E6.8992
G1 X96.672 Y86.490 E6.9589
G1 X109.392 Y99.210 E8.0143
G1 X108.610 Y99.210 E8.0602
G1 X108.610 Y99.446 E8.0741
G1 X95.654 Y86.490 E9.1491
G1 X94.636 Y86.490 E9.2088
G1 X108.610 Y100.464 E10.3683
G1 X108.610 Y101.482 E10.4280
G1 X93.618 Y86.490 E11.6720
G1 X92.599 Y86.490 E11.7317
G1 X108.610 Y102.501 E13.0602
G1 X108.610 Y103.519 E13.1199
G1 X91.581 Y86.490 E14.5329
G1 X90.563 Y86.490 E14.5926
G1 X108.610 Y104.537 E16.0900
G1 X108.610 Y105.555 E16.1498
G1 X90.440 Y87.385 E17.6574
G1 X90.440 Y88.404 E17.7171
G1 X108.610 Y106.574 E19.2247
G1 X108.610 Y107.490 E19.2785
G1 X109.526 Y107.490 E19.3323
G1 X109.560 Y107.524 E19.3351
G1 X109.560 Y108.542 E19.3948
G1 X90.440 Y89.422 E20.9813
G1 X90.440 Y90.440 E21.0410
G1 X109.560 Y109.560 E22.6274
G1 X109.560 Y110.578 E22.6872
G1 X90.440 Y91.458 E24.2736
G1 X90.440 Y92.476 E24.3334
G1 X109.560 Y111.596 E25.9198
G1 X109.560 Y112.615 E25.9796
G1 X90.440 Y93.495 E27.5660
G1 X90.440 Y94.513 E27.6257
G1 X109.437 Y113.510 E29.2020
G1 X108.419 Y113.510 E29.2617
G1 X90.440 Y95.531 E30.7535
G1 X90.440 Y96.549 E30.8132
G1 X107.401 Y113.510 E32.2205
G1 X106.382 Y113.510 E32.2802
G1 X90.440 Y97.568 E33.6030
G1 X90.440 Y98.586 E33.6628
G1 X105.364 Y113.510 E34.9011
G1 X104.346 Y113.510 E34.9608
G1 X90.440 Y99.604 E36.1146
G1 X90.440 Y100.622 E36.1744
G1 X103.328 Y113.510 E37.2437
G1 X102.309 Y113.510 E37.3034
G1 X91.340 Y102.541 E38.2136
G1 X91.340 Y102.110 E38.2389
G1 X90.909 Y102.110 E38.2641
G1 X90.581 Y101.782 E38.2914
G1 X90.440 Y101.641 F1440
G1 X91.340 Y103.559 F18000
G92 E0.0000
G1 X101.291 Y113.510 E0.8257 F1440
G1 X100.273 Y113.510 E0.8854
G1 X91.340 Y104.577 E1.6266
G1 X91.340 Y105.595 E1.6864
G1 X99.255 Y113.510 E2.3431
G1 X98.236 Y113.510 E2.4028
G1 X91.340 Y106.613 E2.9750
G1 X91.340 Y107.632 E3.0348
G1 X97.218 Y113.510 E3.5225
G1 X96.200 Y113.510 E3.5823
G1 X91.030 Y108.340 E4.0112
G1 X90.440 Y108.340 E4.0458
G1 X90.440 Y108.768 E4.0710
G1 X95.182 Y113.510 E4.4644
G1 X94.164 Y113.510 E4.5241
G1 X90.440 Y109.786 E4.8331
G1 X90.440 Y110.805 E4.8928
G1 X93.004 Y113.369 E5.1056
G1 X93.145 Y113.510 F1440
; layer 2, Z = 0.400
M106 S255
G4 P500
M106 S89
; feature inner perimeter
; tool H0.200 W0.480
G1 Z0.400 F1200
G1 X91.727 Y115.190 F18000
G1 X111.140 Y115.190
G1 X111.140 Y108.210
G1 X109.940 Y108.210
G1 X109.940 Y94.110
G1 X109.872 Y94.110
G1 X110.700 Y93.150
G92 E0.0000
G1 X89.300 Y93.150 E0.8370 F2700
G1 X89.300 Y85.350 E1.1421
G1 X110.700 Y85.350 E1.9792
G1 X110.700 Y92.950 E2.2764
G1 X110.700 Y93.150 F2700
G1 X110.420 Y93.630 F18000
G92 E0.0000
G1 X88.820 Y93.630 E0.8449 F2700
G1 X88.820 Y84.870 E1.1875
G1 X111.180 Y84.870 E2.0621
G1 X111.180 Y100.830 E2.6863
G1 X110.420 Y100.830 E2.7161
G1 X110.420 Y93.830 E2.9899
G1 X110.420 Y93.630 F2700
G1 X110.420 Y105.870 F18000
G92 E0.0000
G1 X111.180 Y105.870 E0.0297 F2700
G1 X111.180 Y107.730 E0.1025
G1 X110.420 Y107.730 E0.1322
G1 X110.420 Y106.070 E0.1971
G1 X110.420 Y105.870 F2700
; feature outer perimeter
G1 X110.710 Y105.390 F18000
G92 E0.0000
G1 X111.660 Y105.390 E0.0372 F1800
G1 X111.660 Y115.610 E0.4369
G1 X111.140 Y115.610 E0.4572
G1 X111.140 Y108.210 E0.7467
G1 X109.940 Y108.210 E0.7936
G1 X109.940 Y94.110 E1.3451
G1 X88.340 Y94.110 E2.1900
G1 X88.340 Y84.390 E2.5702
G1 X111.660 Y84.390 E3.4823
G1 X111.660 Y101.310 E4.1441
G1 X110.710 Y101.310 E4.1813
G1 X110.710 Y105.190 E4.3330
G1 X110.710 Y105.390 F1800
G92 E0.0000
G1 X111.660 Y105.390 E-1.9000 F1800
G1 X111.660 Y105.940 E-3.0000
G1 X111.660 Y109.440 F1800
; feature external single extrusion
; tool H0.200 W0.720
G1 Z0.600 F1200
G1 X111.140 Y112.411 F18000
G1 X111.140 Y115.190
G1 X110.653 Y115.190
G1 X110.617 Y115.400
G1 Z0.400 F1200
G1 E-0.1000 F3600
G92 E0.0000
G1 X92.233 Y115.400 E1.0786 F1800
G1 X92.228 Y115.399 E1.0789
G1 X92.133 Y115.359 E1.0849
G1 X92.038 Y115.320 E1.0910
; tool H0.200 W0.700
G1 X91.942 Y115.280 E1.0969
; tool H0.200 W0.620
G1 X91.847 Y115.240 E1.1021
; tool H0.200 W0.546
G1 X91.756 Y115.197 E1.1066
; tool H0.200 W0.496
G1 X91.678 Y115.140 E1.1105
; tool H0.200 W0.478
G1 X91.610 Y115.074 E1.1142
; tool H0.200 W0.477
G1 X88.871 Y112.300 E1.2658
; tool H0.200 W0.479
G1 X88.805 Y112.231 E1.2695
; tool H0.200 W0.497
G1 X88.750 Y112.152 E1.2734
; tool H0.200 W0.549
G1 X88.708 Y112.060 E1.2779
; tool H0.200 W0.622
G1 X88.669 Y111.965 E1.2831
; tool H0.200 W0.700
G1 X88.630 Y111.870 E1.2890
; tool H0.200 W0.720
G1 X88.591 Y111.775 E1.2950
G1 X88.552 Y111.680 E1.3010
G1 X88.550 Y111.670 E1.3016
G1 X88.550 Y106.472 E1.6066
G1 X88.550 Y106.272 F1800
G1 X88.550 Y104.174 F18000
G92 E0.0000
G1 X88.550 Y94.831 E0.5482 F1800
G1 X88.550 Y94.631 F1800
G92 E0.0000
G1 E-3.0000 F3600
; feature gap fill
; tool H0.200 W0.480
G1 Z0.600 F1200
G1 X88.760 Y94.625 F18000
G1 X88.760 Y94.110
G1 X106.120 Y94.110
G1 X110.780 Y93.972
G1 Z0.400 F1200
G1 E-0.1000 F3600
G92 E0.0000
G1 X110.820 Y93.932 E0.0022 F3600
G1 X110.820 Y94.611 E0.0288
G1 X110.780 Y94.651 E0.0310
G1 X110.780 Y95.329 E0.0575
G1 X110.820 Y95.289 E0.0597
G1 X110.820 Y95.968 E0.0863
G1 X110.780 Y96.008 E0.0885
G1 X110.780 Y96.687 E0.1151
G1 X110.820 Y96.647 E0.1173
G1 X110.820 Y97.326 E0.1438
G1 X110.780 Y97.366 E0.1460
G1 X110.780 Y98.045 E0.1726
G1 X110.820 Y98.005 E0.1748
G1 X110.820 Y98.684 E0.2014
G1 X110.780 Y98.724 E0.2036
G1 X110.780 Y99.402 E0.2301
G1 X110.820 Y99.362 E0.2323
G1 X110.820 Y99.898 E0.2533
G1 X110.820 Y100.041 F3600
G1 X110.780 Y100.081
G1 X110.300 Y101.240 F18000
G92 E0.0000
G1 X110.350 Y101.195 E0.0027 F3600
G1 X110.350 Y101.869 E0.0291
G1 X110.300 Y101.919 E0.0318
G1 X110.300 Y102.598 E0.0584
G1 X110.350 Y102.548 E0.0611
G1 X110.350 Y103.226 E0.0877
G1 X110.300 Y103.276 E0.0905
G1 X110.300 Y103.955 E0.1170
G1 X110.350 Y103.905 E0.1198
G1 X110.350 Y104.584 E0.1463
G1 X110.300 Y104.634 E0.1491
G1 X110.300 Y105.184 E0.1706
G1 X110.300 Y105.313 F3600
G1 X110.350 Y105.263
; feature solid layer
G1 X110.340 Y92.375 F18000
G92 E0.0000
G1 X109.925 Y92.790 E0.0229 F2880
G1 X109.247 Y92.790 E0.0495
G1 X110.340 Y91.697 E0.1100
G1 X110.340 Y91.018 E0.1365
G1 X108.568 Y92.790 E0.2346
G1 X107.889 Y92.790 E0.2611
G1 X110.340 Y90.339 E0.3967
G1 X110.340 Y89.660 E0.4233
G1 X107.210 Y92.790 E0.5964
G1 X106.531 Y92.790 E0.6229
G1 X110.340 Y88.981 E0.8336
G1 X110.340 Y88.302 E0.8602
G1 X105.852 Y92.790 E1.1084
G1 X105.174 Y92.790 E1.1350
G1 X110.340 Y87.624 E1.4207
G1 X110.340 Y86.945 E1.4473
G1 X104.495 Y92.790 E1.7706
G1 X103.816 Y92.790 E1.7972
G1 X110.340 Y86.266 E2.1581
G1 X110.340 Y85.710 E2.1798
G1 X110.217 Y85.710 E2.1846
G1 X103.137 Y92.790 E2.5762
G1 X102.458 Y92.790 E2.6028
G1 X109.538 Y85.710 E2.9944
G1 X108.859 Y85.710 E3.0210
G1 X101.779 Y92.790 E3.4126
G1 X101.101 Y92.790 E3.4392
