; G-Code generated by Simplify3D(R) Version 4.1.2
; Jan 11, 2020 at 6:58:58 PM
; Settings Summary
;   processName,Process1
;   applyToModels,festplatten-halter,festplatten-halter(2),festplatten-halter(3),festplatten-halter(4)
;   profileName,HBot (modified)
;   profileVersion,2019-10-26 23:38:43
;   baseProfile,Default
;   printMaterial,PLA
;   printQuality,Fast
;   printExtruders,
;   extruderName,Extruder 1
;   extruderToolheadNumber,0
;   extruderDiameter,0.4
;   extruderAutoWidth,1
;   extruderWidth,0.48
;   extrusionMultiplier,0.94
;   extruderUseRetract,1
;   extruderRetractionDistance,3
;   extruderExtraRestartDistance,0
;   extruderRetractionZLift,0
;   extruderRetractionSpeed,3600
;   extruderUseCoasting,1
;   extruderCoastingDistance,0.2
;   extruderUseWipe,1
;   extruderWipeDistance,5
;   primaryExtruder,0
;   layerHeight,0.3
;   topSolidLayers,3
;   bottomSolidLayers,3
;   perimeterOutlines,3
;   printPerimetersInsideOut,1
;   startPointOption,2
;   startPointOriginX,0
;   startPointOriginY,0
;   sequentialIslands,0
;   spiralVaseMode,0
;   firstLayerHeightPercentage,100
;   firstLayerWidthPercentage,150
;   firstLayerUnderspeed,0.5
;   useRaft,0
;   raftExtruder,0
;   raftTopLayers,3
;   raftBaseLayers,2
;   raftOffset,3
;   raftSeparationDistance,0.18
;   raftTopInfill,100
;   aboveRaftSpeedMultiplier,0.3
;   useSkirt,1
;   skirtExtruder,0
;   skirtLayers,1
;   skirtOutlines,3
;   skirtOffset,4
;   usePrimePillar,0
;   primePillarExtruder,999
;   primePillarWidth,12
;   primePillarLocation,7
;   primePillarSpeedMultiplier,1
;   useOozeShield,0
;   oozeShieldExtruder,999
;   oozeShieldOffset,2
;   oozeShieldOutlines,1
;   oozeShieldSidewallShape,1
;   oozeShieldSidewallAngle,30
;   oozeShieldSpeedMultiplier,1
;   infillExtruder,0
;   internalInfillPattern,Rectilinear
;   externalInfillPattern,Rectilinear
;   infillPercentage,10
;   outlineOverlapPercentage,25
;   infillExtrusionWidthPercentage,150
;   minInfillLength,5
;   infillLayerInterval,1
;   internalInfillAngles,45,-45
;   overlapInternalInfillAngles,0
;   externalInfillAngles,45,-45
;   generateSupport,0
;   supportExtruder,0
;   supportInfillPercentage,25
;   supportExtraInflation,0
;   supportBaseLayers,1
;   denseSupportExtruder,0
;   denseSupportLayers,0
;   denseSupportInfillPercentage,70
;   supportLayerInterval,1
;   supportHorizontalPartOffset,0.3
;   supportUpperSeparationLayers,1
;   supportLowerSeparationLayers,1
;   supportType,0
;   supportGridSpacing,4
;   maxOverhangAngle,45
;   supportAngles,0
;   temperatureName,Extruder 1,Heated Bed
;   temperatureNumber,0,1
;   temperatureSetpointCount,2,1
;   temperatureSetpointLayers,1,2,1
;   temperatureSetpointTemperatures,217,210,55
;   temperatureStabilizeAtStartup,1,1
;   temperatureHeatedBed,0,1
;   fanLayers,1,3,5
;   fanSpeeds,0,15,20
;   blipFanToFullPower,1
;   adjustSpeedForCooling,1
;   minSpeedLayerTime,15
;   minCoolingSpeedSlowdown,20
;   increaseFanForCooling,0
;   minFanLayerTime,45
;   maxCoolingFanSpeed,40
;   increaseFanForBridging,0
;   bridgingFanSpeed,80
;   use5D,1
;   relativeEdistances,0
;   allowEaxisZeroing,1
;   independentExtruderAxes,0
;   includeM10123,0
;   stickySupport,1
;   applyToolheadOffsets,0
;   gcodeXoffset,0
;   gcodeYoffset,0
;   gcodeZoffset,0
;   overrideMachineDefinition,1
;   machineTypeOverride,0
;   strokeXoverride,200
;   strokeYoverride,200
;   strokeZoverride,150
;   originOffsetXoverride,0
;   originOffsetYoverride,0
;   originOffsetZoverride,0
;   homeXdirOverride,-1
;   homeYdirOverride,-1
;   homeZdirOverride,-1
;   flipXoverride,1
;   flipYoverride,-1
;   flipZoverride,1
;   toolheadOffsets,0,0|0,0|0,0|0,0|0,0|0,0
;   overrideFirmwareConfiguration,1
;   firmwareTypeOverride,RepRap (Marlin/Repetier/Sprinter)
;   GPXconfigOverride,r2
;   baudRateOverride,115200
;   overridePrinterModels,0
;   printerModelsOverride
;   startingGcode,G28 ; home all axes,G32 ; run bed.g -- probe bed and enable compensation
;   layerChangeGcode,
;   retractionGcode,
;   toolChangeGcode,
;   endingGcode,M0 ; call stop.g
;   exportFileFormat,gcode
;   celebration,0
;   celebrationSong,Random Song
;   postProcessing,
;   defaultSpeed,3600
;   outlineUnderspeed,0.5
;   solidInfillUnderspeed,0.8
;   supportUnderspeed,0.8
;   rapidXYspeed,18000
;   rapidZspeed,1200
;   minBridgingArea,50
;   bridgingExtraInflation,0
;   bridgingExtrusionMultiplier,0.96
;   bridgingSpeedMultiplier,1
;   useFixedBridgingAngle,0
;   fixedBridgingAngle,0
;   applyBridgingToPerimeters,0
;   filamentDiameters,1.75|1.75|1.75|1.75|1.75|1.75
;   filamentPricesPerKg,46|46|46|46|46|46
;   filamentDensities,1.25|1.25|1.25|1.25|1.25|1.25
;   useMinPrintHeight,0
;   minPrintHeight,0
;   useMaxPrintHeight,0
;   maxPrintHeight,0
;   useDiaphragm,1
;   diaphragmLayerInterval,20
;   robustSlicing,1
;   mergeAllIntoSolid,0
;   onlyRetractWhenCrossingOutline,1
;   retractBetweenLayers,0
;   useRetractionMinTravel,1
;   retractionMinTravel,3
;   retractWhileWiping,1
;   onlyWipeOutlines,1
;   avoidCrossingOutline,1
;   maxMovementDetourFactor,3
;   toolChangeRetractionDistance,12
;   toolChangeExtraRestartDistance,-0.5
;   toolChangeRetractionSpeed,600
;   externalThinWallType,1
;   internalThinWallType,1
;   thinWallAllowedOverlapPercentage,10
;   singleExtrusionMinLength,1
;   singleExtrusionMinPrintingWidthPercentage,50
;   singleExtrusionMaxPrintingWidthPercentage,200
;   singleExtrusionEndpointExtension,0.2
;   horizontalSizeCompensation,-0.1
G90
M82
M106 S0
M140 S55
M190 S55
M104 S217 T0
M109 S217 T0
G28 ; home all axes
G32 ; run bed.g -- probe bed and enable compensation
; process Process1
; layer 1, Z = 0.300
T0
G92 E0.0000
G1 E-3.0000 F3600
; feature skirt
; tool H0.300 W0.720
G1 Z0.300 F1200
G1 X12.978 Y37.393 F18000
G1 E0.0000 F3600
G92 E0.0000
G1 X13.415 Y37.252 E0.0388 F1800
G1 X14.617 Y36.965 E0.1431
G1 X15.066 Y36.894 E0.1815
G1 X16.164 Y36.809 E0.2744
G1 X16.389 Y36.800 E0.2934
G1 X183.582 Y36.800 E14.4069
G1 X183.753 Y36.805 E14.4213
G1 X184.617 Y36.856 E14.4944
G1 X185.013 Y36.907 E14.5281
G1 X186.185 Y37.140 E14.6290
G1 X186.624 Y37.264 E14.6674
G1 X187.773 Y37.688 E14.7708
G1 X188.187 Y37.878 E14.8093
G1 X189.255 Y38.477 E14.9126
G1 X189.634 Y38.730 E14.9511
G1 X190.596 Y39.488 E15.0545
G1 X190.930 Y39.797 E15.0930
G1 X191.762 Y40.697 E15.1963
G1 X192.044 Y41.055 E15.2348
G1 X192.724 Y42.073 E15.3382
G1 X192.947 Y42.471 E15.3767
G1 X193.460 Y43.583 E15.4800
G1 X193.617 Y44.010 E15.5185
G1 X193.942 Y45.160 E15.6194
G1 X194.024 Y45.551 E15.6531
G1 X194.150 Y46.463 E15.7308
G1 X194.175 Y46.747 E15.7549
G1 X194.198 Y47.331 E15.8042
G1 X194.200 Y47.445 E15.8138
G1 X194.200 Y62.582 E17.0916
G1 X194.195 Y62.753 E17.1061
G1 X194.147 Y63.561 E17.1743
G1 X194.117 Y63.844 E17.1984
G1 X194.008 Y64.532 E17.2572
G1 X193.935 Y64.865 E17.2860
G1 X193.626 Y65.961 E17.3821
G1 X193.491 Y66.337 E17.4158
G1 X193.111 Y67.206 E17.4959
G1 X192.956 Y67.510 E17.5247
G1 X192.477 Y68.328 E17.6047
G1 X192.252 Y68.657 E17.6384
G1 X191.547 Y69.551 E17.7344
G1 X191.320 Y69.806 E17.7633
G1 X191.122 Y70.005 E17.7870
G1 X191.762 Y70.697 E17.8665
G1 X192.044 Y71.055 E17.9050
G1 X192.724 Y72.073 E18.0084
G1 X192.947 Y72.470 E18.0468
G1 X193.460 Y73.583 E18.1502
G1 X193.617 Y74.010 E18.1887
G1 X193.942 Y75.160 E18.2896
G1 X194.023 Y75.551 E18.3232
G1 X194.150 Y76.463 E18.4010
G1 X194.175 Y76.747 E18.4250
G1 X194.198 Y77.331 E18.4744
G1 X194.200 Y77.445 E18.4840
G1 X194.200 Y92.582 E19.7618
G1 X194.195 Y92.753 E19.7762
G1 X194.147 Y93.561 E19.8445
G1 X194.117 Y93.844 E19.8685
G1 X194.008 Y94.532 E19.9273
G1 X193.935 Y94.865 E19.9562
G1 X193.626 Y95.961 E20.0523
G1 X193.491 Y96.337 E20.0860
G1 X193.111 Y97.206 E20.1660
G1 X192.956 Y97.510 E20.1949
G1 X192.477 Y98.328 E20.2749
G1 X192.252 Y98.657 E20.3085
G1 X191.547 Y99.551 E20.4046
G1 X191.320 Y99.807 E20.4335
G1 X191.122 Y100.005 E20.4571
G1 X191.762 Y100.697 E20.5367
G1 X192.044 Y101.055 E20.5752
G1 X192.724 Y102.073 E20.6785
G1 X192.947 Y102.471 E20.7170
G1 X193.460 Y103.583 E20.8204
G1 X193.617 Y104.010 E20.8588
G1 X193.942 Y105.160 E20.9597
G1 X194.024 Y105.551 E20.9934
G1 X194.150 Y106.463 E21.0711
G1 X194.175 Y106.747 E21.0952
G1 X194.198 Y107.331 E21.1445
G1 X194.200 Y107.445 E21.1542
G1 X194.200 Y122.582 E22.4320
G1 X194.195 Y122.753 E22.4464
G1 X194.147 Y123.561 E22.5147
G1 X194.117 Y123.843 E22.5387
G1 X194.008 Y124.532 E22.5975
G1 X193.934 Y124.866 E22.6264
G1 X193.626 Y125.961 E22.7224
G1 X193.491 Y126.337 E22.7561
G1 X193.111 Y127.205 E22.8362
G1 X192.956 Y127.510 E22.8650
G1 X192.477 Y128.328 E22.9451
G1 X192.252 Y128.657 E22.9787
G1 X191.547 Y129.551 E23.0748
G1 X191.320 Y129.807 E23.1036
G1 X191.122 Y130.005 E23.1273
G1 X191.762 Y130.697 E23.2068
G1 X192.044 Y131.055 E23.2453
G1 X192.724 Y132.073 E23.3487
G1 X192.947 Y132.470 E23.3872
G1 X193.460 Y133.583 E23.4905
G1 X193.617 Y134.010 E23.5290
G1 X193.942 Y135.161 E23.6299
G1 X194.024 Y135.551 E23.6636
G1 X194.150 Y136.463 E23.7413
G1 X194.175 Y136.747 E23.7653
G1 X194.198 Y137.331 E23.8147
G1 X194.200 Y137.445 E23.8243
G1 X194.200 Y152.582 E25.1021
G1 X194.195 Y152.753 E25.1166
G1 X194.147 Y153.561 E25.1848
G1 X194.117 Y153.843 E25.2089
G1 X194.008 Y154.532 E25.2677
G1 X193.934 Y154.865 E25.2965
G1 X193.626 Y155.961 E25.3926
G1 X193.491 Y156.337 E25.4263
G1 X193.111 Y157.206 E25.5064
G1 X192.956 Y157.510 E25.5352
G1 X192.477 Y158.328 E25.6152
G1 X192.252 Y158.657 E25.6489
G1 X191.547 Y159.551 E25.7450
G1 X191.320 Y159.807 E25.7738
G1 X190.827 Y160.299 E25.8327
G1 X190.616 Y160.491 E25.8567
G1 X189.905 Y161.075 E25.9344
G1 X189.580 Y161.306 E25.9681
G1 X188.609 Y161.901 E26.0641
G1 X188.308 Y162.062 E26.0930
G1 X187.675 Y162.353 E26.1518
G1 X187.411 Y162.460 E26.1758
G1 X186.541 Y162.761 E26.2536
G1 X186.156 Y162.866 E26.2872
G1 X185.040 Y163.088 E26.3833
G1 X184.701 Y163.135 E26.4121
G1 X184.034 Y163.187 E26.4686
G1 X183.806 Y163.196 E26.4879
G1 X16.418 Y163.200 E40.6179
G1 X16.247 Y163.195 E40.6323
G1 X15.439 Y163.147 E40.7006
G1 X15.156 Y163.117 E40.7246
G1 X14.468 Y163.008 E40.7834
G1 X14.134 Y162.934 E40.8123
G1 X13.039 Y162.625 E40.9084
G1 X12.663 Y162.491 E40.9420
G1 X11.820 Y162.122 E41.0197
G1 X11.565 Y161.995 E41.0438
G1 X10.957 Y161.655 E41.1026
G1 X10.669 Y161.471 E41.1314
G1 X9.748 Y160.802 E41.2275
G1 X9.442 Y160.546 E41.2612
G1 X8.759 Y159.888 E41.3412
G1 X8.527 Y159.637 E41.3701
G1 X7.925 Y158.905 E41.4501
G1 X7.694 Y158.580 E41.4838
G1 X7.085 Y157.586 E41.5822
G1 X6.901 Y157.233 E41.6158
G1 X6.532 Y156.389 E41.6936
G1 X6.430 Y156.123 E41.7176
G1 X6.224 Y155.488 E41.7740
G1 X6.150 Y155.213 E41.7980
G1 X5.952 Y154.314 E41.8757
G1 X5.894 Y153.919 E41.9094
G1 X5.809 Y152.839 E42.0008
G1 X5.800 Y152.612 E42.0200
G1 X5.800 Y137.445 E43.3003
G1 X5.802 Y137.331 E43.3099
G1 X5.825 Y136.747 E43.3593
G1 X5.850 Y136.463 E43.3834
G1 X5.976 Y135.551 E43.4611
G1 X6.058 Y135.160 E43.4948
G1 X6.383 Y134.010 E43.5956
G1 X6.540 Y133.583 E43.6341
G1 X7.053 Y132.471 E43.7375
G1 X7.276 Y132.073 E43.7759
G1 X7.940 Y131.079 E43.8768
G1 X8.183 Y130.764 E43.9105
G1 X8.833 Y130.033 E43.9930
G1 X8.871 Y129.996 E43.9975
G1 X8.779 Y129.908 E44.0082
G1 X8.583 Y129.700 E44.0323
G1 X8.150 Y129.193 E44.0886
G1 X7.976 Y128.967 E44.1127
G1 X7.466 Y128.236 E44.1879
G1 X7.288 Y127.945 E44.2167
G1 X6.868 Y127.159 E44.2920
G1 X6.746 Y126.902 E44.3160
G1 X6.501 Y126.310 E44.3700
G1 X6.422 Y126.097 E44.3893
G1 X6.224 Y125.488 E44.4433
G1 X6.150 Y125.213 E44.4673
G1 X5.952 Y124.314 E44.5451
G1 X5.894 Y123.919 E44.5788
G1 X5.809 Y122.839 E44.6702
G1 X5.800 Y122.612 E44.6894
G1 X5.800 Y107.445 E45.9697
G1 X5.802 Y107.331 E45.9793
G1 X5.825 Y106.747 E46.0287
G1 X5.850 Y106.463 E46.0527
G1 X5.976 Y105.551 E46.1304
G1 X6.058 Y105.160 E46.1641
G1 X6.383 Y104.010 E46.2650
G1 X6.540 Y103.583 E46.3034
G1 X7.053 Y102.471 E46.4068
G1 X7.276 Y102.073 E46.4453
G1 X7.940 Y101.079 E46.5462
G1 X8.183 Y100.764 E46.5798
G1 X8.833 Y100.033 E46.6624
G1 X8.871 Y99.996 E46.6668
G1 X8.759 Y99.888 E46.6799
G1 X8.527 Y99.637 E46.7088
G1 X7.962 Y98.949 E46.7840
G1 X7.792 Y98.720 E46.8080
G1 X7.421 Y98.165 E46.8644
G1 X7.275 Y97.921 E46.8884
G1 X6.868 Y97.159 E46.9613
G1 X6.746 Y96.902 E46.9853
G1 X6.501 Y96.310 E47.0393
G1 X6.422 Y96.097 E47.0586
G1 X6.224 Y95.488 E47.1126
G1 X6.150 Y95.213 E47.1367
G1 X5.952 Y94.314 E47.2144
G1 X5.894 Y93.919 E47.2481
G1 X5.809 Y92.839 E47.3395
G1 X5.800 Y92.612 E47.3587
G1 X5.800 Y77.445 E48.6390
G1 X5.802 Y77.331 E48.6486
G1 X5.825 Y76.747 E48.6980
G1 X5.850 Y76.463 E48.7220
G1 X5.976 Y75.551 E48.7998
G1 X6.058 Y75.160 E48.8334
G1 X6.383 Y74.010 E48.9343
G1 X6.540 Y73.583 E48.9728
G1 X7.053 Y72.471 E49.0762
G1 X7.276 Y72.073 E49.1146
G1 X7.940 Y71.079 E49.2155
G1 X8.183 Y70.764 E49.2492
G1 X8.833 Y70.033 E49.3317
G1 X8.870 Y69.997 E49.3361
G1 X8.701 Y69.827 E49.3563
G1 X8.509 Y69.616 E49.3803
G1 X7.961 Y68.949 E49.4532
G1 X7.792 Y68.720 E49.4773
G1 X7.421 Y68.165 E49.5336
G1 X7.275 Y67.921 E49.5577
G1 X6.841 Y67.109 E49.6354
G1 X6.677 Y66.745 E49.6690
G1 X6.283 Y65.677 E49.7651
G1 X6.184 Y65.350 E49.7939
G1 X6.022 Y64.673 E49.8528
G1 X5.969 Y64.393 E49.8768
G1 X5.843 Y63.482 E49.9544
G1 X5.815 Y63.087 E49.9878
G1 X5.800 Y47.449 E51.3079
G1 X5.802 Y47.333 E51.3177
G1 X5.825 Y46.747 E51.3672
G1 X5.850 Y46.463 E51.3913
G1 X5.976 Y45.551 E51.4690
G1 X6.058 Y45.160 E51.5027
G1 X6.383 Y44.010 E51.6036
G1 X6.540 Y43.583 E51.6420
G1 X7.041 Y42.498 E51.7429
G1 X7.232 Y42.148 E51.7766
G1 X7.759 Y41.324 E51.8591
G1 X7.997 Y41.004 E51.8928
G1 X8.773 Y40.095 E51.9937
G1 X9.095 Y39.773 E52.0322
G1 X10.026 Y38.978 E52.1355
G1 X10.395 Y38.710 E52.1740
G1 X11.439 Y38.070 E52.2774
G1 X11.845 Y37.863 E52.3158
G1 X12.978 Y37.393 E52.4194
G1 X13.610 Y37.946 F18000
G92 E0.0000
G1 X14.757 Y37.672 E0.0995 F1800
G1 X15.150 Y37.610 E0.1331
G1 X16.206 Y37.528 E0.2225
G1 X16.403 Y37.520 E0.2392
G1 X183.572 Y37.520 E14.3506
G1 X183.721 Y37.524 E14.3632
G1 X184.550 Y37.573 E14.4333
G1 X184.897 Y37.618 E14.4628
G1 X186.017 Y37.841 E14.5592
G1 X186.401 Y37.949 E14.5929
G1 X187.497 Y38.353 E14.6915
G1 X187.860 Y38.520 E14.7252
G1 X188.879 Y39.091 E14.8238
G1 X189.210 Y39.313 E14.8575
G1 X190.128 Y40.036 E14.9561
G1 X190.421 Y40.307 E14.9898
G1 X191.214 Y41.165 E15.0884
G1 X191.461 Y41.478 E15.1221
G1 X192.110 Y42.449 E15.2207
G1 X192.305 Y42.798 E15.2544
G1 X192.794 Y43.858 E15.3530
G1 X192.932 Y44.233 E15.3867
G1 X193.242 Y45.332 E15.4831
G1 X193.314 Y45.674 E15.5126
G1 X193.434 Y46.544 E15.5867
G1 X193.456 Y46.793 E15.6078
G1 X193.478 Y47.353 E15.6551
G1 X193.480 Y47.452 E15.6635
G1 X193.480 Y62.572 E16.9398
G1 X193.476 Y62.721 E16.9524
G1 X193.430 Y63.501 E17.0183
G1 X193.403 Y63.748 E17.0394
G1 X193.300 Y64.398 E17.0949
G1 X193.236 Y64.690 E17.1202
G1 X192.939 Y65.742 E17.2124
G1 X192.822 Y66.071 E17.2419
G1 X192.460 Y66.898 E17.3181
G1 X192.324 Y67.164 E17.3433
G1 X191.868 Y67.942 E17.4194
G1 X191.671 Y68.231 E17.4489
G1 X190.995 Y69.089 E17.5411
G1 X190.796 Y69.312 E17.5664
G1 X190.331 Y69.778 E17.6220
G1 X190.146 Y69.945 E17.6430
G1 X190.081 Y69.999 E17.6501
G1 X190.128 Y70.036 E17.6552
G1 X190.421 Y70.307 E17.6889
G1 X191.214 Y71.165 E17.7875
G1 X191.461 Y71.478 E17.8212
G1 X192.110 Y72.449 E17.9198
G1 X192.305 Y72.798 E17.9535
G1 X192.794 Y73.858 E18.0521
G1 X192.932 Y74.233 E18.0858
G1 X193.242 Y75.332 E18.1822
G1 X193.314 Y75.674 E18.2117
G1 X193.434 Y76.544 E18.2858
G1 X193.456 Y76.793 E18.3069
G1 X193.478 Y77.353 E18.3542
G1 X193.480 Y77.452 E18.3626
G1 X193.480 Y92.572 E19.6389
G1 X193.476 Y92.721 E19.6516
G1 X193.430 Y93.501 E19.7174
G1 X193.403 Y93.748 E19.7385
G1 X193.300 Y94.398 E19.7940
G1 X193.236 Y94.690 E19.8193
G1 X192.939 Y95.742 E19.9115
G1 X192.822 Y96.071 E19.9410
G1 X192.460 Y96.898 E20.0172
G1 X192.324 Y97.164 E20.0424
G1 X191.868 Y97.942 E20.1186
G1 X191.671 Y98.231 E20.1481
G1 X190.995 Y99.089 E20.2403
G1 X190.796 Y99.312 E20.2655
G1 X190.331 Y99.778 E20.3211
G1 X190.146 Y99.945 E20.3421
G1 X190.081 Y99.999 E20.3493
G1 X190.128 Y100.036 E20.3543
G1 X190.421 Y100.307 E20.3880
G1 X191.214 Y101.165 E20.4866
G1 X191.461 Y101.478 E20.5203
G1 X192.110 Y102.449 E20.6189
G1 X192.305 Y102.798 E20.6526
