; G-Code generated by Simplify3D(R) Version 4.1.2
; Jan 11, 2020 at 11:43:04 PM
; Settings Summary
;   processName,Process1
;   applyToModels,rack
;   profileName,HBot (modified)
;   profileVersion,2019-10-26 23:38:43
;   baseProfile,Default
;   printMaterial,PLA
;   printQuality,Fast
;   printExtruders,
;   extruderName,Extruder 1
;   extruderToolheadNumber,0
;   extruderDiameter,0.4
;   extruderAutoWidth,1
;   extruderWidth,0.48
;   extrusionMultiplier,0.94
;   extruderUseRetract,1
;   extruderRetractionDistance,3
;   extruderExtraRestartDistance,0
;   extruderRetractionZLift,0
;   extruderRetractionSpeed,3600
;   extruderUseCoasting,1
;   extruderCoastingDistance,0.2
;   extruderUseWipe,1
;   extruderWipeDistance,5
;   primaryExtruder,0
;   layerHeight,0.3
;   topSolidLayers,3
;   bottomSolidLayers,3
;   perimeterOutlines,3
;   printPerimetersInsideOut,1
;   startPointOption,2
;   startPointOriginX,0
;   startPointOriginY,0
;   sequentialIslands,0
;   spiralVaseMode,0
;   firstLayerHeightPercentage,100
;   firstLayerWidthPercentage,150
;   firstLayerUnderspeed,0.5
;   useRaft,0
;   raftExtruder,0
;   raftTopLayers,3
;   raftBaseLayers,2
;   raftOffset,3
;   raftSeparationDistance,0.18
;   raftTopInfill,100
;   aboveRaftSpeedMultiplier,0.3
;   useSkirt,1
;   skirtExtruder,0
;   skirtLayers,1
;   skirtOutlines,3
;   skirtOffset,4
;   usePrimePillar,0
;   primePillarExtruder,999
;   primePillarWidth,12
;   primePillarLocation,7
;   primePillarSpeedMultiplier,1
;   useOozeShield,0
;   oozeShieldExtruder,999
;   oozeShieldOffset,2
;   oozeShieldOutlines,1
;   oozeShieldSidewallShape,1
;   oozeShieldSidewallAngle,30
;   oozeShieldSpeedMultiplier,1
;   infillExtruder,0
;   internalInfillPattern,Rectilinear
;   externalInfillPattern,Rectilinear
;   infillPercentage,10
;   outlineOverlapPercentage,25
;   infillExtrusionWidthPercentage,150
;   minInfillLength,5
;   infillLayerInterval,1
;   internalInfillAngles,45,-45
;   overlapInternalInfillAngles,0
;   externalInfillAngles,45,-45
;   generateSupport,0
;   supportExtruder,0
;   supportInfillPercentage,25
;   supportExtraInflation,0
;   supportBaseLayers,1
;   denseSupportExtruder,0
;   denseSupportLayers,0
;   denseSupportInfillPercentage,70
;   supportLayerInterval,1
;   supportHorizontalPartOffset,0.3
;   supportUpperSeparationLayers,1
;   supportLowerSeparationLayers,1
;   supportType,0
;   supportGridSpacing,4
;   maxOverhangAngle,45
;   supportAngles,0
;   temperatureName,Extruder 1,Heated Bed
;   temperatureNumber,0,1
;   temperatureSetpointCount,2,1
;   temperatureSetpointLayers,1,2,1
;   temperatureSetpointTemperatures,217,210,55
;   temperatureStabilizeAtStartup,1,1
;   temperatureHeatedBed,0,1
;   fanLayers,1,3,5
;   fanSpeeds,0,15,20
;   blipFanToFullPower,1
;   adjustSpeedForCooling,1
;   minSpeedLayerTime,15
;   minCoolingSpeedSlowdown,20
;   increaseFanForCooling,0
;   minFanLayerTime,45
;   maxCoolingFanSpeed,40
;   increaseFanForBridging,0
;   bridgingFanSpeed,80
;   use5D,1
;   relativeEdistances,0
;   allowEaxisZeroing,1
;   independentExtruderAxes,0
;   includeM10123,0
;   stickySupport,1
;   applyToolheadOffsets,0
;   gcodeXoffset,0
;   gcodeYoffset,0
;   gcodeZoffset,0
;   overrideMachineDefinition,1
;   machineTypeOverride,0
;   strokeXoverride,200
;   strokeYoverride,200
;   strokeZoverride,150
;   originOffsetXoverride,0
;   originOffsetYoverride,0
;   originOffsetZoverride,0
;   homeXdirOverride,-1
;   homeYdirOverride,-1
;   homeZdirOverride,-1
;   flipXoverride,1
;   flipYoverride,-1
;   flipZoverride,1
;   toolheadOffsets,0,0|0,0|0,0|0,0|0,0|0,0
;   overrideFirmwareConfiguration,1
;   firmwareTypeOverride,RepRap (Marlin/Repetier/Sprinter)
;   GPXconfigOverride,r2
;   baudRateOverride,115200
;   overridePrinterModels,0
;   printerModelsOverride
;   startingGcode,G28 ; home all axes,G32 ; run bed.g -- probe bed and enable compensation
;   layerChangeGcode,
;   retractionGcode,
;   toolChangeGcode,
;   endingGcode,M0 ; call stop.g
;   exportFileFormat,gcode
;   celebration,0
;   celebrationSong,Random Song
;   postProcessing,
;   defaultSpeed,3600
;   outlineUnderspeed,0.5
;   solidInfillUnderspeed,0.8
;   supportUnderspeed,0.8
;   rapidXYspeed,18000
;   rapidZspeed,1200
;   minBridgingArea,50
;   bridgingExtraInflation,0
;   bridgingExtrusionMultiplier,0.96
;   bridgingSpeedMultiplier,1
;   useFixedBridgingAngle,0
;   fixedBridgingAngle,0
;   applyBridgingToPerimeters,0
;   filamentDiameters,1.75|1.75|1.75|1.75|1.75|1.75
;   filamentPricesPerKg,46|46|46|46|46|46
;   filamentDensities,1.25|1.25|1.25|1.25|1.25|1.25
;   useMinPrintHeight,0
;   minPrintHeight,0
;   useMaxPrintHeight,0
;   maxPrintHeight,0
;   useDiaphragm,1
;   diaphragmLayerInterval,20
;   robustSlicing,1
;   mergeAllIntoSolid,0
;   onlyRetractWhenCrossingOutline,1
;   retractBetweenLayers,0
;   useRetractionMinTravel,1
;   retractionMinTravel,3
;   retractWhileWiping,1
;   onlyWipeOutlines,1
;   avoidCrossingOutline,1
;   maxMovementDetourFactor,3
;   toolChangeRetractionDistance,12
;   toolChangeExtraRestartDistance,-0.5
;   toolChangeRetractionSpeed,600
;   externalThinWallType,1
;   internalThinWallType,1
;   thinWallAllowedOverlapPercentage,10
;   singleExtrusionMinLength,1
;   singleExtrusionMinPrintingWidthPercentage,50
;   singleExtrusionMaxPrintingWidthPercentage,200
;   singleExtrusionEndpointExtension,0.2
;   horizontalSizeCompensation,-0.1
G90
M82
M106 S0
M140 S55
M190 S55
M104 S217 T0
M109 S217 T0
G28 ; home all axes
G32 ; run bed.g -- probe bed and enable compensation
; process Process1
; layer 1, Z = 0.300
T0
G92 E0.0000
G1 E-3.0000 F3600
; feature skirt
; tool H0.300 W0.720
G1 Z0.300 F1200
G1 X29.050 Y15.198 F18000
G1 E0.0000 F3600
G92 E0.0000
G1 X32.448 Y11.800 E0.4056 F1800
G1 X167.552 Y11.800 E11.8104
G1 X170.950 Y15.198 E12.2160
G1 X170.950 Y184.802 E26.5330
G1 X167.552 Y188.200 E26.9386
G1 X32.448 Y188.200 E38.3434
G1 X29.050 Y184.802 E38.7490
G1 X29.050 Y175.198 E39.5598
G1 X32.448 Y171.800 E39.9654
G1 X42.389 Y171.800 E40.8046
G1 X44.050 Y170.139 E41.0029
G1 X44.050 Y29.861 E52.8443
G1 X42.389 Y28.200 E53.0426
G1 X32.448 Y28.200 E53.8818
G1 X29.050 Y24.802 E54.2874
G1 X29.050 Y15.198 E55.0982
G1 X29.770 Y15.496 F18000
G92 E0.0000
G1 X32.746 Y12.520 E0.3553 F1800
G1 X167.254 Y12.520 E11.7097
G1 X170.230 Y15.496 E12.0649
G1 X170.230 Y184.504 E26.3316
G1 X167.254 Y187.480 E26.6869
G1 X32.746 Y187.480 E38.0413
G1 X29.770 Y184.504 E38.3966
G1 X29.770 Y175.496 E39.1570
G1 X32.746 Y172.520 E39.5122
G1 X42.687 Y172.520 E40.3514
G1 X44.770 Y170.437 E40.6001
G1 X44.770 Y29.563 E52.4919
G1 X42.687 Y27.480 E52.7405
G1 X32.746 Y27.480 E53.5797
G1 X29.770 Y24.504 E53.9350
G1 X29.770 Y15.496 E54.6954
G1 X30.490 Y15.794 F18000
G92 E0.0000
G1 X33.044 Y13.240 E0.3049 F1800
G1 X166.956 Y13.240 E11.6090
G1 X169.510 Y15.794 E11.9139
G1 X169.510 Y184.206 E26.1302
G1 X166.956 Y186.760 E26.4351
G1 X33.044 Y186.760 E37.7392
G1 X30.490 Y184.206 E38.0441
G1 X30.490 Y175.794 E38.7542
G1 X33.044 Y173.240 E39.0591
G1 X42.985 Y173.240 E39.8983
G1 X45.490 Y170.735 E40.1973
G1 X45.490 Y29.265 E52.1394
G1 X42.985 Y26.760 E52.4384
G1 X33.044 Y26.760 E53.2776
G1 X30.490 Y24.206 E53.5825
G1 X30.490 Y15.794 E54.2926
G92 E0.0000
G1 E-3.0000 F3600
; feature inner perimeter
G1 X35.210 Y17.960 F18000
G1 X35.210 Y18.557
G1 X36.650 Y19.400
G1 E0.0000 F3600
G92 E0.0000
G1 X163.350 Y19.400 E10.6953 F1350
G1 X163.350 Y180.600 E24.3029
G1 X36.650 Y180.600 E34.9981
G1 X36.650 Y179.400 E35.0994
G1 X45.537 Y179.400 E35.8496
G1 X51.650 Y173.287 E36.5794
G1 X51.650 Y26.713 E48.9523
G1 X45.537 Y20.600 E49.6821
G1 X36.650 Y20.600 E50.4323
G1 X36.650 Y19.600 E50.5167
G1 X36.650 Y19.400 F1350
G1 X35.930 Y18.680 F18000
G92 E0.0000
G1 X164.070 Y18.680 E10.8168 F1350
G1 X164.070 Y181.320 E24.5460
G1 X35.930 Y181.320 E35.3628
G1 X35.930 Y178.680 E35.5857
G1 X45.239 Y178.680 E36.3715
G1 X50.930 Y172.989 E37.0509
G1 X50.930 Y27.011 E49.3735
G1 X45.239 Y21.320 E50.0529
G1 X35.930 Y21.320 E50.8387
G1 X35.930 Y18.880 E51.0446
G1 X35.930 Y18.680 F1350
; feature outer perimeter
G1 X35.210 Y17.960 F18000
G92 E0.0000
G1 X164.790 Y17.960 E10.9384 F900
G1 X164.790 Y182.040 E24.7891
G1 X35.210 Y182.040 E35.7275
G1 X35.210 Y177.960 E36.0719
G1 X44.941 Y177.960 E36.8933
G1 X50.210 Y172.691 E37.5223
G1 X50.210 Y27.309 E49.7946
G1 X44.941 Y22.040 E50.4236
G1 X35.210 Y22.040 E51.2450
G1 X35.210 Y18.160 E51.5726
G1 X35.210 Y17.960 F900
G1 X40.210 Y17.960 F900
; feature inner perimeter
G1 X52.850 Y20.600 F18000
G92 E0.0000
G1 X52.850 Y59.400 E3.2753 F1350
G1 X162.150 Y59.400 E12.5017
G1 X162.150 Y20.600 E15.7770
G1 X53.050 Y20.600 E24.9866
G1 X52.850 Y20.600 F1350
G1 X53.570 Y21.320 F18000
G92 E0.0000
G1 X53.570 Y58.680 E3.1537 F1350
G1 X161.430 Y58.680 E12.2586
G1 X161.430 Y21.320 E15.4123
G1 X53.770 Y21.320 E24.5004
G1 X53.570 Y21.320 F1350
; feature outer perimeter
G1 X54.290 Y22.040 F18000
G92 E0.0000
G1 X54.290 Y57.960 E3.0322 F900
G1 X160.710 Y57.960 E12.0155
G1 X160.710 Y22.040 E15.0477
G1 X54.490 Y22.040 E24.0142
G1 X54.290 Y22.040 F900
G1 X54.290 Y27.040 F900
; feature inner perimeter
G1 X52.850 Y60.600 F18000
G92 E0.0000
G1 X52.850 Y99.400 E3.2753 F1350
G1 X162.150 Y99.400 E12.5017
G1 X162.150 Y60.600 E15.7770
G1 X53.050 Y60.600 E24.9866
G1 X52.850 Y60.600 F1350
G1 X53.570 Y61.320 F18000
G92 E0.0000
G1 X53.570 Y98.680 E3.1537 F1350
G1 X161.430 Y98.680 E12.2586
G1 X161.430 Y61.320 E15.4123
G1 X53.770 Y61.320 E24.5004
G1 X53.570 Y61.320 F1350
; feature outer perimeter
G1 X54.290 Y62.040 F18000
G92 E0.0000
G1 X54.290 Y97.960 E3.0322 F900
G1 X160.710 Y97.960 E12.0155
G1 X160.710 Y62.040 E15.0477
G1 X54.490 Y62.040 E24.0142
G1 X54.290 Y62.040 F900
G1 X54.290 Y67.040 F900
; feature inner perimeter
G1 X52.850 Y100.600 F18000
G92 E0.0000
G1 X52.850 Y139.400 E3.2753 F1350
G1 X162.150 Y139.400 E12.5017
G1 X162.150 Y100.600 E15.7770
G1 X53.050 Y100.600 E24.9866
G1 X52.850 Y100.600 F1350
G1 X53.570 Y101.320 F18000
G92 E0.0000
G1 X53.570 Y138.680 E3.1537 F1350
G1 X161.430 Y138.680 E12.2586
G1 X161.430 Y101.320 E15.4123
G1 X53.770 Y101.320 E24.5004
G1 X53.570 Y101.320 F1350
; feature outer perimeter
G1 X54.290 Y102.040 F18000
G92 E0.0000
G1 X54.290 Y137.960 E3.0322 F900
G1 X160.710 Y137.960 E12.0155
G1 X160.710 Y102.040 E15.0477
G1 X54.490 Y102.040 E24.0142
G1 X54.290 Y102.040 F900
G1 X54.290 Y107.040 F900
; feature inner perimeter
G1 X52.850 Y140.600 F18000
G92 E0.0000
G1 X52.850 Y179.400 E3.2753 F1350
G1 X162.150 Y179.400 E12.5017
G1 X162.150 Y140.600 E15.7770
G1 X53.050 Y140.600 E24.9866
G1 X52.850 Y140.600 F1350
G1 X53.570 Y141.320 F18000
G92 E0.0000
G1 X53.570 Y178.680 E3.1537 F1350
G1 X161.430 Y178.680 E12.2586
G1 X161.430 Y141.320 E15.4123
G1 X53.770 Y141.320 E24.5004
G1 X53.570 Y141.320 F1350
; feature outer perimeter
G1 X54.290 Y142.040 F18000
G92 E0.0000
G1 X54.290 Y177.960 E3.0322 F900
G1 X160.710 Y177.960 E12.0155
G1 X160.710 Y142.040 E15.0477
G1 X54.490 Y142.040 E24.0142
G1 X54.290 Y142.040 F900
G1 X54.290 Y147.040 F900
; feature solid layer
G1 X52.310 Y141.915 F18000
G92 E0.0000
G1 X52.190 Y141.795 E0.0143 F1440
G1 X52.190 Y142.813 E0.1003
G1 X52.310 Y142.933 E0.1146
G1 X52.310 Y143.951 E0.2006
G1 X52.190 Y143.831 E0.2149
G1 X52.190 Y144.849 E0.3008
G1 X52.310 Y144.969 E0.3152
G1 X52.310 Y145.987 E0.4011
G1 X52.190 Y145.867 E0.4154
G1 X52.190 Y146.886 E0.5014
G1 X52.310 Y147.006 E0.5157
G1 X52.310 Y148.024 E0.6017
G1 X52.190 Y147.904 E0.6160
G1 X52.190 Y148.922 E0.7020
G1 X52.310 Y149.042 E0.7163
G1 X52.310 Y150.060 E0.8022
G1 X52.190 Y149.940 E0.8166
G1 X52.190 Y150.959 E0.9025
G1 X52.310 Y151.079 E0.9168
G1 X52.310 Y152.097 E1.0028
G1 X52.190 Y151.977 E1.0171
G1 X52.190 Y152.995 E1.1031
G1 X52.310 Y153.115 E1.1174
G1 X52.310 Y154.133 E1.2033
G1 X52.190 Y154.013 E1.2177
G1 X52.190 Y155.032 E1.3036
G1 X52.310 Y155.152 E1.3180
G1 X52.310 Y156.170 E1.4039
G1 X52.190 Y156.050 E1.4182
G1 X52.190 Y157.068 E1.5042
G1 X52.310 Y157.188 E1.5185
G1 X52.310 Y158.206 E1.6045
G1 X52.190 Y158.086 E1.6188
G1 X52.190 Y159.105 E1.7047
G1 X52.310 Y159.225 E1.7191
G1 X52.310 Y160.243 E1.8050
G1 X52.190 Y160.123 E1.8193
G1 X52.190 Y161.141 E1.9053
G1 X52.310 Y161.261 E1.9196
G1 X52.310 Y162.279 E2.0056
G1 X52.190 Y162.159 E2.0199
G1 X52.190 Y163.177 E2.1059
G1 X52.310 Y163.297 E2.1202
G1 X52.310 Y164.316 E2.2061
G1 X52.190 Y164.196 E2.2205
G1 X52.190 Y165.214 E2.3064
G1 X52.310 Y165.334 E2.3207
G1 X52.310 Y166.352 E2.4067
G1 X52.190 Y166.232 E2.4210
G1 X52.190 Y167.250 E2.5070
G1 X52.310 Y167.370 E2.5213
G1 X52.310 Y168.389 E2.6073
G1 X52.190 Y168.269 E2.6216
G1 X52.190 Y169.287 E2.7075
G1 X52.310 Y169.407 E2.7219
G1 X52.310 Y170.425 E2.8078
G1 X52.190 Y170.305 E2.8221
G1 X52.190 Y171.323 E2.9081
G1 X52.310 Y171.443 E2.9224
G1 X52.310 Y172.462 E3.0084
G1 X52.190 Y172.342 E3.0227
G1 X52.190 Y173.360 E3.1086
G1 X52.310 Y173.480 E3.1230
G1 X52.310 Y174.498 E3.2089
G1 X51.756 Y173.944 E3.2750
G1 X51.247 Y174.453 E3.3358
G1 X52.310 Y175.516 E3.4627
G1 X52.310 Y176.535 E3.5486
G1 X50.738 Y174.963 E3.7363
G1 X50.229 Y175.472 E3.7971
G1 X52.310 Y177.553 E4.0455
G1 X52.310 Y178.571 E4.1315
G1 X49.720 Y175.981 E4.4407
G1 X49.211 Y176.490 E4.5014
G1 X52.310 Y179.589 E4.8714
G1 X52.310 Y179.940 E4.9010
G1 X52.661 Y179.940 E4.9307
G1 X52.781 Y180.060 E4.9450
G1 X53.799 Y180.060 E5.0309
G1 X53.679 Y179.940 E5.0453
G1 X54.697 Y179.940 E5.1312
G1 X54.817 Y180.060 E5.1455
G1 X55.835 Y180.060 E5.2315
G1 X55.715 Y179.940 E5.2458
G1 X56.734 Y179.940 E5.3318
G1 X56.854 Y180.060 E5.3461
G1 X57.872 Y180.060 E5.4321
G1 X57.752 Y179.940 E5.4464
G1 X58.770 Y179.940 E5.5323
G1 X58.890 Y180.060 E5.5467
G1 X59.908 Y180.060 E5.6326
G1 X59.788 Y179.940 E5.6469
G1 X60.807 Y179.940 E5.7329
G1 X60.927 Y180.060 E5.7472
G1 X61.945 Y180.060 E5.8332
G1 X61.825 Y179.940 E5.8475
G1 X62.843 Y179.940 E5.9334
G1 X62.963 Y180.060 E5.9478
G1 X63.981 Y180.060 E6.0337
G1 X63.861 Y179.940 E6.0480
G1 X64.880 Y179.940 E6.1340
G1 X65.000 Y180.060 E6.1483
G1 X66.018 Y180.060 E6.2343
G1 X65.898 Y179.940 E6.2486
G1 X66.916 Y179.940 E6.3346
G1 X67.036 Y180.060 E6.3489
G1 X68.054 Y180.060 E6.4348
G1 X67.934 Y179.940 E6.4492
G1 X68.953 Y179.940 E6.5351
G1 X69.073 Y180.060 E6.5494
G1 X70.091 Y180.060 E6.6354
G1 X69.971 Y179.940 E6.6497
G1 X70.989 Y179.940 E6.7357
G1 X71.109 Y180.060 E6.7500
G1 X72.127 Y180.060 E6.8360
G1 X72.007 Y179.940 E6.8503
G1 X73.025 Y179.940 E6.9362
G1 X73.145 Y180.060 E6.9506
G1 X74.164 Y180.060 E7.0365
G1 X74.044 Y179.940 E7.0508
G1 X75.062 Y179.940 E7.1368
G1 X75.182 Y180.060 E7.1511
G1 X76.200 Y180.060 E7.2371
G1 X76.080 Y179.940 E7.2514
G1 X77.098 Y179.940 E7.3374
G1 X77.218 Y180.060 E7.3517
G1 X78.237 Y180.060 E7.4376
G1 X78.117 Y179.940 E7.4520
G1 X79.135 Y179.940 E7.5379
G1 X79.255 Y180.060 E7.5522
G1 X80.273 Y180.060 E7.6382
G1 X80.153 Y179.940 E7.6525
G1 X81.171 Y179.940 E7.7385
G1 X81.291 Y180.060 E7.7528
G1 X82.310 Y180.060 E7.8387
G1 X82.190 Y179.940 E7.8531
G1 X83.208 Y179.940 E7.9390
G1 X83.328 Y180.060 E7.9534
G1 X84.346 Y180.060 E8.0393
G1 X84.226 Y179.940 E8.0536
G1 X85.244 Y179.940 E8.1396
G1 X85.364 Y180.060 E8.1539
G1 X86.383 Y180.060 E8.2399
G1 X86.263 Y179.940 E8.2542
G1 X87.281 Y179.940 E8.3401
G1 X87.401 Y180.060 E8.3545
G1 X88.419 Y180.060 E8.4404
G1 X88.299 Y179.940 E8.4547
G1 X89.317 Y179.940 E8.5407
G1 X89.437 Y180.060 E8.5550
G1 X90.455 Y180.060 E8.6410
G1 X90.335 Y179.940 E8.6553
G1 X91.354 Y179.940 E8.7413
G1 X91.474 Y180.060 E8.7556
G1 X92.492 Y180.060 E8.8415
G1 X92.372 Y179.940 E8.8559
G1 X93.390 Y179.940 E8.9418
G1 X93.510 Y180.060 E8.9561
G1 X94.528 Y180.060 E9.0421
G1 X94.408 Y179.940 E9.0564
G1 X95.427 Y179.940 E9.1424
G1 X95.547 Y180.060 E9.1567
G1 X96.565 Y180.060 E9.2427
G1 X96.445 Y179.940 E9.2570
G1 X97.463 Y179.940 E9.3429
G1 X97.583 Y180.060 E9.3573
G1 X98.601 Y180.060 E9.4432
G1 X98.481 Y179.940 E9.4575
G1 X99.500 Y179.940 E9.5435
G1 X99.620 Y180.060 E9.5578
G1 X100.638 Y180.060 E9.6438
G1 X100.518 Y179.940 E9.6581
G1 X101.536 Y179.940 E9.7440
G1 X101.656 Y180.060 E9.7584
G1 X102.674 Y180.060 E9.8443
G1 X102.554 Y179.940 E9.8587
G1 X103.572 Y179.940 E9.9446
G1 X103.692 Y180.060 E9.9589
