; G-Code generated by Simplify3D(R) Version 4.1.2
; Dec 23, 2020 at 10:48:26 PM
; Settings Summary
;   processName,Process1
;   applyToModels,nose_clip_extended(2),nose_clip_extended(3),nose_clip_extended(4),expansin-cube,expansin-cube(2),expansin-cube(3),expansin-cube(2)(2),nose_clip_extended(2)(2),nose_clip_extended(3)(2),nose_clip_extended(4)(2),expansin-cube(4),expansin-cube(2)(3),expansin-cube(3)(2),expansin-cube(2)(2)(2),nose_clip_extended(2)(3),nose_clip_extended(3)(3),nose_clip_extended(4)(3),expansin-cube(5),expansin-cube(2)(4),expansin-cube(3)(3),expansin-cube(2)(2)(3),nose_clip_extended(2)(2)(2),nose_clip_extended(3)(2)(2),nose_clip_extended(4)(2)(2),expansin-cube(4)(2),expansin-cube(2)(3)(2),expansin-cube(3)(2)(2),expansin-cube(2)(2)(2)(2),nose_clip_extended(2)(4),nose_clip_extended(3)(4),nose_clip_extended(4)(4),expansin-cube(6),expansin-cube(2)(5),expansin-cube(3)(4),expansin-cube(2)(2)(4),nose_clip_extended(2)(2)(3),nose_clip_extended(3)(2)(3),nose_clip_extended(4)(2)(3),expansin-cube(4)(3),expansin-cube(2)(3)(3),expansin-cube(3)(2)(3),expansin-cube(2)(2)(2)(3)
;   profileName,HBot (modified)
;   profileVersion,2019-10-26 23:38:43
;   baseProfile,Default
;   printMaterial,PETG - SUNLU
;   printQuality,Medium
;   printExtruders,
;   extruderName,Extruder 1
;   extruderToolheadNumber,0
;   extruderDiameter,0.4
;   extruderAutoWidth,1
;   extruderWidth,0.48
;   extrusionMultiplier,1
;   extruderUseRetract,1
;   extruderRetractionDistance,4
;   extruderExtraRestartDistance,0
;   extruderRetractionZLift,0
;   extruderRetractionSpeed,5400
;   extruderUseCoasting,1
;   extruderCoastingDistance,0.2
;   extruderUseWipe,1
;   extruderWipeDistance,5
;   primaryExtruder,0
;   layerHeight,0.2
;   topSolidLayers,4
;   bottomSolidLayers,4
;   perimeterOutlines,3
;   printPerimetersInsideOut,0
;   startPointOption,3
;   startPointOriginX,110
;   startPointOriginY,300
;   sequentialIslands,0
;   spiralVaseMode,0
;   firstLayerHeightPercentage,100
;   firstLayerWidthPercentage,100
;   firstLayerUnderspeed,0.5
;   useRaft,0
;   raftExtruder,0
;   raftTopLayers,3
;   raftBaseLayers,2
;   raftOffset,3
;   raftSeparationDistance,0.18
;   raftTopInfill,100
;   aboveRaftSpeedMultiplier,0.3
;   useSkirt,0
;   skirtExtruder,0
;   skirtLayers,1
;   skirtOutlines,10
;   skirtOffset,0
;   usePrimePillar,0
;   primePillarExtruder,999
;   primePillarWidth,12
;   primePillarLocation,7
;   primePillarSpeedMultiplier,1
;   useOozeShield,0
;   oozeShieldExtruder,999
;   oozeShieldOffset,0.9
;   oozeShieldOutlines,2
;   oozeShieldSidewallShape,0
;   oozeShieldSidewallAngle,30
;   oozeShieldSpeedMultiplier,1.5
;   infillExtruder,0
;   internalInfillPattern,Fast Honeycomb
;   externalInfillPattern,Rectilinear
;   infillPercentage,20
;   outlineOverlapPercentage,25
;   infillExtrusionWidthPercentage,100
;   minInfillLength,5
;   infillLayerInterval,1
;   internalInfillAngles,0
;   overlapInternalInfillAngles,0
;   externalInfillAngles,45,-45
;   generateSupport,1
;   supportExtruder,0
;   supportInfillPercentage,25
;   supportExtraInflation,0
;   supportBaseLayers,0
;   denseSupportExtruder,0
;   denseSupportLayers,0
;   denseSupportInfillPercentage,70
;   supportLayerInterval,1
;   supportHorizontalPartOffset,0.3
;   supportUpperSeparationLayers,1
;   supportLowerSeparationLayers,1
;   supportType,0
;   supportGridSpacing,4
;   maxOverhangAngle,25
;   supportAngles,0
;   temperatureName,Extruder 1,Heated Bed
;   temperatureNumber,0,1
;   temperatureSetpointCount,2,1
;   temperatureSetpointLayers,1,2,1
;   temperatureSetpointTemperatures,235,225,85
;   temperatureStabilizeAtStartup,1,1
;   temperatureHeatedBed,0,1
;   fanLayers,1,5,10
;   fanSpeeds,0,5,20
;   blipFanToFullPower,1
;   adjustSpeedForCooling,1
;   minSpeedLayerTime,15
;   minCoolingSpeedSlowdown,20
;   increaseFanForCooling,0
;   minFanLayerTime,45
;   maxCoolingFanSpeed,35
;   increaseFanForBridging,1
;   bridgingFanSpeed,85
;   use5D,1
;   relativeEdistances,0
;   allowEaxisZeroing,1
;   independentExtruderAxes,0
;   includeM10123,0
;   stickySupport,1
;   applyToolheadOffsets,0
;   gcodeXoffset,0
;   gcodeYoffset,0
;   gcodeZoffset,0
;   overrideMachineDefinition,1
;   machineTypeOverride,0
;   strokeXoverride,210
;   strokeYoverride,210
;   strokeZoverride,150
;   originOffsetXoverride,0
;   originOffsetYoverride,0
;   originOffsetZoverride,0
;   homeXdirOverride,-1
;   homeYdirOverride,-1
;   homeZdirOverride,-1
;   flipXoverride,1
;   flipYoverride,-1
;   flipZoverride,1
;   toolheadOffsets,0,0|0,0|0,0|0,0|0,0|0,0
;   overrideFirmwareConfiguration,1
;   firmwareTypeOverride,RepRap (Marlin/Repetier/Sprinter)
;   GPXconfigOverride,r2
;   baudRateOverride,115200
;   overridePrinterModels,0
;   printerModelsOverride
;   startingGcode,G28 ; home all axes,G32 ; run bed.g -- probe bed and enable compensation
;   layerChangeGcode,
;   retractionGcode,
;   toolChangeGcode,
;   endingGcode,M0 ; call stop.g
;   exportFileFormat,gcode
;   celebration,0
;   celebrationSong,Random Song
;   postProcessing,
;   defaultSpeed,3600
;   outlineUnderspeed,0.5
;   solidInfillUnderspeed,0.8
;   supportUnderspeed,0.8
;   rapidXYspeed,18000
;   rapidZspeed,1200
;   minBridgingArea,50
;   bridgingExtraInflation,0
;   bridgingExtrusionMultiplier,0.96
;   bridgingSpeedMultiplier,1
;   useFixedBridgingAngle,0
;   fixedBridgingAngle,0
;   applyBridgingToPerimeters,0
;   filamentDiameters,1.75|1.75|1.75|1.75|1.75|1.75
;   filamentPricesPerKg,46|46|46|46|46|46
;   filamentDensities,1.25|1.25|1.25|1.25|1.25|1.25
;   useMinPrintHeight,0
;   minPrintHeight,20
;   useMaxPrintHeight,0
;   maxPrintHeight,15
;   useDiaphragm,0
;   diaphragmLayerInterval,20
;   robustSlicing,1
;   mergeAllIntoSolid,0
;   onlyRetractWhenCrossingOutline,1
;   retractBetweenLayers,0
;   useRetractionMinTravel,1
;   retractionMinTravel,3
;   retractWhileWiping,1
;   onlyWipeOutlines,1
;   avoidCrossingOutline,1
;   maxMovementDetourFactor,5
;   toolChangeRetractionDistance,12
;   toolChangeExtraRestartDistance,-0.5
;   toolChangeRetractionSpeed,600
;   externalThinWallType,1
;   internalThinWallType,1
;   thinWallAllowedOverlapPercentage,10
;   singleExtrusionMinLength,1
;   singleExtrusionMinPrintingWidthPercentage,50
;   singleExtrusionMaxPrintingWidthPercentage,150
;   singleExtrusionEndpointExtension,0.2
;   horizontalSizeCompensation,-0.1
G90
M82
M106 S0
M140 S85
M190 S85
M104 S235 T0
M109 S235 T0
G28 ; home all axes
G32 ; run bed.g -- probe bed and enable compensation
; process Process1
; layer 1, Z = 0.200
T0
G92 E0.0000
G1 E-4.0000 F5400
; feature outer perimeter
; tool H0.200 W0.480
G1 Z0.200 F1200
G1 X164.372 Y72.474 F18000
G1 E0.0000 F5400
G92 E0.0000
G1 X163.715 Y72.214 E0.0282 F900
G1 X130.226 Y54.896 E1.5329
G1 X130.209 Y54.929 E1.5344
G1 X126.027 Y52.792 E1.7219
G1 X125.582 Y52.728 E1.7398
G1 X124.771 Y52.454 E1.7740
G1 X124.021 Y52.010 E1.8088
G1 X123.353 Y51.405 E1.8448
G1 X122.982 Y50.914 E1.8693
G1 X122.655 Y50.385 E1.8942
G1 X122.193 Y49.339 E1.9398
G1 X122.017 Y49.081 E1.9523
G1 X120.235 Y47.200 E2.0557
G1 X119.897 Y46.823 E2.0759
G1 X118.964 Y45.641 E2.1360
G1 X118.677 Y45.324 E2.1531
G1 X117.574 Y43.732 E2.2304
G1 X116.883 Y42.544 E2.2852
G1 X116.562 Y42.033 E2.3093
G1 X115.210 Y39.103 E2.4381
G1 X115.105 Y38.759 E2.4524
G1 X114.235 Y36.363 E2.5542
G1 X114.094 Y36.028 E2.5687
G1 X113.195 Y33.427 E2.6785
G1 X111.975 Y30.990 E2.7873
G1 X111.780 Y30.684 E2.8018
G1 X111.317 Y30.081 E2.8321
G1 X111.009 Y29.764 E2.8497
G1 X109.618 Y28.579 E2.9227
G1 X108.579 Y28.095 E2.9685
G1 X107.969 Y27.841 E2.9948
G1 X106.957 Y27.553 E3.0368
G1 X106.018 Y27.445 E3.0745
G1 X105.201 Y27.423 E3.1071
G1 X104.751 Y27.455 E3.1251
G1 X103.440 Y27.630 E3.1780
G1 X103.071 Y27.741 E3.1933
G1 X101.880 Y28.235 E3.2448
G1 X100.922 Y28.837 E3.2899
G1 X100.040 Y29.583 E3.3361
G1 X99.334 Y30.484 E3.3817
G1 X98.998 Y30.867 E3.4021
G1 X98.735 Y31.220 E3.4196
G1 X98.209 Y32.135 E3.4618
G1 X98.149 Y32.297 E3.4687
G1 X97.724 Y33.207 E3.5087
G1 X96.733 Y35.888 E3.6228
G1 X96.025 Y37.642 E3.6983
G1 X95.920 Y37.971 E3.7121
G1 X95.675 Y38.524 E3.7363
G1 X94.923 Y40.111 E3.8063
G1 X94.236 Y41.341 E3.8626
G1 X94.027 Y41.631 E3.8769
G1 X93.349 Y42.699 E3.9273
G1 X92.642 Y43.740 E3.9775
G1 X92.456 Y44.050 E3.9920
G1 X91.987 Y44.669 E4.0230
G1 X90.699 Y46.248 E4.1043
G1 X90.491 Y46.541 E4.1187
G1 X90.080 Y47.016 E4.1437
G1 X89.505 Y47.634 E4.1774
G1 X88.080 Y49.116 E4.2594
G1 X87.879 Y49.474 E4.2758
G1 X87.481 Y50.447 E4.3178
G1 X87.435 Y50.596 E4.3240
G1 X87.279 Y50.876 E4.3368
G1 X86.822 Y51.518 E4.3683
G1 X86.579 Y51.792 E4.3829
G1 X86.157 Y52.188 E4.4060
G1 X85.438 Y52.630 E4.4397
G1 X84.664 Y52.900 E4.4724
G1 X84.235 Y52.943 E4.4896
G1 X79.513 Y55.361 E4.7015
G1 X45.786 Y72.139 E6.2050
G1 X45.113 Y72.394 E6.2337
G1 X44.419 Y72.505 E6.2617
G1 X43.717 Y72.475 E6.2898
G1 X43.036 Y72.305 E6.3178
G1 X42.402 Y72.002 E6.3458
G1 X41.842 Y71.579 E6.3739
G1 X41.377 Y71.052 E6.4019
G1 X41.028 Y70.442 E6.4300
G1 X40.808 Y69.775 E6.4580
G1 X40.726 Y69.077 E6.4860
G1 X40.786 Y68.377 E6.5141
G1 X40.984 Y67.704 E6.5421
G1 X41.314 Y67.083 E6.5701
G1 X41.761 Y66.541 E6.5982
G1 X42.307 Y66.100 E6.6262
G1 X42.931 Y65.777 E6.6542
G1 X43.606 Y65.585 E6.6823
G1 X44.307 Y65.533 E6.7103
G1 X45.004 Y65.622 E6.7383
G1 X45.668 Y65.849 E6.7664
G1 X46.274 Y66.204 E6.7944
G1 X46.794 Y66.671 E6.8223
G1 X46.902 Y66.823 E6.8297
G1 X46.969 Y66.993 E6.8370
G1 X46.993 Y67.174 E6.8443
G1 X46.974 Y67.355 E6.8516
G1 X46.911 Y67.527 E6.8589
G1 X46.810 Y67.678 E6.8662
G1 X46.674 Y67.801 E6.8735
G1 X46.514 Y67.888 E6.8808
G1 X46.337 Y67.934 E6.8880
G1 X46.155 Y67.937 E6.8953
G1 X45.977 Y67.895 E6.9026
G1 X45.814 Y67.812 E6.9099
G1 X45.314 Y67.382 E6.9362
G1 X44.886 Y67.169 E6.9553
G1 X44.420 Y67.066 E6.9744
G1 X43.943 Y67.080 E6.9934
G1 X43.484 Y67.210 E7.0125
G1 X43.070 Y67.449 E7.0315
G1 X42.727 Y67.780 E7.0506
G1 X42.475 Y68.186 E7.0696
G1 X42.330 Y68.641 E7.0887
G1 X42.300 Y69.117 E7.1077
G1 X42.387 Y69.587 E7.1268
G1 X42.586 Y70.021 E7.1459
G1 X42.884 Y70.393 E7.1649
G1 X43.265 Y70.681 E7.1840
G1 X43.704 Y70.868 E7.2030
G1 X44.176 Y70.942 E7.2221
G1 X44.652 Y70.898 E7.2411
G1 X45.082 Y70.747 E7.2593
G1 X79.256 Y53.791 E8.7820
G1 X79.251 Y53.779 E8.7825
G1 X83.978 Y51.363 E8.9944
G1 X84.891 Y50.702 E9.0394
G1 X87.220 Y48.674 E9.1626
G1 X88.662 Y47.227 E9.2442
G1 X89.692 Y46.093 E9.3053
G1 X90.040 Y45.673 E9.3271
G1 X91.448 Y43.877 E9.4182
G1 X92.872 Y41.774 E9.5195
G1 X93.321 Y41.154 E9.5501
G1 X94.335 Y39.336 E9.6332
G1 X95.243 Y37.373 E9.7195
G1 X96.156 Y35.008 E9.8207
G1 X96.397 Y34.346 E9.8488
G1 X97.444 Y31.758 E9.9602
G1 X98.224 Y30.510 E10.0190
G1 X98.382 Y30.215 E10.0323
G1 X98.549 Y29.956 E10.0446
G1 X99.181 Y29.133 E10.0860
G1 X99.893 Y28.426 E10.1261
G1 X100.457 Y28.020 E10.1538
G1 X100.697 Y27.825 E10.1662
G1 X100.968 Y27.659 E10.1789
G1 X101.287 Y27.516 E10.1928
G1 X102.560 Y26.827 E10.2506
G1 X102.758 Y26.679 E10.2605
G1 X103.587 Y26.139 E10.2999
G1 X103.823 Y26.004 E10.3108
G1 X104.647 Y25.733 E10.3454
G1 X105.500 Y25.642 E10.3796
G1 X106.355 Y25.734 E10.4140
G1 X107.181 Y26.004 E10.4486
G1 X107.955 Y26.448 E10.4843
G1 X108.529 Y26.924 E10.5140
G1 X108.703 Y27.026 E10.5221
G1 X109.620 Y27.454 E10.5625
G1 X110.154 Y27.829 E10.5885
G1 X110.454 Y28.020 E10.6027
G1 X110.731 Y28.251 E10.6171
G1 X111.254 Y28.652 E10.6434
G1 X111.956 Y29.405 E10.6845
G1 X112.681 Y30.400 E10.7336
G1 X113.288 Y31.493 E10.7835
G1 X113.799 Y32.665 E10.8346
G1 X113.874 Y32.846 E10.8424
G1 X115.472 Y37.490 E11.0384
G1 X116.153 Y39.235 E11.1132
G1 X116.943 Y40.929 E11.1878
G1 X117.709 Y42.247 E11.2486
G1 X117.834 Y42.489 E11.2595
G1 X118.842 Y44.076 E11.3345
G1 X120.176 Y45.805 E11.4217
G1 X121.687 Y47.530 E11.5132
G1 X122.024 Y47.758 E11.5294
G1 X122.581 Y48.326 E11.5612
G1 X124.269 Y49.870 E11.6525
G1 X125.033 Y50.494 E11.6919
G1 X126.045 Y51.260 E11.7425
G1 X126.144 Y51.068 E11.7512
G1 X130.881 Y53.489 E11.9635
G1 X130.867 Y53.516 E11.9647
G1 X164.452 Y70.872 E13.4736
G1 X164.874 Y71.029 E13.4916
G1 X165.343 Y71.082 E13.5104
G1 X165.811 Y71.020 E13.5292
G1 X166.250 Y70.847 E13.5481
G1 X166.634 Y70.573 E13.5669
G1 X166.941 Y70.215 E13.5857
G1 X167.153 Y69.794 E13.6045
G1 X167.257 Y69.333 E13.6234
G1 X167.246 Y68.862 E13.6422
G1 X167.123 Y68.406 E13.6610
G1 X166.893 Y67.994 E13.6799
G1 X166.571 Y67.650 E13.6987
G1 X166.175 Y67.393 E13.7175
G1 X165.729 Y67.239 E13.7363
G1 X165.259 Y67.198 E13.7552
G1 X164.793 Y67.271 E13.7740
G1 X164.358 Y67.454 E13.7928
G1 X163.833 Y67.846 E13.8190
G1 X163.664 Y67.918 E13.8263
G1 X163.483 Y67.947 E13.8337
G1 X163.299 Y67.932 E13.8410
G1 X163.125 Y67.874 E13.8483
G1 X162.970 Y67.775 E13.8557
G1 X162.843 Y67.643 E13.8630
G1 X162.751 Y67.483 E13.8704
G1 X162.700 Y67.307 E13.8777
G1 X162.693 Y67.123 E13.8850
G1 X162.730 Y66.943 E13.8924
G1 X162.809 Y66.777 E13.8997
G1 X162.928 Y66.632 E13.9072
G1 X163.468 Y66.209 E13.9346
G1 X164.085 Y65.900 E13.9621
G1 X164.750 Y65.719 E13.9896
G1 X165.439 Y65.673 E14.0172
G1 X166.122 Y65.764 E14.0447
G1 X166.775 Y65.989 E14.0722
G1 X167.369 Y66.338 E14.0997
G1 X167.883 Y66.798 E14.1273
G1 X168.296 Y67.351 E14.1548
G1 X168.591 Y67.975 E14.1823
G1 X168.756 Y68.644 E14.2099
G1 X168.787 Y69.333 E14.2374
G1 X168.680 Y70.015 E14.2649
G1 X168.440 Y70.662 E14.2925
G1 X168.077 Y71.248 E14.3200
G1 X167.605 Y71.751 E14.3475
G1 X167.043 Y72.151 E14.3750
G1 X166.413 Y72.432 E14.4026
G1 X165.740 Y72.582 E14.4301
G1 X165.051 Y72.597 E14.4576
G1 X164.569 Y72.510 E14.4772
G1 X164.372 Y72.474 F900
G1 X163.715 Y72.214 F900
G1 X159.901 Y70.242
; feature inner perimeter
G1 X163.914 Y71.776 F18000
G92 E0.0000
G1 X130.018 Y54.248 E1.5230 F1350
G1 X130.000 Y54.283 E1.5246
G1 X126.119 Y52.300 E1.6986
G1 X126.112 Y52.319 E1.6994
G1 X125.694 Y52.259 E1.7162
G1 X124.972 Y52.016 E1.7466
G1 X124.308 Y51.621 E1.7775
G1 X123.708 Y51.080 E1.8097
G1 X123.379 Y50.643 E1.8316
G1 X123.081 Y50.160 E1.8542
G1 X122.887 Y49.721 E1.8734
G1 X123.171 Y49.517 E1.8873
G1 X123.955 Y50.234 E1.9298
G1 X124.736 Y50.872 E1.9700
G1 X126.212 Y51.989 E2.0439
G1 X126.353 Y51.714 E2.0562
G1 X130.235 Y53.698 E2.2302
G1 X130.222 Y53.723 E2.2313
G1 X164.257 Y71.312 E3.7604
G1 X164.762 Y71.500 E3.7819
G1 X165.348 Y71.565 E3.8054
G1 X165.932 Y71.488 E3.8290
G1 X166.480 Y71.272 E3.8525
G1 X166.960 Y70.930 E3.8760
G1 X167.344 Y70.483 E3.8995
G1 X167.608 Y69.956 E3.9230
G1 X167.738 Y69.382 E3.9465
G1 X167.725 Y68.793 E3.9701
G1 X167.571 Y68.224 E3.9936
G1 X167.284 Y67.709 E4.0171
G1 X166.881 Y67.279 E4.0406
G1 X166.387 Y66.959 E4.0641
G1 X165.830 Y66.767 E4.0876
G1 X165.243 Y66.714 E4.1112
G1 X164.661 Y66.805 E4.1347
G1 X164.118 Y67.034 E4.1582
G1 X163.592 Y67.427 E4.1844
G1 X163.530 Y67.454 E4.1871
G1 X163.464 Y67.464 E4.1898
G1 X163.397 Y67.459 E4.1924
G1 X163.333 Y67.437 E4.1951
G1 X163.276 Y67.401 E4.1978
G1 X163.230 Y67.353 E4.2005
G1 X163.196 Y67.294 E4.2032
G1 X163.178 Y67.230 E4.2059
G1 X163.175 Y67.163 E4.2086
G1 X163.189 Y67.097 E4.2112
G1 X163.217 Y67.036 E4.2139
G1 X163.266 Y66.977 E4.2170
G1 X163.726 Y66.616 E4.2403
G1 X164.257 Y66.350 E4.2640
G1 X164.830 Y66.194 E4.2877
G1 X165.423 Y66.155 E4.3114
G1 X166.011 Y66.234 E4.3351
G1 X166.573 Y66.427 E4.3588
G1 X167.085 Y66.728 E4.3825
G1 X167.527 Y67.124 E4.4062
G1 X167.882 Y67.600 E4.4299
G1 X168.136 Y68.137 E4.4536
G1 X168.279 Y68.713 E4.4773
G1 X168.305 Y69.306 E4.5010
G1 X168.213 Y69.893 E4.5247
G1 X168.007 Y70.450 E4.5484
G1 X167.694 Y70.955 E4.5721
G1 X167.288 Y71.388 E4.5958
G1 X166.804 Y71.732 E4.6195
G1 X166.262 Y71.974 E4.6432
G1 X165.682 Y72.104 E4.6669
G1 X165.089 Y72.116 E4.6906
G1 X164.504 Y72.010 E4.7143
G1 X164.100 Y71.850 E4.7317
G1 X163.914 Y71.776 F1350
G1 X159.603 Y68.367 F18000
G1 X130.867 Y53.516
G1 X130.881 Y53.489
G1 X126.144 Y51.068
G1 X126.045 Y51.260
G1 X125.033 Y50.494
G1 X124.269 Y49.870
G1 X122.581 Y48.326
G1 X122.024 Y47.758
G1 X121.687 Y47.530
G1 X120.176 Y45.805
G1 X118.842 Y44.076
G1 X117.834 Y42.489
G1 X117.709 Y42.247
G1 X116.943 Y40.929
G1 X116.153 Y39.235
G1 X115.472 Y37.490
G1 X113.874 Y32.845
G1 X113.799 Y32.665
G1 X113.447 Y31.858
G1 X111.497 Y30.316
G1 X111.317 Y30.081
