; G-Code generated by Simplify3D(R) Version 4.1.2
; Dec 23, 2020 at 9:11:38 PM
; Settings Summary
;   processName,Process1
;   applyToModels,nose_clip_extended(2),nose_clip_extended(3),nose_clip_extended(4),expansin-cube,expansin-cube(2),expansin-cube(3),expansin-cube(2)(2)
;   profileName,HBot (modified)
;   profileVersion,2019-10-26 23:38:43
;   baseProfile,Default
;   printMaterial,PETG - SUNLU
;   printQuality,Medium
;   printExtruders,
;   extruderName,Extruder 1
;   extruderToolheadNumber,0
;   extruderDiameter,0.4
;   extruderAutoWidth,1
;   extruderWidth,0.48
;   extrusionMultiplier,1
;   extruderUseRetract,1
;   extruderRetractionDistance,4
;   extruderExtraRestartDistance,0
;   extruderRetractionZLift,0
;   extruderRetractionSpeed,5400
;   extruderUseCoasting,1
;   extruderCoastingDistance,0.2
;   extruderUseWipe,0
;   extruderWipeDistance,5
;   primaryExtruder,0
;   layerHeight,0.2
;   topSolidLayers,4
;   bottomSolidLayers,4
;   perimeterOutlines,3
;   printPerimetersInsideOut,0
;   startPointOption,3
;   startPointOriginX,110
;   startPointOriginY,300
;   sequentialIslands,0
;   spiralVaseMode,0
;   firstLayerHeightPercentage,100
;   firstLayerWidthPercentage,100
;   firstLayerUnderspeed,0.5
;   useRaft,0
;   raftExtruder,0
;   raftTopLayers,3
;   raftBaseLayers,2
;   raftOffset,3
;   raftSeparationDistance,0.18
;   raftTopInfill,100
;   aboveRaftSpeedMultiplier,0.3
;   useSkirt,0
;   skirtExtruder,0
;   skirtLayers,1
;   skirtOutlines,10
;   skirtOffset,0
;   usePrimePillar,0
;   primePillarExtruder,999
;   primePillarWidth,12
;   primePillarLocation,7
;   primePillarSpeedMultiplier,1
;   useOozeShield,0
;   oozeShieldExtruder,999
;   oozeShieldOffset,0.9
;   oozeShieldOutlines,2
;   oozeShieldSidewallShape,0
;   oozeShieldSidewallAngle,30
;   oozeShieldSpeedMultiplier,1.5
;   infillExtruder,0
;   internalInfillPattern,Fast Honeycomb
;   externalInfillPattern,Rectilinear
;   infillPercentage,20
;   outlineOverlapPercentage,25
;   infillExtrusionWidthPercentage,100
;   minInfillLength,5
;   infillLayerInterval,1
;   internalInfillAngles,0
;   overlapInternalInfillAngles,0
;   externalInfillAngles,45,-45
;   generateSupport,1
;   supportExtruder,0
;   supportInfillPercentage,25
;   supportExtraInflation,0
;   supportBaseLayers,0
;   denseSupportExtruder,0
;   denseSupportLayers,0
;   denseSupportInfillPercentage,70
;   supportLayerInterval,1
;   supportHorizontalPartOffset,0.3
;   supportUpperSeparationLayers,1
;   supportLowerSeparationLayers,1
;   supportType,0
;   supportGridSpacing,4
;   maxOverhangAngle,25
;   supportAngles,0
;   temperatureName,Extruder 1,Heated Bed
;   temperatureNumber,0,1
;   temperatureSetpointCount,2,1
;   temperatureSetpointLayers,1,2,1
;   temperatureSetpointTemperatures,235,225,85
;   temperatureStabilizeAtStartup,1,1
;   temperatureHeatedBed,0,1
;   fanLayers,1,5,10
;   fanSpeeds,0,5,20
;   blipFanToFullPower,1
;   adjustSpeedForCooling,1
;   minSpeedLayerTime,15
;   minCoolingSpeedSlowdown,20
;   increaseFanForCooling,0
;   minFanLayerTime,45
;   maxCoolingFanSpeed,35
;   increaseFanForBridging,1
;   bridgingFanSpeed,85
;   use5D,1
;   relativeEdistances,0
;   allowEaxisZeroing,1
;   independentExtruderAxes,0
;   includeM10123,0
;   stickySupport,1
;   applyToolheadOffsets,0
;   gcodeXoffset,0
;   gcodeYoffset,0
;   gcodeZoffset,0
;   overrideMachineDefinition,1
;   machineTypeOverride,0
;   strokeXoverride,210
;   strokeYoverride,210
;   strokeZoverride,150
;   originOffsetXoverride,0
;   originOffsetYoverride,0
;   originOffsetZoverride,0
;   homeXdirOverride,-1
;   homeYdirOverride,-1
;   homeZdirOverride,-1
;   flipXoverride,1
;   flipYoverride,-1
;   flipZoverride,1
;   toolheadOffsets,0,0|0,0|0,0|0,0|0,0|0,0
;   overrideFirmwareConfiguration,1
;   firmwareTypeOverride,RepRap (Marlin/Repetier/Sprinter)
;   GPXconfigOverride,r2
;   baudRateOverride,115200
;   overridePrinterModels,0
;   printerModelsOverride
;   startingGcode,G28 ; home all axes,G32 ; run bed.g -- probe bed and enable compensation
;   layerChangeGcode,
;   retractionGcode,
;   toolChangeGcode,
;   endingGcode,M0 ; call stop.g
;   exportFileFormat,gcode
;   celebration,0
;   celebrationSong,Random Song
;   postProcessing,
;   defaultSpeed,3600
;   outlineUnderspeed,0.5
;   solidInfillUnderspeed,0.8
;   supportUnderspeed,0.8
;   rapidXYspeed,18000
;   rapidZspeed,1200
;   minBridgingArea,50
;   bridgingExtraInflation,0
;   bridgingExtrusionMultiplier,0.96
;   bridgingSpeedMultiplier,1
;   useFixedBridgingAngle,0
;   fixedBridgingAngle,0
;   applyBridgingToPerimeters,0
;   filamentDiameters,1.75|1.75|1.75|1.75|1.75|1.75
;   filamentPricesPerKg,46|46|46|46|46|46
;   filamentDensities,1.25|1.25|1.25|1.25|1.25|1.25
;   useMinPrintHeight,0
;   minPrintHeight,20
;   useMaxPrintHeight,0
;   maxPrintHeight,15
;   useDiaphragm,0
;   diaphragmLayerInterval,20
;   robustSlicing,1
;   mergeAllIntoSolid,0
;   onlyRetractWhenCrossingOutline,0
;   retractBetweenLayers,0
;   useRetractionMinTravel,1
;   retractionMinTravel,3
;   retractWhileWiping,1
;   onlyWipeOutlines,1
;   avoidCrossingOutline,1
;   maxMovementDetourFactor,5
;   toolChangeRetractionDistance,12
;   toolChangeExtraRestartDistance,-0.5
;   toolChangeRetractionSpeed,600
;   externalThinWallType,1
;   internalThinWallType,1
;   thinWallAllowedOverlapPercentage,10
;   singleExtrusionMinLength,1
;   singleExtrusionMinPrintingWidthPercentage,50
;   singleExtrusionMaxPrintingWidthPercentage,150
;   singleExtrusionEndpointExtension,0.2
;   horizontalSizeCompensation,-0.1
G90
M82
M106 S0
M140 S85
M190 S85
M104 S235 T0
M109 S235 T0
G28 ; home all axes
G32 ; run bed.g -- probe bed and enable compensation
; process Process1
; layer 1, Z = 0.200
T0
G92 E0.0000
G1 E-4.0000 F5400
; feature outer perimeter
; tool H0.200 W0.480
G1 Z0.200 F1200
G1 X164.614 Y129.440 F18000
G1 E0.0000 F5400
G92 E0.0000
G1 X163.957 Y129.180 E0.0282 F900
G1 X130.469 Y111.862 E1.5329
G1 X130.452 Y111.895 E1.5344
G1 X126.270 Y109.758 E1.7219
G1 X125.825 Y109.694 E1.7398
G1 X125.013 Y109.420 E1.7740
G1 X124.264 Y108.975 E1.8088
G1 X123.595 Y108.371 E1.8448
G1 X123.224 Y107.880 E1.8693
G1 X122.897 Y107.351 E1.8942
G1 X122.435 Y106.305 E1.9398
G1 X122.260 Y106.047 E1.9523
G1 X120.477 Y104.166 E2.0557
G1 X120.139 Y103.789 E2.0759
G1 X119.206 Y102.607 E2.1360
G1 X118.919 Y102.290 E2.1531
G1 X117.816 Y100.698 E2.2304
G1 X117.125 Y99.510 E2.2852
G1 X116.804 Y98.999 E2.3093
G1 X115.453 Y96.069 E2.4381
G1 X115.347 Y95.725 E2.4524
G1 X114.477 Y93.329 E2.5542
G1 X114.336 Y92.994 E2.5687
G1 X113.437 Y90.393 E2.6785
G1 X112.218 Y87.956 E2.7873
G1 X112.022 Y87.650 E2.8018
G1 X111.559 Y87.047 E2.8321
G1 X111.252 Y86.730 E2.8497
G1 X109.861 Y85.545 E2.9227
G1 X108.821 Y85.061 E2.9685
G1 X108.212 Y84.807 E2.9948
G1 X107.200 Y84.519 E3.0368
G1 X106.260 Y84.411 E3.0745
G1 X105.444 Y84.389 E3.1071
G1 X104.994 Y84.421 E3.1251
G1 X103.682 Y84.596 E3.1780
G1 X103.313 Y84.707 E3.1933
G1 X102.123 Y85.201 E3.2448
G1 X101.164 Y85.803 E3.2899
G1 X100.282 Y86.549 E3.3361
G1 X99.576 Y87.450 E3.3817
G1 X99.240 Y87.833 E3.4021
G1 X98.978 Y88.186 E3.4196
G1 X98.451 Y89.101 E3.4618
G1 X98.391 Y89.263 E3.4687
G1 X97.966 Y90.173 E3.5087
G1 X96.975 Y92.854 E3.6228
G1 X96.267 Y94.608 E3.6983
G1 X96.162 Y94.936 E3.7121
G1 X95.917 Y95.490 E3.7363
G1 X95.166 Y97.077 E3.8063
G1 X94.478 Y98.307 E3.8626
G1 X94.269 Y98.597 E3.8768
G1 X93.591 Y99.665 E3.9273
G1 X92.884 Y100.706 E3.9775
G1 X92.698 Y101.016 E3.9920
G1 X92.229 Y101.635 E4.0230
G1 X90.942 Y103.215 E4.1043
G1 X90.733 Y103.507 E4.1187
G1 X90.322 Y103.982 E4.1437
G1 X89.748 Y104.600 E4.1774
G1 X88.322 Y106.082 E4.2594
G1 X88.121 Y106.440 E4.2758
G1 X87.724 Y107.413 E4.3178
G1 X87.678 Y107.562 E4.3240
G1 X87.522 Y107.842 E4.3368
G1 X87.064 Y108.484 E4.3683
G1 X86.821 Y108.758 E4.3829
G1 X86.399 Y109.154 E4.4060
G1 X85.680 Y109.596 E4.4397
G1 X84.906 Y109.866 E4.4724
G1 X84.478 Y109.909 E4.4896
G1 X79.754 Y112.327 E4.7015
G1 X46.028 Y129.105 E6.2050
G1 X45.355 Y129.359 E6.2337
G1 X44.661 Y129.471 E6.2617
G1 X43.960 Y129.441 E6.2898
G1 X43.278 Y129.271 E6.3178
G1 X42.644 Y128.968 E6.3458
G1 X42.084 Y128.545 E6.3739
G1 X41.620 Y128.018 E6.4019
G1 X41.271 Y127.408 E6.4300
G1 X41.051 Y126.741 E6.4580
G1 X40.969 Y126.043 E6.4860
G1 X41.028 Y125.343 E6.5141
G1 X41.227 Y124.670 E6.5421
G1 X41.556 Y124.049 E6.5701
G1 X42.003 Y123.507 E6.5982
G1 X42.549 Y123.066 E6.6262
G1 X43.173 Y122.743 E6.6542
G1 X43.849 Y122.551 E6.6823
G1 X44.549 Y122.499 E6.7103
G1 X45.246 Y122.588 E6.7383
G1 X45.911 Y122.815 E6.7664
G1 X46.517 Y123.170 E6.7944
G1 X47.037 Y123.637 E6.8223
G1 X47.144 Y123.789 E6.8297
G1 X47.211 Y123.959 E6.8370
G1 X47.236 Y124.140 E6.8443
G1 X47.216 Y124.321 E6.8516
G1 X47.154 Y124.493 E6.8589
G1 X47.052 Y124.644 E6.8662
G1 X46.917 Y124.767 E6.8735
G1 X46.756 Y124.854 E6.8808
G1 X46.579 Y124.900 E6.8880
G1 X46.397 Y124.903 E6.8953
G1 X46.219 Y124.861 E6.9026
G1 X46.056 Y124.778 E6.9099
G1 X45.556 Y124.348 E6.9362
G1 X45.129 Y124.135 E6.9553
G1 X44.663 Y124.032 E6.9744
G1 X44.185 Y124.046 E6.9934
G1 X43.726 Y124.176 E7.0125
G1 X43.312 Y124.414 E7.0315
G1 X42.969 Y124.746 E7.0506
G1 X42.717 Y125.152 E7.0696
G1 X42.572 Y125.607 E7.0887
G1 X42.542 Y126.083 E7.1077
G1 X42.629 Y126.553 E7.1268
G1 X42.828 Y126.987 E7.1459
G1 X43.127 Y127.359 E7.1649
G1 X43.507 Y127.647 E7.1840
G1 X43.947 Y127.834 E7.2030
G1 X44.418 Y127.908 E7.2221
G1 X44.894 Y127.864 E7.2411
G1 X45.324 Y127.713 E7.2593
G1 X79.499 Y110.756 E8.7820
G1 X79.493 Y110.745 E8.7825
G1 X84.221 Y108.329 E8.9944
G1 X85.134 Y107.668 E9.0394
G1 X87.462 Y105.640 E9.1626
G1 X88.904 Y104.193 E9.2442
G1 X89.935 Y103.059 E9.3053
G1 X90.283 Y102.639 E9.3271
G1 X91.691 Y100.843 E9.4182
G1 X93.114 Y98.741 E9.5195
G1 X93.563 Y98.120 E9.5501
G1 X94.577 Y96.302 E9.6332
G1 X95.485 Y94.339 E9.7195
G1 X96.398 Y91.974 E9.8207
G1 X96.639 Y91.312 E9.8488
G1 X97.686 Y88.724 E9.9602
G1 X98.466 Y87.476 E10.0190
G1 X98.625 Y87.181 E10.0323
G1 X98.792 Y86.922 E10.0446
G1 X99.424 Y86.099 E10.0860
G1 X100.135 Y85.392 E10.1261
G1 X100.699 Y84.986 E10.1538
G1 X100.939 Y84.790 E10.1662
G1 X101.211 Y84.625 E10.1789
G1 X101.529 Y84.482 E10.1928
G1 X102.803 Y83.793 E10.2506
G1 X103.001 Y83.645 E10.2605
G1 X103.829 Y83.105 E10.2999
G1 X104.066 Y82.970 E10.3108
G1 X104.890 Y82.699 E10.3454
G1 X105.742 Y82.608 E10.3796
G1 X106.598 Y82.700 E10.4140
G1 X107.423 Y82.970 E10.4486
G1 X108.197 Y83.413 E10.4842
G1 X108.771 Y83.890 E10.5140
G1 X108.945 Y83.992 E10.5221
G1 X109.863 Y84.420 E10.5625
G1 X110.397 Y84.795 E10.5885
G1 X110.696 Y84.986 E10.6027
G1 X110.973 Y85.217 E10.6171
G1 X111.496 Y85.618 E10.6434
G1 X112.199 Y86.371 E10.6845
G1 X112.923 Y87.366 E10.7336
G1 X113.530 Y88.459 E10.7836
G1 X114.041 Y89.631 E10.8346
G1 X114.117 Y89.812 E10.8424
G1 X115.715 Y94.455 E11.0384
G1 X116.395 Y96.201 E11.1132
G1 X117.185 Y97.895 E11.1878
G1 X117.951 Y99.213 E11.2486
G1 X118.076 Y99.455 E11.2595
G1 X119.085 Y101.042 E11.3345
G1 X120.419 Y102.771 E11.4217
G1 X121.930 Y104.495 E11.5132
G1 X122.266 Y104.724 E11.5294
G1 X122.824 Y105.292 E11.5612
G1 X124.512 Y106.836 E11.6525
G1 X125.275 Y107.460 E11.6919
G1 X126.287 Y108.226 E11.7425
G1 X126.386 Y108.034 E11.7512
G1 X131.123 Y110.455 E11.9635
G1 X131.109 Y110.482 E11.9647
G1 X164.694 Y127.838 E13.4736
G1 X165.117 Y127.995 E13.4916
G1 X165.585 Y128.048 E13.5104
G1 X166.053 Y127.986 E13.5292
G1 X166.492 Y127.813 E13.5481
G1 X166.876 Y127.539 E13.5669
G1 X167.183 Y127.181 E13.5857
G1 X167.395 Y126.760 E13.6045
G1 X167.499 Y126.299 E13.6234
G1 X167.489 Y125.828 E13.6422
G1 X167.365 Y125.372 E13.6610
G1 X167.135 Y124.960 E13.6799
G1 X166.813 Y124.616 E13.6987
G1 X166.417 Y124.359 E13.7175
G1 X165.971 Y124.205 E13.7363
G1 X165.501 Y124.164 E13.7552
G1 X165.035 Y124.237 E13.7740
G1 X164.600 Y124.420 E13.7928
G1 X164.076 Y124.812 E13.8190
G1 X163.906 Y124.884 E13.8263
G1 X163.725 Y124.913 E13.8337
G1 X163.542 Y124.898 E13.8410
G1 X163.367 Y124.840 E13.8483
G1 X163.212 Y124.741 E13.8557
G1 X163.085 Y124.608 E13.8630
G1 X162.993 Y124.449 E13.8704
G1 X162.943 Y124.273 E13.8777
G1 X162.935 Y124.089 E13.8850
G1 X162.972 Y123.909 E13.8924
G1 X163.052 Y123.743 E13.8997
G1 X163.170 Y123.598 E13.9072
G1 X163.711 Y123.175 E13.9346
G1 X164.327 Y122.866 E13.9621
G1 X164.993 Y122.685 E13.9896
G1 X165.681 Y122.639 E14.0172
G1 X166.365 Y122.730 E14.0447
G1 X167.017 Y122.955 E14.0722
G1 X167.612 Y123.304 E14.0997
G1 X168.125 Y123.764 E14.1273
G1 X168.538 Y124.317 E14.1548
G1 X168.833 Y124.941 E14.1823
G1 X168.999 Y125.610 E14.2099
G1 X169.029 Y126.299 E14.2374
G1 X168.922 Y126.981 E14.2649
G1 X168.682 Y127.628 E14.2925
G1 X168.320 Y128.214 E14.3200
G1 X167.848 Y128.717 E14.3475
G1 X167.286 Y129.117 E14.3750
G1 X166.656 Y129.398 E14.4026
G1 X165.982 Y129.548 E14.4301
G1 X165.293 Y129.563 E14.4576
G1 X164.811 Y129.476 E14.4772
G1 X164.614 Y129.440 F900
; feature inner perimeter
G1 X164.746 Y128.976 F18000
G92 E0.0000
G1 X164.156 Y128.742 E0.0253 F1350
G1 X130.261 Y111.214 E1.5484
G1 X130.243 Y111.249 E1.5500
G1 X126.362 Y109.266 E1.7239
G1 X126.354 Y109.285 E1.7247
G1 X125.936 Y109.225 E1.7416
G1 X125.215 Y108.982 E1.7720
G1 X124.550 Y108.587 E1.8028
G1 X123.951 Y108.046 E1.8350
G1 X123.621 Y107.609 E1.8569
G1 X123.323 Y107.126 E1.8795
G1 X123.129 Y106.687 E1.8987
G1 X123.414 Y106.483 E1.9127
G1 X124.198 Y107.200 E1.9551
G1 X124.978 Y107.838 E1.9953
G1 X126.454 Y108.955 E2.0692
G1 X126.595 Y108.680 E2.0815
G1 X130.477 Y110.664 E2.2556
G1 X130.465 Y110.689 E2.2567
G1 X164.499 Y128.278 E3.7858
G1 X165.005 Y128.465 E3.8073
G1 X165.590 Y128.531 E3.8308
G1 X166.174 Y128.454 E3.8543
G1 X166.722 Y128.238 E3.8778
G1 X167.203 Y127.896 E3.9013
G1 X167.586 Y127.449 E3.9249
G1 X167.850 Y126.922 E3.9484
G1 X167.980 Y126.348 E3.9719
G1 X167.967 Y125.759 E3.9954
G1 X167.813 Y125.190 E4.0189
G1 X167.526 Y124.675 E4.0424
G1 X167.124 Y124.245 E4.0660
G1 X166.629 Y123.924 E4.0895
G1 X166.072 Y123.732 E4.1130
G1 X165.485 Y123.680 E4.1365
G1 X164.903 Y123.771 E4.1600
G1 X164.360 Y124.000 E4.1835
G1 X163.835 Y124.393 E4.2097
G1 X163.773 Y124.420 E4.2124
G1 X163.706 Y124.430 E4.2151
G1 X163.639 Y124.425 E4.2178
G1 X163.575 Y124.403 E4.2205
G1 X163.519 Y124.367 E4.2232
G1 X163.472 Y124.319 E4.2258
G1 X163.439 Y124.260 E4.2285
G1 X163.420 Y124.196 E4.2312
G1 X163.417 Y124.129 E4.2339
G1 X163.431 Y124.063 E4.2366
G1 X163.460 Y124.002 E4.2393
G1 X163.508 Y123.943 E4.2423
G1 X163.969 Y123.583 E4.2656
G1 X164.500 Y123.316 E4.2893
G1 X165.073 Y123.160 E4.3130
G1 X165.665 Y123.121 E4.3367
G1 X166.254 Y123.200 E4.3605
G1 X166.815 Y123.393 E4.3842
G1 X167.327 Y123.694 E4.4079
G1 X167.769 Y124.090 E4.4316
G1 X168.125 Y124.566 E4.4553
G1 X168.379 Y125.103 E4.4790
G1 X168.521 Y125.679 E4.5027
G1 X168.547 Y126.272 E4.5264
G1 X168.455 Y126.859 E4.5501
G1 X168.249 Y127.416 E4.5738
G1 X167.937 Y127.921 E4.5975
G1 X167.530 Y128.354 E4.6212
G1 X167.047 Y128.698 E4.6449
G1 X166.504 Y128.940 E4.6686
G1 X165.925 Y129.070 E4.6923
G1 X165.331 Y129.082 E4.7160
G1 X164.943 Y129.012 E4.7317
G1 X164.746 Y128.976 F1350
G92 E0.0000
G1 E-4.0000 F5400
G1 X160.633 Y125.739 F18000
G1 X131.109 Y110.482
G1 X131.123 Y110.455
G1 X126.386 Y108.034
G1 X126.287 Y108.226
G1 X125.275 Y107.460
G1 X124.512 Y106.836
G1 X122.824 Y105.292
G1 X122.266 Y104.724
G1 X121.930 Y104.495
G1 X120.419 Y102.771
G1 X119.085 Y101.042
G1 X118.076 Y99.455
G1 X117.951 Y99.213
G1 X117.185 Y97.895
G1 X116.395 Y96.201
G1 X115.715 Y94.456
G1 X114.116 Y89.811
G1 X114.041 Y89.631
G1 X113.673 Y88.788
G1 X111.709 Y87.242
G1 X111.559 Y87.047
G1 X111.252 Y86.730
G1 X109.861 Y85.545
G1 X109.104 Y85.192
G1 X107.849 Y84.205
G1 E0.0000 F5400
G92 E0.0000
G1 X107.294 Y84.047 E0.0231 F1350
G1 X106.294 Y83.931 E0.0632
G1 X105.433 Y83.909 E0.0976
G1 X104.945 Y83.943 E0.1171
G1 X103.804 Y84.096 E0.1631
G1 X103.684 Y83.772 E0.1768
G1 X104.079 Y83.514 E0.1956
G1 X104.261 Y83.410 E0.2040
G1 X104.991 Y83.171 E0.2347
G1 X105.742 Y83.091 E0.2648
G1 X106.496 Y83.171 E0.2951
G1 X107.227 Y83.410 E0.3258
G1 X107.998 Y83.853 E0.3612
G1 X107.927 Y84.021 E0.3685
G1 X107.849 Y84.205 F1350
G92 E0.0000
G1 E-4.0000 F5400
G1 X107.490 Y84.602 F18000
