; G-Code generated by Simplify3D(R) Version 4.1.2
; May 2, 2020 at 6:20:59 PM
; Settings Summary
;   processName,Process1
;   applyToModels,shell-v2-test-2
;   profileName,HBot
;   profileVersion,2019-10-26 23:38:43
;   baseProfile,Default
;   printMaterial,PETG - SUNLU
;   printQuality,Medium
;   printExtruders,
;   extruderName,Extruder 1
;   extruderToolheadNumber,0
;   extruderDiameter,0.4
;   extruderAutoWidth,1
;   extruderWidth,0.48
;   extrusionMultiplier,0.98
;   extruderUseRetract,1
;   extruderRetractionDistance,3
;   extruderExtraRestartDistance,0
;   extruderRetractionZLift,0
;   extruderRetractionSpeed,3600
;   extruderUseCoasting,1
;   extruderCoastingDistance,0.2
;   extruderUseWipe,1
;   extruderWipeDistance,5
;   primaryExtruder,0
;   layerHeight,0.2
;   topSolidLayers,3
;   bottomSolidLayers,3
;   perimeterOutlines,3
;   printPerimetersInsideOut,1
;   startPointOption,3
;   startPointOriginX,200
;   startPointOriginY,100
;   sequentialIslands,0
;   spiralVaseMode,0
;   firstLayerHeightPercentage,100
;   firstLayerWidthPercentage,150
;   firstLayerUnderspeed,0.5
;   useRaft,0
;   raftExtruder,0
;   raftTopLayers,3
;   raftBaseLayers,2
;   raftOffset,3
;   raftSeparationDistance,0.18
;   raftTopInfill,100
;   aboveRaftSpeedMultiplier,0.3
;   useSkirt,1
;   skirtExtruder,0
;   skirtLayers,1
;   skirtOutlines,3
;   skirtOffset,10
;   usePrimePillar,0
;   primePillarExtruder,999
;   primePillarWidth,12
;   primePillarLocation,7
;   primePillarSpeedMultiplier,1
;   useOozeShield,0
;   oozeShieldExtruder,999
;   oozeShieldOffset,2
;   oozeShieldOutlines,1
;   oozeShieldSidewallShape,1
;   oozeShieldSidewallAngle,30
;   oozeShieldSpeedMultiplier,1
;   infillExtruder,0
;   internalInfillPattern,Rectilinear
;   externalInfillPattern,Rectilinear
;   infillPercentage,20
;   outlineOverlapPercentage,25
;   infillExtrusionWidthPercentage,150
;   minInfillLength,5
;   infillLayerInterval,1
;   internalInfillAngles,45,-45
;   overlapInternalInfillAngles,0
;   externalInfillAngles,45,-45
;   generateSupport,1
;   supportExtruder,0
;   supportInfillPercentage,30
;   supportExtraInflation,0
;   supportBaseLayers,1
;   denseSupportExtruder,0
;   denseSupportLayers,0
;   denseSupportInfillPercentage,70
;   supportLayerInterval,1
;   supportHorizontalPartOffset,0.3
;   supportUpperSeparationLayers,1
;   supportLowerSeparationLayers,1
;   supportType,0
;   supportGridSpacing,4
;   maxOverhangAngle,25
;   supportAngles,0
;   temperatureName,Extruder 1,Heated Bed
;   temperatureNumber,0,1
;   temperatureSetpointCount,1,1
;   temperatureSetpointLayers,1,1
;   temperatureSetpointTemperatures,225,75
;   temperatureStabilizeAtStartup,1,1
;   temperatureHeatedBed,0,1
;   fanLayers,1,2
;   fanSpeeds,0,20
;   blipFanToFullPower,1
;   adjustSpeedForCooling,1
;   minSpeedLayerTime,15
;   minCoolingSpeedSlowdown,20
;   increaseFanForCooling,1
;   minFanLayerTime,45
;   maxCoolingFanSpeed,35
;   increaseFanForBridging,1
;   bridgingFanSpeed,80
;   use5D,1
;   relativeEdistances,0
;   allowEaxisZeroing,1
;   independentExtruderAxes,0
;   includeM10123,0
;   stickySupport,1
;   applyToolheadOffsets,0
;   gcodeXoffset,0
;   gcodeYoffset,0
;   gcodeZoffset,0
;   overrideMachineDefinition,1
;   machineTypeOverride,0
;   strokeXoverride,200
;   strokeYoverride,200
;   strokeZoverride,150
;   originOffsetXoverride,0
;   originOffsetYoverride,0
;   originOffsetZoverride,0
;   homeXdirOverride,-1
;   homeYdirOverride,-1
;   homeZdirOverride,-1
;   flipXoverride,1
;   flipYoverride,-1
;   flipZoverride,1
;   toolheadOffsets,0,0|0,0|0,0|0,0|0,0|0,0
;   overrideFirmwareConfiguration,1
;   firmwareTypeOverride,RepRap (Marlin/Repetier/Sprinter)
;   GPXconfigOverride,r2
;   baudRateOverride,115200
;   overridePrinterModels,0
;   printerModelsOverride
;   startingGcode,G28 ; home all axes,G32 ; run bed.g -- probe bed and enable compensation
;   layerChangeGcode,
;   retractionGcode,
;   toolChangeGcode,
;   endingGcode,M0 ; call stop.g
;   exportFileFormat,gcode
;   celebration,0
;   celebrationSong,Random Song
;   postProcessing,
;   defaultSpeed,3600
;   outlineUnderspeed,0.5
;   solidInfillUnderspeed,0.8
;   supportUnderspeed,0.8
;   rapidXYspeed,18000
;   rapidZspeed,1200
;   minBridgingArea,50
;   bridgingExtraInflation,0
;   bridgingExtrusionMultiplier,0.96
;   bridgingSpeedMultiplier,1
;   useFixedBridgingAngle,0
;   fixedBridgingAngle,0
;   applyBridgingToPerimeters,0
;   filamentDiameters,1.75|1.75|1.75|1.75|1.75|1.75
;   filamentPricesPerKg,46|46|46|46|46|46
;   filamentDensities,1.25|1.25|1.25|1.25|1.25|1.25
;   useMinPrintHeight,0
;   minPrintHeight,0.2
;   useMaxPrintHeight,0
;   maxPrintHeight,0
;   useDiaphragm,0
;   diaphragmLayerInterval,20
;   robustSlicing,1
;   mergeAllIntoSolid,0
;   onlyRetractWhenCrossingOutline,1
;   retractBetweenLayers,0
;   useRetractionMinTravel,1
;   retractionMinTravel,3
;   retractWhileWiping,1
;   onlyWipeOutlines,1
;   avoidCrossingOutline,1
;   maxMovementDetourFactor,5
;   toolChangeRetractionDistance,12
;   toolChangeExtraRestartDistance,-0.5
;   toolChangeRetractionSpeed,600
;   externalThinWallType,0
;   internalThinWallType,2
;   thinWallAllowedOverlapPercentage,10
;   singleExtrusionMinLength,1
;   singleExtrusionMinPrintingWidthPercentage,50
;   singleExtrusionMaxPrintingWidthPercentage,150
;   singleExtrusionEndpointExtension,0.2
;   horizontalSizeCompensation,-0.1
G90
M82
M106 S0
M140 S75
M190 S75
M104 S225 T0
M109 S225 T0
G28 ; home all axes
G32 ; run bed.g -- probe bed and enable compensation
; process Process1
; layer 1, Z = 0.200
T0
G92 E0.0000
G1 E-3.0000 F3600
; feature skirt
; tool H0.200 W0.720
G1 Z0.200 F1200
G1 X64.825 Y116.664 F18000
G1 E0.0000 F3600
G92 E0.0000
G1 X64.947 Y117.905 E0.0731 F1800
G1 X64.976 Y118.484 E0.1071
G1 X64.976 Y145.053 E1.6660
G1 X64.947 Y145.632 E1.7000
G1 X64.825 Y146.873 E1.7731
G1 X64.599 Y148.010 E1.8411
G1 X64.154 Y149.475 E1.9310
G1 X63.711 Y150.547 E1.9990
G1 X62.988 Y151.898 E2.0889
G1 X62.344 Y152.862 E2.1570
G1 X61.372 Y154.046 E2.2468
G1 X60.553 Y154.865 E2.3148
G1 X59.369 Y155.837 E2.4047
G1 X58.405 Y156.481 E2.4727
G1 X57.054 Y157.203 E2.5626
G1 X55.983 Y157.647 E2.6306
G1 X54.517 Y158.092 E2.7205
G1 X53.380 Y158.318 E2.7885
G1 X52.139 Y158.440 E2.8617
G1 X51.560 Y158.469 E2.8956
G1 X24.991 Y158.469 E4.4545
G1 X24.412 Y158.440 E4.4885
G1 X23.172 Y158.318 E4.5616
G1 X22.034 Y158.092 E4.6297
G1 X20.569 Y157.647 E4.7195
G1 X19.497 Y157.203 E4.7876
G1 X18.146 Y156.481 E4.8774
G1 X17.182 Y155.837 E4.9455
G1 X15.999 Y154.865 E5.0353
G1 X15.179 Y154.046 E5.1033
G1 X14.207 Y152.862 E5.1932
G1 X13.563 Y151.898 E5.2612
G1 X12.841 Y150.547 E5.3511
G1 X12.397 Y149.475 E5.4191
G1 X11.952 Y148.010 E5.5090
G1 X11.726 Y146.873 E5.5770
G1 X11.604 Y145.631 E5.6502
G1 X11.576 Y145.050 E5.6843
G1 X11.585 Y117.999 E7.2714
G1 X11.699 Y116.848 E7.3393
G1 X11.998 Y115.347 E7.4291
G1 X12.334 Y114.237 E7.4972
G1 X12.921 Y112.822 E7.5870
G1 X13.467 Y111.800 E7.6550
G1 X14.397 Y110.408 E7.7532
G1 X15.339 Y109.314 E7.8379
G1 X16.823 Y107.966 E7.9556
G1 X18.014 Y107.127 E8.0410
G1 X19.498 Y106.334 E8.1397
G1 X20.569 Y105.890 E8.2078
G1 X22.035 Y105.445 E8.2976
G1 X23.172 Y105.219 E8.3656
G1 X24.412 Y105.097 E8.4388
G1 X24.991 Y105.069 E8.4728
G1 X51.560 Y105.069 E10.0316
G1 X52.139 Y105.097 E10.0656
G1 X53.380 Y105.219 E10.1388
G1 X54.517 Y105.445 E10.2068
G1 X55.983 Y105.890 E10.2967
G1 X57.054 Y106.334 E10.3647
G1 X58.405 Y107.056 E10.4546
G1 X59.369 Y107.700 E10.5226
G1 X60.553 Y108.672 E10.6125
G1 X61.373 Y109.491 E10.6805
G1 X62.344 Y110.675 E10.7703
G1 X62.988 Y111.640 E10.8384
G1 X63.711 Y112.991 E10.9282
G1 X64.154 Y114.062 E10.9963
G1 X64.599 Y115.527 E11.0861
G1 X64.825 Y116.664 E11.1541
G1 X64.112 Y116.770 F18000
G92 E0.0000
G1 X64.229 Y117.958 E0.0700 F1800
G1 X64.256 Y118.501 E0.1020
G1 X64.256 Y145.036 E1.6587
G1 X64.229 Y145.579 E1.6907
G1 X64.112 Y146.767 E1.7607
G1 X63.900 Y147.834 E1.8245
G1 X63.476 Y149.233 E1.9103
G1 X63.059 Y150.238 E1.9741
G1 X62.370 Y151.527 E2.0599
G1 X61.765 Y152.432 E2.1238
G1 X60.838 Y153.562 E2.2095
G1 X60.069 Y154.331 E2.2733
G1 X58.939 Y155.258 E2.3590
G1 X58.034 Y155.863 E2.4229
G1 X56.746 Y156.552 E2.5086
G1 X55.740 Y156.968 E2.5725
G1 X54.342 Y157.392 E2.6582
G1 X53.274 Y157.605 E2.7221
G1 X52.086 Y157.722 E2.7921
G1 X51.543 Y157.749 E2.8241
G1 X25.009 Y157.749 E4.3808
G1 X24.465 Y157.722 E4.4127
G1 X23.277 Y157.605 E4.4828
G1 X22.210 Y157.392 E4.5467
G1 X20.811 Y156.968 E4.6324
G1 X19.806 Y156.552 E4.6963
G1 X18.517 Y155.863 E4.7820
G1 X17.612 Y155.258 E4.8459
G1 X16.483 Y154.331 E4.9316
G1 X15.713 Y153.562 E4.9954
G1 X14.786 Y152.432 E5.0811
G1 X14.181 Y151.527 E5.1450
G1 X13.492 Y150.238 E5.2307
G1 X13.076 Y149.233 E5.2946
G1 X12.652 Y147.834 E5.3803
G1 X12.439 Y146.767 E5.4442
G1 X12.322 Y145.578 E5.5143
G1 X12.296 Y145.033 E5.5463
G1 X12.305 Y118.035 E7.1303
G1 X12.412 Y116.954 E7.1941
G1 X12.697 Y115.522 E7.2797
G1 X13.013 Y114.480 E7.3436
G1 X13.572 Y113.130 E7.4293
G1 X14.085 Y112.170 E7.4932
G1 X14.971 Y110.844 E7.5867
G1 X15.856 Y109.817 E7.6662
G1 X17.275 Y108.529 E7.7787
G1 X18.392 Y107.741 E7.8589
G1 X19.806 Y106.985 E7.9530
G1 X20.812 Y106.569 E8.0168
G1 X22.210 Y106.145 E8.1026
G1 X23.277 Y105.932 E8.1664
G1 X24.465 Y105.815 E8.2365
G1 X25.009 Y105.789 E8.2684
G1 X51.543 Y105.789 E9.8252
G1 X52.086 Y105.815 E9.8571
G1 X53.274 Y105.932 E9.9271
G1 X54.342 Y106.145 E9.9910
G1 X55.740 Y106.569 E10.0767
G1 X56.745 Y106.985 E10.1406
G1 X58.034 Y107.674 E10.2263
G1 X58.939 Y108.279 E10.2902
G1 X60.069 Y109.206 E10.3759
G1 X60.838 Y109.975 E10.4397
G1 X61.765 Y111.105 E10.5255
G1 X62.370 Y112.010 E10.5893
G1 X63.059 Y113.299 E10.6751
G1 X63.476 Y114.305 E10.7389
G1 X63.900 Y115.703 E10.8247
G1 X64.112 Y116.770 E10.8885
G1 X63.399 Y116.876 F18000
G92 E0.0000
G1 X63.511 Y118.011 E0.0669 F1800
G1 X63.536 Y118.519 E0.0968
G1 X63.536 Y145.018 E1.6515
G1 X63.511 Y145.526 E1.6813
G1 X63.399 Y146.661 E1.7482
G1 X63.200 Y147.659 E1.8080
G1 X62.797 Y148.990 E1.8895
G1 X62.407 Y149.930 E1.9492
G1 X61.752 Y151.156 E2.0308
G1 X61.186 Y152.003 E2.0906
G1 X60.304 Y153.078 E2.1721
G1 X59.585 Y153.797 E2.2318
G1 X58.510 Y154.679 E2.3134
G1 X57.664 Y155.245 E2.3731
G1 X56.438 Y155.900 E2.4547
G1 X55.497 Y156.290 E2.5144
G1 X54.167 Y156.693 E2.5960
G1 X53.168 Y156.892 E2.6557
G1 X52.033 Y157.004 E2.7226
G1 X51.525 Y157.029 E2.7525
G1 X25.026 Y157.029 E4.3072
G1 X24.518 Y157.004 E4.3370
G1 X23.383 Y156.892 E4.4039
G1 X22.385 Y156.693 E4.4637
G1 X21.054 Y156.290 E4.5452
G1 X20.114 Y155.900 E4.6050
G1 X18.888 Y155.245 E4.6865
G1 X18.041 Y154.679 E4.7462
G1 X16.967 Y153.797 E4.8278
G1 X16.247 Y153.078 E4.8875
G1 X15.365 Y152.003 E4.9691
G1 X14.800 Y151.156 E5.0288
G1 X14.144 Y149.930 E5.1104
G1 X13.755 Y148.990 E5.1701
G1 X13.351 Y147.659 E5.2517
G1 X13.152 Y146.661 E5.3114
G1 X13.041 Y145.525 E5.3784
G1 X13.016 Y145.015 E5.4083
G1 X13.025 Y118.071 E6.9892
G1 X13.125 Y117.060 E7.0488
G1 X13.396 Y115.697 E7.1303
G1 X13.692 Y114.723 E7.1900
G1 X14.224 Y113.438 E7.2716
G1 X14.704 Y112.541 E7.3313
G1 X15.545 Y111.281 E7.4202
G1 X16.373 Y110.321 E7.4946
G1 X17.726 Y109.092 E7.6018
G1 X18.771 Y108.355 E7.6768
G1 X20.114 Y107.637 E7.7662
G1 X21.054 Y107.247 E7.8259
G1 X22.385 Y106.844 E7.9075
G1 X23.383 Y106.645 E7.9672
G1 X24.518 Y106.534 E8.0341
G1 X25.026 Y106.509 E8.0640
G1 X51.525 Y106.509 E9.6187
G1 X52.033 Y106.534 E9.6485
G1 X53.168 Y106.645 E9.7154
G1 X54.166 Y106.844 E9.7752
G1 X55.497 Y107.247 E9.8567
G1 X56.437 Y107.637 E9.9164
G1 X57.663 Y108.292 E9.9980
G1 X58.510 Y108.858 E10.0577
G1 X59.585 Y109.740 E10.1393
G1 X60.304 Y110.460 E10.1990
G1 X61.186 Y111.534 E10.2806
G1 X61.752 Y112.381 E10.3403
G1 X62.407 Y113.607 E10.4219
G1 X62.797 Y114.547 E10.4816
G1 X63.200 Y115.878 E10.5632
G1 X63.399 Y116.876 E10.6229
G92 E0.0000
G1 E-3.0000 F3600
; feature inner perimeter
G1 X52.784 Y118.469 F18000
G1 X52.781 Y118.459
G1 X51.376 Y118.669
G1 E0.0000 F3600
G92 E0.0000
G1 X51.376 Y144.869 E1.5372 F1350
G1 X25.176 Y144.869 E3.0744
G1 X25.185 Y118.669 E4.6115
G1 X51.176 Y118.669 E6.1364
G1 X51.376 Y118.669 F1350
G1 X51.851 Y118.193 F18000
G92 E0.0000
G1 X51.953 Y118.316 E0.0094 F1350
G1 X52.028 Y118.457 E0.0187
G1 X52.074 Y118.610 E0.0281
G1 X52.096 Y118.827 E0.0409
G1 X52.096 Y144.711 E1.5595
G1 X52.074 Y144.927 E1.5723
G1 X52.028 Y145.080 E1.5817
G1 X51.953 Y145.221 E1.5910
G1 X51.851 Y145.344 E1.6004
G1 X51.728 Y145.446 E1.6098
G1 X51.587 Y145.521 E1.6191
G1 X51.435 Y145.567 E1.6285
G1 X51.218 Y145.589 E1.6413
G1 X25.334 Y145.589 E3.1599
G1 X25.117 Y145.567 E3.1727
G1 X24.964 Y145.521 E3.1821
G1 X24.823 Y145.446 E3.1914
G1 X24.700 Y145.344 E3.2008
G1 X24.599 Y145.221 E3.2102
G1 X24.523 Y145.080 E3.2195
G1 X24.477 Y144.927 E3.2289
G1 X24.456 Y144.711 E3.2417
G1 X24.465 Y118.689 E4.7684
G1 X24.496 Y118.532 E4.7778
G1 X24.558 Y118.385 E4.7871
G1 X24.646 Y118.252 E4.7965
G1 X24.788 Y118.111 E4.8082
G1 X24.964 Y118.016 E4.8200
G1 X25.117 Y117.970 E4.8293
G1 X25.334 Y117.949 E4.8421
G1 X51.218 Y117.949 E6.3608
G1 X51.435 Y117.970 E6.3735
G1 X51.587 Y118.016 E6.3829
G1 X51.692 Y118.072 E6.3899
G1 X51.728 Y118.092 F1350
G1 X51.851 Y118.193
; feature outer perimeter
G1 X52.363 Y117.681 F18000
G92 E0.0000
G1 X52.554 Y117.914 E0.0177 F900
G1 X52.696 Y118.180 E0.0354
G1 X52.784 Y118.469 E0.0531
G1 X52.816 Y118.791 E0.0721
G1 X52.816 Y144.746 E1.5949
G1 X52.784 Y145.069 E1.6139
G1 X52.696 Y145.357 E1.6316
G1 X52.554 Y145.623 E1.6493
G1 X52.363 Y145.856 E1.6670
G1 X52.130 Y146.047 E1.6846
G1 X51.864 Y146.189 E1.7023
G1 X51.576 Y146.277 E1.7200
G1 X51.253 Y146.309 E1.7390
G1 X25.298 Y146.309 E3.2618
G1 X24.976 Y146.277 E3.2808
G1 X24.687 Y146.189 E3.2985
G1 X24.421 Y146.047 E3.3162
G1 X24.188 Y145.856 E3.3339
G1 X23.997 Y145.623 E3.3516
G1 X23.855 Y145.357 E3.3693
G1 X23.767 Y145.069 E3.3870
G1 X23.736 Y144.746 E3.4060
G1 X23.745 Y118.618 E4.9389
G1 X23.804 Y118.322 E4.9566
G1 X23.919 Y118.044 E4.9743
G1 X24.087 Y117.793 E4.9920
G1 X24.308 Y117.572 E5.0104
G1 X24.411 Y117.495 E5.0179
G1 X24.687 Y117.348 E5.0362
G1 X24.976 Y117.260 E5.0539
G1 X25.298 Y117.229 E5.0730
G1 X51.253 Y117.229 E6.5957
G1 X51.576 Y117.260 E6.6148
G1 X51.864 Y117.348 E6.6324
G1 X52.130 Y117.490 E6.6501
G1 X52.208 Y117.554 E6.6561
G1 X52.363 Y117.681 F900
G1 X52.554 Y117.914 F900
G1 X52.696 Y118.180
G1 X52.784 Y118.469
G1 X52.816 Y118.791
G1 X52.816 Y122.563
; feature solid layer
G1 X50.153 Y119.209 F18000
G92 E0.0000
G1 X50.836 Y119.891 E0.0566 F1440
G1 X50.836 Y120.909 E0.1164
G1 X49.135 Y119.209 E0.2575
G1 X48.117 Y119.209 E0.3172
G1 X50.836 Y121.927 E0.5428
G1 X50.836 Y122.946 E0.6025
G1 X47.099 Y119.209 E0.9126
G1 X46.080 Y119.209 E0.9724
G1 X50.836 Y123.964 E1.3669
G1 X50.836 Y124.982 E1.4267
G1 X45.062 Y119.209 E1.9057
G1 X44.044 Y119.209 E1.9654
G1 X50.836 Y126.000 E2.5290
G1 X50.836 Y127.019 E2.5887
G1 X43.026 Y119.209 E3.2367
G1 X42.007 Y119.209 E3.2965
G1 X50.836 Y128.037 E4.0290
G1 X50.836 Y129.055 E4.0887
G1 X40.989 Y119.209 E4.9057
G1 X39.971 Y119.209 E4.9655
G1 X50.836 Y130.073 E5.8669
G1 X50.836 Y131.091 E5.9267
G1 X38.953 Y119.209 E6.9127
G1 X37.934 Y119.209 E6.9724
G1 X50.836 Y132.110 E8.0428
G1 X50.836 Y133.128 E8.1026
G1 X36.916 Y119.209 E9.2575
G1 X35.898 Y119.209 E9.3173
G1 X50.836 Y134.146 E10.5567
G1 X50.836 Y135.164 E10.6164
G1 X34.880 Y119.209 E11.9403
G1 X33.862 Y119.209 E12.0001
G1 X50.836 Y136.183 E13.4085
G1 X50.836 Y137.201 E13.4682
G1 X32.843 Y119.209 E14.9611
G1 X31.825 Y119.209 E15.0208
G1 X50.836 Y138.219 E16.5982
G1 X50.836 Y139.237 E16.6579
G1 X30.807 Y119.209 E18.3198
G1 X29.789 Y119.209 E18.3795
G1 X50.836 Y140.256 E20.1259
G1 X50.836 Y141.274 E20.1856
G1 X28.770 Y119.209 E22.0165
G1 X27.752 Y119.209 E22.0762
G1 X50.836 Y142.292 E23.9915
G1 X50.836 Y143.310 E24.0512
G1 X26.734 Y119.209 E26.0510
G1 X25.725 Y119.209 E26.1102
G1 X25.725 Y119.218 E26.1108
G1 X50.836 Y144.329 E28.1943
G1 X49.817 Y144.329 E28.2540
G1 X25.725 Y120.236 E30.2531
G1 X25.724 Y121.254 E30.3128
G1 X48.799 Y144.329 E32.2274
G1 X47.781 Y144.329 E32.2871
G1 X25.724 Y122.272 E34.1173
G1 X25.724 Y123.289 E34.1770
G1 X46.763 Y144.329 E35.9227
