; G-Code generated by Simplify3D(R) Version 4.1.2
; May 2, 2020 at 1:07:22 AM
; Settings Summary
;   processName,Process1
;   applyToModels,square-gear-v1,square-gear-v1(2)
;   profileName,HBot (modified)
;   profileVersion,2019-10-26 23:38:43
;   baseProfile,Default
;   printMaterial,PETG - SUNLU
;   printQuality,Medium
;   printExtruders,
;   extruderName,Extruder 1
;   extruderToolheadNumber,0
;   extruderDiameter,0.4
;   extruderAutoWidth,1
;   extruderWidth,0.48
;   extrusionMultiplier,0.98
;   extruderUseRetract,1
;   extruderRetractionDistance,3
;   extruderExtraRestartDistance,0
;   extruderRetractionZLift,0
;   extruderRetractionSpeed,3600
;   extruderUseCoasting,1
;   extruderCoastingDistance,0.2
;   extruderUseWipe,1
;   extruderWipeDistance,5
;   primaryExtruder,0
;   layerHeight,0.2
;   topSolidLayers,3
;   bottomSolidLayers,3
;   perimeterOutlines,3
;   printPerimetersInsideOut,1
;   startPointOption,3
;   startPointOriginX,200
;   startPointOriginY,100
;   sequentialIslands,0
;   spiralVaseMode,0
;   firstLayerHeightPercentage,100
;   firstLayerWidthPercentage,150
;   firstLayerUnderspeed,0.5
;   useRaft,0
;   raftExtruder,0
;   raftTopLayers,3
;   raftBaseLayers,2
;   raftOffset,3
;   raftSeparationDistance,0.18
;   raftTopInfill,100
;   aboveRaftSpeedMultiplier,0.3
;   useSkirt,1
;   skirtExtruder,0
;   skirtLayers,1
;   skirtOutlines,3
;   skirtOffset,10
;   usePrimePillar,0
;   primePillarExtruder,999
;   primePillarWidth,12
;   primePillarLocation,7
;   primePillarSpeedMultiplier,1
;   useOozeShield,0
;   oozeShieldExtruder,999
;   oozeShieldOffset,2
;   oozeShieldOutlines,1
;   oozeShieldSidewallShape,1
;   oozeShieldSidewallAngle,30
;   oozeShieldSpeedMultiplier,1
;   infillExtruder,0
;   internalInfillPattern,Rectilinear
;   externalInfillPattern,Rectilinear
;   infillPercentage,20
;   outlineOverlapPercentage,25
;   infillExtrusionWidthPercentage,150
;   minInfillLength,5
;   infillLayerInterval,1
;   internalInfillAngles,45,-45
;   overlapInternalInfillAngles,0
;   externalInfillAngles,45,-45
;   generateSupport,1
;   supportExtruder,0
;   supportInfillPercentage,30
;   supportExtraInflation,0
;   supportBaseLayers,1
;   denseSupportExtruder,0
;   denseSupportLayers,0
;   denseSupportInfillPercentage,70
;   supportLayerInterval,1
;   supportHorizontalPartOffset,0.3
;   supportUpperSeparationLayers,1
;   supportLowerSeparationLayers,1
;   supportType,0
;   supportGridSpacing,4
;   maxOverhangAngle,25
;   supportAngles,0
;   temperatureName,Extruder 1,Heated Bed
;   temperatureNumber,0,1
;   temperatureSetpointCount,1,1
;   temperatureSetpointLayers,1,1
;   temperatureSetpointTemperatures,225,75
;   temperatureStabilizeAtStartup,1,1
;   temperatureHeatedBed,0,1
;   fanLayers,1,2
;   fanSpeeds,0,20
;   blipFanToFullPower,1
;   adjustSpeedForCooling,1
;   minSpeedLayerTime,15
;   minCoolingSpeedSlowdown,20
;   increaseFanForCooling,1
;   minFanLayerTime,45
;   maxCoolingFanSpeed,35
;   increaseFanForBridging,1
;   bridgingFanSpeed,80
;   use5D,1
;   relativeEdistances,0
;   allowEaxisZeroing,1
;   independentExtruderAxes,0
;   includeM10123,0
;   stickySupport,1
;   applyToolheadOffsets,0
;   gcodeXoffset,0
;   gcodeYoffset,0
;   gcodeZoffset,0
;   overrideMachineDefinition,1
;   machineTypeOverride,0
;   strokeXoverride,200
;   strokeYoverride,200
;   strokeZoverride,150
;   originOffsetXoverride,0
;   originOffsetYoverride,0
;   originOffsetZoverride,0
;   homeXdirOverride,-1
;   homeYdirOverride,-1
;   homeZdirOverride,-1
;   flipXoverride,1
;   flipYoverride,-1
;   flipZoverride,1
;   toolheadOffsets,0,0|0,0|0,0|0,0|0,0|0,0
;   overrideFirmwareConfiguration,1
;   firmwareTypeOverride,RepRap (Marlin/Repetier/Sprinter)
;   GPXconfigOverride,r2
;   baudRateOverride,115200
;   overridePrinterModels,0
;   printerModelsOverride
;   startingGcode,G28 ; home all axes,G32 ; run bed.g -- probe bed and enable compensation
;   layerChangeGcode,
;   retractionGcode,
;   toolChangeGcode,
;   endingGcode,M0 ; call stop.g
;   exportFileFormat,gcode
;   celebration,0
;   celebrationSong,Random Song
;   postProcessing,
;   defaultSpeed,3600
;   outlineUnderspeed,0.5
;   solidInfillUnderspeed,0.8
;   supportUnderspeed,0.8
;   rapidXYspeed,18000
;   rapidZspeed,1200
;   minBridgingArea,50
;   bridgingExtraInflation,0
;   bridgingExtrusionMultiplier,0.96
;   bridgingSpeedMultiplier,1
;   useFixedBridgingAngle,0
;   fixedBridgingAngle,0
;   applyBridgingToPerimeters,0
;   filamentDiameters,1.75|1.75|1.75|1.75|1.75|1.75
;   filamentPricesPerKg,46|46|46|46|46|46
;   filamentDensities,1.25|1.25|1.25|1.25|1.25|1.25
;   useMinPrintHeight,0
;   minPrintHeight,0.2
;   useMaxPrintHeight,0
;   maxPrintHeight,0
;   useDiaphragm,0
;   diaphragmLayerInterval,20
;   robustSlicing,1
;   mergeAllIntoSolid,0
;   onlyRetractWhenCrossingOutline,1
;   retractBetweenLayers,0
;   useRetractionMinTravel,1
;   retractionMinTravel,3
;   retractWhileWiping,1
;   onlyWipeOutlines,1
;   avoidCrossingOutline,1
;   maxMovementDetourFactor,5
;   toolChangeRetractionDistance,12
;   toolChangeExtraRestartDistance,-0.5
;   toolChangeRetractionSpeed,600
;   externalThinWallType,0
;   internalThinWallType,2
;   thinWallAllowedOverlapPercentage,10
;   singleExtrusionMinLength,1
;   singleExtrusionMinPrintingWidthPercentage,50
;   singleExtrusionMaxPrintingWidthPercentage,150
;   singleExtrusionEndpointExtension,0.2
;   horizontalSizeCompensation,-0.1
G90
M82
M106 S0
M140 S75
M190 S75
M104 S225 T0
M109 S225 T0
G28 ; home all axes
G32 ; run bed.g -- probe bed and enable compensation
; process Process1
; layer 1, Z = 0.200
T0
G92 E0.0000
G1 E-3.0000 F3600
; feature skirt
; tool H0.200 W0.720
G1 Z0.200 F1200
G1 X123.689 Y96.370 F18000
G1 E0.0000 F3600
G92 E0.0000
G1 X123.462 Y98.821 E0.1445 F1800
G1 X123.097 Y100.000 E0.2168
G1 X123.462 Y101.178 E0.2892
G1 X123.689 Y103.630 E0.4337
G1 X123.443 Y105.752 E0.5590
G1 X123.545 Y106.244 E0.5885
G1 X123.655 Y107.854 E0.6832
G1 X123.513 Y109.934 E0.8055
G1 X123.447 Y110.205 E0.8219
G1 X123.683 Y111.922 E0.9235
G1 X123.517 Y114.342 E1.0659
G1 X123.451 Y114.577 E1.0802
G1 X123.683 Y116.260 E1.1799
G1 X123.517 Y118.681 E1.3222
G1 X123.451 Y118.915 E1.3365
G1 X123.683 Y120.598 E1.4362
G1 X123.517 Y123.019 E1.5785
G1 X123.474 Y123.172 E1.5878
G1 X123.553 Y123.525 E1.6091
G1 X123.651 Y125.639 E1.7332
G1 X123.500 Y127.269 E1.8293
G1 X123.015 Y129.329 E1.9534
G1 X122.209 Y131.213 E2.0737
G1 X120.868 Y133.271 E2.2178
G1 X119.470 Y134.769 E2.3380
G1 X117.618 Y136.168 E2.4742
G1 X115.794 Y137.103 E2.5945
G1 X113.448 Y137.830 E2.7386
G1 X111.415 Y138.089 E2.8588
G1 X109.096 Y137.982 E2.9950
G1 X108.638 Y137.880 E3.0225
G1 X107.986 Y138.015 E3.0616
G1 X105.968 Y138.084 E3.1800
G1 X104.372 Y137.865 E3.2746
G1 X103.648 Y138.015 E3.3179
G1 X101.630 Y138.084 E3.4364
G1 X100.061 Y137.868 E3.5293
G1 X99.244 Y138.038 E3.5783
G1 X96.621 Y138.038 E3.7322
G1 X95.736 Y137.886 E3.7849
G1 X95.506 Y137.942 E3.7988
G1 X93.426 Y138.084 E3.9211
G1 X91.815 Y137.974 E4.0158
G1 X91.362 Y137.880 E4.0429
G1 X90.904 Y137.982 E4.0705
G1 X88.585 Y138.089 E4.2067
G1 X86.552 Y137.830 E4.3269
G1 X84.206 Y137.103 E4.4710
G1 X82.382 Y136.168 E4.5913
G1 X80.529 Y134.769 E4.7275
G1 X79.132 Y133.271 E4.8477
G1 X77.791 Y131.213 E4.9918
G1 X76.985 Y129.329 E5.1121
G1 X76.500 Y127.269 E5.2362
G1 X76.349 Y125.639 E5.3323
G1 X76.447 Y123.525 E5.4564
G1 X76.526 Y123.172 E5.4777
G1 X76.483 Y123.019 E5.4870
G1 X76.317 Y120.598 E5.6293
G1 X76.549 Y118.915 E5.7290
G1 X76.483 Y118.681 E5.7433
G1 X76.317 Y116.260 E5.8856
G1 X76.553 Y114.543 E5.9873
G1 X76.487 Y114.273 E6.0037
G1 X76.345 Y112.193 E6.1260
G1 X76.455 Y110.582 E6.2207
G1 X76.543 Y110.161 E6.2459
G1 X76.487 Y109.934 E6.2596
G1 X76.345 Y107.854 E6.3819
G1 X76.455 Y106.244 E6.4766
G1 X76.549 Y105.791 E6.5038
G1 X76.447 Y105.332 E6.5314
G1 X76.340 Y103.014 E6.6675
G1 X76.599 Y100.981 E6.7877
G1 X76.903 Y100.000 E6.8480
G1 X76.599 Y99.019 E6.9083
G1 X76.340 Y96.986 E7.0285
G1 X76.447 Y94.668 E7.1647
G1 X76.526 Y94.314 E7.1859
G1 X76.483 Y94.161 E7.1953
G1 X76.317 Y91.741 E7.3376
G1 X76.564 Y89.943 E7.4440
G1 X76.414 Y89.219 E7.4874
G1 X76.345 Y87.201 E7.6059
G1 X76.553 Y85.686 E7.6957
G1 X76.487 Y85.415 E7.7120
G1 X76.345 Y83.335 E7.8343
G1 X76.455 Y81.725 E7.9290
G1 X76.543 Y81.304 E7.9542
G1 X76.487 Y81.077 E7.9680
G1 X76.345 Y78.997 E8.0903
G1 X76.455 Y77.386 E8.1850
G1 X76.549 Y76.934 E8.2121
G1 X76.447 Y76.475 E8.2397
G1 X76.340 Y74.156 E8.3759
G1 X76.599 Y72.123 E8.4961
G1 X77.326 Y69.777 E8.6402
G1 X78.261 Y67.953 E8.7605
G1 X79.660 Y66.100 E8.8967
G1 X81.158 Y64.702 E9.0169
G1 X83.216 Y63.362 E9.1610
G1 X85.100 Y62.556 E9.2812
G1 X87.160 Y62.071 E9.4054
G1 X88.790 Y61.920 E9.5015
G1 X90.904 Y62.018 E9.6256
G1 X91.362 Y62.120 E9.6532
G1 X91.815 Y62.026 E9.6803
G1 X93.426 Y61.916 E9.7750
G1 X95.506 Y62.058 E9.8973
G1 X95.736 Y62.114 E9.9112
G1 X96.621 Y61.962 E9.9639
G1 X99.244 Y61.962 E10.1178
G1 X100.061 Y62.132 E10.1668
G1 X101.630 Y61.916 E10.2597
G1 X103.648 Y61.985 E10.3782
G1 X104.372 Y62.135 E10.4215
G1 X106.170 Y61.888 E10.5280
G1 X108.590 Y62.054 E10.6703
G1 X108.756 Y62.100 E10.6804
G1 X110.254 Y61.927 E10.7689
G1 X112.028 Y61.968 E10.8730
G1 X113.644 Y62.231 E10.9691
G1 X115.990 Y62.958 E11.1132
G1 X118.142 Y64.156 E11.2577
G1 X120.150 Y65.904 E11.4139
G1 X121.441 Y67.495 E11.5341
G1 X122.471 Y69.344 E11.6583
G1 X123.062 Y70.871 E11.7544
G1 X123.547 Y72.931 E11.8785
G1 X123.665 Y74.977 E11.9988
G1 X123.443 Y76.890 E12.1118
G1 X123.609 Y77.854 E12.1691
G1 X123.609 Y80.477 E12.3230
G1 X123.439 Y81.294 E12.3720
G1 X123.655 Y82.863 E12.4649
G1 X123.586 Y84.882 E12.5834
G1 X123.436 Y85.605 E12.6268
G1 X123.655 Y87.201 E12.7213
G1 X123.586 Y89.220 E12.8398
G1 X123.436 Y89.943 E12.8832
G1 X123.655 Y91.539 E12.9777
G1 X123.586 Y93.558 E13.0962
G1 X123.443 Y94.248 E13.1376
G1 X123.689 Y96.370 E13.2629
G1 X122.965 Y96.378 F18000
G92 E0.0000
G1 X122.752 Y98.680 E0.1356 F1800
G1 X122.343 Y100.000 E0.2167
G1 X122.752 Y101.320 E0.2978
G1 X122.965 Y103.621 E0.4334
G1 X122.714 Y105.784 E0.5611
G1 X122.830 Y106.342 E0.5946
G1 X122.933 Y107.854 E0.6835
G1 X122.799 Y109.824 E0.7993
G1 X122.715 Y110.168 E0.8201
G1 X122.959 Y111.947 E0.9254
G1 X122.804 Y114.219 E1.0591
G1 X122.718 Y114.527 E1.0778
G1 X122.959 Y116.285 E1.1819
G1 X122.804 Y118.558 E1.3156
G1 X122.718 Y118.865 E1.3343
G1 X122.959 Y120.623 E1.4384
G1 X122.804 Y122.896 E1.5721
G1 X122.732 Y123.152 E1.5877
G1 X122.837 Y123.621 E1.6159
G1 X122.929 Y125.622 E1.7334
G1 X122.787 Y127.153 E1.8236
G1 X122.329 Y129.103 E1.9412
G1 X121.572 Y130.873 E2.0541
G1 X120.299 Y132.825 E2.1908
G1 X118.987 Y134.232 E2.3037
G1 X117.234 Y135.556 E2.4326
G1 X115.521 Y136.434 E2.5455
G1 X113.294 Y137.123 E2.6823
G1 X111.386 Y137.367 E2.7952
G1 X109.192 Y137.266 E2.9240
G1 X108.643 Y137.143 E2.9570
G1 X107.900 Y137.298 E3.0015
G1 X106.005 Y137.362 E3.1128
G1 X104.347 Y137.134 E3.2110
G1 X103.562 Y137.298 E3.2580
G1 X101.667 Y137.362 E3.3693
G1 X100.036 Y137.138 E3.4658
G1 X99.170 Y137.318 E3.5177
G1 X96.682 Y137.318 E3.6637
G1 X95.711 Y137.151 E3.7215
G1 X95.395 Y137.228 E3.7406
G1 X93.426 Y137.362 E3.8564
G1 X91.914 Y137.259 E3.9453
G1 X91.357 Y137.143 E3.9787
G1 X90.808 Y137.266 E4.0117
G1 X88.614 Y137.367 E4.1405
G1 X86.706 Y137.123 E4.2534
G1 X84.479 Y136.434 E4.3902
G1 X82.766 Y135.556 E4.5031
G1 X81.013 Y134.232 E4.6320
G1 X79.701 Y132.825 E4.7449
G1 X78.428 Y130.873 E4.8816
G1 X77.671 Y129.103 E4.9945
G1 X77.213 Y127.153 E5.1121
G1 X77.071 Y125.622 E5.2023
G1 X77.163 Y123.621 E5.3198
G1 X77.268 Y123.152 E5.3480
G1 X77.196 Y122.896 E5.3636
G1 X77.041 Y120.623 E5.4973
G1 X77.282 Y118.865 E5.6014
G1 X77.196 Y118.558 E5.6201
G1 X77.041 Y116.285 E5.7538
G1 X77.285 Y114.506 E5.8591
G1 X77.201 Y114.162 E5.8799
G1 X77.067 Y112.193 E5.9957
G1 X77.170 Y110.681 E6.0846
G1 X77.281 Y110.149 E6.1165
G1 X77.201 Y109.824 E6.1361
G1 X77.067 Y107.854 E6.2519
G1 X77.170 Y106.342 E6.3409
G1 X77.286 Y105.786 E6.3742
G1 X77.163 Y105.237 E6.4072
G1 X77.062 Y103.043 E6.5361
G1 X77.306 Y101.134 E6.6490
G1 X77.657 Y100.000 E6.7186
G1 X77.306 Y98.866 E6.7883
G1 X77.062 Y96.957 E6.9012
G1 X77.163 Y94.763 E7.0300
G1 X77.268 Y94.294 E7.0582
G1 X77.196 Y94.038 E7.0738
G1 X77.041 Y91.765 E7.2075
G1 X77.294 Y89.918 E7.3169
G1 X77.131 Y89.133 E7.3639
G1 X77.067 Y87.238 E7.4752
G1 X77.285 Y85.648 E7.5693
G1 X77.201 Y85.304 E7.5901
G1 X77.067 Y83.335 E7.7059
G1 X77.170 Y81.823 E7.7948
G1 X77.281 Y81.291 E7.8267
G1 X77.201 Y80.966 E7.8463
G1 X77.067 Y78.997 E7.9622
G1 X77.170 Y77.485 E8.0511
G1 X77.286 Y76.928 E8.0844
G1 X77.163 Y76.379 E8.1174
G1 X77.062 Y74.185 E8.2463
G1 X77.306 Y72.277 E8.3592
G1 X77.995 Y70.050 E8.4959
G1 X78.873 Y68.337 E8.6089
G1 X80.197 Y66.584 E8.7377
G1 X81.604 Y65.271 E8.8506
G1 X83.556 Y63.999 E8.9874
G1 X85.326 Y63.242 E9.1003
G1 X87.276 Y62.784 E9.2178
G1 X88.807 Y62.642 E9.3080
G1 X90.808 Y62.734 E9.4256
G1 X91.357 Y62.857 E9.4586
G1 X91.914 Y62.741 E9.4919
G1 X93.426 Y62.638 E9.5808
G1 X95.395 Y62.772 E9.6966
G1 X95.711 Y62.849 E9.7157
G1 X96.682 Y62.682 E9.7736
G1 X99.170 Y62.682 E9.9195
G1 X100.036 Y62.862 E9.9714
G1 X101.667 Y62.638 E10.0680
G1 X103.562 Y62.702 E10.1792
G1 X104.347 Y62.866 E10.2263
G1 X106.194 Y62.612 E10.3357
G1 X108.467 Y62.767 E10.4693
G1 X108.714 Y62.837 E10.4844
G1 X108.759 Y62.825 E10.4871
G1 X110.287 Y62.648 E10.5774
G1 X111.961 Y62.686 E10.6756
G1 X113.479 Y62.934 E10.7658
G1 X115.706 Y63.623 E10.9026
G1 X117.726 Y64.748 E11.0383
G1 X119.630 Y66.406 E11.1864
G1 X120.843 Y67.900 E11.2993
G1 X121.817 Y69.650 E11.4168
G1 X122.373 Y71.085 E11.5071
G1 X122.832 Y73.035 E11.6246
G1 X122.943 Y74.956 E11.7375
G1 X122.716 Y76.910 E11.8529
G1 X122.889 Y77.915 E11.9128
G1 X122.889 Y80.403 E12.0587
G1 X122.709 Y81.269 E12.1106
G1 X122.933 Y82.900 E12.2072
G1 X122.869 Y84.795 E12.3185
G1 X122.706 Y85.580 E12.3655
G1 X122.933 Y87.238 E12.4637
G1 X122.869 Y89.134 E12.5750
G1 X122.706 Y89.918 E12.6220
G1 X122.933 Y91.576 E12.7202
G1 X122.869 Y93.472 E12.8315
G1 X122.714 Y94.216 E12.8761
G1 X122.965 Y96.378 E13.0038
G1 X122.241 Y96.387 F18000
G92 E0.0000
G1 X122.042 Y98.539 E0.1268 F1800
G1 X121.589 Y100.000 E0.2166
G1 X122.042 Y101.461 E0.3063
G1 X122.241 Y103.613 E0.4331
G1 X121.985 Y105.817 E0.5633
G1 X122.115 Y106.441 E0.6006
G1 X122.212 Y107.854 E0.6838
G1 X122.085 Y109.713 E0.7931
G1 X121.983 Y110.130 E0.8183
G1 X122.236 Y111.971 E0.9273
G1 X122.091 Y114.096 E1.0523
G1 X121.984 Y114.477 E1.0755
G1 X122.236 Y116.310 E1.1840
G1 X122.091 Y118.435 E1.3090
G1 X121.984 Y118.815 E1.3321
G1 X122.236 Y120.648 E1.4407
G1 X122.091 Y122.773 E1.5656
G1 X121.990 Y123.132 E1.5875
G1 X122.121 Y123.717 E1.6227
G1 X122.208 Y125.605 E1.7336
G1 X122.075 Y127.037 E1.8180
G1 X121.642 Y128.877 E1.9289
G1 X120.934 Y130.532 E2.0345
G1 X119.730 Y132.380 E2.1639
G1 X118.503 Y133.695 E2.2694
G1 X116.850 Y134.944 E2.3910
G1 X115.248 Y135.765 E2.4966
G1 X113.141 Y136.417 E2.6260
G1 X111.357 Y136.645 E2.7315
G1 X109.288 Y136.549 E2.8531
G1 X108.648 Y136.407 E2.8915
G1 X107.814 Y136.580 E2.9415
G1 X106.042 Y136.641 E3.0455
G1 X104.322 Y136.404 E3.1474
G1 X103.476 Y136.580 E3.1981
G1 X101.704 Y136.641 E3.3021
G1 X100.011 Y136.408 E3.4023
G1 X99.096 Y136.598 E3.4572
G1 X96.744 Y136.598 E3.5952
G1 X95.686 Y136.416 E3.6582
G1 X95.284 Y136.513 E3.6824
G1 X93.426 Y136.641 E3.7917
G1 X92.012 Y136.544 E3.8749
G1 X91.352 Y136.407 E3.9144
G1 X90.712 Y136.549 E3.9529
G1 X88.643 Y136.645 E4.0744
G1 X86.859 Y136.417 E4.1799
G1 X84.752 Y135.765 E4.3093
G1 X83.150 Y134.944 E4.4149
G1 X81.497 Y133.695 E4.5365
G1 X80.270 Y132.380 E4.6420
G1 X79.066 Y130.532 E4.7714
G1 X78.358 Y128.877 E4.8770
G1 X77.925 Y127.037 E4.9879
G1 X77.792 Y125.605 E5.0723
G1 X77.879 Y123.717 E5.1832
G1 X78.010 Y123.132 E5.2184
G1 X77.909 Y122.773 E5.2403
G1 X77.764 Y120.648 E5.3652
G1 X78.016 Y118.815 E5.4738
G1 X77.909 Y118.435 E5.4969
G1 X77.764 Y116.310 E5.6219
G1 X78.017 Y114.468 E5.7310
G1 X77.915 Y114.051 E5.7561
G1 X77.788 Y112.193 E5.8655
G1 X77.885 Y110.779 E5.9486
G1 X78.019 Y110.136 E5.9871
G1 X77.915 Y109.713 E6.0126
G1 X77.788 Y107.854 E6.1220
G1 X77.885 Y106.441 E6.2051
