; G-Code generated by Simplify3D(R) Version 4.1.2
; Jul 17, 2022 at 2:32:34 PM
; Settings Summary
;   processName,Process1
;   applyToModels,fan-mount-temporary,fan-mount-temporary(2),fan-mount-temporary(3),fan-mount-temporary(4)
;   profileName,HSBot (modified)
;   profileVersion,2019-11-09 11:59:44
;   baseProfile,Default
;   printMaterial,PETG - Eryone
;   printQuality,Medium
;   printExtruders,
;   extruderName,Extruder - v6,Extruder - lgx ace
;   extruderToolheadNumber,0,1
;   extruderDiameter,0.4,0.4
;   extruderAutoWidth,1,1
;   extruderWidth,0.48,0.48
;   extrusionMultiplier,1.03,1.03
;   extruderUseRetract,0,1
;   extruderRetractionDistance,4,1
;   extruderExtraRestartDistance,0,0
;   extruderRetractionZLift,0,0
;   extruderRetractionSpeed,3600,3600
;   extruderUseCoasting,0,0
;   extruderCoastingDistance,0.2,0.2
;   extruderUseWipe,0,1
;   extruderWipeDistance,1,1
;   primaryExtruder,1
;   layerHeight,0.2
;   topSolidLayers,3
;   bottomSolidLayers,3
;   perimeterOutlines,3
;   printPerimetersInsideOut,1
;   startPointOption,2
;   startPointOriginX,0
;   startPointOriginY,0
;   sequentialIslands,0
;   spiralVaseMode,0
;   firstLayerHeightPercentage,100
;   firstLayerWidthPercentage,150
;   firstLayerUnderspeed,0.25
;   useRaft,0
;   raftExtruder,0
;   raftTopLayers,3
;   raftBaseLayers,2
;   raftOffset,3
;   raftSeparationDistance,0.18
;   raftTopInfill,100
;   aboveRaftSpeedMultiplier,0.3
;   useSkirt,1
;   skirtExtruder,1
;   skirtLayers,1
;   skirtOutlines,10
;   skirtOffset,0
;   usePrimePillar,0
;   primePillarExtruder,999
;   primePillarWidth,12
;   primePillarLocation,7
;   primePillarSpeedMultiplier,1
;   useOozeShield,0
;   oozeShieldExtruder,999
;   oozeShieldOffset,2
;   oozeShieldOutlines,1
;   oozeShieldSidewallShape,1
;   oozeShieldSidewallAngle,30
;   oozeShieldSpeedMultiplier,1
;   infillExtruder,1
;   internalInfillPattern,Rectilinear
;   externalInfillPattern,Rectilinear
;   infillPercentage,10
;   outlineOverlapPercentage,20
;   infillExtrusionWidthPercentage,100
;   minInfillLength,3
;   infillLayerInterval,1
;   internalInfillAngles,45,-45
;   overlapInternalInfillAngles,0
;   externalInfillAngles,45,-45
;   generateSupport,0
;   supportExtruder,1
;   supportInfillPercentage,30
;   supportExtraInflation,0
;   supportBaseLayers,1
;   denseSupportExtruder,0
;   denseSupportLayers,0
;   denseSupportInfillPercentage,70
;   supportLayerInterval,1
;   supportHorizontalPartOffset,0.3
;   supportUpperSeparationLayers,1
;   supportLowerSeparationLayers,1
;   supportType,0
;   supportGridSpacing,2
;   maxOverhangAngle,45
;   supportAngles,0
;   temperatureName,v6,Bed,lgx-ace
;   temperatureNumber,0,0,1
;   temperatureSetpointCount,1,1,1
;   temperatureSetpointLayers,1,1,1
;   temperatureSetpointTemperatures,0,85,240
;   temperatureStabilizeAtStartup,1,1,1
;   temperatureHeatedBed,0,1,0
;   fanLayers,1,2,3
;   fanSpeeds,0,15,15
;   blipFanToFullPower,0
;   adjustSpeedForCooling,0
;   minSpeedLayerTime,15
;   minCoolingSpeedSlowdown,50
;   increaseFanForCooling,0
;   minFanLayerTime,45
;   maxCoolingFanSpeed,70
;   increaseFanForBridging,0
;   bridgingFanSpeed,80
;   use5D,1
;   relativeEdistances,0
;   allowEaxisZeroing,1
;   independentExtruderAxes,0
;   includeM10123,0
;   stickySupport,1
;   applyToolheadOffsets,0
;   gcodeXoffset,0
;   gcodeYoffset,0
;   gcodeZoffset,0
;   overrideMachineDefinition,1
;   machineTypeOverride,0
;   strokeXoverride,220
;   strokeYoverride,220
;   strokeZoverride,175
;   originOffsetXoverride,0
;   originOffsetYoverride,0
;   originOffsetZoverride,0
;   homeXdirOverride,-1
;   homeYdirOverride,-1
;   homeZdirOverride,-1
;   flipXoverride,1
;   flipYoverride,-1
;   flipZoverride,1
;   toolheadOffsets,0,0|0,0|0,0|0,0|0,0|0,0
;   overrideFirmwareConfiguration,0
;   firmwareTypeOverride,RepRap (Marlin/Repetier/Sprinter)
;   GPXconfigOverride,r2
;   baudRateOverride,115200
;   overridePrinterModels,0
;   printerModelsOverride
;   startingGcode,G28 ; home all axes,G32 ; run bed.g -- probe bed and enable compensation
;   layerChangeGcode,
;   retractionGcode,
;   toolChangeGcode,
;   endingGcode,M0 ; call stop.g
;   exportFileFormat,gcode
;   celebration,0
;   celebrationSong,Random Song
;   postProcessing,|; 0.2mm layer, 8 bands 5mm each, total height 40mm|{REPLACE "; layer 25" "M572 D0 S0.69\n; layer 10"}|{REPLACE "; layer 50" "M572 D0 S0.70\n; layer 50"}|{REPLACE "; layer 75" "M572 D0 S0.71\n; layer 75"}|{REPLACE "; layer 100" "M572 D0 S0.72\n; layer 100"}|{REPLACE "; layer 125" "M572 D0 S0.73\n; layer 125"}|{REPLACE "; layer 150" "M572 D0 S0.74\n; layer 150"}|{REPLACE "; layer 175" "M572 D0 S0.75\n; layer 175"}|{REPLACE "; layer 200" "M572 D0 S0.76\n; layer 200"}
;   defaultSpeed,5400
;   outlineUnderspeed,0.8
;   solidInfillUnderspeed,0.75
;   supportUnderspeed,0.8
;   rapidXYspeed,18000
;   rapidZspeed,1200
;   minBridgingArea,60
;   bridgingExtraInflation,0
;   bridgingExtrusionMultiplier,0.96
;   bridgingSpeedMultiplier,1
;   useFixedBridgingAngle,0
;   fixedBridgingAngle,0
;   applyBridgingToPerimeters,0
;   filamentDiameters,1.75|1.75|1.75|1.75|1.75|1.75
;   filamentPricesPerKg,25|46|46|46|46|46
;   filamentDensities,1.29|1.25|1.25|1.25|1.25|1.25
;   useMinPrintHeight,0
;   minPrintHeight,0.3
;   useMaxPrintHeight,0
;   maxPrintHeight,110
;   useDiaphragm,0
;   diaphragmLayerInterval,20
;   robustSlicing,1
;   mergeAllIntoSolid,0
;   onlyRetractWhenCrossingOutline,1
;   retractBetweenLayers,0
;   useRetractionMinTravel,1
;   retractionMinTravel,5
;   retractWhileWiping,1
;   onlyWipeOutlines,1
;   avoidCrossingOutline,1
;   maxMovementDetourFactor,2
;   toolChangeRetractionDistance,12
;   toolChangeExtraRestartDistance,0
;   toolChangeRetractionSpeed,600
;   externalThinWallType,0
;   internalThinWallType,0
;   thinWallAllowedOverlapPercentage,10
;   singleExtrusionMinLength,0.1
;   singleExtrusionMinPrintingWidthPercentage,50
;   singleExtrusionMaxPrintingWidthPercentage,200
;   singleExtrusionEndpointExtension,0.2
;   horizontalSizeCompensation,-0.1
G90
M82
M106 S0
M140 S85
M190 S85
G10 S0 R{0-50} P0
G10 S240 R{240-50} P1
M116 P1
G28 ; home all axes
G32 ; run bed.g -- probe bed and enable compensation
; process Process1
; layer 1, Z = 0.200
T1
G92 E0.0000
G1 E-1.0000 F3600
; feature skirt
; tool H0.200 W0.720
G1 Z0.200 F1200
G1 X45.760 Y49.767 F18000
G1 E0.0000 F3600
G92 E0.0000
G1 X49.767 Y45.760 E0.3494 F1350
G1 X70.233 Y45.760 E1.6115
G1 X74.240 Y49.767 E1.9609
G1 X74.240 Y94.760 E4.7354
G1 X90.233 Y94.760 E5.7216
G1 X94.240 Y98.767 E6.0710
G1 X94.240 Y110.233 E6.7781
G1 X90.233 Y114.240 E7.1275
G1 X49.767 Y114.240 E9.6228
G1 X45.760 Y110.233 E9.9722
G1 X45.760 Y49.767 E13.7008
G1 X46.480 Y50.065 F18000
G92 E0.0000
G1 X50.065 Y46.480 E0.3126 F1350
G1 X69.935 Y46.480 E1.5379
G1 X73.520 Y50.065 E1.8505
G1 X73.520 Y95.480 E4.6510
G1 X89.935 Y95.480 E5.6632
G1 X93.520 Y99.065 E5.9759
G1 X93.520 Y109.935 E6.6462
G1 X89.935 Y113.520 E6.9588
G1 X50.065 Y113.520 E9.4174
G1 X46.480 Y109.935 E9.7300
G1 X46.480 Y50.065 E13.4218
G1 X47.200 Y50.363 F18000
G92 E0.0000
G1 X50.363 Y47.200 E0.2759 F1350
G1 X69.637 Y47.200 E1.4643
G1 X72.800 Y50.363 E1.7402
G1 X72.800 Y96.200 E4.5667
G1 X89.637 Y96.200 E5.6049
G1 X92.800 Y99.363 E5.8808
G1 X92.800 Y109.637 E6.5143
G1 X89.637 Y112.800 E6.7901
G1 X50.363 Y112.800 E9.2119
G1 X47.200 Y109.637 E9.4878
G1 X47.200 Y50.363 E13.1428
G1 X47.920 Y50.661 F18000
G92 E0.0000
G1 X50.661 Y47.920 E0.2391 F1350
G1 X69.338 Y47.920 E1.3908
G1 X72.080 Y50.661 E1.6299
G1 X72.080 Y96.920 E4.4824
G1 X89.338 Y96.920 E5.5466
G1 X92.080 Y99.662 E5.7857
G1 X92.080 Y109.338 E6.3824
G1 X89.338 Y112.080 E6.6215
G1 X50.661 Y112.080 E9.0065
G1 X47.920 Y109.338 E9.2455
G1 X47.920 Y50.661 E12.8638
G1 X48.640 Y50.960 F18000
G92 E0.0000
G1 X50.960 Y48.640 E0.2023 F1350
G1 X69.040 Y48.640 E1.3172
G1 X71.360 Y50.960 E1.5195
G1 X71.360 Y97.640 E4.3980
G1 X89.040 Y97.640 E5.4883
G1 X91.360 Y99.960 E5.6906
G1 X91.360 Y109.040 E6.2505
G1 X89.040 Y111.360 E6.4528
G1 X50.960 Y111.360 E8.8010
G1 X48.640 Y109.040 E9.0033
G1 X48.640 Y50.960 E12.5848
G1 X49.360 Y51.258 F18000
G92 E0.0000
G1 X51.258 Y49.360 E0.1655 F1350
G1 X68.742 Y49.360 E1.2437
G1 X70.640 Y51.258 E1.4092
G1 X70.640 Y98.360 E4.3137
G1 X88.742 Y98.360 E5.4299
G1 X90.640 Y100.258 E5.5955
G1 X90.640 Y108.742 E6.1186
G1 X88.742 Y110.640 E6.2841
G1 X51.258 Y110.640 E8.5956
G1 X49.360 Y108.742 E8.7611
G1 X49.360 Y51.258 E12.3058
G1 X50.080 Y51.556 F18000
G92 E0.0000
G1 X51.556 Y50.080 E0.1287 F1350
G1 X68.444 Y50.080 E1.1701
G1 X69.920 Y51.556 E1.2988
G1 X69.920 Y99.080 E4.2294
G1 X88.444 Y99.080 E5.3716
G1 X89.920 Y100.556 E5.5003
G1 X89.920 Y108.444 E5.9867
G1 X88.444 Y109.920 E6.1155
G1 X51.556 Y109.920 E8.3901
G1 X50.080 Y108.444 E8.5188
G1 X50.080 Y51.556 E12.0268
G1 X50.800 Y51.854 F18000
G92 E0.0000
G1 X51.854 Y50.800 E0.0920 F1350
G1 X68.146 Y50.800 E1.0965
G1 X69.200 Y51.854 E1.1885
G1 X69.200 Y99.800 E4.1450
G1 X88.146 Y99.800 E5.3133
G1 X89.200 Y100.854 E5.4052
G1 X89.200 Y108.146 E5.8548
G1 X88.146 Y109.200 E5.9468
G1 X51.854 Y109.200 E8.1847
G1 X50.800 Y108.146 E8.2766
G1 X50.800 Y51.854 E11.7478
G1 X51.520 Y52.153 F18000
G92 E0.0000
G1 X52.153 Y51.520 E0.0552 F1350
G1 X67.847 Y51.520 E1.0230
G1 X68.480 Y52.153 E1.0781
G1 X68.480 Y100.520 E4.0607
G1 X87.847 Y100.520 E5.2550
G1 X88.480 Y101.153 E5.3101
G1 X88.480 Y107.847 E5.7230
G1 X87.847 Y108.480 E5.7781
G1 X52.153 Y108.480 E7.9792
G1 X51.520 Y107.847 E8.0344
G1 X51.520 Y52.153 E11.4688
G1 X52.240 Y52.451 F18000
G92 E0.0000
G1 X52.451 Y52.240 E0.0184 F1350
G1 X67.549 Y52.240 E0.9494
G1 X67.760 Y52.451 E0.9678
G1 X67.760 Y101.240 E3.9763
G1 X87.549 Y101.240 E5.1966
G1 X87.760 Y101.451 E5.2150
G1 X87.760 Y107.549 E5.5911
G1 X87.549 Y107.760 E5.6095
G1 X52.451 Y107.760 E7.7738
G1 X52.240 Y107.549 E7.7922
G1 X52.240 Y52.451 E11.1897
G92 E0.0000
G1 E-1.0000 F3600
G1 X49.136 Y128.358 F18000
G1 E0.0000 F3600
G92 E0.0000
G1 X69.603 Y128.358 E1.2620 F1350
G1 X73.610 Y132.365 E1.6115
G1 X73.610 Y177.358 E4.3859
G1 X89.603 Y177.358 E5.3721
G1 X93.610 Y181.365 E5.7216
G1 X93.610 Y192.831 E6.4286
G1 X89.603 Y196.838 E6.7781
G1 X49.136 Y196.838 E9.2734
G1 X45.130 Y192.831 E9.6228
G1 X45.130 Y132.365 E13.3514
G1 X49.136 Y128.358 E13.7008
G1 X49.435 Y129.078 F18000
G92 E0.0000
G1 X69.305 Y129.078 E1.2253 F1350
G1 X72.890 Y132.663 E1.5379
G1 X72.890 Y178.078 E4.3384
G1 X89.305 Y178.078 E5.3506
G1 X92.890 Y181.663 E5.6632
G1 X92.890 Y192.533 E6.3335
G1 X89.305 Y196.118 E6.6462
G1 X49.435 Y196.118 E9.1047
G1 X45.850 Y192.533 E9.4174
G1 X45.850 Y132.663 E13.1092
G1 X49.435 Y129.078 E13.4218
G1 X49.733 Y129.798 F18000
G92 E0.0000
G1 X69.006 Y129.798 E1.1885 F1350
G1 X72.170 Y132.961 E1.4643
G1 X72.170 Y178.798 E4.2908
G1 X89.006 Y178.798 E5.3291
G1 X92.170 Y181.962 E5.6049
G1 X92.170 Y192.235 E6.2384
G1 X89.006 Y195.398 E6.5143
G1 X49.733 Y195.398 E8.9360
G1 X46.570 Y192.235 E9.2119
G1 X46.570 Y132.961 E12.8670
G1 X49.733 Y129.798 E13.1428
G1 X50.031 Y130.518 F18000
G92 E0.0000
G1 X68.708 Y130.518 E1.1517 F1350
G1 X71.450 Y133.260 E1.3908
G1 X71.450 Y179.518 E4.2433
G1 X88.708 Y179.518 E5.3075
G1 X91.450 Y182.260 E5.5466
G1 X91.450 Y191.937 E6.1433
G1 X88.708 Y194.678 E6.3824
G1 X50.031 Y194.678 E8.7674
G1 X47.290 Y191.937 E9.0065
G1 X47.290 Y133.260 E12.6247
G1 X50.031 Y130.518 E12.8638
G1 X50.329 Y131.238 F18000
G92 E0.0000
G1 X68.410 Y131.238 E1.1149 F1350
G1 X70.730 Y133.558 E1.3172
G1 X70.730 Y180.238 E4.1957
G1 X88.410 Y180.238 E5.2860
G1 X90.730 Y182.558 E5.4883
G1 X90.730 Y191.639 E6.0482
G1 X88.410 Y193.958 E6.2505
G1 X50.329 Y193.958 E8.5987
G1 X48.010 Y191.639 E8.8010
G1 X48.010 Y133.558 E12.3825
G1 X50.329 Y131.238 E12.5848
G1 X50.628 Y131.958 F18000
G92 E0.0000
G1 X68.112 Y131.958 E1.0781 F1350
G1 X70.010 Y133.856 E1.2437
G1 X70.010 Y180.958 E4.1482
G1 X88.112 Y180.958 E5.2644
G1 X90.010 Y182.856 E5.4299
G1 X90.010 Y191.340 E5.9531
G1 X88.112 Y193.238 E6.1186
G1 X50.628 Y193.238 E8.4300
G1 X48.730 Y191.340 E8.5956
G1 X48.730 Y133.856 E12.1403
G1 X50.628 Y131.958 E12.3058
G1 X50.926 Y132.678 F18000
G92 E0.0000
G1 X67.813 Y132.678 E1.0414 F1350
G1 X69.290 Y134.154 E1.1701
G1 X69.290 Y181.678 E4.1006
G1 X87.813 Y181.678 E5.2429
G1 X89.290 Y183.154 E5.3716
G1 X89.290 Y191.042 E5.8580
G1 X87.813 Y192.518 E5.9867
G1 X50.926 Y192.518 E8.2614
G1 X49.450 Y191.042 E8.3901
G1 X49.450 Y134.154 E11.8980
G1 X50.926 Y132.678 E12.0268
G1 X51.224 Y133.398 F18000
G92 E0.0000
G1 X67.515 Y133.398 E1.0046 F1350
G1 X68.570 Y134.453 E1.0965
G1 X68.570 Y182.398 E4.0531
G1 X87.515 Y182.398 E5.2213
G1 X88.570 Y183.453 E5.3133
G1 X88.570 Y190.744 E5.7629
G1 X87.515 Y191.798 E5.8548
G1 X51.224 Y191.798 E8.0927
G1 X50.170 Y190.744 E8.1847
G1 X50.170 Y134.453 E11.6558
G1 X51.224 Y133.398 E11.7478
G1 X51.522 Y134.118 F18000
G92 E0.0000
G1 X67.217 Y134.118 E0.9678 F1350
G1 X67.850 Y134.751 E1.0230
G1 X67.850 Y183.118 E4.0055
G1 X87.217 Y183.118 E5.1998
G1 X87.850 Y183.751 E5.2550
G1 X87.850 Y190.446 E5.6678
G1 X87.217 Y191.078 E5.7230
G1 X51.522 Y191.078 E7.9240
G1 X50.890 Y190.446 E7.9792
G1 X50.890 Y134.751 E11.4136
G1 X51.522 Y134.118 E11.4688
G1 X51.821 Y134.838 F18000
G92 E0.0000
G1 X66.919 Y134.838 E0.9310 F1350
G1 X67.130 Y135.049 E0.9494
G1 X67.130 Y183.838 E3.9580
G1 X86.919 Y183.838 E5.1782
G1 X87.130 Y184.049 E5.1966
G1 X87.130 Y190.147 E5.5727
G1 X86.919 Y190.358 E5.5911
G1 X51.821 Y190.358 E7.7554
G1 X51.610 Y190.147 E7.7738
G1 X51.610 Y135.049 E11.1714
G1 X51.821 Y134.838 E11.1897
G92 E0.0000
G1 E-1.0000 F3600
G1 X128.249 Y132.695 F18000
G1 E0.0000 F3600
G92 E0.0000
G1 X132.256 Y128.689 E0.3494 F1350
G1 X152.723 Y128.689 E1.6115
G1 X156.729 Y132.696 E1.9609
G1 X156.729 Y177.689 E4.7354
G1 X172.723 Y177.689 E5.7216
G1 X176.729 Y181.695 E6.0710
G1 X176.729 Y193.162 E6.7781
G1 X172.723 Y197.169 E7.1275
G1 X132.256 Y197.169 E9.6228
G1 X128.249 Y193.162 E9.9722
G1 X128.249 Y132.695 E13.7008
G1 X128.969 Y132.994 F18000
G92 E0.0000
G1 X132.554 Y129.409 E0.3126 F1350
G1 X152.424 Y129.409 E1.5379
G1 X156.009 Y132.994 E1.8505
G1 X156.009 Y178.409 E4.6510
G1 X172.424 Y178.409 E5.6632
G1 X176.009 Y181.994 E5.9759
G1 X176.009 Y192.864 E6.6462
G1 X172.424 Y196.449 E6.9588
G1 X132.554 Y196.449 E9.4174
G1 X128.969 Y192.864 E9.7300
G1 X128.969 Y132.994 E13.4218
G1 X129.689 Y133.292 F18000
G92 E0.0000
G1 X132.853 Y130.129 E0.2759 F1350
G1 X152.126 Y130.129 E1.4643
G1 X155.289 Y133.292 E1.7402
G1 X155.289 Y179.129 E4.5667
G1 X172.126 Y179.129 E5.6049
G1 X175.289 Y182.292 E5.8808
G1 X175.289 Y192.565 E6.5143
G1 X172.126 Y195.729 E6.7901
G1 X132.853 Y195.729 E9.2119
G1 X129.689 Y192.565 E9.4878
G1 X129.689 Y133.292 E13.1428
G1 X130.409 Y133.590 F18000
G92 E0.0000
G1 X133.151 Y130.849 E0.2391 F1350
G1 X151.828 Y130.849 E1.3908
G1 X154.569 Y133.590 E1.6299
G1 X154.569 Y179.849 E4.4824
G1 X171.828 Y179.849 E5.5466
G1 X174.569 Y182.590 E5.7857
G1 X174.569 Y192.267 E6.3824
G1 X171.828 Y195.009 E6.6215
G1 X133.151 Y195.009 E9.0065
G1 X130.409 Y192.267 E9.2455
G1 X130.409 Y133.590 E12.8638
G1 X131.129 Y133.888 F18000
G92 E0.0000
G1 X133.449 Y131.569 E0.2023 F1350
G1 X151.530 Y131.569 E1.3172
G1 X153.849 Y133.888 E1.5195
G1 X153.849 Y180.569 E4.3980
G1 X171.530 Y180.569 E5.4883
G1 X173.849 Y182.888 E5.6906
G1 X173.849 Y191.969 E6.2505
G1 X171.530 Y194.289 E6.4528
G1 X133.449 Y194.289 E8.8010
G1 X131.129 Y191.969 E9.0033
G1 X131.129 Y133.888 E12.5848
G1 X131.849 Y134.187 F18000
G92 E0.0000
G1 X133.747 Y132.289 E0.1655 F1350
G1 X151.231 Y132.289 E1.2437
G1 X153.129 Y134.187 E1.4092
G1 X153.129 Y181.289 E4.3137
G1 X171.231 Y181.289 E5.4299
G1 X173.129 Y183.187 E5.5955
G1 X173.129 Y191.671 E6.1186
G1 X171.231 Y193.569 E6.2841
G1 X133.747 Y193.569 E8.5956
G1 X131.849 Y191.671 E8.7611
G1 X131.849 Y134.187 E12.3058
G1 X132.569 Y134.485 F18000
G92 E0.0000
G1 X134.046 Y133.009 E0.1287 F1350
G1 X150.933 Y133.009 E1.1701
G1 X152.409 Y134.485 E1.2988
G1 X152.409 Y182.009 E4.2294
G1 X170.933 Y182.009 E5.3716
G1 X172.409 Y183.485 E5.5003
G1 X172.409 Y191.372 E5.9867
G1 X170.933 Y192.849 E6.1155
G1 X134.046 Y192.849 E8.3901
G1 X132.569 Y191.372 E8.5188
G1 X132.569 Y134.485 E12.0268
