; G-Code generated by Simplify3D(R) Version 4.1.2
; Jul 17, 2022 at 7:25:18 PM
; Settings Summary
;   processName,Process1
;   applyToModels,fan-mount-temporary-top,fan-mount-temporary-top(2),fan-mount-temporary-top(3),fan-mount-temporary-top(4)
;   profileName,HSBot
;   profileVersion,2019-11-09 11:59:44
;   baseProfile,Default
;   printMaterial,pla
;   printQuality,Medium
;   printExtruders,
;   extruderName,Extruder - v6,Extruder - lgx ace
;   extruderToolheadNumber,0,1
;   extruderDiameter,0.4,0.4
;   extruderAutoWidth,1,1
;   extruderWidth,0.48,0.48
;   extrusionMultiplier,1.03,1.03
;   extruderUseRetract,0,1
;   extruderRetractionDistance,4,1
;   extruderExtraRestartDistance,0,0
;   extruderRetractionZLift,0,0
;   extruderRetractionSpeed,3600,3600
;   extruderUseCoasting,0,0
;   extruderCoastingDistance,0.2,0.2
;   extruderUseWipe,0,1
;   extruderWipeDistance,1,1
;   primaryExtruder,1
;   layerHeight,0.2
;   topSolidLayers,3
;   bottomSolidLayers,3
;   perimeterOutlines,3
;   printPerimetersInsideOut,1
;   startPointOption,2
;   startPointOriginX,0
;   startPointOriginY,0
;   sequentialIslands,0
;   spiralVaseMode,0
;   firstLayerHeightPercentage,100
;   firstLayerWidthPercentage,150
;   firstLayerUnderspeed,0.25
;   useRaft,0
;   raftExtruder,0
;   raftTopLayers,3
;   raftBaseLayers,2
;   raftOffset,3
;   raftSeparationDistance,0.18
;   raftTopInfill,100
;   aboveRaftSpeedMultiplier,0.3
;   useSkirt,1
;   skirtExtruder,1
;   skirtLayers,1
;   skirtOutlines,2
;   skirtOffset,10
;   usePrimePillar,0
;   primePillarExtruder,999
;   primePillarWidth,12
;   primePillarLocation,7
;   primePillarSpeedMultiplier,1
;   useOozeShield,0
;   oozeShieldExtruder,999
;   oozeShieldOffset,2
;   oozeShieldOutlines,1
;   oozeShieldSidewallShape,1
;   oozeShieldSidewallAngle,30
;   oozeShieldSpeedMultiplier,1
;   infillExtruder,1
;   internalInfillPattern,Rectilinear
;   externalInfillPattern,Rectilinear
;   infillPercentage,15
;   outlineOverlapPercentage,20
;   infillExtrusionWidthPercentage,100
;   minInfillLength,3
;   infillLayerInterval,1
;   internalInfillAngles,45,-45
;   overlapInternalInfillAngles,0
;   externalInfillAngles,45,-45
;   generateSupport,0
;   supportExtruder,1
;   supportInfillPercentage,30
;   supportExtraInflation,0
;   supportBaseLayers,1
;   denseSupportExtruder,0
;   denseSupportLayers,0
;   denseSupportInfillPercentage,70
;   supportLayerInterval,1
;   supportHorizontalPartOffset,0.3
;   supportUpperSeparationLayers,1
;   supportLowerSeparationLayers,1
;   supportType,0
;   supportGridSpacing,2
;   maxOverhangAngle,45
;   supportAngles,0
;   temperatureName,v6,Bed,lgx-ace
;   temperatureNumber,0,0,1
;   temperatureSetpointCount,1,1,1
;   temperatureSetpointLayers,1,1,1
;   temperatureSetpointTemperatures,0,55,225
;   temperatureStabilizeAtStartup,1,1,1
;   temperatureHeatedBed,0,1,0
;   fanLayers,1,2,5
;   fanSpeeds,0,0,0
;   blipFanToFullPower,0
;   adjustSpeedForCooling,0
;   minSpeedLayerTime,15
;   minCoolingSpeedSlowdown,50
;   increaseFanForCooling,0
;   minFanLayerTime,45
;   maxCoolingFanSpeed,70
;   increaseFanForBridging,0
;   bridgingFanSpeed,80
;   use5D,1
;   relativeEdistances,0
;   allowEaxisZeroing,1
;   independentExtruderAxes,0
;   includeM10123,0
;   stickySupport,1
;   applyToolheadOffsets,0
;   gcodeXoffset,0
;   gcodeYoffset,0
;   gcodeZoffset,0
;   overrideMachineDefinition,1
;   machineTypeOverride,0
;   strokeXoverride,220
;   strokeYoverride,220
;   strokeZoverride,175
;   originOffsetXoverride,0
;   originOffsetYoverride,0
;   originOffsetZoverride,0
;   homeXdirOverride,-1
;   homeYdirOverride,-1
;   homeZdirOverride,-1
;   flipXoverride,1
;   flipYoverride,-1
;   flipZoverride,1
;   toolheadOffsets,0,0|0,0|0,0|0,0|0,0|0,0
;   overrideFirmwareConfiguration,0
;   firmwareTypeOverride,RepRap (Marlin/Repetier/Sprinter)
;   GPXconfigOverride,r2
;   baudRateOverride,115200
;   overridePrinterModels,0
;   printerModelsOverride
;   startingGcode,G28 ; home all axes,G32 ; run bed.g -- probe bed and enable compensation
;   layerChangeGcode,
;   retractionGcode,
;   toolChangeGcode,
;   endingGcode,M0 ; call stop.g
;   exportFileFormat,gcode
;   celebration,0
;   celebrationSong,Random Song
;   postProcessing,|; 0.2mm layer, 8 bands 5mm each, total height 40mm|{REPLACE "; layer 25" "M572 D0 S0.69\n; layer 10"}|{REPLACE "; layer 50" "M572 D0 S0.70\n; layer 50"}|{REPLACE "; layer 75" "M572 D0 S0.71\n; layer 75"}|{REPLACE "; layer 100" "M572 D0 S0.72\n; layer 100"}|{REPLACE "; layer 125" "M572 D0 S0.73\n; layer 125"}|{REPLACE "; layer 150" "M572 D0 S0.74\n; layer 150"}|{REPLACE "; layer 175" "M572 D0 S0.75\n; layer 175"}|{REPLACE "; layer 200" "M572 D0 S0.76\n; layer 200"}
;   defaultSpeed,5400
;   outlineUnderspeed,0.8
;   solidInfillUnderspeed,0.75
;   supportUnderspeed,0.8
;   rapidXYspeed,18000
;   rapidZspeed,1200
;   minBridgingArea,60
;   bridgingExtraInflation,0
;   bridgingExtrusionMultiplier,0.96
;   bridgingSpeedMultiplier,1
;   useFixedBridgingAngle,0
;   fixedBridgingAngle,0
;   applyBridgingToPerimeters,0
;   filamentDiameters,1.75|1.75|1.75|1.75|1.75|1.75
;   filamentPricesPerKg,25|46|46|46|46|46
;   filamentDensities,1.29|1.25|1.25|1.25|1.25|1.25
;   useMinPrintHeight,0
;   minPrintHeight,0.3
;   useMaxPrintHeight,0
;   maxPrintHeight,110
;   useDiaphragm,0
;   diaphragmLayerInterval,20
;   robustSlicing,1
;   mergeAllIntoSolid,0
;   onlyRetractWhenCrossingOutline,1
;   retractBetweenLayers,0
;   useRetractionMinTravel,1
;   retractionMinTravel,5
;   retractWhileWiping,1
;   onlyWipeOutlines,1
;   avoidCrossingOutline,1
;   maxMovementDetourFactor,2
;   toolChangeRetractionDistance,12
;   toolChangeExtraRestartDistance,0
;   toolChangeRetractionSpeed,600
;   externalThinWallType,0
;   internalThinWallType,0
;   thinWallAllowedOverlapPercentage,10
;   singleExtrusionMinLength,0.1
;   singleExtrusionMinPrintingWidthPercentage,50
;   singleExtrusionMaxPrintingWidthPercentage,200
;   singleExtrusionEndpointExtension,0.2
;   horizontalSizeCompensation,-0.1
G90
M82
M106 S0
M140 S55
M190 S55
G10 S0 R{0-50} P0
G10 S225 R{225-50} P1
M116 P1
G28 ; home all axes
G32 ; run bed.g -- probe bed and enable compensation
; process Process1
; layer 1, Z = 0.200
T1
G92 E0.0000
G1 E-1.0000 F3600
; feature skirt
; tool H0.200 W0.720
G1 Z0.200 F1200
G1 X62.514 Y83.111 F18000
G1 E0.0000 F3600
G92 E0.0000
G1 X121.237 Y83.111 E3.6211 F1350
G1 X125.309 Y84.798 E3.8929
G1 X171.833 Y131.321 E7.9501
G1 X171.833 Y140.500 E8.5161
G1 X166.842 Y145.491 E8.9513
G1 X171.996 Y150.645 E9.4008
G1 X171.996 Y159.824 E9.9668
G1 X167.796 Y164.024 E10.3331
G1 X173.858 Y170.085 E10.8616
G1 X173.858 Y179.264 E11.4276
G1 X167.906 Y185.216 E11.9467
G1 X175.046 Y192.357 E12.5694
G1 X175.046 Y201.536 E13.1354
G1 X165.162 Y211.420 E13.9974
G1 X155.984 Y211.421 E14.5633
G1 X120.658 Y176.106 E17.6435
G1 X85.700 Y176.112 E19.7991
G1 X79.706 Y182.106 E20.3218
G1 X50.727 Y182.106 E22.1088
G1 X44.237 Y175.616 E22.6748
G1 X44.237 Y161.637 E23.5368
G1 X47.789 Y158.085 E23.8466
G1 X43.048 Y153.345 E24.2600
G1 X43.048 Y139.366 E25.1220
G1 X44.848 Y137.566 E25.2789
G1 X41.187 Y133.904 E25.5982
G1 X41.187 Y119.925 E26.4602
G1 X43.777 Y117.335 E26.6861
G1 X41.023 Y114.581 E26.9263
G1 X41.023 Y100.602 E27.7883
G1 X47.514 Y94.111 E28.3543
G1 X56.023 Y94.111 E28.8791
G1 X56.023 Y89.602 E29.1571
G1 X62.514 Y83.111 E29.7232
G1 X62.812 Y83.831 F18000
G92 E0.0000
G1 X121.094 Y83.831 E3.5939 F1350
G1 X124.901 Y85.408 E3.8480
G1 X171.113 Y131.620 E7.8780
G1 X171.113 Y140.202 E8.4072
G1 X165.824 Y145.491 E8.8684
G1 X171.276 Y150.943 E9.3439
G1 X171.276 Y159.526 E9.8731
G1 X166.778 Y164.024 E10.2654
G1 X173.138 Y170.384 E10.8200
G1 X173.138 Y178.966 E11.3492
G1 X166.888 Y185.216 E11.8943
G1 X174.326 Y192.655 E12.5430
G1 X174.326 Y201.237 E13.0722
G1 X164.864 Y210.700 E13.8974
G1 X156.282 Y210.701 E14.4266
G1 X120.961 Y175.391 E17.5064
G1 X120.951 Y175.389 E17.5069
G1 X120.874 Y175.386 E17.5117
G1 X85.402 Y175.393 E19.6991
G1 X79.408 Y181.386 E20.2218
G1 X51.026 Y181.386 E21.9720
G1 X44.957 Y175.318 E22.5012
G1 X44.957 Y161.935 E23.3264
G1 X48.807 Y158.085 E23.6622
G1 X43.768 Y153.046 E24.1016
G1 X43.768 Y139.664 E24.9268
G1 X45.866 Y137.566 E25.1098
G1 X41.907 Y133.606 E25.4551
G1 X41.907 Y120.224 E26.2803
G1 X44.796 Y117.335 E26.5322
G1 X41.743 Y114.282 E26.7984
G1 X41.743 Y100.900 E27.6236
G1 X47.812 Y94.831 E28.1529
G1 X56.743 Y94.831 E28.7036
G1 X56.743 Y89.900 E29.0077
G1 X62.812 Y83.831 E29.5369
G92 E0.0000
G1 E-1.0000 F3600
; feature inner perimeter
G1 X67.463 Y94.551 F18000
G1 X68.182 Y94.551
G1 X68.903 Y95.991
G1 E0.0000 F3600
G92 E0.0000
G1 X118.287 Y95.991 E3.0452 F1215
G1 X158.207 Y135.911 E6.5265
G1 X157.358 Y136.760 E6.6005
G1 X125.940 Y105.351 E9.3400
G1 X125.244 Y104.757 E9.3964
G1 X124.841 Y104.452 E9.4275
G1 X124.095 Y103.954 E9.4829
G1 X123.660 Y103.699 E9.5140
G1 X122.860 Y103.291 E9.5693
G1 X122.398 Y103.089 E9.6004
G1 X121.556 Y102.779 E9.6557
G1 X121.073 Y102.632 E9.6869
G1 X120.183 Y102.418 E9.7433
G1 X119.260 Y102.272 E9.8010
G1 X118.347 Y102.200 E9.8574
G1 X117.880 Y102.191 E9.8863
G1 X73.663 Y102.199 E12.6129
G1 X73.033 Y102.310 E12.6523
G1 X72.629 Y102.437 E12.6784
G1 X72.050 Y102.707 E12.7178
G1 X71.492 Y103.098 E12.7598
G1 X71.040 Y103.550 E12.7993
G1 X70.782 Y103.886 E12.8254
G1 X70.483 Y104.404 E12.8622
G1 X70.321 Y104.795 E12.8884
G1 X70.155 Y105.413 E12.9278
G1 X70.103 Y106.008 E12.9646
G1 X70.103 Y108.191 E13.0993
G1 X53.903 Y108.191 E14.0982
G1 X53.903 Y106.991 E14.1722
G1 X68.903 Y106.991 E15.0972
G1 X68.903 Y95.991 E15.7755
G1 X68.183 Y95.271 F18000
G92 E0.0000
G1 X118.586 Y95.271 E3.1080 F1215
G1 X159.225 Y135.911 E6.6521
G1 X157.358 Y137.778 E6.8149
G1 X125.451 Y105.881 E9.5970
G1 X124.792 Y105.318 E9.6504
G1 X124.423 Y105.039 E9.6789
G1 X123.713 Y104.564 E9.7316
G1 X123.314 Y104.331 E9.7601
G1 X122.552 Y103.942 E9.8128
G1 X122.129 Y103.757 E9.8413
G1 X121.327 Y103.461 E9.8940
G1 X120.885 Y103.327 E9.9225
G1 X120.042 Y103.125 E9.9759
G1 X119.175 Y102.988 E10.0301
G1 X118.312 Y102.920 E10.0835
G1 X117.873 Y102.911 E10.1106
G1 X73.726 Y102.919 E12.8329
G1 X73.205 Y103.011 E12.8655
G1 X72.891 Y103.110 E12.8858
G1 X72.411 Y103.333 E12.9184
G1 X71.956 Y103.652 E12.9527
G1 X71.582 Y104.026 E12.9853
G1 X71.382 Y104.287 E13.0056
G1 X71.130 Y104.723 E13.0366
G1 X71.004 Y105.027 E13.0569
G1 X70.867 Y105.538 E13.0896
G1 X70.823 Y106.040 E13.1206
G1 X70.823 Y108.911 E13.2977
G1 X53.183 Y108.911 E14.3854
G1 X53.183 Y106.271 E14.5482
G1 X68.183 Y106.271 E15.4732
G1 X68.183 Y95.271 E16.1515
; feature outer perimeter
G1 X67.463 Y94.551 F18000
G92 E0.0000
G1 X118.884 Y94.551 E3.1708 F1080
G1 X160.244 Y135.911 E6.7777
G1 X157.359 Y138.796 E7.0292
G1 X124.962 Y106.410 E9.8540
G1 X124.341 Y105.879 E9.9044
G1 X124.006 Y105.626 E9.9303
G1 X123.330 Y105.175 E9.9803
G1 X122.968 Y104.962 E10.0062
G1 X122.245 Y104.594 E10.0563
G1 X121.860 Y104.425 E10.0822
G1 X121.098 Y104.144 E10.1323
G1 X120.696 Y104.022 E10.1582
G1 X119.902 Y103.832 E10.2085
G1 X119.091 Y103.703 E10.2592
G1 X118.276 Y103.639 E10.3096
G1 X117.866 Y103.631 E10.3349
G1 X73.789 Y103.639 E13.0529
G1 X73.376 Y103.711 E13.0787
G1 X73.152 Y103.782 E13.0932
G1 X72.772 Y103.959 E13.1190
G1 X72.421 Y104.205 E13.1455
G1 X72.125 Y104.502 E13.1713
G1 X71.982 Y104.688 E13.1858
G1 X71.777 Y105.042 E13.2110
G1 X71.687 Y105.259 E13.2255
G1 X71.579 Y105.664 E13.2513
G1 X71.543 Y106.071 E13.2765
G1 X71.543 Y109.631 E13.4961
G1 X52.463 Y109.631 E14.6726
G1 X52.463 Y105.551 E14.9242
G1 X67.463 Y105.551 E15.8492
G1 X67.463 Y94.551 E16.5275
G1 X68.463 Y94.551 F1080
; feature solid layer
G1 X67.463 Y95.532 F18000
G1 X67.463 Y105.551
G1 X57.251 Y105.551
G1 X55.147 Y107.615
G92 E0.0000
G1 X55.099 Y107.567 E0.0042 F1013
G1 X56.117 Y107.567 E0.0670
G1 X56.165 Y107.615 E0.0712
G1 X57.184 Y107.615 E0.1339
G1 X57.136 Y107.567 E0.1381
G1 X58.154 Y107.567 E0.2009
G1 X58.202 Y107.615 E0.2051
G1 X59.220 Y107.615 E0.2679
G1 X59.172 Y107.567 E0.2721
G1 X60.190 Y107.567 E0.3349
G1 X60.238 Y107.615 E0.3391
G1 X61.257 Y107.615 E0.4018
G1 X61.209 Y107.567 E0.4060
G1 X62.227 Y107.567 E0.4688
G1 X62.275 Y107.615 E0.4730
G1 X63.293 Y107.615 E0.5358
G1 X63.245 Y107.567 E0.5400
G1 X64.263 Y107.567 E0.6028
G1 X64.311 Y107.615 E0.6070
G1 X65.330 Y107.615 E0.6697
G1 X65.282 Y107.567 E0.6739
G1 X66.300 Y107.567 E0.7367
G1 X66.348 Y107.615 E0.7409
G1 X67.366 Y107.615 E0.8037
G1 X67.318 Y107.567 E0.8079
G1 X68.336 Y107.567 E0.8707
G1 X68.384 Y107.615 E0.8749
G1 X69.402 Y107.615 E0.9376
G1 X69.354 Y107.567 E0.9418
G1 X69.479 Y107.567 E0.9495
G1 X69.479 Y106.674 E1.0046
G1 X69.527 Y106.722 E1.0088
G1 X69.527 Y105.983 E1.0544
G1 X69.550 Y105.726 E1.0703
G1 X69.479 Y105.655 E1.0764
G1 X69.479 Y104.637 E1.1392
G1 X69.706 Y104.864 E1.1590
G1 X69.774 Y104.609 E1.1752
G1 X69.965 Y104.148 E1.2060
G1 X69.981 Y104.121 E1.2080
G1 X69.479 Y103.619 E1.2517
G1 X69.479 Y102.601 E1.3145
G1 X70.364 Y103.485 E1.3916
G1 X70.606 Y103.169 E1.4161
G1 X70.836 Y102.939 E1.4362
G1 X69.479 Y101.583 E1.5545
G1 X69.479 Y100.564 E1.6173
G1 X71.385 Y102.470 E1.7835
G1 X71.761 Y102.207 E1.8118
G1 X72.019 Y102.086 E1.8294
G1 X69.479 Y99.546 E2.0509
G1 X69.479 Y98.528 E2.1137
G1 X72.747 Y101.796 E2.3987
G1 X72.896 Y101.749 E2.4083
G1 X73.595 Y101.626 E2.4521
G1 X69.479 Y97.510 E2.8110
G1 X69.479 Y96.567 E2.8691
G1 X69.555 Y96.567 E2.8738
G1 X74.610 Y101.623 E3.3147
G1 X75.629 Y101.622 E3.3775
G1 X70.573 Y96.567 E3.8183
G1 X71.591 Y96.567 E3.8811
G1 X76.647 Y101.622 E4.3219
G1 X77.665 Y101.622 E4.3847
G1 X72.610 Y96.567 E4.8255
G1 X73.628 Y96.567 E4.8883
G1 X78.683 Y101.622 E5.3291
G1 X79.701 Y101.622 E5.3919
G1 X74.646 Y96.567 E5.8327
G1 X75.664 Y96.567 E5.8955
G1 X80.719 Y101.622 E6.3363
G1 X81.737 Y101.621 E6.3991
G1 X76.683 Y96.567 E6.8398
G1 X77.701 Y96.567 E6.9026
G1 X82.755 Y101.621 E7.3434
G1 X83.773 Y101.621 E7.4061
G1 X78.719 Y96.567 E7.8469
G1 X79.737 Y96.567 E7.9097
G1 X84.791 Y101.621 E8.3504
G1 X85.809 Y101.621 E8.4131
G1 X80.756 Y96.567 E8.8538
G1 X81.774 Y96.567 E8.9166
G1 X86.827 Y101.620 E9.3573
G1 X87.845 Y101.620 E9.4201
G1 X82.792 Y96.567 E9.8608
G1 X83.810 Y96.567 E9.9236
G1 X88.863 Y101.620 E10.3642
G1 X89.881 Y101.620 E10.4270
G1 X84.829 Y96.567 E10.8676
G1 X85.847 Y96.567 E10.9304
G1 X90.899 Y101.620 E11.3710
G1 X91.917 Y101.620 E11.4338
G1 X86.865 Y96.567 E11.8744
G1 X87.883 Y96.567 E11.9372
G1 X92.936 Y101.619 E12.3778
G1 X93.954 Y101.619 E12.4406
G1 X88.901 Y96.567 E12.8812
G1 X89.920 Y96.567 E12.9440
G1 X94.972 Y101.619 E13.3845
G1 X95.990 Y101.619 E13.4473
G1 X90.938 Y96.567 E13.8879
G1 X91.956 Y96.567 E13.9506
G1 X97.008 Y101.619 E14.3912
G1 X98.026 Y101.619 E14.4540
G1 X92.974 Y96.567 E14.8945
G1 X93.993 Y96.567 E14.9573
G1 X99.044 Y101.618 E15.3978
G1 X100.062 Y101.618 E15.4605
G1 X95.011 Y96.567 E15.9010
G1 X96.029 Y96.567 E15.9638
G1 X101.080 Y101.618 E16.4043
G1 X102.098 Y101.618 E16.4671
G1 X97.047 Y96.567 E16.9075
G1 X98.066 Y96.567 E16.9703
G1 X103.116 Y101.618 E17.4107
G1 X104.134 Y101.617 E17.4735
G1 X99.084 Y96.567 E17.9140
G1 X100.102 Y96.567 E17.9767
G1 X105.152 Y101.617 E18.4172
G1 X106.170 Y101.617 E18.4799
G1 X101.120 Y96.567 E18.9203
G1 X102.138 Y96.567 E18.9831
G1 X107.188 Y101.617 E19.4235
G1 X108.206 Y101.617 E19.4863
G1 X103.157 Y96.567 E19.9266
G1 X104.175 Y96.567 E19.9894
G1 X109.224 Y101.617 E20.4298
G1 X110.243 Y101.616 E20.4925
G1 X105.193 Y96.567 E20.9329
G1 X106.211 Y96.567 E20.9957
G1 X111.261 Y101.616 E21.4360
G1 X112.279 Y101.616 E21.4988
G1 X107.230 Y96.567 E21.9391
G1 X108.248 Y96.567 E22.0019
G1 X113.297 Y101.616 E22.4421
G1 X114.315 Y101.616 E22.5049
G1 X109.266 Y96.567 E22.9452
G1 X110.284 Y96.567 E23.0080
G1 X115.333 Y101.616 E23.4482
G1 X116.351 Y101.615 E23.5110
G1 X111.303 Y96.567 E23.9513
G1 X112.321 Y96.567 E24.0140
G1 X117.369 Y101.615 E24.4543
G1 X117.885 Y101.615 E24.4861
G1 X118.375 Y101.625 E24.5163
G1 X118.399 Y101.627 E24.5178
G1 X113.339 Y96.567 E24.9590
G1 X114.357 Y96.567 E25.0218
G1 X119.520 Y101.730 E25.4720
G1 X120.296 Y101.853 E25.5204
G1 X120.777 Y101.969 E25.5510
G1 X115.376 Y96.567 E26.0220
G1 X116.394 Y96.567 E26.0848
