; G-Code generated by Simplify3D(R) Version 4.1.2
; May 10, 2020 at 1:02:42 AM
; Settings Summary
;   processName,Process1
;   applyToModels,bottom-side-v2,bottom-side-v2(2)
;   profileName,HBot (modified)
;   profileVersion,2019-10-26 23:38:43
;   baseProfile,Default
;   printMaterial,PETG - SUNLU
;   printQuality,High
;   printExtruders,
;   extruderName,Extruder 1
;   extruderToolheadNumber,0
;   extruderDiameter,0.4
;   extruderAutoWidth,1
;   extruderWidth,0.48
;   extrusionMultiplier,0.94
;   extruderUseRetract,1
;   extruderRetractionDistance,4
;   extruderExtraRestartDistance,0
;   extruderRetractionZLift,0
;   extruderRetractionSpeed,3600
;   extruderUseCoasting,1
;   extruderCoastingDistance,0.2
;   extruderUseWipe,1
;   extruderWipeDistance,5
;   primaryExtruder,0
;   layerHeight,0.1
;   topSolidLayers,5
;   bottomSolidLayers,5
;   perimeterOutlines,4
;   printPerimetersInsideOut,1
;   startPointOption,3
;   startPointOriginX,200
;   startPointOriginY,100
;   sequentialIslands,0
;   spiralVaseMode,0
;   firstLayerHeightPercentage,100
;   firstLayerWidthPercentage,100
;   firstLayerUnderspeed,0.5
;   useRaft,0
;   raftExtruder,0
;   raftTopLayers,3
;   raftBaseLayers,2
;   raftOffset,3
;   raftSeparationDistance,0.18
;   raftTopInfill,100
;   aboveRaftSpeedMultiplier,0.3
;   useSkirt,1
;   skirtExtruder,0
;   skirtLayers,1
;   skirtOutlines,10
;   skirtOffset,0
;   usePrimePillar,0
;   primePillarExtruder,999
;   primePillarWidth,12
;   primePillarLocation,7
;   primePillarSpeedMultiplier,1
;   useOozeShield,0
;   oozeShieldExtruder,999
;   oozeShieldOffset,2
;   oozeShieldOutlines,1
;   oozeShieldSidewallShape,1
;   oozeShieldSidewallAngle,30
;   oozeShieldSpeedMultiplier,1
;   infillExtruder,0
;   internalInfillPattern,Rectilinear
;   externalInfillPattern,Rectilinear
;   infillPercentage,30
;   outlineOverlapPercentage,25
;   infillExtrusionWidthPercentage,100
;   minInfillLength,5
;   infillLayerInterval,1
;   internalInfillAngles,45,-45
;   overlapInternalInfillAngles,0
;   externalInfillAngles,45,-45
;   generateSupport,0
;   supportExtruder,0
;   supportInfillPercentage,40
;   supportExtraInflation,0
;   supportBaseLayers,1
;   denseSupportExtruder,0
;   denseSupportLayers,0
;   denseSupportInfillPercentage,70
;   supportLayerInterval,1
;   supportHorizontalPartOffset,0.3
;   supportUpperSeparationLayers,1
;   supportLowerSeparationLayers,1
;   supportType,0
;   supportGridSpacing,4
;   maxOverhangAngle,25
;   supportAngles,0
;   temperatureName,Extruder 1,Heated Bed
;   temperatureNumber,0,1
;   temperatureSetpointCount,1,1
;   temperatureSetpointLayers,1,1
;   temperatureSetpointTemperatures,225,75
;   temperatureStabilizeAtStartup,1,1
;   temperatureHeatedBed,0,1
;   fanLayers,1,10
;   fanSpeeds,0,5
;   blipFanToFullPower,1
;   adjustSpeedForCooling,1
;   minSpeedLayerTime,15
;   minCoolingSpeedSlowdown,20
;   increaseFanForCooling,1
;   minFanLayerTime,45
;   maxCoolingFanSpeed,35
;   increaseFanForBridging,1
;   bridgingFanSpeed,80
;   use5D,1
;   relativeEdistances,0
;   allowEaxisZeroing,1
;   independentExtruderAxes,0
;   includeM10123,0
;   stickySupport,1
;   applyToolheadOffsets,0
;   gcodeXoffset,0
;   gcodeYoffset,0
;   gcodeZoffset,0
;   overrideMachineDefinition,1
;   machineTypeOverride,0
;   strokeXoverride,200
;   strokeYoverride,200
;   strokeZoverride,150
;   originOffsetXoverride,0
;   originOffsetYoverride,0
;   originOffsetZoverride,0
;   homeXdirOverride,-1
;   homeYdirOverride,-1
;   homeZdirOverride,-1
;   flipXoverride,1
;   flipYoverride,-1
;   flipZoverride,1
;   toolheadOffsets,0,0|0,0|0,0|0,0|0,0|0,0
;   overrideFirmwareConfiguration,1
;   firmwareTypeOverride,RepRap (Marlin/Repetier/Sprinter)
;   GPXconfigOverride,r2
;   baudRateOverride,115200
;   overridePrinterModels,0
;   printerModelsOverride
;   startingGcode,G28 ; home all axes,G32 ; run bed.g -- probe bed and enable compensation
;   layerChangeGcode,
;   retractionGcode,
;   toolChangeGcode,
;   endingGcode,M0 ; call stop.g
;   exportFileFormat,gcode
;   celebration,0
;   celebrationSong,Random Song
;   postProcessing,
;   defaultSpeed,3600
;   outlineUnderspeed,0.5
;   solidInfillUnderspeed,0.8
;   supportUnderspeed,0.8
;   rapidXYspeed,18000
;   rapidZspeed,1200
;   minBridgingArea,50
;   bridgingExtraInflation,0
;   bridgingExtrusionMultiplier,0.96
;   bridgingSpeedMultiplier,1
;   useFixedBridgingAngle,0
;   fixedBridgingAngle,0
;   applyBridgingToPerimeters,0
;   filamentDiameters,1.75|1.75|1.75|1.75|1.75|1.75
;   filamentPricesPerKg,46|46|46|46|46|46
;   filamentDensities,1.25|1.25|1.25|1.25|1.25|1.25
;   useMinPrintHeight,1
;   minPrintHeight,0.2
;   useMaxPrintHeight,0
;   maxPrintHeight,0
;   useDiaphragm,0
;   diaphragmLayerInterval,20
;   robustSlicing,1
;   mergeAllIntoSolid,0
;   onlyRetractWhenCrossingOutline,1
;   retractBetweenLayers,0
;   useRetractionMinTravel,1
;   retractionMinTravel,3
;   retractWhileWiping,1
;   onlyWipeOutlines,1
;   avoidCrossingOutline,1
;   maxMovementDetourFactor,50
;   toolChangeRetractionDistance,12
;   toolChangeExtraRestartDistance,-0.5
;   toolChangeRetractionSpeed,600
;   externalThinWallType,0
;   internalThinWallType,2
;   thinWallAllowedOverlapPercentage,10
;   singleExtrusionMinLength,1
;   singleExtrusionMinPrintingWidthPercentage,50
;   singleExtrusionMaxPrintingWidthPercentage,150
;   singleExtrusionEndpointExtension,0.2
;   horizontalSizeCompensation,-0.1
G90
M82
M106 S0
M140 S75
M190 S75
M104 S225 T0
M109 S225 T0
G28 ; home all axes
G32 ; run bed.g -- probe bed and enable compensation
; process Process2
; layer 1, Z = 0.200
T0
G92 E0.0000
G1 E-4.0000 F3600
; feature skirt
; tool H0.200 W0.480
G1 Z0.200 F1200
G1 X141.113 Y102.963 F18000
G1 E0.0000 F3600
G92 E0.0000
G1 X141.113 Y114.037 E0.4155 F1800
G1 X140.136 Y115.975 E0.4969
G1 X138.328 Y117.310 E0.5812
G1 X138.051 Y117.486 E0.5935
G1 X137.176 Y117.955 E0.6308
G1 X136.933 Y118.067 E0.6408
G1 X136.068 Y118.407 E0.6757
G1 X135.878 Y118.472 E0.6832
G1 X135.351 Y118.628 E0.7039
G1 X135.156 Y118.676 E0.7114
G1 X134.278 Y118.852 E0.7450
G1 X134.080 Y118.883 E0.7525
G1 X133.513 Y118.946 E0.7739
G1 X133.261 Y118.960 E0.7834
G1 X61.556 Y118.960 E3.4736
G1 X58.884 Y116.284 E3.6154
G1 X58.897 Y107.251 E3.9543
G1 X58.899 Y107.176 E3.9572
G1 X58.984 Y104.705 E4.0499
G1 X58.988 Y104.627 E4.0528
G1 X59.274 Y100.493 E4.2083
G1 X59.802 Y100.000 E4.2354
G1 X59.274 Y99.507 E4.2625
G1 X58.988 Y95.373 E4.4180
G1 X58.984 Y95.295 E4.4209
G1 X58.899 Y92.824 E4.5137
G1 X58.897 Y92.749 E4.5165
G1 X58.884 Y83.716 E4.8554
G1 X61.556 Y81.040 E4.9973
G1 X133.261 Y81.040 E7.6875
G1 X133.513 Y81.054 E7.6969
G1 X134.080 Y81.117 E7.7183
G1 X134.278 Y81.148 E7.7258
G1 X135.156 Y81.324 E7.7594
G1 X135.351 Y81.372 E7.7670
G1 X135.878 Y81.528 E7.7876
G1 X136.068 Y81.593 E7.7951
G1 X136.933 Y81.933 E7.8300
G1 X137.176 Y82.045 E7.8400
G1 X138.050 Y82.514 E7.8772
G1 X138.328 Y82.690 E7.8896
G1 X140.136 Y84.025 E7.9739
G1 X141.113 Y85.963 E8.0553
G1 X141.113 Y97.037 E8.4708
G1 X140.136 Y98.975 E8.5523
G1 X138.748 Y100.000 E8.6170
G1 X140.136 Y101.025 E8.6817
G1 X141.113 Y102.963 E8.7631
G1 X140.633 Y103.077 F18000
G92 E0.0000
G1 X140.633 Y113.923 E0.4069 F1800
G1 X139.758 Y115.657 E0.4798
G1 X138.057 Y116.914 E0.5591
G1 X137.809 Y117.071 E0.5702
G1 X136.961 Y117.525 E0.6062
G1 X136.744 Y117.626 E0.6152
G1 X135.902 Y117.957 E0.6492
G1 X135.732 Y118.015 E0.6559
G1 X135.225 Y118.164 E0.6757
G1 X135.051 Y118.207 E0.6825
G1 X134.194 Y118.380 E0.7153
G1 X134.017 Y118.407 E0.7220
G1 X133.473 Y118.468 E0.7425
G1 X133.248 Y118.480 E0.7510
G1 X61.755 Y118.480 E3.4332
G1 X59.364 Y116.086 E3.5601
G1 X59.377 Y107.256 E3.8914
G1 X59.378 Y107.189 E3.8939
G1 X59.464 Y104.726 E3.9864
G1 X59.467 Y104.656 E3.9890
G1 X59.740 Y100.714 E4.1373
G1 X60.505 Y100.000 E4.1765
G1 X59.740 Y99.286 E4.2158
G1 X59.467 Y95.344 E4.3640
G1 X59.464 Y95.274 E4.3667
G1 X59.378 Y92.811 E4.4591
G1 X59.377 Y92.744 E4.4617
G1 X59.364 Y83.914 E4.7929
G1 X61.755 Y81.520 E4.9199
G1 X133.248 Y81.520 E7.6021
G1 X133.473 Y81.532 E7.6106
G1 X134.017 Y81.593 E7.6311
G1 X134.194 Y81.620 E7.6378
G1 X135.051 Y81.793 E7.6706
G1 X135.226 Y81.836 E7.6774
G1 X135.732 Y81.985 E7.6972
G1 X135.902 Y82.043 E7.7039
G1 X136.744 Y82.374 E7.7379
G1 X136.962 Y82.475 E7.7468
G1 X137.808 Y82.929 E7.7829
G1 X138.057 Y83.086 E7.7939
G1 X139.758 Y84.343 E7.8733
G1 X140.633 Y86.077 E7.9461
G1 X140.633 Y96.923 E8.3531
G1 X139.758 Y98.657 E8.4259
G1 X138.057 Y99.914 E8.5053
G1 X137.921 Y100.000 E8.5113
G1 X138.057 Y100.087 E8.5174
G1 X139.758 Y101.343 E8.5968
G1 X140.633 Y103.077 E8.6696
G1 X140.153 Y103.191 F18000
G92 E0.0000
G1 X140.153 Y113.809 E0.3983 F1800
G1 X139.381 Y115.339 E0.4626
G1 X137.786 Y116.517 E0.5371
G1 X137.567 Y116.656 E0.5468
G1 X136.747 Y117.095 E0.5817
G1 X136.555 Y117.184 E0.5896
G1 X135.736 Y117.506 E0.6226
G1 X135.586 Y117.558 E0.6286
G1 X135.100 Y117.701 E0.6476
G1 X134.946 Y117.739 E0.6535
G1 X134.110 Y117.907 E0.6855
G1 X133.953 Y117.931 E0.6915
G1 X133.434 Y117.989 E0.7111
G1 X133.235 Y118.000 E0.7186
G1 X61.954 Y118.000 E3.3928
G1 X59.845 Y115.887 E3.5049
G1 X59.857 Y107.262 E3.8285
G1 X59.858 Y107.202 E3.8307
G1 X59.943 Y104.747 E3.9229
G1 X59.947 Y104.685 E3.9252
G1 X60.206 Y100.936 E4.0662
G1 X61.209 Y100.000 E4.1177
G1 X60.206 Y99.064 E4.1691
G1 X59.947 Y95.315 E4.3101
G1 X59.943 Y95.253 E4.3124
G1 X59.858 Y92.798 E4.4046
G1 X59.857 Y92.738 E4.4068
G1 X59.845 Y84.112 E4.7305
G1 X61.954 Y82.000 E4.8425
G1 X133.235 Y82.000 E7.5168
G1 X133.434 Y82.011 E7.5242
G1 X133.953 Y82.069 E7.5438
G1 X134.110 Y82.093 E7.5498
G1 X134.946 Y82.261 E7.5818
G1 X135.100 Y82.299 E7.5877
G1 X135.586 Y82.442 E7.6067
G1 X135.736 Y82.494 E7.6127
G1 X136.555 Y82.816 E7.6457
G1 X136.747 Y82.905 E7.6536
G1 X137.566 Y83.344 E7.6885
G1 X137.785 Y83.482 E7.6982
G1 X139.381 Y84.661 E7.7727
G1 X140.153 Y86.191 E7.8370
G1 X140.153 Y96.809 E8.2353
G1 X139.381 Y98.339 E8.2996
G1 X137.785 Y99.518 E8.3741
G1 X137.566 Y99.656 E8.3838
G1 X136.925 Y100.000 E8.4111
G1 X137.567 Y100.344 E8.4384
G1 X137.786 Y100.483 E8.4481
G1 X139.381 Y101.661 E8.5226
G1 X140.153 Y103.191 E8.5869
G92 E0.0000
G1 E-4.0000 F3600
G1 X138.713 Y96.466 F18000
G1 E0.0000 F3600
G92 E0.0000
G1 X138.250 Y97.384 E0.0386 F1800
G1 X136.972 Y98.328 E0.0982
G1 X136.840 Y98.412 E0.1041
G1 X136.104 Y98.806 E0.1354
G1 X135.989 Y98.859 E0.1401
G1 X135.239 Y99.154 E0.1704
G1 X135.149 Y99.185 E0.1740
G1 X134.724 Y99.311 E0.1906
G1 X134.631 Y99.333 E0.1941
G1 X133.857 Y99.489 E0.2238
G1 X133.764 Y99.504 E0.2273
G1 X133.314 Y99.553 E0.2443
G1 X133.195 Y99.560 E0.2488
G1 X62.848 Y99.560 E2.8880
G1 X61.603 Y98.398 E2.9519
G1 X61.384 Y95.228 E3.0711
G1 X61.382 Y95.191 E3.0725
G1 X61.298 Y92.759 E3.1638
G1 X61.297 Y92.723 E3.1652
G1 X61.285 Y84.707 E3.4659
G1 X62.551 Y83.440 E3.5331
G1 X133.195 Y83.440 E6.1835
G1 X133.314 Y83.447 E6.1879
G1 X133.763 Y83.496 E6.2049
G1 X133.857 Y83.511 E6.2085
G1 X134.631 Y83.667 E6.2381
G1 X134.724 Y83.689 E6.2416
G1 X135.149 Y83.815 E6.2583
G1 X135.239 Y83.846 E6.2618
G1 X135.989 Y84.140 E6.2921
G1 X136.104 Y84.194 E6.2968
G1 X136.840 Y84.588 E6.3282
G1 X136.972 Y84.672 E6.3340
G1 X138.250 Y85.616 E6.3937
G1 X138.713 Y86.534 E6.4322
G1 X138.713 Y96.466 E6.8049
G1 X138.233 Y96.352 F18000
G92 E0.0000
G1 X137.873 Y97.066 E0.0300 F1800
G1 X136.700 Y97.932 E0.0847
G1 X136.598 Y97.997 E0.0892
G1 X135.889 Y98.377 E0.1194
G1 X135.800 Y98.418 E0.1231
G1 X135.073 Y98.704 E0.1524
G1 X135.003 Y98.728 E0.1552
G1 X134.598 Y98.847 E0.1710
G1 X134.526 Y98.865 E0.1738
G1 X133.773 Y99.016 E0.2026
G1 X133.700 Y99.028 E0.2054
G1 X133.275 Y99.075 E0.2215
G1 X133.182 Y99.080 E0.2249
G1 X63.037 Y99.080 E2.8566
G1 X62.069 Y98.176 E2.9063
G1 X61.863 Y95.199 E3.0183
G1 X61.862 Y95.170 E3.0193
G1 X61.778 Y92.746 E3.1104
G1 X61.777 Y92.718 E3.1114
G1 X61.766 Y84.906 E3.4045
G1 X62.750 Y83.920 E3.4568
G1 X133.182 Y83.920 E6.0992
G1 X133.275 Y83.925 E6.1027
G1 X133.700 Y83.972 E6.1187
G1 X133.773 Y83.984 E6.1215
G1 X134.526 Y84.135 E6.1503
G1 X134.598 Y84.153 E6.1531
G1 X135.003 Y84.272 E6.1689
G1 X135.073 Y84.296 E6.1717
G1 X135.800 Y84.582 E6.2010
G1 X135.889 Y84.623 E6.2047
G1 X136.598 Y85.003 E6.2349
G1 X136.700 Y85.068 E6.2394
G1 X137.873 Y85.934 E6.2941
G1 X138.233 Y86.648 E6.3241
G1 X138.233 Y96.352 E6.6882
G1 X137.753 Y96.238 F18000
G92 E0.0000
G1 X137.496 Y96.748 E0.0214 F1800
G1 X136.429 Y97.536 E0.0712
G1 X136.356 Y97.582 E0.0744
G1 X135.675 Y97.947 E0.1034
G1 X135.611 Y97.976 E0.1061
G1 X134.907 Y98.253 E0.1344
G1 X134.857 Y98.270 E0.1364
G1 X134.473 Y98.384 E0.1515
G1 X134.422 Y98.396 E0.1534
G1 X133.689 Y98.544 E0.1815
G1 X133.637 Y98.552 E0.1835
G1 X133.235 Y98.596 E0.1986
G1 X133.169 Y98.600 E0.2011
G1 X63.226 Y98.600 E2.8252
G1 X62.535 Y97.955 E2.8607
G1 X62.342 Y95.170 E2.9654
G1 X62.341 Y95.149 E2.9662
G1 X62.257 Y92.733 E3.0569
G1 X62.257 Y92.713 E3.0576
G1 X62.246 Y85.104 E3.3431
G1 X62.949 Y84.400 E3.3804
G1 X133.169 Y84.400 E6.0149
G1 X133.235 Y84.404 E6.0174
G1 X133.637 Y84.448 E6.0325
G1 X133.689 Y84.456 E6.0345
G1 X134.422 Y84.604 E6.0626
G1 X134.473 Y84.616 E6.0645
G1 X134.857 Y84.730 E6.0796
G1 X134.907 Y84.747 E6.0816
G1 X135.611 Y85.024 E6.1099
G1 X135.675 Y85.053 E6.1126
G1 X136.356 Y85.418 E6.1416
G1 X136.429 Y85.464 E6.1448
G1 X137.496 Y86.252 E6.1946
G1 X137.753 Y86.762 E6.2160
G1 X137.753 Y96.238 E6.5715
G1 X137.273 Y96.123 F18000
G92 E0.0000
G1 X137.119 Y96.429 E0.0129 F1800
G1 X136.158 Y97.139 E0.0577
G1 X136.114 Y97.167 E0.0596
G1 X135.461 Y97.517 E0.0874
G1 X135.422 Y97.535 E0.0890
G1 X134.741 Y97.803 E0.1165
G1 X134.711 Y97.813 E0.1177
G1 X134.347 Y97.920 E0.1319
G1 X134.317 Y97.928 E0.1331
G1 X133.605 Y98.071 E0.1603
G1 X133.574 Y98.076 E0.1615
G1 X133.195 Y98.118 E0.1758
G1 X133.156 Y98.120 E0.1773
G1 X63.415 Y98.120 E2.7938
G1 X63.001 Y97.733 E2.8151
G1 X62.821 Y95.141 E2.9125
G1 X62.821 Y95.129 E2.9130
G1 X62.737 Y92.719 E3.0034
G1 X62.737 Y92.707 E3.0039
G1 X62.726 Y85.302 E3.2817
G1 X63.148 Y84.880 E3.3041
G1 X133.156 Y84.880 E5.9306
G1 X133.195 Y84.882 E5.9321
G1 X133.574 Y84.924 E5.9464
G1 X133.605 Y84.929 E5.9476
G1 X134.317 Y85.072 E5.9748
G1 X134.347 Y85.080 E5.9760
G1 X134.711 Y85.187 E5.9902
G1 X134.741 Y85.197 E5.9914
G1 X135.422 Y85.465 E6.0189
G1 X135.461 Y85.483 E6.0204
G1 X136.114 Y85.833 E6.0483
G1 X136.158 Y85.861 E6.0502
G1 X137.119 Y86.571 E6.0950
G1 X137.273 Y86.877 E6.1079
G1 X137.273 Y96.123 E6.4548
G1 X136.793 Y96.009 F18000
G92 E0.0000
G1 X136.742 Y96.111 E0.0043 F1800
G1 X135.887 Y96.743 E0.0442
G1 X135.872 Y96.752 E0.0448
G1 X135.246 Y97.088 E0.0715
G1 X135.233 Y97.093 E0.0720
G1 X134.576 Y97.352 E0.0985
G1 X134.566 Y97.356 E0.0989
G1 X134.222 Y97.457 E0.1123
G1 X134.212 Y97.459 E0.1127
G1 X133.521 Y97.598 E0.1392
G1 X133.510 Y97.600 E0.1396
G1 X133.156 Y97.639 E0.1530
G1 X133.142 Y97.640 E0.1535
G1 X63.605 Y97.640 E2.7623
G1 X63.466 Y97.511 E2.7694
G1 X63.300 Y95.108 E2.8598
G1 X63.217 Y92.702 E2.9501
G1 X63.207 Y85.501 E3.2203
G1 X63.347 Y85.360 E3.2278
G1 X133.142 Y85.360 E5.8463
G1 X133.156 Y85.361 E5.8468
G1 X133.510 Y85.400 E5.8602
G1 X133.521 Y85.402 E5.8606
G1 X134.212 Y85.541 E5.8870
G1 X134.222 Y85.543 E5.8874
G1 X134.566 Y85.644 E5.9009
G1 X134.576 Y85.648 E5.9013
G1 X135.233 Y85.907 E5.9278
G1 X135.246 Y85.912 E5.9283
G1 X135.872 Y86.248 E5.9550
G1 X135.887 Y86.257 E5.9556
G1 X136.742 Y86.889 E5.9955
G1 X136.793 Y86.991 E5.9998
G1 X136.793 Y96.009 E6.3381
G92 E0.0000
G1 E-4.0000 F3600
G1 X139.673 Y103.305 F18000
G1 E0.0000 F3600
G92 E0.0000
G1 X139.673 Y113.695 E0.3898 F1800
G1 X139.004 Y115.020 E0.4455
G1 X137.515 Y116.121 E0.5150
G1 X137.324 Y116.241 E0.5234
G1 X136.533 Y116.666 E0.5571
G1 X136.366 Y116.743 E0.5640
G1 X135.570 Y117.056 E0.5961
G1 X135.440 Y117.100 E0.6012
G1 X134.974 Y117.237 E0.6195
G1 X134.841 Y117.270 E0.6246
G1 X134.026 Y117.434 E0.6558
G1 X133.890 Y117.455 E0.6610
G1 X133.394 Y117.511 E0.6797
G1 X133.222 Y117.520 E0.6862
G1 X62.153 Y117.520 E3.3525
G1 X60.325 Y115.689 E3.4496
G1 X60.337 Y107.267 E3.7655
G1 X60.338 Y107.215 E3.7675
G1 X60.423 Y104.767 E3.8594
G1 X60.426 Y104.714 E3.8614
G1 X60.671 Y101.158 E3.9951
