; G-Code generated by Simplify3D(R) Version 4.1.2
; May 10, 2020 at 2:02:36 AM
; Settings Summary
;   processName,Process1
;   applyToModels,bottom-side-v2
;   profileName,HBot
;   profileVersion,2019-10-26 23:38:43
;   baseProfile,Default
;   printMaterial,PETG - SUNLU
;   printQuality,Medium
;   printExtruders,
;   extruderName,Extruder 1
;   extruderToolheadNumber,0
;   extruderDiameter,0.4
;   extruderAutoWidth,1
;   extruderWidth,0.48
;   extrusionMultiplier,1
;   extruderUseRetract,1
;   extruderRetractionDistance,4
;   extruderExtraRestartDistance,0
;   extruderRetractionZLift,0
;   extruderRetractionSpeed,3600
;   extruderUseCoasting,1
;   extruderCoastingDistance,0.2
;   extruderUseWipe,1
;   extruderWipeDistance,5
;   primaryExtruder,0
;   layerHeight,0.2
;   topSolidLayers,3
;   bottomSolidLayers,3
;   perimeterOutlines,10
;   printPerimetersInsideOut,1
;   startPointOption,3
;   startPointOriginX,200
;   startPointOriginY,100
;   sequentialIslands,0
;   spiralVaseMode,0
;   firstLayerHeightPercentage,100
;   firstLayerWidthPercentage,100
;   firstLayerUnderspeed,0.5
;   useRaft,0
;   raftExtruder,0
;   raftTopLayers,3
;   raftBaseLayers,2
;   raftOffset,3
;   raftSeparationDistance,0.18
;   raftTopInfill,100
;   aboveRaftSpeedMultiplier,0.3
;   useSkirt,1
;   skirtExtruder,0
;   skirtLayers,1
;   skirtOutlines,10
;   skirtOffset,0
;   usePrimePillar,0
;   primePillarExtruder,999
;   primePillarWidth,12
;   primePillarLocation,7
;   primePillarSpeedMultiplier,1
;   useOozeShield,0
;   oozeShieldExtruder,999
;   oozeShieldOffset,2
;   oozeShieldOutlines,1
;   oozeShieldSidewallShape,1
;   oozeShieldSidewallAngle,30
;   oozeShieldSpeedMultiplier,1
;   infillExtruder,0
;   internalInfillPattern,Rectilinear
;   externalInfillPattern,Rectilinear
;   infillPercentage,20
;   outlineOverlapPercentage,25
;   infillExtrusionWidthPercentage,100
;   minInfillLength,5
;   infillLayerInterval,1
;   internalInfillAngles,45,-45
;   overlapInternalInfillAngles,0
;   externalInfillAngles,45,-45
;   generateSupport,0
;   supportExtruder,0
;   supportInfillPercentage,30
;   supportExtraInflation,0
;   supportBaseLayers,1
;   denseSupportExtruder,0
;   denseSupportLayers,0
;   denseSupportInfillPercentage,70
;   supportLayerInterval,1
;   supportHorizontalPartOffset,0.3
;   supportUpperSeparationLayers,1
;   supportLowerSeparationLayers,1
;   supportType,0
;   supportGridSpacing,4
;   maxOverhangAngle,25
;   supportAngles,0
;   temperatureName,Extruder 1,Heated Bed
;   temperatureNumber,0,1
;   temperatureSetpointCount,2,1
;   temperatureSetpointLayers,1,2,1
;   temperatureSetpointTemperatures,235,225,75
;   temperatureStabilizeAtStartup,1,1
;   temperatureHeatedBed,0,1
;   fanLayers,1,10
;   fanSpeeds,0,5
;   blipFanToFullPower,1
;   adjustSpeedForCooling,1
;   minSpeedLayerTime,15
;   minCoolingSpeedSlowdown,20
;   increaseFanForCooling,1
;   minFanLayerTime,45
;   maxCoolingFanSpeed,35
;   increaseFanForBridging,1
;   bridgingFanSpeed,80
;   use5D,1
;   relativeEdistances,0
;   allowEaxisZeroing,1
;   independentExtruderAxes,0
;   includeM10123,0
;   stickySupport,1
;   applyToolheadOffsets,0
;   gcodeXoffset,0
;   gcodeYoffset,0
;   gcodeZoffset,0
;   overrideMachineDefinition,1
;   machineTypeOverride,0
;   strokeXoverride,200
;   strokeYoverride,200
;   strokeZoverride,150
;   originOffsetXoverride,0
;   originOffsetYoverride,0
;   originOffsetZoverride,0
;   homeXdirOverride,-1
;   homeYdirOverride,-1
;   homeZdirOverride,-1
;   flipXoverride,1
;   flipYoverride,-1
;   flipZoverride,1
;   toolheadOffsets,0,0|0,0|0,0|0,0|0,0|0,0
;   overrideFirmwareConfiguration,1
;   firmwareTypeOverride,RepRap (Marlin/Repetier/Sprinter)
;   GPXconfigOverride,r2
;   baudRateOverride,115200
;   overridePrinterModels,0
;   printerModelsOverride
;   startingGcode,G28 ; home all axes,G32 ; run bed.g -- probe bed and enable compensation
;   layerChangeGcode,
;   retractionGcode,
;   toolChangeGcode,
;   endingGcode,M0 ; call stop.g
;   exportFileFormat,gcode
;   celebration,0
;   celebrationSong,Random Song
;   postProcessing,
;   defaultSpeed,3600
;   outlineUnderspeed,0.5
;   solidInfillUnderspeed,0.8
;   supportUnderspeed,0.8
;   rapidXYspeed,18000
;   rapidZspeed,1200
;   minBridgingArea,50
;   bridgingExtraInflation,0
;   bridgingExtrusionMultiplier,0.96
;   bridgingSpeedMultiplier,1
;   useFixedBridgingAngle,0
;   fixedBridgingAngle,0
;   applyBridgingToPerimeters,0
;   filamentDiameters,1.75|1.75|1.75|1.75|1.75|1.75
;   filamentPricesPerKg,46|46|46|46|46|46
;   filamentDensities,1.25|1.25|1.25|1.25|1.25|1.25
;   useMinPrintHeight,0
;   minPrintHeight,0.2
;   useMaxPrintHeight,0
;   maxPrintHeight,0
;   useDiaphragm,0
;   diaphragmLayerInterval,20
;   robustSlicing,1
;   mergeAllIntoSolid,0
;   onlyRetractWhenCrossingOutline,1
;   retractBetweenLayers,0
;   useRetractionMinTravel,1
;   retractionMinTravel,3
;   retractWhileWiping,1
;   onlyWipeOutlines,1
;   avoidCrossingOutline,1
;   maxMovementDetourFactor,5
;   toolChangeRetractionDistance,12
;   toolChangeExtraRestartDistance,-0.5
;   toolChangeRetractionSpeed,600
;   externalThinWallType,0
;   internalThinWallType,2
;   thinWallAllowedOverlapPercentage,10
;   singleExtrusionMinLength,1
;   singleExtrusionMinPrintingWidthPercentage,50
;   singleExtrusionMaxPrintingWidthPercentage,150
;   singleExtrusionEndpointExtension,0.2
;   horizontalSizeCompensation,-0.1
G90
M82
M106 S0
M140 S75
M190 S75
M104 S235 T0
M109 S235 T0
G28 ; home all axes
G32 ; run bed.g -- probe bed and enable compensation
; process Process1
; layer 1, Z = 0.200
T0
G92 E0.0000
G1 E-4.0000 F3600
; feature skirt
; tool H0.200 W0.480
G1 Z0.200 F1200
G1 X141.113 Y105.537 F18000
G1 E0.0000 F3600
G92 E0.0000
G1 X140.136 Y107.475 E0.0866 F1800
G1 X138.328 Y108.810 E0.1763
G1 X138.051 Y108.986 E0.1894
G1 X137.176 Y109.455 E0.2290
G1 X136.933 Y109.567 E0.2397
G1 X136.068 Y109.907 E0.2768
G1 X135.878 Y109.972 E0.2848
G1 X135.351 Y110.128 E0.3068
G1 X135.156 Y110.176 E0.3148
G1 X134.278 Y110.352 E0.3505
G1 X134.080 Y110.383 E0.3585
G1 X133.513 Y110.446 E0.3813
G1 X133.261 Y110.460 E0.3913
G1 X61.902 Y110.460 E3.2395
G1 X59.274 Y108.007 E3.3829
G1 X58.988 Y103.873 E3.5483
G1 X58.984 Y103.795 E3.5514
G1 X58.899 Y101.324 E3.6501
G1 X58.897 Y101.249 E3.6531
G1 X58.884 Y92.216 E4.0137
G1 X61.556 Y89.540 E4.1646
G1 X133.261 Y89.540 E7.0265
G1 X133.513 Y89.554 E7.0366
G1 X134.080 Y89.617 E7.0593
G1 X134.278 Y89.648 E7.0673
G1 X135.155 Y89.824 E7.1030
G1 X135.350 Y89.872 E7.1110
G1 X135.878 Y90.028 E7.1330
G1 X136.068 Y90.093 E7.1410
G1 X136.933 Y90.433 E7.1781
G1 X137.176 Y90.545 E7.1888
G1 X138.051 Y91.014 E7.2284
G1 X138.328 Y91.190 E7.2415
G1 X140.136 Y92.525 E7.3312
G1 X141.113 Y94.463 E7.4178
G1 X141.113 Y105.537 E7.8599
G1 X140.633 Y105.423 F18000
G92 E0.0000
G1 X139.758 Y107.157 E0.0775 F1800
G1 X138.057 Y108.414 E0.1619
G1 X137.809 Y108.571 E0.1737
G1 X136.961 Y109.025 E0.2120
G1 X136.744 Y109.126 E0.2216
G1 X135.902 Y109.457 E0.2577
G1 X135.732 Y109.515 E0.2649
G1 X135.225 Y109.664 E0.2860
G1 X135.051 Y109.707 E0.2931
G1 X134.194 Y109.880 E0.3280
G1 X134.017 Y109.907 E0.3352
G1 X133.473 Y109.968 E0.3570
G1 X133.248 Y109.980 E0.3660
G1 X62.091 Y109.980 E3.2060
G1 X59.740 Y107.786 E3.3344
G1 X59.467 Y103.844 E3.4921
G1 X59.464 Y103.774 E3.4949
G1 X59.378 Y101.311 E3.5932
G1 X59.377 Y101.244 E3.5959
G1 X59.364 Y92.414 E3.9483
G1 X61.755 Y90.020 E4.0834
G1 X133.248 Y90.020 E6.9368
G1 X133.473 Y90.032 E6.9458
G1 X134.017 Y90.093 E6.9677
G1 X134.194 Y90.120 E6.9748
G1 X135.050 Y90.292 E7.0097
G1 X135.224 Y90.335 E7.0168
G1 X135.732 Y90.485 E7.0380
G1 X135.902 Y90.543 E7.0451
G1 X136.744 Y90.874 E7.0812
G1 X136.961 Y90.975 E7.0908
G1 X137.809 Y91.429 E7.1292
G1 X138.057 Y91.586 E7.1409
G1 X139.758 Y92.843 E7.2253
G1 X140.633 Y94.577 E7.3028
G1 X140.633 Y105.423 E7.7357
G1 X140.153 Y105.309 F18000
G92 E0.0000
G1 X139.381 Y106.839 E0.0684 F1800
G1 X137.786 Y108.017 E0.1476
G1 X137.567 Y108.156 E0.1579
G1 X136.747 Y108.595 E0.1950
G1 X136.555 Y108.684 E0.2035
G1 X135.736 Y109.006 E0.2386
G1 X135.586 Y109.058 E0.2449
G1 X135.100 Y109.201 E0.2652
G1 X134.946 Y109.239 E0.2715
G1 X134.110 Y109.407 E0.3055
G1 X133.953 Y109.431 E0.3118
G1 X133.434 Y109.489 E0.3327
G1 X133.235 Y109.500 E0.3407
G1 X62.280 Y109.500 E3.1726
G1 X60.206 Y107.564 E3.2859
G1 X59.947 Y103.815 E3.4358
G1 X59.943 Y103.753 E3.4383
G1 X59.858 Y101.298 E3.5364
G1 X59.857 Y101.238 E3.5388
G1 X59.845 Y92.612 E3.8830
G1 X61.954 Y90.500 E4.0022
G1 X133.235 Y90.500 E6.8472
G1 X133.434 Y90.511 E6.8551
G1 X133.953 Y90.569 E6.8760
G1 X134.110 Y90.593 E6.8823
G1 X134.945 Y90.761 E6.9163
G1 X135.099 Y90.799 E6.9226
G1 X135.586 Y90.942 E6.9429
G1 X135.736 Y90.994 E6.9492
G1 X136.555 Y91.316 E6.9844
G1 X136.747 Y91.405 E6.9928
G1 X137.567 Y91.844 E7.0299
G1 X137.786 Y91.983 E7.0403
G1 X139.381 Y93.161 E7.1194
G1 X140.153 Y94.691 E7.1878
G1 X140.153 Y105.309 E7.6116
G1 X139.673 Y105.195 F18000
G92 E0.0000
G1 X139.004 Y106.520 E0.0593 F1800
G1 X137.515 Y107.621 E0.1332
G1 X137.324 Y107.741 E0.1422
G1 X136.533 Y108.166 E0.1780
G1 X136.366 Y108.243 E0.1853
G1 X135.570 Y108.556 E0.2195
G1 X135.440 Y108.600 E0.2250
G1 X134.974 Y108.737 E0.2444
G1 X134.841 Y108.770 E0.2498
G1 X134.026 Y108.934 E0.2830
G1 X133.890 Y108.955 E0.2885
G1 X133.394 Y109.011 E0.3084
G1 X133.222 Y109.020 E0.3153
G1 X62.470 Y109.020 E3.1392
G1 X60.671 Y107.342 E3.2374
G1 X60.426 Y103.786 E3.3796
G1 X60.423 Y103.733 E3.3818
G1 X60.338 Y101.285 E3.4795
G1 X60.337 Y101.233 E3.4816
G1 X60.325 Y92.811 E3.8177
G1 X62.153 Y90.980 E3.9210
G1 X133.222 Y90.980 E6.7575
G1 X133.394 Y90.989 E6.7644
G1 X133.890 Y91.045 E6.7843
G1 X134.026 Y91.066 E6.7898
G1 X134.841 Y91.230 E6.8230
G1 X134.974 Y91.262 E6.8284
G1 X135.440 Y91.400 E6.8478
G1 X135.570 Y91.444 E6.8533
G1 X136.366 Y91.757 E6.8875
G1 X136.533 Y91.834 E6.8948
G1 X137.324 Y92.259 E6.9306
G1 X137.515 Y92.379 E6.9396
G1 X139.004 Y93.479 E7.0135
G1 X139.673 Y94.805 E7.0728
G1 X139.673 Y105.195 E7.4875
G1 X139.193 Y105.080 F18000
G92 E0.0000
G1 X138.627 Y106.202 E0.0502 F1800
G1 X137.243 Y107.225 E0.1188
G1 X137.082 Y107.326 E0.1264
G1 X136.318 Y107.736 E0.1610
G1 X136.178 Y107.801 E0.1672
G1 X135.405 Y108.105 E0.2004
G1 X135.295 Y108.143 E0.2050
G1 X134.849 Y108.274 E0.2235
G1 X134.736 Y108.302 E0.2282
G1 X133.942 Y108.462 E0.2605
G1 X133.827 Y108.480 E0.2652
G1 X133.354 Y108.532 E0.2842
G1 X133.208 Y108.540 E0.2900
G1 X62.659 Y108.540 E3.1058
G1 X61.137 Y107.120 E3.1888
G1 X60.905 Y103.757 E3.3234
G1 X60.903 Y103.712 E3.3252
G1 X60.818 Y101.272 E3.4226
G1 X60.817 Y101.228 E3.4244
G1 X60.805 Y93.009 E3.7524
G1 X62.352 Y91.460 E3.8398
G1 X133.208 Y91.460 E6.6678
G1 X133.354 Y91.468 E6.6736
G1 X133.827 Y91.520 E6.6926
G1 X133.942 Y91.538 E6.6973
G1 X134.736 Y91.698 E6.7296
G1 X134.849 Y91.726 E6.7342
G1 X135.295 Y91.857 E6.7528
G1 X135.405 Y91.895 E6.7574
G1 X136.178 Y92.199 E6.7906
G1 X136.318 Y92.264 E6.7968
G1 X137.082 Y92.674 E6.8314
G1 X137.243 Y92.775 E6.8390
G1 X138.627 Y93.798 E6.9076
G1 X139.193 Y94.920 E6.9578
G1 X139.193 Y105.080 E7.3633
G1 X138.713 Y104.966 F18000
G92 E0.0000
G1 X138.250 Y105.884 E0.0410 F1800
G1 X136.972 Y106.828 E0.1045
G1 X136.840 Y106.911 E0.1107
G1 X136.104 Y107.306 E0.1440
G1 X135.989 Y107.359 E0.1491
G1 X135.239 Y107.654 E0.1813
G1 X135.149 Y107.685 E0.1851
G1 X134.724 Y107.811 E0.2027
G1 X134.631 Y107.833 E0.2065
G1 X133.857 Y107.989 E0.2380
G1 X133.763 Y108.004 E0.2418
G1 X133.314 Y108.053 E0.2599
G1 X133.195 Y108.060 E0.2646
G1 X62.848 Y108.060 E3.0724
G1 X61.603 Y106.898 E3.1403
G1 X61.384 Y103.728 E3.2671
G1 X61.382 Y103.691 E3.2686
G1 X61.298 Y101.259 E3.3658
G1 X61.297 Y101.223 E3.3672
G1 X61.285 Y93.207 E3.6871
G1 X62.551 Y91.940 E3.7586
G1 X133.195 Y91.940 E6.5782
G1 X133.314 Y91.947 E6.5829
G1 X133.763 Y91.996 E6.6009
G1 X133.857 Y92.011 E6.6047
G1 X134.631 Y92.167 E6.6362
G1 X134.723 Y92.189 E6.6400
G1 X135.149 Y92.315 E6.6577
G1 X135.239 Y92.346 E6.6615
G1 X135.989 Y92.640 E6.6937
G1 X136.104 Y92.694 E6.6988
G1 X136.840 Y93.088 E6.7321
G1 X136.972 Y93.172 E6.7383
G1 X138.250 Y94.116 E6.8018
G1 X138.713 Y95.034 E6.8428
G1 X138.713 Y104.966 E7.2392
G1 X138.233 Y104.852 F18000
G92 E0.0000
G1 X137.873 Y105.566 E0.0319 F1800
G1 X136.701 Y106.432 E0.0901
G1 X136.598 Y106.497 E0.0949
G1 X135.889 Y106.877 E0.1270
G1 X135.800 Y106.918 E0.1310
G1 X135.073 Y107.204 E0.1621
G1 X135.003 Y107.228 E0.1651
G1 X134.598 Y107.347 E0.1819
G1 X134.527 Y107.365 E0.1849
G1 X133.773 Y107.516 E0.2156
G1 X133.700 Y107.528 E0.2185
G1 X133.275 Y107.575 E0.2356
G1 X133.182 Y107.580 E0.2393
G1 X63.037 Y107.580 E3.0389
G1 X62.069 Y106.676 E3.0918
G1 X61.863 Y103.699 E3.2109
G1 X61.862 Y103.670 E3.2121
G1 X61.778 Y101.246 E3.3089
G1 X61.777 Y101.218 E3.3100
G1 X61.766 Y93.406 E3.6218
G1 X62.750 Y92.420 E3.6774
G1 X133.182 Y92.420 E6.4885
G1 X133.275 Y92.425 E6.4922
G1 X133.700 Y92.472 E6.5093
G1 X133.773 Y92.484 E6.5122
G1 X134.526 Y92.635 E6.5429
G1 X134.598 Y92.653 E6.5458
G1 X135.003 Y92.772 E6.5627
G1 X135.073 Y92.796 E6.5656
G1 X135.800 Y93.082 E6.5968
G1 X135.889 Y93.123 E6.6007
G1 X136.598 Y93.503 E6.6328
G1 X136.701 Y93.568 E6.6377
G1 X137.873 Y94.434 E6.6959
G1 X138.233 Y95.148 E6.7278
G1 X138.233 Y104.852 E7.1151
G1 X137.753 Y104.738 F18000
G92 E0.0000
G1 X137.496 Y105.248 E0.0228 F1800
G1 X136.429 Y106.035 E0.0757
G1 X136.356 Y106.082 E0.0792
G1 X135.675 Y106.447 E0.1100
G1 X135.611 Y106.476 E0.1128
G1 X134.907 Y106.753 E0.1430
G1 X134.857 Y106.770 E0.1451
G1 X134.473 Y106.884 E0.1611
G1 X134.422 Y106.896 E0.1632
G1 X133.689 Y107.044 E0.1931
G1 X133.637 Y107.052 E0.1952
G1 X133.235 Y107.096 E0.2113
G1 X133.169 Y107.100 E0.2140
G1 X63.226 Y107.100 E3.0055
G1 X62.535 Y106.455 E3.0433
G1 X62.342 Y103.670 E3.1547
G1 X62.341 Y103.649 E3.1555
G1 X62.257 Y101.233 E3.2520
G1 X62.257 Y101.213 E3.2528
G1 X62.246 Y93.604 E3.5565
G1 X62.949 Y92.900 E3.5962
G1 X133.169 Y92.900 E6.3988
G1 X133.235 Y92.904 E6.4015
G1 X133.637 Y92.948 E6.4176
G1 X133.689 Y92.956 E6.4197
G1 X134.422 Y93.104 E6.4495
G1 X134.473 Y93.116 E6.4516
G1 X134.857 Y93.230 E6.4676
G1 X134.907 Y93.247 E6.4697
G1 X135.611 Y93.524 E6.4999
G1 X135.675 Y93.553 E6.5027
G1 X136.356 Y93.918 E6.5336
G1 X136.429 Y93.965 E6.5370
G1 X137.496 Y94.752 E6.5900
G1 X137.753 Y95.262 E6.6128
G1 X137.753 Y104.738 E6.9909
G1 X137.273 Y104.623 F18000
G92 E0.0000
G1 X137.119 Y104.929 E0.0137 F1800
G1 X136.158 Y105.639 E0.0614
G1 X136.114 Y105.667 E0.0634
G1 X135.461 Y106.017 E0.0930
G1 X135.422 Y106.035 E0.0947
G1 X134.741 Y106.303 E0.1239
G1 X134.711 Y106.313 E0.1252
G1 X134.348 Y106.420 E0.1403
G1 X134.317 Y106.428 E0.1416
G1 X133.605 Y106.571 E0.1706
G1 X133.574 Y106.576 E0.1718
G1 X133.195 Y106.618 E0.1870
G1 X133.156 Y106.620 E0.1886
G1 X63.415 Y106.620 E2.9721
G1 X63.001 Y106.233 E2.9947
G1 X62.821 Y103.641 E3.0984
G1 X62.821 Y103.629 E3.0989
G1 X62.737 Y101.219 E3.1951
G1 X62.737 Y101.207 E3.1956
G1 X62.726 Y93.802 E3.4912
G1 X63.148 Y93.380 E3.5150
G1 X133.156 Y93.380 E6.3091
G1 X133.195 Y93.382 E6.3107
G1 X133.574 Y93.424 E6.3259
G1 X133.605 Y93.429 E6.3272
G1 X134.317 Y93.572 E6.3562
G1 X134.348 Y93.580 E6.3574
G1 X134.711 Y93.687 E6.3726
G1 X134.741 Y93.697 E6.3738
G1 X135.422 Y93.965 E6.4030
G1 X135.461 Y93.983 E6.4047
G1 X136.114 Y94.333 E6.4343
G1 X136.158 Y94.361 E6.4364
G1 X137.119 Y95.071 E6.4841
G1 X137.273 Y95.377 E6.4978
G1 X137.273 Y104.623 E6.8668
G1 X136.793 Y104.509 F18000
G92 E0.0000
G1 X136.742 Y104.611 E0.0046 F1800
G1 X135.887 Y105.243 E0.0470
G1 X135.872 Y105.252 E0.0477
G1 X135.246 Y105.588 E0.0760
G1 X135.233 Y105.593 E0.0766
G1 X134.576 Y105.852 E0.1048
G1 X134.566 Y105.856 E0.1052
G1 X134.222 Y105.957 E0.1195
G1 X134.212 Y105.959 E0.1199
G1 X133.521 Y106.098 E0.1481
G1 X133.510 Y106.100 E0.1485
G1 X133.156 Y106.139 E0.1627
G1 X133.142 Y106.140 E0.1633
G1 X63.605 Y106.140 E2.9387
G1 X63.466 Y106.011 E2.9462
G1 X63.300 Y103.608 E3.0424
G1 X63.217 Y101.202 E3.1384
G1 X63.207 Y94.001 E3.4259
G1 X63.347 Y93.860 E3.4338
G1 X133.142 Y93.860 E6.2195
G1 X133.156 Y93.861 E6.2200
G1 X133.510 Y93.900 E6.2342
G1 X133.521 Y93.902 E6.2347
G1 X134.212 Y94.041 E6.2628
