; G-Code generated by Simplify3D(R) Version 4.1.2
; Jun 27, 2020 at 8:56:15 PM
; Settings Summary
;   processName,Process1
;   applyToModels,cam-gantry
;   profileName,HBot (modified)
;   profileVersion,2019-10-26 23:38:43
;   baseProfile,Default
;   printMaterial,PETG - SUNLU
;   printQuality,Medium
;   printExtruders,
;   extruderName,Extruder 1
;   extruderToolheadNumber,0
;   extruderDiameter,0.4
;   extruderAutoWidth,1
;   extruderWidth,0.48
;   extrusionMultiplier,0.98
;   extruderUseRetract,1
;   extruderRetractionDistance,4
;   extruderExtraRestartDistance,0
;   extruderRetractionZLift,0.2
;   extruderRetractionSpeed,3600
;   extruderUseCoasting,1
;   extruderCoastingDistance,0.2
;   extruderUseWipe,1
;   extruderWipeDistance,5
;   primaryExtruder,0
;   layerHeight,0.2
;   topSolidLayers,4
;   bottomSolidLayers,4
;   perimeterOutlines,4
;   printPerimetersInsideOut,1
;   startPointOption,3
;   startPointOriginX,200
;   startPointOriginY,100
;   sequentialIslands,0
;   spiralVaseMode,0
;   firstLayerHeightPercentage,100
;   firstLayerWidthPercentage,100
;   firstLayerUnderspeed,0.5
;   useRaft,0
;   raftExtruder,0
;   raftTopLayers,3
;   raftBaseLayers,2
;   raftOffset,3
;   raftSeparationDistance,0.18
;   raftTopInfill,100
;   aboveRaftSpeedMultiplier,0.3
;   useSkirt,1
;   skirtExtruder,0
;   skirtLayers,1
;   skirtOutlines,10
;   skirtOffset,0
;   usePrimePillar,0
;   primePillarExtruder,999
;   primePillarWidth,12
;   primePillarLocation,7
;   primePillarSpeedMultiplier,1
;   useOozeShield,0
;   oozeShieldExtruder,999
;   oozeShieldOffset,0.9
;   oozeShieldOutlines,2
;   oozeShieldSidewallShape,0
;   oozeShieldSidewallAngle,30
;   oozeShieldSpeedMultiplier,1.5
;   infillExtruder,0
;   internalInfillPattern,Rectilinear
;   externalInfillPattern,Rectilinear
;   infillPercentage,20
;   outlineOverlapPercentage,25
;   infillExtrusionWidthPercentage,100
;   minInfillLength,5
;   infillLayerInterval,1
;   internalInfillAngles,45,-45
;   overlapInternalInfillAngles,0
;   externalInfillAngles,45,-45
;   generateSupport,0
;   supportExtruder,0
;   supportInfillPercentage,30
;   supportExtraInflation,0
;   supportBaseLayers,1
;   denseSupportExtruder,0
;   denseSupportLayers,0
;   denseSupportInfillPercentage,70
;   supportLayerInterval,1
;   supportHorizontalPartOffset,0.3
;   supportUpperSeparationLayers,1
;   supportLowerSeparationLayers,1
;   supportType,0
;   supportGridSpacing,4
;   maxOverhangAngle,25
;   supportAngles,0
;   temperatureName,Extruder 1,Heated Bed
;   temperatureNumber,0,1
;   temperatureSetpointCount,2,1
;   temperatureSetpointLayers,1,2,1
;   temperatureSetpointTemperatures,235,225,75
;   temperatureStabilizeAtStartup,1,1
;   temperatureHeatedBed,0,1
;   fanLayers,1,5,10
;   fanSpeeds,0,5,20
;   blipFanToFullPower,1
;   adjustSpeedForCooling,1
;   minSpeedLayerTime,15
;   minCoolingSpeedSlowdown,20
;   increaseFanForCooling,0
;   minFanLayerTime,45
;   maxCoolingFanSpeed,35
;   increaseFanForBridging,1
;   bridgingFanSpeed,85
;   use5D,1
;   relativeEdistances,0
;   allowEaxisZeroing,1
;   independentExtruderAxes,0
;   includeM10123,0
;   stickySupport,1
;   applyToolheadOffsets,0
;   gcodeXoffset,0
;   gcodeYoffset,0
;   gcodeZoffset,0
;   overrideMachineDefinition,1
;   machineTypeOverride,0
;   strokeXoverride,210
;   strokeYoverride,210
;   strokeZoverride,150
;   originOffsetXoverride,0
;   originOffsetYoverride,0
;   originOffsetZoverride,0
;   homeXdirOverride,-1
;   homeYdirOverride,-1
;   homeZdirOverride,-1
;   flipXoverride,1
;   flipYoverride,-1
;   flipZoverride,1
;   toolheadOffsets,0,0|0,0|0,0|0,0|0,0|0,0
;   overrideFirmwareConfiguration,1
;   firmwareTypeOverride,RepRap (Marlin/Repetier/Sprinter)
;   GPXconfigOverride,r2
;   baudRateOverride,115200
;   overridePrinterModels,0
;   printerModelsOverride
;   startingGcode,G28 ; home all axes,G32 ; run bed.g -- probe bed and enable compensation
;   layerChangeGcode,
;   retractionGcode,
;   toolChangeGcode,
;   endingGcode,M0 ; call stop.g
;   exportFileFormat,gcode
;   celebration,0
;   celebrationSong,Random Song
;   postProcessing,
;   defaultSpeed,3600
;   outlineUnderspeed,0.5
;   solidInfillUnderspeed,0.8
;   supportUnderspeed,0.8
;   rapidXYspeed,18000
;   rapidZspeed,1200
;   minBridgingArea,50
;   bridgingExtraInflation,0
;   bridgingExtrusionMultiplier,0.96
;   bridgingSpeedMultiplier,1
;   useFixedBridgingAngle,0
;   fixedBridgingAngle,0
;   applyBridgingToPerimeters,0
;   filamentDiameters,1.75|1.75|1.75|1.75|1.75|1.75
;   filamentPricesPerKg,46|46|46|46|46|46
;   filamentDensities,1.25|1.25|1.25|1.25|1.25|1.25
;   useMinPrintHeight,0
;   minPrintHeight,20
;   useMaxPrintHeight,0
;   maxPrintHeight,15
;   useDiaphragm,0
;   diaphragmLayerInterval,20
;   robustSlicing,1
;   mergeAllIntoSolid,0
;   onlyRetractWhenCrossingOutline,1
;   retractBetweenLayers,0
;   useRetractionMinTravel,1
;   retractionMinTravel,3
;   retractWhileWiping,1
;   onlyWipeOutlines,1
;   avoidCrossingOutline,1
;   maxMovementDetourFactor,5
;   toolChangeRetractionDistance,12
;   toolChangeExtraRestartDistance,-0.5
;   toolChangeRetractionSpeed,600
;   externalThinWallType,0
;   internalThinWallType,2
;   thinWallAllowedOverlapPercentage,10
;   singleExtrusionMinLength,1
;   singleExtrusionMinPrintingWidthPercentage,50
;   singleExtrusionMaxPrintingWidthPercentage,150
;   singleExtrusionEndpointExtension,0.2
;   horizontalSizeCompensation,-0.1
G90
M82
M106 S0
M140 S75
M190 S75
M104 S235 T0
M109 S235 T0
G28 ; home all axes
G32 ; run bed.g -- probe bed and enable compensation
; process Process1
; layer 1, Z = 0.200
T0
G92 E0.0000
G1 E-4.0000 F3600
; feature skirt
; tool H0.200 W0.480
G1 Z0.200 F1200
G1 X153.991 Y45.088 F18000
G1 E0.0000 F3600
G92 E0.0000
G1 X152.315 Y45.783 E0.0710 F1800
G1 X145.784 Y45.783 E0.3264
G1 X144.108 Y45.088 E0.3974
G1 X142.784 Y43.764 E0.4706
G1 X142.089 Y42.088 E0.5416
G1 X142.089 Y41.683 E0.5574
G1 X113.509 Y41.683 E1.6753
G1 X113.509 Y42.088 E1.6912
G1 X112.815 Y43.764 E1.7621
G1 X111.491 Y45.088 E1.8354
G1 X109.815 Y45.783 E1.9063
G1 X103.284 Y45.783 E2.1618
G1 X101.608 Y45.088 E2.2328
G1 X100.284 Y43.764 E2.3060
G1 X99.589 Y42.088 E2.3770
G1 X99.589 Y41.683 E2.3928
G1 X71.009 Y41.683 E3.5107
G1 X71.009 Y42.088 E3.5266
G1 X70.315 Y43.764 E3.5975
G1 X68.991 Y45.088 E3.6708
G1 X67.315 Y45.783 E3.7417
G1 X60.784 Y45.783 E3.9972
G1 X59.108 Y45.088 E4.0682
G1 X57.784 Y43.765 E4.1414
G1 X57.090 Y42.090 E4.2123
G1 X57.089 Y40.069 E4.2913
G1 X56.793 Y39.774 E4.3076
G1 X56.099 Y38.098 E4.3786
G1 X56.101 Y29.357 E4.7205
G1 X57.229 Y27.306 E4.8121
G1 X58.837 Y26.285 E4.8865
G1 X59.066 Y26.158 E4.8968
G1 X60.167 Y25.625 E4.9446
G1 X60.491 Y25.498 E4.9583
G1 X61.514 Y25.184 E5.0001
G1 X61.870 Y25.105 E5.0144
G1 X62.863 Y24.967 E5.0536
G1 X63.181 Y24.945 E5.0661
G1 X63.945 Y24.947 E5.0959
G1 X64.257 Y24.969 E5.1082
G1 X65.181 Y25.098 E5.1447
G1 X65.459 Y25.154 E5.1558
G1 X66.108 Y25.329 E5.1821
G1 X66.331 Y25.402 E5.1912
G1 X67.095 Y25.695 E5.2232
G1 X67.305 Y25.787 E5.2322
G1 X67.995 Y26.135 E5.2624
G1 X68.174 Y26.236 E5.2705
G1 X68.972 Y26.733 E5.3072
G1 X69.015 Y26.763 E5.3093
G1 X144.084 Y26.763 E8.2455
G1 X144.127 Y26.733 E8.2476
G1 X145.333 Y26.014 E8.3025
G1 X145.582 Y25.886 E8.3134
G1 X146.254 Y25.591 E8.3421
G1 X146.450 Y25.515 E8.3504
G1 X147.130 Y25.288 E8.3784
G1 X147.360 Y25.224 E8.3878
G1 X148.071 Y25.067 E8.4162
G1 X148.376 Y25.021 E8.4283
G1 X149.339 Y24.941 E8.4661
G1 X149.659 Y24.938 E8.4786
G1 X150.409 Y24.981 E8.5080
G1 X150.711 Y25.019 E8.5199
G1 X151.646 Y25.200 E8.5572
G1 X151.972 Y25.288 E8.5704
G1 X152.939 Y25.629 E8.6105
G1 X153.183 Y25.732 E8.6208
G1 X153.890 Y26.078 E8.6516
G1 X154.084 Y26.185 E8.6603
G1 X155.842 Y27.270 E8.7411
G1 X156.998 Y29.339 E8.8338
G1 X157.004 Y38.091 E9.1761
G1 X156.310 Y39.769 E9.2471
G1 X156.009 Y40.070 E9.2638
G1 X156.009 Y42.088 E9.3427
G1 X155.315 Y43.764 E9.4137
G1 X153.991 Y45.088 E9.4869
G1 X153.719 Y44.681 F18000
G92 E0.0000
G1 X152.220 Y45.303 E0.0635 F1800
G1 X145.879 Y45.303 E0.3115
G1 X144.380 Y44.681 E0.3750
G1 X143.190 Y43.492 E0.4407
G1 X142.569 Y41.993 E0.5042
G1 X142.569 Y41.203 E0.5351
G1 X113.029 Y41.203 E1.6906
G1 X113.029 Y41.993 E1.7215
G1 X112.408 Y43.492 E1.7850
G1 X111.219 Y44.681 E1.8507
G1 X109.719 Y45.303 E1.9142
G1 X103.379 Y45.303 E2.1622
G1 X101.880 Y44.681 E2.2257
G1 X100.690 Y43.492 E2.2915
G1 X100.069 Y41.993 E2.3550
G1 X100.069 Y41.203 E2.3859
G1 X70.529 Y41.203 E3.5413
G1 X70.529 Y41.993 E3.5722
G1 X69.908 Y43.492 E3.6357
G1 X68.719 Y44.681 E3.7015
G1 X67.219 Y45.303 E3.7650
G1 X60.879 Y45.303 E4.0129
G1 X59.380 Y44.681 E4.0764
G1 X58.191 Y43.493 E4.1422
G1 X57.570 Y41.994 E4.2056
G1 X57.569 Y39.870 E4.2887
G1 X57.200 Y39.502 E4.3091
G1 X56.579 Y38.002 E4.3726
G1 X56.581 Y29.480 E4.7059
G1 X57.590 Y27.645 E4.7878
G1 X59.082 Y26.698 E4.8569
G1 X59.287 Y26.584 E4.8661
G1 X60.359 Y26.065 E4.9127
G1 X60.649 Y25.951 E4.9249
G1 X61.637 Y25.648 E4.9653
G1 X61.955 Y25.578 E4.9781
G1 X62.912 Y25.445 E5.0158
G1 X63.197 Y25.425 E5.0270
G1 X63.928 Y25.427 E5.0556
G1 X64.207 Y25.446 E5.0665
G1 X65.100 Y25.571 E5.1018
G1 X65.349 Y25.622 E5.1117
G1 X65.971 Y25.789 E5.1370
G1 X66.171 Y25.854 E5.1452
G1 X66.912 Y26.139 E5.1762
G1 X67.099 Y26.221 E5.1842
G1 X67.769 Y26.559 E5.2136
G1 X67.929 Y26.649 E5.2208
G1 X68.708 Y27.133 E5.2566
G1 X68.864 Y27.243 E5.2641
G1 X144.233 Y27.243 E8.2120
G1 X144.386 Y27.138 E8.2193
G1 X145.567 Y26.434 E8.2731
G1 X145.789 Y26.320 E8.2828
G1 X146.437 Y26.034 E8.3105
G1 X146.613 Y25.966 E8.3179
G1 X147.270 Y25.747 E8.3450
G1 X147.476 Y25.690 E8.3534
G1 X148.158 Y25.539 E8.3807
G1 X148.432 Y25.498 E8.3915
G1 X149.362 Y25.421 E8.4280
G1 X149.648 Y25.418 E8.4392
G1 X150.365 Y25.459 E8.4673
G1 X150.635 Y25.493 E8.4780
G1 X151.538 Y25.668 E8.5139
G1 X151.829 Y25.747 E8.5257
G1 X152.766 Y26.077 E8.5646
G1 X152.985 Y26.169 E8.5739
G1 X153.668 Y26.504 E8.6036
G1 X153.842 Y26.600 E8.6114
G1 X155.484 Y27.613 E8.6868
G1 X156.518 Y29.464 E8.7698
G1 X156.524 Y37.996 E9.1035
G1 X155.903 Y39.497 E9.1671
G1 X155.529 Y39.871 E9.1877
G1 X155.529 Y41.993 E9.2707
G1 X154.908 Y43.492 E9.3342
G1 X153.719 Y44.681 E9.4000
G1 X153.447 Y44.274 F18000
G92 E0.0000
G1 X152.124 Y44.823 E0.0560 F1800
G1 X145.975 Y44.823 E0.2965
G1 X144.651 Y44.274 E0.3526
G1 X143.597 Y43.220 E0.4109
G1 X143.049 Y41.897 E0.4669
G1 X143.049 Y40.723 E0.5128
G1 X112.549 Y40.723 E1.7058
G1 X112.549 Y41.897 E1.7518
G1 X112.001 Y43.220 E1.8078
G1 X110.947 Y44.274 E1.8661
G1 X109.624 Y44.823 E1.9221
G1 X103.475 Y44.823 E2.1626
G1 X102.151 Y44.274 E2.2186
G1 X101.097 Y43.220 E2.2769
G1 X100.549 Y41.897 E2.3330
G1 X100.549 Y40.723 E2.3789
G1 X70.049 Y40.723 E3.5719
G1 X70.049 Y41.897 E3.6178
G1 X69.501 Y43.220 E3.6739
G1 X68.447 Y44.275 E3.7322
G1 X67.124 Y44.823 E3.7882
G1 X60.975 Y44.823 E4.0287
G1 X59.651 Y44.274 E4.0847
G1 X58.598 Y43.221 E4.1430
G1 X58.050 Y41.899 E4.1990
G1 X58.048 Y39.671 E4.2861
G1 X57.607 Y39.230 E4.3105
G1 X57.059 Y37.907 E4.3665
G1 X57.061 Y29.603 E4.6913
G1 X57.951 Y27.984 E4.7636
G1 X59.328 Y27.111 E4.8273
G1 X59.509 Y27.010 E4.8355
G1 X60.552 Y26.505 E4.8808
G1 X60.808 Y26.405 E4.8915
G1 X61.760 Y26.113 E4.9305
G1 X62.041 Y26.050 E4.9417
G1 X62.962 Y25.922 E4.9781
G1 X63.213 Y25.905 E4.9879
G1 X63.910 Y25.906 E5.0152
G1 X64.157 Y25.924 E5.0249
G1 X65.019 Y26.044 E5.0589
G1 X65.238 Y26.089 E5.0677
G1 X65.834 Y26.250 E5.0919
G1 X66.011 Y26.307 E5.0991
G1 X66.729 Y26.582 E5.1292
G1 X66.894 Y26.656 E5.1363
G1 X67.544 Y26.983 E5.1647
G1 X67.685 Y27.062 E5.1710
G1 X68.444 Y27.534 E5.2060
G1 X68.600 Y27.644 E5.2135
G1 X68.701 Y27.723 E5.2185
G1 X144.391 Y27.723 E8.1790
G1 X144.454 Y27.673 E8.1821
G1 X144.645 Y27.542 E8.1912
G1 X145.800 Y26.854 E8.2438
G1 X145.996 Y26.753 E8.2524
G1 X146.620 Y26.478 E8.2791
G1 X146.775 Y26.418 E8.2856
G1 X147.410 Y26.206 E8.3117
G1 X147.592 Y26.156 E8.3191
G1 X148.246 Y26.011 E8.3453
G1 X148.487 Y25.975 E8.3549
G1 X149.385 Y25.901 E8.3901
G1 X149.637 Y25.898 E8.4000
G1 X150.322 Y25.938 E8.4268
G1 X150.560 Y25.967 E8.4362
G1 X151.429 Y26.136 E8.4708
G1 X151.686 Y26.205 E8.4813
G1 X152.593 Y26.525 E8.5189
G1 X152.786 Y26.606 E8.5271
G1 X153.447 Y26.930 E8.5558
G1 X153.600 Y27.015 E8.5627
G1 X155.125 Y27.956 E8.6328
G1 X156.038 Y29.590 E8.7060
G1 X156.044 Y37.901 E9.0311
G1 X155.496 Y39.226 E9.0871
G1 X155.049 Y39.672 E9.1118
G1 X155.049 Y41.897 E9.1989
G1 X154.501 Y43.220 E9.2549
G1 X153.447 Y44.274 E9.3132
G1 X153.175 Y43.868 F18000
G92 E0.0000
G1 X152.029 Y44.343 E0.0485 F1800
G1 X146.070 Y44.343 E0.2816
G1 X144.923 Y43.868 E0.3302
G1 X144.004 Y42.949 E0.3810
G1 X143.529 Y41.802 E0.4295
G1 X143.529 Y40.243 E0.4905
G1 X112.069 Y40.243 E1.7211
G1 X112.069 Y41.802 E1.7820
G1 X111.594 Y42.949 E1.8306
G1 X110.675 Y43.868 E1.8814
G1 X109.528 Y44.343 E1.9300
G1 X103.570 Y44.343 E2.1630
G1 X102.423 Y43.868 E2.2116
G1 X101.504 Y42.949 E2.2624
G1 X101.029 Y41.802 E2.3110
G1 X101.029 Y40.243 E2.3720
G1 X69.569 Y40.243 E3.6025
G1 X69.569 Y41.802 E3.6635
G1 X69.094 Y42.949 E3.7120
G1 X68.175 Y43.868 E3.7629
G1 X67.028 Y44.343 E3.8114
G1 X61.070 Y44.343 E4.0445
G1 X59.923 Y43.868 E4.0930
G1 X59.005 Y42.949 E4.1438
G1 X58.530 Y41.803 E4.1923
G1 X58.528 Y39.473 E4.2835
G1 X58.014 Y38.958 E4.3119
G1 X57.539 Y37.811 E4.3605
G1 X57.541 Y29.727 E4.6767
G1 X58.313 Y28.323 E4.7394
G1 X59.573 Y27.523 E4.7978
G1 X59.730 Y27.436 E4.8048
G1 X60.744 Y26.945 E4.8488
G1 X60.966 Y26.858 E4.8582
G1 X61.882 Y26.577 E4.8956
G1 X62.126 Y26.523 E4.9054
G1 X63.011 Y26.400 E4.9404
G1 X63.229 Y26.385 E4.9489
G1 X63.893 Y26.386 E4.9749
G1 X64.107 Y26.402 E4.9833
G1 X64.938 Y26.518 E5.0161
G1 X65.128 Y26.556 E5.0237
G1 X65.698 Y26.710 E5.0468
G1 X65.851 Y26.760 E5.0530
G1 X66.546 Y27.026 E5.0822
G1 X66.689 Y27.090 E5.0883
G1 X67.318 Y27.407 E5.1158
G1 X67.440 Y27.475 E5.1213
G1 X68.179 Y27.935 E5.1554
G1 X68.315 Y28.030 E5.1618
G1 X68.536 Y28.203 E5.1728
G1 X144.557 Y28.203 E8.1463
G1 X144.738 Y28.060 E8.1553
G1 X144.904 Y27.947 E8.1632
G1 X146.033 Y27.274 E8.2146
G1 X146.203 Y27.186 E8.2220
G1 X146.803 Y26.922 E8.2477
G1 X146.938 Y26.870 E8.2533
G1 X147.550 Y26.666 E8.2786
G1 X147.707 Y26.622 E8.2850
G1 X148.334 Y26.484 E8.3101
G1 X148.543 Y26.452 E8.3183
G1 X149.407 Y26.381 E8.3523
G1 X149.626 Y26.378 E8.3608
G1 X150.278 Y26.416 E8.3864
G1 X150.484 Y26.442 E8.3945
G1 X151.320 Y26.603 E8.4278
G1 X151.543 Y26.664 E8.4369
G1 X152.420 Y26.973 E8.4732
G1 X152.588 Y27.044 E8.4803
G1 X153.225 Y27.356 E8.5081
G1 X153.358 Y27.429 E8.5140
G1 X154.767 Y28.298 E8.5788
G1 X155.558 Y29.715 E8.6422
G1 X155.564 Y37.806 E8.9587
G1 X155.089 Y38.954 E9.0073
G1 X154.569 Y39.473 E9.0360
G1 X154.569 Y41.802 E9.1271
G1 X154.094 Y42.949 E9.1757
G1 X153.175 Y43.868 E9.2265
G1 X152.903 Y43.461 F18000
G92 E0.0000
G1 X151.933 Y43.863 E0.0411 F1800
G1 X146.166 Y43.863 E0.2667
G1 X145.195 Y43.461 E0.3077
G1 X144.411 Y42.677 E0.3511
G1 X144.009 Y41.706 E0.3922
G1 X144.009 Y39.763 E0.4682
G1 X111.589 Y39.763 E1.7363
G1 X111.589 Y41.706 E1.8123
G1 X111.187 Y42.677 E1.8534
G1 X110.403 Y43.461 E1.8968
G1 X109.433 Y43.863 E1.9379
G1 X103.666 Y43.863 E2.1634
G1 X102.695 Y43.461 E2.2045
G1 X101.911 Y42.677 E2.2479
G1 X101.509 Y41.706 E2.2890
G1 X101.509 Y39.763 E2.3650
G1 X69.089 Y39.763 E3.6331
G1 X69.089 Y41.706 E3.7091
G1 X68.687 Y42.677 E3.7502
G1 X67.903 Y43.461 E3.7935
G1 X66.933 Y43.863 E3.8346
G1 X61.166 Y43.863 E4.0602
G1 X60.195 Y43.461 E4.1013
G1 X59.411 Y42.677 E4.1446
G1 X59.010 Y41.707 E4.1857
G1 X59.008 Y39.274 E4.2809
G1 X58.421 Y38.687 E4.3134
G1 X58.019 Y37.716 E4.3545
G1 X58.021 Y29.850 E4.6621
G1 X58.674 Y28.663 E4.7151
G1 X59.819 Y27.936 E4.7682
G1 X59.951 Y27.862 E4.7741
G1 X60.937 Y27.386 E4.8169
G1 X61.124 Y27.312 E4.8248
G1 X62.005 Y27.042 E4.8608
G1 X62.211 Y26.996 E4.8691
G1 X63.060 Y26.878 E4.9026
G1 X63.245 Y26.865 E4.9098
G1 X63.876 Y26.866 E4.9345
G1 X64.057 Y26.879 E4.9416
G1 X64.857 Y26.991 E4.9732
G1 X65.017 Y27.024 E4.9796
G1 X65.561 Y27.170 E5.0017
G1 X65.690 Y27.212 E5.0070
G1 X66.362 Y27.470 E5.0351
G1 X66.484 Y27.524 E5.0403
G1 X67.092 Y27.830 E5.0670
G1 X67.196 Y27.889 E5.0716
G1 X67.915 Y28.336 E5.1047
G1 X68.030 Y28.416 E5.1102
