; G-Code generated by Simplify3D(R) Version 4.1.2
; Apr 16, 2020 at 6:45:18 PM
; Settings Summary
;   processName,Process1
;   applyToModels,unten-innen
;   profileName,HBot (modified)
;   profileVersion,2019-10-26 23:38:43
;   baseProfile,Default
;   printMaterial,PLA
;   printQuality,Medium
;   printExtruders,
;   extruderName,Extruder 1
;   extruderToolheadNumber,0
;   extruderDiameter,0.4
;   extruderAutoWidth,1
;   extruderWidth,0.48
;   extrusionMultiplier,0.94
;   extruderUseRetract,1
;   extruderRetractionDistance,3
;   extruderExtraRestartDistance,0
;   extruderRetractionZLift,0
;   extruderRetractionSpeed,3600
;   extruderUseCoasting,1
;   extruderCoastingDistance,0.2
;   extruderUseWipe,1
;   extruderWipeDistance,5
;   primaryExtruder,0
;   layerHeight,0.2
;   topSolidLayers,3
;   bottomSolidLayers,3
;   perimeterOutlines,3
;   printPerimetersInsideOut,1
;   startPointOption,3
;   startPointOriginX,200
;   startPointOriginY,100
;   sequentialIslands,0
;   spiralVaseMode,0
;   firstLayerHeightPercentage,100
;   firstLayerWidthPercentage,150
;   firstLayerUnderspeed,0.5
;   useRaft,0
;   raftExtruder,0
;   raftTopLayers,3
;   raftBaseLayers,2
;   raftOffset,3
;   raftSeparationDistance,0.18
;   raftTopInfill,100
;   aboveRaftSpeedMultiplier,0.3
;   useSkirt,1
;   skirtExtruder,0
;   skirtLayers,1
;   skirtOutlines,5
;   skirtOffset,0
;   usePrimePillar,0
;   primePillarExtruder,999
;   primePillarWidth,12
;   primePillarLocation,7
;   primePillarSpeedMultiplier,1
;   useOozeShield,0
;   oozeShieldExtruder,999
;   oozeShieldOffset,2
;   oozeShieldOutlines,1
;   oozeShieldSidewallShape,1
;   oozeShieldSidewallAngle,30
;   oozeShieldSpeedMultiplier,1
;   infillExtruder,0
;   internalInfillPattern,Rectilinear
;   externalInfillPattern,Rectilinear
;   infillPercentage,20
;   outlineOverlapPercentage,25
;   infillExtrusionWidthPercentage,150
;   minInfillLength,5
;   infillLayerInterval,1
;   internalInfillAngles,45,-45
;   overlapInternalInfillAngles,0
;   externalInfillAngles,45,-45
;   generateSupport,0
;   supportExtruder,0
;   supportInfillPercentage,30
;   supportExtraInflation,0
;   supportBaseLayers,1
;   denseSupportExtruder,0
;   denseSupportLayers,0
;   denseSupportInfillPercentage,70
;   supportLayerInterval,1
;   supportHorizontalPartOffset,0.3
;   supportUpperSeparationLayers,1
;   supportLowerSeparationLayers,1
;   supportType,0
;   supportGridSpacing,4
;   maxOverhangAngle,25
;   supportAngles,0
;   temperatureName,Extruder 1,Heated Bed
;   temperatureNumber,0,1
;   temperatureSetpointCount,2,1
;   temperatureSetpointLayers,1,2,1
;   temperatureSetpointTemperatures,217,208,65
;   temperatureStabilizeAtStartup,1,1
;   temperatureHeatedBed,0,1
;   fanLayers,1,2,4
;   fanSpeeds,0,20,30
;   blipFanToFullPower,1
;   adjustSpeedForCooling,1
;   minSpeedLayerTime,15
;   minCoolingSpeedSlowdown,20
;   increaseFanForCooling,0
;   minFanLayerTime,45
;   maxCoolingFanSpeed,40
;   increaseFanForBridging,1
;   bridgingFanSpeed,80
;   use5D,1
;   relativeEdistances,0
;   allowEaxisZeroing,1
;   independentExtruderAxes,0
;   includeM10123,0
;   stickySupport,1
;   applyToolheadOffsets,0
;   gcodeXoffset,0
;   gcodeYoffset,0
;   gcodeZoffset,0
;   overrideMachineDefinition,1
;   machineTypeOverride,0
;   strokeXoverride,200
;   strokeYoverride,200
;   strokeZoverride,150
;   originOffsetXoverride,0
;   originOffsetYoverride,0
;   originOffsetZoverride,0
;   homeXdirOverride,-1
;   homeYdirOverride,-1
;   homeZdirOverride,-1
;   flipXoverride,1
;   flipYoverride,-1
;   flipZoverride,1
;   toolheadOffsets,0,0|0,0|0,0|0,0|0,0|0,0
;   overrideFirmwareConfiguration,1
;   firmwareTypeOverride,RepRap (Marlin/Repetier/Sprinter)
;   GPXconfigOverride,r2
;   baudRateOverride,115200
;   overridePrinterModels,0
;   printerModelsOverride
;   startingGcode,G28 ; home all axes,G32 ; run bed.g -- probe bed and enable compensation
;   layerChangeGcode,
;   retractionGcode,
;   toolChangeGcode,
;   endingGcode,M0 ; call stop.g
;   exportFileFormat,gcode
;   celebration,0
;   celebrationSong,Random Song
;   postProcessing,
;   defaultSpeed,3600
;   outlineUnderspeed,0.5
;   solidInfillUnderspeed,0.8
;   supportUnderspeed,0.8
;   rapidXYspeed,18000
;   rapidZspeed,1200
;   minBridgingArea,50
;   bridgingExtraInflation,0
;   bridgingExtrusionMultiplier,0.96
;   bridgingSpeedMultiplier,1
;   useFixedBridgingAngle,0
;   fixedBridgingAngle,0
;   applyBridgingToPerimeters,0
;   filamentDiameters,1.75|1.75|1.75|1.75|1.75|1.75
;   filamentPricesPerKg,46|46|46|46|46|46
;   filamentDensities,1.25|1.25|1.25|1.25|1.25|1.25
;   useMinPrintHeight,0
;   minPrintHeight,0
;   useMaxPrintHeight,0
;   maxPrintHeight,0
;   useDiaphragm,0
;   diaphragmLayerInterval,20
;   robustSlicing,1
;   mergeAllIntoSolid,0
;   onlyRetractWhenCrossingOutline,1
;   retractBetweenLayers,0
;   useRetractionMinTravel,1
;   retractionMinTravel,3
;   retractWhileWiping,1
;   onlyWipeOutlines,1
;   avoidCrossingOutline,1
;   maxMovementDetourFactor,30
;   toolChangeRetractionDistance,12
;   toolChangeExtraRestartDistance,-0.5
;   toolChangeRetractionSpeed,600
;   externalThinWallType,1
;   internalThinWallType,1
;   thinWallAllowedOverlapPercentage,10
;   singleExtrusionMinLength,1
;   singleExtrusionMinPrintingWidthPercentage,50
;   singleExtrusionMaxPrintingWidthPercentage,200
;   singleExtrusionEndpointExtension,0.2
;   horizontalSizeCompensation,-0.1
G90
M82
M106 S0
M140 S65
M190 S65
M104 S217 T0
M109 S217 T0
G28 ; home all axes
G32 ; run bed.g -- probe bed and enable compensation
; process Process1
; layer 1, Z = 0.200
T0
G92 E0.0000
G1 E-3.0000 F3600
; feature skirt
; tool H0.200 W0.720
G1 Z0.200 F1200
G1 X114.804 Y105.198 F18000
G1 E0.0000 F3600
G92 E0.0000
G1 X114.151 Y106.541 E0.0840 F1106
G1 X112.985 Y107.455 E0.1674
G1 X112.869 Y107.538 E0.1755
G1 X112.471 Y107.797 E0.2021
G1 X112.389 Y107.847 E0.2076
G1 X111.975 Y108.083 E0.2344
G1 X111.845 Y108.149 E0.2426
G1 X111.047 Y108.513 E0.2920
G1 X110.866 Y108.582 E0.3029
G1 X110.007 Y108.855 E0.3536
G1 X109.819 Y108.903 E0.3645
G1 X108.956 Y109.067 E0.4139
G1 X108.812 Y109.088 E0.4221
G1 X108.315 Y109.137 E0.4502
G1 X108.170 Y109.145 E0.4584
G1 X107.291 Y109.152 E0.5078
G1 X107.098 Y109.142 E0.5188
G1 X106.225 Y109.045 E0.5682
G1 X106.082 Y109.022 E0.5763
G1 X105.592 Y108.923 E0.6045
G1 X105.451 Y108.887 E0.6127
G1 X104.623 Y108.640 E0.6613
G1 X104.465 Y108.583 E0.6707
G1 X103.252 Y108.079 E0.7447
G1 X101.644 Y107.460 E0.8416
G1 X100.035 Y106.920 E0.9371
G1 X98.404 Y106.449 E1.0326
G1 X96.756 Y106.050 E1.1281
G1 X95.089 Y105.722 E1.2237
G1 X93.413 Y105.466 E1.3191
G1 X91.726 Y105.284 E1.4146
G1 X90.032 Y105.174 E1.5101
G1 X86.611 Y105.100 E1.7027
G1 X85.449 Y100.236 E1.9841
G1 X87.190 Y99.305 E2.0952
G1 X87.201 Y96.746 E2.2393
G1 X89.093 Y94.859 E2.3896
G1 X95.786 Y94.846 E2.7663
G1 X96.686 Y94.779 E2.8171
G1 X97.058 Y94.731 E2.8382
G1 X97.940 Y94.565 E2.8887
G1 X98.809 Y94.334 E2.9393
G1 X99.194 Y94.209 E2.9621
G1 X99.573 Y94.069 E2.9848
G1 X100.426 Y93.700 E3.0371
G1 X100.760 Y93.533 E3.0581
G1 X101.552 Y93.080 E3.1095
G1 X103.059 Y92.081 E3.2112
G1 X103.245 Y91.976 E3.2232
G1 X104.054 Y91.581 E3.2739
G1 X104.230 Y91.507 E3.2847
G1 X105.071 Y91.214 E3.3348
G1 X105.255 Y91.162 E3.3455
G1 X106.100 Y90.975 E3.3942
G1 X106.241 Y90.950 E3.4023
G1 X106.730 Y90.887 E3.4301
G1 X106.873 Y90.875 E3.4381
G1 X107.714 Y90.841 E3.4855
G1 X107.857 Y90.841 E3.4936
G1 X108.349 Y90.865 E3.5213
G1 X108.492 Y90.878 E3.5293
G1 X109.327 Y90.993 E3.5768
G1 X109.468 Y91.018 E3.5848
G1 X109.948 Y91.128 E3.6126
G1 X110.086 Y91.166 E3.6206
G1 X110.887 Y91.426 E3.6680
G1 X111.022 Y91.476 E3.6761
G1 X111.475 Y91.669 E3.7038
G1 X111.604 Y91.731 E3.7119
G1 X112.387 Y92.150 E3.7618
G1 X112.586 Y92.275 E3.7751
G1 X114.109 Y93.399 E3.8816
G1 X114.804 Y94.776 E3.9684
G1 X114.804 Y105.198 E4.5549
G1 X114.084 Y105.032 F18000
G92 E0.0000
G1 X113.576 Y106.076 E0.0654 F1106
G1 X112.553 Y106.879 E0.1385
G1 X112.463 Y106.943 E0.1448
G1 X112.088 Y107.187 E0.1700
G1 X112.023 Y107.227 E0.1742
G1 X111.633 Y107.449 E0.1995
G1 X111.532 Y107.500 E0.2058
G1 X110.768 Y107.848 E0.2531
G1 X110.627 Y107.903 E0.2616
G1 X109.809 Y108.163 E0.3099
G1 X109.663 Y108.200 E0.3184
G1 X108.838 Y108.357 E0.3657
G1 X108.726 Y108.373 E0.3720
G1 X108.261 Y108.419 E0.3983
G1 X108.148 Y108.425 E0.4047
G1 X107.307 Y108.432 E0.4520
G1 X107.156 Y108.424 E0.4605
G1 X106.321 Y108.331 E0.5078
G1 X106.209 Y108.314 E0.5142
G1 X105.751 Y108.220 E0.5405
G1 X105.642 Y108.193 E0.5468
G1 X104.847 Y107.955 E0.5935
G1 X104.724 Y107.911 E0.6008
G1 X103.519 Y107.410 E0.6743
G1 X101.888 Y106.782 E0.7726
G1 X100.250 Y106.232 E0.8699
G1 X98.589 Y105.753 E0.9672
G1 X96.911 Y105.347 E1.0644
G1 X95.213 Y105.012 E1.1617
G1 X93.506 Y104.752 E1.2589
G1 X91.788 Y104.566 E1.3561
G1 X90.063 Y104.454 E1.4534
G1 X87.182 Y104.392 E1.6156
G1 X86.278 Y100.609 E1.8345
G1 X87.908 Y99.738 E1.9385
G1 X87.920 Y97.046 E2.0900
G1 X89.391 Y95.578 E2.2069
G1 X95.814 Y95.566 E2.5683
G1 X96.759 Y95.496 E2.6217
G1 X97.171 Y95.442 E2.6451
G1 X98.100 Y95.268 E2.6982
G1 X99.013 Y95.025 E2.7515
G1 X99.430 Y94.889 E2.7761
G1 X99.841 Y94.738 E2.8007
G1 X100.730 Y94.353 E2.8553
G1 X101.100 Y94.168 E2.8786
G1 X101.930 Y93.693 E2.9324
G1 X103.437 Y92.695 E3.0341
G1 X103.581 Y92.612 E3.0435
G1 X104.350 Y92.237 E3.0916
G1 X104.487 Y92.180 E3.1000
G1 X105.288 Y91.901 E3.1477
G1 X105.431 Y91.860 E3.1560
G1 X106.240 Y91.682 E3.2027
G1 X106.350 Y91.662 E3.2089
G1 X106.807 Y91.603 E3.2349
G1 X106.918 Y91.593 E3.2412
G1 X107.727 Y91.561 E3.2867
G1 X107.839 Y91.561 E3.2930
G1 X108.299 Y91.583 E3.3189
G1 X108.410 Y91.593 E3.3252
G1 X109.213 Y91.704 E3.3708
G1 X109.323 Y91.724 E3.3771
G1 X109.772 Y91.827 E3.4030
G1 X109.879 Y91.856 E3.4093
G1 X110.650 Y92.106 E3.4549
G1 X110.755 Y92.145 E3.4612
G1 X111.179 Y92.326 E3.4871
G1 X111.279 Y92.374 E3.4934
G1 X112.025 Y92.772 E3.5410
G1 X112.180 Y92.870 E3.5513
G1 X113.543 Y93.876 E3.6467
G1 X114.084 Y94.947 E3.7142
G1 X114.084 Y105.032 E4.2817
G1 X113.364 Y104.866 F18000
G92 E0.0000
G1 X113.001 Y105.612 E0.0467 F1106
G1 X112.121 Y106.303 E0.1096
G1 X112.057 Y106.349 E0.1141
G1 X111.704 Y106.578 E0.1378
G1 X111.658 Y106.606 E0.1408
G1 X111.291 Y106.815 E0.1646
G1 X111.219 Y106.852 E0.1691
G1 X110.489 Y107.184 E0.2142
G1 X110.389 Y107.223 E0.2203
G1 X109.611 Y107.470 E0.2662
G1 X109.507 Y107.496 E0.2723
G1 X108.719 Y107.646 E0.3174
G1 X108.639 Y107.658 E0.3220
G1 X108.206 Y107.701 E0.3465
G1 X108.125 Y107.705 E0.3510
G1 X107.322 Y107.712 E0.3962
G1 X107.215 Y107.706 E0.4023
G1 X106.417 Y107.617 E0.4474
G1 X106.337 Y107.605 E0.4520
G1 X105.911 Y107.518 E0.4765
G1 X105.833 Y107.498 E0.4810
G1 X105.072 Y107.271 E0.5257
G1 X104.984 Y107.239 E0.5309
G1 X103.787 Y106.742 E0.6039
G1 X102.132 Y106.105 E0.7037
G1 X100.464 Y105.545 E0.8027
G1 X98.774 Y105.057 E0.9017
G1 X97.065 Y104.643 E1.0006
G1 X95.337 Y104.303 E1.0998
G1 X93.599 Y104.038 E1.1987
G1 X91.850 Y103.849 E1.2977
G1 X90.094 Y103.735 E1.3967
G1 X87.754 Y103.684 E1.5285
G1 X87.108 Y100.982 E1.6848
G1 X88.498 Y100.239 E1.7735
G1 X88.542 Y100.203 E1.7767
G1 X88.578 Y100.158 E1.7800
G1 X88.605 Y100.108 E1.7832
G1 X88.627 Y100.037 E1.7873
G1 X88.638 Y97.346 E1.9388
G1 X89.690 Y96.297 E2.0223
G1 X95.841 Y96.286 E2.3685
G1 X96.833 Y96.212 E2.4245
G1 X97.284 Y96.154 E2.4501
G1 X98.259 Y95.971 E2.5059
G1 X99.218 Y95.716 E2.5618
G1 X99.666 Y95.569 E2.5883
G1 X100.108 Y95.407 E2.6148
G1 X101.034 Y95.006 E2.6716
G1 X101.441 Y94.803 E2.6972
G1 X102.308 Y94.307 E2.7534
G1 X103.815 Y93.308 E2.8552
G1 X103.918 Y93.249 E2.8618
G1 X104.647 Y92.894 E2.9074
G1 X104.745 Y92.853 E2.9134
G1 X105.505 Y92.588 E2.9587
G1 X105.607 Y92.559 E2.9647
G1 X106.380 Y92.388 E3.0092
G1 X106.458 Y92.374 E3.0137
G1 X106.884 Y92.319 E3.0379
G1 X106.963 Y92.312 E3.0424
G1 X107.740 Y92.281 E3.0861
G1 X107.820 Y92.281 E3.0906
G1 X108.249 Y92.302 E3.1147
G1 X108.328 Y92.309 E3.1192
G1 X109.099 Y92.415 E3.1630
G1 X109.178 Y92.429 E3.1675
G1 X109.596 Y92.525 E3.1917
G1 X109.673 Y92.546 E3.1962
G1 X110.413 Y92.786 E3.2400
G1 X110.487 Y92.814 E3.2444
G1 X110.882 Y92.982 E3.2686
G1 X110.954 Y93.016 E3.2731
G1 X111.663 Y93.395 E3.3183
G1 X111.773 Y93.465 E3.3256
G1 X112.978 Y94.354 E3.4099
G1 X113.364 Y95.119 E3.4581
G1 X113.364 Y104.866 E4.0067
G1 X112.644 Y104.700 F18000
G92 E0.0000
G1 X112.427 Y105.148 E0.0280 F1106
G1 X111.689 Y105.726 E0.0807
G1 X111.651 Y105.754 E0.0834
G1 X111.320 Y105.969 E0.1056
G1 X111.293 Y105.986 E0.1074
G1 X110.949 Y106.181 E0.1297
G1 X110.906 Y106.203 E0.1324
G1 X110.211 Y106.520 E0.1754
G1 X110.150 Y106.543 E0.1790
G1 X109.414 Y106.777 E0.2225
G1 X109.351 Y106.793 E0.2262
G1 X108.600 Y106.936 E0.2692
G1 X108.552 Y106.943 E0.2719
G1 X108.151 Y106.983 E0.2946
G1 X108.103 Y106.985 E0.2973
G1 X107.338 Y106.992 E0.3404
G1 X107.273 Y106.988 E0.3440
G1 X106.513 Y106.904 E0.3870
G1 X106.465 Y106.896 E0.3898
G1 X106.071 Y106.816 E0.4124
G1 X106.024 Y106.804 E0.4152
G1 X105.296 Y106.586 E0.4579
G1 X105.243 Y106.567 E0.4611
G1 X104.054 Y106.073 E0.5335
G1 X102.376 Y105.427 E0.6347
G1 X100.679 Y104.857 E0.7355
G1 X98.958 Y104.361 E0.8362
G1 X97.219 Y103.940 E0.9369
G1 X95.461 Y103.594 E1.0378
G1 X93.692 Y103.324 E1.1385
G1 X91.912 Y103.131 E1.2392
G1 X90.126 Y103.015 E1.3400
G1 X88.325 Y102.976 E1.4414
G1 X87.937 Y101.355 E1.5352
G1 X88.900 Y100.840 E1.5966
G1 X89.053 Y100.714 E1.6078
G1 X89.180 Y100.560 E1.6190
G1 X89.274 Y100.385 E1.6302
G1 X89.338 Y100.171 E1.6428
G1 X89.346 Y100.118 E1.6458
G1 X89.357 Y97.646 E1.7849
G1 X89.988 Y97.017 E1.8350
G1 X95.868 Y97.006 E2.1660
G1 X96.906 Y96.929 E2.2245
G1 X97.397 Y96.865 E2.2524
G1 X98.418 Y96.673 E2.3108
G1 X99.422 Y96.406 E2.3693
G1 X99.902 Y96.250 E2.3977
G1 X100.375 Y96.076 E2.4261
G1 X101.338 Y95.659 E2.4852
G1 X101.781 Y95.438 E2.5130
G1 X102.686 Y94.920 E2.5717
G1 X104.193 Y93.921 E2.6734
G1 X104.255 Y93.886 E2.6774
G1 X104.943 Y93.550 E2.7205
G1 X105.002 Y93.526 E2.7241
G1 X105.722 Y93.275 E2.7670
G1 X105.783 Y93.257 E2.7706
G1 X106.520 Y93.094 E2.8131
G1 X106.567 Y93.086 E2.8157
G1 X106.961 Y93.035 E2.8381
G1 X107.008 Y93.031 E2.8408
G1 X107.754 Y93.001 E2.8828
G1 X107.802 Y93.001 E2.8855
G1 X108.198 Y93.020 E2.9078
G1 X108.246 Y93.024 E2.9105
G1 X108.985 Y93.126 E2.9525
G1 X109.032 Y93.135 E2.9552
G1 X109.420 Y93.223 E2.9776
G1 X109.466 Y93.236 E2.9803
G1 X110.176 Y93.466 E3.0223
G1 X110.220 Y93.483 E3.0249
G1 X110.586 Y93.638 E3.0473
G1 X110.629 Y93.659 E3.0500
G1 X111.300 Y94.018 E3.0928
G1 X111.367 Y94.060 E3.0972
G1 X112.413 Y94.831 E3.1704
G1 X112.644 Y95.290 E3.1993
G1 X112.644 Y104.700 E3.7289
G1 X111.924 Y104.534 F18000
G92 E0.0000
G1 X111.852 Y104.684 E0.0093 F1106
G1 X111.257 Y105.150 E0.0519
G1 X111.244 Y105.159 E0.0527
G1 X110.937 Y105.359 E0.0734
G1 X110.927 Y105.365 E0.0740
G1 X110.607 Y105.547 E0.0947
G1 X110.593 Y105.555 E0.0957
G1 X109.932 Y105.856 E0.1365
G1 X109.912 Y105.864 E0.1378
G1 X109.216 Y106.085 E0.1788
G1 X109.195 Y106.090 E0.1800
G1 X108.481 Y106.226 E0.2209
G1 X108.465 Y106.228 E0.2219
G1 X108.096 Y106.265 E0.2427
G1 X108.080 Y106.265 E0.2436
G1 X107.353 Y106.272 E0.2845
G1 X107.332 Y106.271 E0.2857
G1 X106.609 Y106.190 E0.3267
G1 X106.593 Y106.187 E0.3276
G1 X106.230 Y106.113 E0.3484
G1 X106.214 Y106.109 E0.3493
G1 X105.520 Y105.902 E0.3901
G1 X105.502 Y105.895 E0.3912
G1 X104.322 Y105.404 E0.4631
G1 X102.620 Y104.750 E0.5658
G1 X100.893 Y104.170 E0.6683
G1 X99.143 Y103.665 E0.7708
G1 X97.373 Y103.236 E0.8732
G1 X95.585 Y102.884 E0.9758
G1 X93.785 Y102.610 E1.0783
G1 X91.974 Y102.414 E1.1808
G1 X90.157 Y102.296 E1.2833
G1 X88.896 Y102.268 E1.3543
G1 X88.766 Y101.728 E1.3855
G1 X89.302 Y101.442 E1.4197
G1 X89.565 Y101.226 E1.4389
G1 X89.781 Y100.962 E1.4580
G1 X89.942 Y100.662 E1.4772
G1 X90.043 Y100.329 E1.4968
G1 X90.066 Y100.173 E1.5057
G1 X90.076 Y97.946 E1.6310
G1 X90.286 Y97.736 E1.6477
G1 X95.896 Y97.726 E1.9634
G1 X96.980 Y97.645 E2.0246
G1 X97.510 Y97.576 E2.0547
G1 X98.577 Y97.376 E2.1158
G1 X99.626 Y97.097 E2.1769
G1 X100.138 Y96.930 E2.2071
G1 X100.643 Y96.744 E2.2374
G1 X101.642 Y96.312 E2.2987
G1 X102.121 Y96.073 E2.3288
G1 X103.064 Y95.533 E2.3900
