; G-Code generated by Simplify3D(R) Version 4.1.2
; Mar 31, 2021 at 1:44:54 AM
; Settings Summary
;   processName,Process1
;   applyToModels,150mmx150mm-level-test
;   profileName,HBot (modified)
;   profileVersion,2019-10-26 23:38:43
;   baseProfile,Default
;   printMaterial,PETG - SUNLU
;   printQuality,Medium
;   printExtruders,
;   extruderName,Extruder 1,Extruder 2 - support
;   extruderToolheadNumber,0,1
;   extruderDiameter,0.4,0.4
;   extruderAutoWidth,1,1
;   extruderWidth,0.48,0.48
;   extrusionMultiplier,1.02,0.9
;   extruderUseRetract,1,0
;   extruderRetractionDistance,3,1
;   extruderExtraRestartDistance,0,0
;   extruderRetractionZLift,0,0
;   extruderRetractionSpeed,5400,1800
;   extruderUseCoasting,1,0
;   extruderCoastingDistance,0.2,0.2
;   extruderUseWipe,1,0
;   extruderWipeDistance,2,5
;   primaryExtruder,0
;   layerHeight,0.2
;   topSolidLayers,4
;   bottomSolidLayers,4
;   perimeterOutlines,3
;   printPerimetersInsideOut,1
;   startPointOption,3
;   startPointOriginX,110
;   startPointOriginY,300
;   sequentialIslands,0
;   spiralVaseMode,0
;   firstLayerHeightPercentage,100
;   firstLayerWidthPercentage,100
;   firstLayerUnderspeed,0.5
;   useRaft,0
;   raftExtruder,0
;   raftTopLayers,3
;   raftBaseLayers,2
;   raftOffset,3
;   raftSeparationDistance,0.18
;   raftTopInfill,100
;   aboveRaftSpeedMultiplier,0.3
;   useSkirt,0
;   skirtExtruder,0
;   skirtLayers,1
;   skirtOutlines,10
;   skirtOffset,0
;   usePrimePillar,0
;   primePillarExtruder,999
;   primePillarWidth,12
;   primePillarLocation,7
;   primePillarSpeedMultiplier,1
;   useOozeShield,0
;   oozeShieldExtruder,999
;   oozeShieldOffset,0.9
;   oozeShieldOutlines,2
;   oozeShieldSidewallShape,0
;   oozeShieldSidewallAngle,30
;   oozeShieldSpeedMultiplier,1.5
;   infillExtruder,0
;   internalInfillPattern,Fast Honeycomb
;   externalInfillPattern,Rectilinear
;   infillPercentage,15
;   outlineOverlapPercentage,25
;   infillExtrusionWidthPercentage,100
;   minInfillLength,5
;   infillLayerInterval,1
;   internalInfillAngles,0
;   overlapInternalInfillAngles,0
;   externalInfillAngles,45,-45
;   generateSupport,0
;   supportExtruder,0
;   supportInfillPercentage,25
;   supportExtraInflation,0
;   supportBaseLayers,1
;   denseSupportExtruder,0
;   denseSupportLayers,0
;   denseSupportInfillPercentage,70
;   supportLayerInterval,1
;   supportHorizontalPartOffset,0.3
;   supportUpperSeparationLayers,1
;   supportLowerSeparationLayers,1
;   supportType,0
;   supportGridSpacing,2
;   maxOverhangAngle,25
;   supportAngles,0
;   temperatureName,Extruder 1,Heated Bed,Extruder 2 - support
;   temperatureNumber,0,1,2
;   temperatureSetpointCount,2,1,1
;   temperatureSetpointLayers,1,2,1,1
;   temperatureSetpointTemperatures,215,215,85,0
;   temperatureStabilizeAtStartup,1,1,0
;   temperatureHeatedBed,0,1,0
;   fanLayers,1,5,10
;   fanSpeeds,0,5,20
;   blipFanToFullPower,1
;   adjustSpeedForCooling,0
;   minSpeedLayerTime,15
;   minCoolingSpeedSlowdown,20
;   increaseFanForCooling,1
;   minFanLayerTime,15
;   maxCoolingFanSpeed,40
;   increaseFanForBridging,1
;   bridgingFanSpeed,85
;   use5D,1
;   relativeEdistances,0
;   allowEaxisZeroing,1
;   independentExtruderAxes,0
;   includeM10123,0
;   stickySupport,1
;   applyToolheadOffsets,0
;   gcodeXoffset,0
;   gcodeYoffset,0
;   gcodeZoffset,0
;   overrideMachineDefinition,1
;   machineTypeOverride,0
;   strokeXoverride,210
;   strokeYoverride,210
;   strokeZoverride,150
;   originOffsetXoverride,0
;   originOffsetYoverride,0
;   originOffsetZoverride,0
;   homeXdirOverride,1
;   homeYdirOverride,-1
;   homeZdirOverride,-1
;   flipXoverride,1
;   flipYoverride,-1
;   flipZoverride,1
;   toolheadOffsets,0,0|0,0|0,0|0,0|0,0|0,0
;   overrideFirmwareConfiguration,0
;   firmwareTypeOverride,RepRap (Marlin/Repetier/Sprinter)
;   GPXconfigOverride,r2
;   baudRateOverride,115200
;   overridePrinterModels,0
;   printerModelsOverride
;   startingGcode,G28 ; home all axes,G32 ; run bed.g -- probe bed and enable compensation
;   layerChangeGcode,
;   retractionGcode,
;   toolChangeGcode,
;   endingGcode,M0 ; call stop.g
;   exportFileFormat,gcode
;   celebration,0
;   celebrationSong,Random Song
;   postProcessing,
;   defaultSpeed,3600
;   outlineUnderspeed,0.5
;   solidInfillUnderspeed,0.8
;   supportUnderspeed,0.8
;   rapidXYspeed,18000
;   rapidZspeed,1200
;   minBridgingArea,50
;   bridgingExtraInflation,0
;   bridgingExtrusionMultiplier,0.96
;   bridgingSpeedMultiplier,1
;   useFixedBridgingAngle,0
;   fixedBridgingAngle,0
;   applyBridgingToPerimeters,0
;   filamentDiameters,1.75|1.75|1.75|1.75|1.75|1.75
;   filamentPricesPerKg,46|46|46|46|46|46
;   filamentDensities,1.25|1.25|1.25|1.25|1.25|1.25
;   useMinPrintHeight,0
;   minPrintHeight,17.2
;   useMaxPrintHeight,0
;   maxPrintHeight,4
;   useDiaphragm,0
;   diaphragmLayerInterval,20
;   robustSlicing,1
;   mergeAllIntoSolid,0
;   onlyRetractWhenCrossingOutline,1
;   retractBetweenLayers,0
;   useRetractionMinTravel,1
;   retractionMinTravel,3
;   retractWhileWiping,1
;   onlyWipeOutlines,1
;   avoidCrossingOutline,1
;   maxMovementDetourFactor,5
;   toolChangeRetractionDistance,12
;   toolChangeExtraRestartDistance,-0.5
;   toolChangeRetractionSpeed,600
;   externalThinWallType,1
;   internalThinWallType,1
;   thinWallAllowedOverlapPercentage,10
;   singleExtrusionMinLength,1
;   singleExtrusionMinPrintingWidthPercentage,50
;   singleExtrusionMaxPrintingWidthPercentage,150
;   singleExtrusionEndpointExtension,0.2
;   horizontalSizeCompensation,0
G90
M82
M106 S0
M140 S85
M190 S85
G10 P0 S215
G10 P2 S0
M116 P0
G28 ; home all axes
G32 ; run bed.g -- probe bed and enable compensation
; process Process1
; layer 1, Z = 0.200
T0
G92 E0.0000
G1 E-3.0000 F5400
; feature inner perimeter
; tool H0.200 W0.480
G1 Z0.200 F1200
G1 X179.280 Y179.280 F18000
G1 E0.0000 F5400
G92 E0.0000
G1 X30.720 Y179.280 E6.0479 F1350
G1 X30.720 Y30.720 E12.0959
G1 X179.280 Y30.720 E18.1438
G1 X179.280 Y179.080 E24.1836
G1 X179.280 Y179.280 F1350
; feature outer perimeter
G1 X179.760 Y179.760 F18000
G92 E0.0000
G1 X30.240 Y179.760 E6.0870 F900
G1 X30.240 Y30.240 E12.1740
G1 X179.760 Y30.240 E18.2611
G1 X179.760 Y179.560 E24.3399
G1 X179.760 Y179.760 F900
G1 X177.760 Y179.760 F900
; feature inner perimeter
G1 X178.720 Y178.720 F18000
G92 E0.0000
G1 X178.720 Y31.280 E6.0023 F1350
G1 X31.280 Y31.280 E12.0047
G1 X31.280 Y178.720 E18.0070
G1 X178.520 Y178.720 E24.0012
G1 X178.720 Y178.720 F1350
; feature outer perimeter
G1 X178.240 Y178.240 F18000
G92 E0.0000
G1 X178.240 Y31.760 E5.9633 F900
G1 X31.760 Y31.760 E11.9265
G1 X31.760 Y178.240 E17.8898
G1 X178.040 Y178.240 E23.8449
G1 X178.240 Y178.240 F900
G1 X178.240 Y176.240 F900
; feature internal single extrusion
; tool H0.200 W0.240
G1 X179.000 Y178.944 F18000
G92 E0.0000
G1 X178.944 Y179.000 E0.0016 F900
G1 X31.056 Y179.000 E3.0119
G1 X31.000 Y178.944 E3.0135
G1 X31.000 Y31.056 E6.0238
G1 X31.056 Y31.000 E6.0254
G1 X178.944 Y31.000 E9.0357
G1 X179.000 Y31.056 E9.0373
G1 X179.000 Y178.744 E12.0435
G1 X179.000 Y178.944 F900
G92 E0.0000
G1 E-3.0000 F5400
; feature inner perimeter
; tool H0.200 W0.480
G1 X178.240 Y178.185 F18000
G1 X147.280 Y147.280
G1 E0.0000 F5400
G92 E0.0000
G1 X62.720 Y147.280 E3.4425 F1350
G1 X62.720 Y62.720 E6.8849
G1 X147.280 Y62.720 E10.3274
G1 X147.280 Y147.080 E13.7617
G1 X147.280 Y147.280 F1350
; feature outer perimeter
G1 X147.760 Y147.760 F18000
G92 E0.0000
G1 X62.240 Y147.760 E3.4816 F900
G1 X62.240 Y62.240 E6.9631
G1 X147.760 Y62.240 E10.4447
G1 X147.760 Y147.560 E13.9181
G1 X147.760 Y147.760 F900
G1 X145.760 Y147.760 F900
; feature inner perimeter
G1 X146.720 Y146.720 F18000
G92 E0.0000
G1 X146.720 Y63.280 E3.3969 F1350
G1 X63.280 Y63.280 E6.7938
G1 X63.280 Y146.720 E10.1906
G1 X146.520 Y146.720 E13.5794
G1 X146.720 Y146.720 F1350
; feature outer perimeter
G1 X146.240 Y146.240 F18000
G92 E0.0000
G1 X146.240 Y63.760 E3.3578 F900
G1 X63.760 Y63.760 E6.7156
G1 X63.760 Y146.240 E10.0734
G1 X146.040 Y146.240 E13.4230
G1 X146.240 Y146.240 F900
G1 X146.240 Y144.240 F900
; feature internal single extrusion
; tool H0.200 W0.240
G1 X147.000 Y146.944 F18000
G92 E0.0000
G1 X146.944 Y147.000 E0.0016 F900
G1 X63.056 Y147.000 E1.7092
G1 X63.000 Y146.944 E1.7108
G1 X63.000 Y63.056 E3.4183
G1 X63.056 Y63.000 E3.4200
G1 X146.944 Y63.000 E5.1275
G1 X147.000 Y63.056 E5.1291
G1 X147.000 Y146.744 E6.8326
G1 X147.000 Y146.944 F900
; layer 2, Z = 0.400
; feature inner perimeter
; tool H0.200 W0.480
G1 Z0.400 F1200
G1 X147.280 Y147.280 F18000
G92 E0.0000
G1 X62.720 Y147.280 E3.4425 F2700
G1 X62.720 Y62.720 E6.8849
G1 X147.280 Y62.720 E10.3274
G1 X147.280 Y147.080 E13.7617
G1 X147.280 Y147.280 F2700
; feature outer perimeter
G1 X147.760 Y147.760 F18000
G92 E0.0000
G1 X62.240 Y147.760 E3.4816 F1800
G1 X62.240 Y62.240 E6.9631
G1 X147.760 Y62.240 E10.4447
G1 X147.760 Y147.560 E13.9181
G1 X147.760 Y147.760 F1800
G1 X145.760 Y147.760 F1800
; feature inner perimeter
G1 X146.720 Y146.720 F18000
G92 E0.0000
G1 X146.720 Y63.280 E3.3969 F2700
G1 X63.280 Y63.280 E6.7938
G1 X63.280 Y146.720 E10.1906
G1 X146.520 Y146.720 E13.5794
G1 X146.720 Y146.720 F2700
; feature outer perimeter
G1 X146.240 Y146.240 F18000
G92 E0.0000
G1 X146.240 Y63.760 E3.3578 F1800
G1 X63.760 Y63.760 E6.7156
G1 X63.760 Y146.240 E10.0734
G1 X146.040 Y146.240 E13.4230
G1 X146.240 Y146.240 F1800
G1 X146.240 Y144.240 F1800
; feature internal single extrusion
; tool H0.200 W0.240
G1 X147.000 Y146.944 F18000
G92 E0.0000
G1 X146.944 Y147.000 E0.0016 F1800
G1 X63.056 Y147.000 E1.7092
G1 X63.000 Y146.944 E1.7108
G1 X63.000 Y63.056 E3.4183
G1 X63.056 Y63.000 E3.4200
G1 X146.944 Y63.000 E5.1275
G1 X147.000 Y63.056 E5.1291
G1 X147.000 Y146.744 E6.8326
G1 X147.000 Y146.944 F1800
G92 E0.0000
G1 E-3.0000 F5400
; feature inner perimeter
; tool H0.200 W0.480
G1 X147.760 Y147.705 F18000
G1 X147.760 Y147.760
G1 X179.280 Y179.280
G1 E0.0000 F5400
G92 E0.0000
G1 X30.720 Y179.280 E6.0479 F2700
G1 X30.720 Y30.720 E12.0959
G1 X179.280 Y30.720 E18.1438
G1 X179.280 Y179.080 E24.1836
G1 X179.280 Y179.280 F2700
; feature outer perimeter
G1 X179.760 Y179.760 F18000
G92 E0.0000
G1 X30.240 Y179.760 E6.0870 F1800
G1 X30.240 Y30.240 E12.1740
G1 X179.760 Y30.240 E18.2611
G1 X179.760 Y179.560 E24.3399
G1 X179.760 Y179.760 F1800
G1 X177.760 Y179.760 F1800
; feature inner perimeter
G1 X178.720 Y178.720 F18000
G92 E0.0000
G1 X178.720 Y31.280 E6.0023 F2700
G1 X31.280 Y31.280 E12.0047
G1 X31.280 Y178.720 E18.0070
G1 X178.520 Y178.720 E24.0012
G1 X178.720 Y178.720 F2700
; feature outer perimeter
G1 X178.240 Y178.240 F18000
G92 E0.0000
G1 X178.240 Y31.760 E5.9633 F1800
G1 X31.760 Y31.760 E11.9265
G1 X31.760 Y178.240 E17.8898
G1 X178.040 Y178.240 E23.8449
G1 X178.240 Y178.240 F1800
G1 X178.240 Y176.240 F1800
; feature internal single extrusion
; tool H0.200 W0.240
G1 X179.000 Y178.944 F18000
G92 E0.0000
G1 X178.944 Y179.000 E0.0016 F1800
G1 X31.056 Y179.000 E3.0119
G1 X31.000 Y178.944 E3.0135
G1 X31.000 Y31.056 E6.0238
G1 X31.056 Y31.000 E6.0254
G1 X178.944 Y31.000 E9.0357
G1 X179.000 Y31.056 E9.0373
G1 X179.000 Y178.744 E12.0435
G1 X179.000 Y178.944 F1800
G92 E0.0000
G1 E-3.0000 F5400
; layer end
M0 ; call stop.g
; Build Summary
;   Build time: 0 hours 6 minutes
;   Filament length: 339.9 mm (0.34 m)
;   Plastic volume: 817.45 mm^3 (0.82 cc)
;   Plastic weight: 1.02 g (0.00 lb)
;   Material cost: 0.05
