; G-Code generated by Simplify3D(R) Version 4.1.2
; Oct 25, 2019 at 11:11:47 PM
; Settings Summary
;   processName,Process1
;   applyToModels,3DBenchy
;   profileName,HBot
;   profileVersion,2019-10-25 22:59:37
;   baseProfile,Default
;   printMaterial,PLA
;   printQuality,Medium
;   printExtruders,
;   extruderName,Extruder 1
;   extruderToolheadNumber,0
;   extruderDiameter,0.4
;   extruderAutoWidth,0
;   extruderWidth,0.4
;   extrusionMultiplier,0.9
;   extruderUseRetract,1
;   extruderRetractionDistance,5
;   extruderExtraRestartDistance,0
;   extruderRetractionZLift,0
;   extruderRetractionSpeed,1800
;   extruderUseCoasting,0
;   extruderCoastingDistance,0.2
;   extruderUseWipe,0
;   extruderWipeDistance,5
;   primaryExtruder,0
;   layerHeight,0.2
;   topSolidLayers,3
;   bottomSolidLayers,3
;   perimeterOutlines,3
;   printPerimetersInsideOut,1
;   startPointOption,2
;   startPointOriginX,0
;   startPointOriginY,0
;   sequentialIslands,0
;   spiralVaseMode,0
;   firstLayerHeightPercentage,150
;   firstLayerWidthPercentage,120
;   firstLayerUnderspeed,0.5
;   useRaft,0
;   raftExtruder,0
;   raftTopLayers,3
;   raftBaseLayers,2
;   raftOffset,3
;   raftSeparationDistance,0.14
;   raftTopInfill,100
;   aboveRaftSpeedMultiplier,0.3
;   useSkirt,1
;   skirtExtruder,0
;   skirtLayers,1
;   skirtOutlines,4
;   skirtOffset,4
;   usePrimePillar,0
;   primePillarExtruder,999
;   primePillarWidth,12
;   primePillarLocation,7
;   primePillarSpeedMultiplier,1
;   useOozeShield,0
;   oozeShieldExtruder,999
;   oozeShieldOffset,2
;   oozeShieldOutlines,1
;   oozeShieldSidewallShape,1
;   oozeShieldSidewallAngle,30
;   oozeShieldSpeedMultiplier,1
;   infillExtruder,0
;   internalInfillPattern,Rectilinear
;   externalInfillPattern,Rectilinear
;   infillPercentage,20
;   outlineOverlapPercentage,15
;   infillExtrusionWidthPercentage,100
;   minInfillLength,5
;   infillLayerInterval,1
;   internalInfillAngles,45,-45
;   overlapInternalInfillAngles,0
;   externalInfillAngles,45,-45
;   generateSupport,0
;   supportExtruder,0
;   supportInfillPercentage,30
;   supportExtraInflation,0
;   supportBaseLayers,0
;   denseSupportExtruder,0
;   denseSupportLayers,0
;   denseSupportInfillPercentage,70
;   supportLayerInterval,1
;   supportHorizontalPartOffset,0.3
;   supportUpperSeparationLayers,1
;   supportLowerSeparationLayers,1
;   supportType,0
;   supportGridSpacing,4
;   maxOverhangAngle,45
;   supportAngles,0
;   temperatureName,Extruder 1
;   temperatureNumber,0
;   temperatureSetpointCount,1
;   temperatureSetpointLayers,1
;   temperatureSetpointTemperatures,214
;   temperatureStabilizeAtStartup,1
;   temperatureHeatedBed,0
;   fanLayers,1,2,5
;   fanSpeeds,0,20,60
;   blipFanToFullPower,1
;   adjustSpeedForCooling,1
;   minSpeedLayerTime,15
;   minCoolingSpeedSlowdown,20
;   increaseFanForCooling,1
;   minFanLayerTime,45
;   maxCoolingFanSpeed,100
;   increaseFanForBridging,1
;   bridgingFanSpeed,100
;   use5D,1
;   relativeEdistances,0
;   allowEaxisZeroing,1
;   independentExtruderAxes,0
;   includeM10123,0
;   stickySupport,1
;   applyToolheadOffsets,0
;   gcodeXoffset,0
;   gcodeYoffset,0
;   gcodeZoffset,0
;   overrideMachineDefinition,1
;   machineTypeOverride,0
;   strokeXoverride,200
;   strokeYoverride,200
;   strokeZoverride,200
;   originOffsetXoverride,0
;   originOffsetYoverride,0
;   originOffsetZoverride,0
;   homeXdirOverride,-1
;   homeYdirOverride,-1
;   homeZdirOverride,-1
;   flipXoverride,1
;   flipYoverride,-1
;   flipZoverride,1
;   toolheadOffsets,0,0|0,0|0,0|0,0|0,0|0,0
;   overrideFirmwareConfiguration,1
;   firmwareTypeOverride,RepRap (Marlin/Repetier/Sprinter)
;   GPXconfigOverride,r2
;   baudRateOverride,115200
;   overridePrinterModels,0
;   printerModelsOverride
;   startingGcode,G28 ; home all axes,G32 ; run bed.g -- probe bed and enable compensation
;   layerChangeGcode,
;   retractionGcode,
;   toolChangeGcode,
;   endingGcode,G1 Z200,G91,G1 E-5.0 F240 ; retract 5mm,G90,M104 S0 ; turn off extruder,;M140 S0 ; turn off bed,G1 X100.0 Y100.0,M107 ; disable part cooling fan,M84 ; disable motors
;   exportFileFormat,gcode
;   celebration,0
;   celebrationSong,Random Song
;   postProcessing,
;   defaultSpeed,3600
;   outlineUnderspeed,0.5
;   solidInfillUnderspeed,0.8
;   supportUnderspeed,0.8
;   rapidXYspeed,18000
;   rapidZspeed,1200
;   minBridgingArea,50
;   bridgingExtraInflation,0
;   bridgingExtrusionMultiplier,1
;   bridgingSpeedMultiplier,1
;   useFixedBridgingAngle,0
;   fixedBridgingAngle,0
;   applyBridgingToPerimeters,0
;   filamentDiameters,1.75|1.75|1.75|1.75|1.75|1.75
;   filamentPricesPerKg,46|46|46|46|46|46
;   filamentDensities,1.25|1.25|1.25|1.25|1.25|1.25
;   useMinPrintHeight,0
;   minPrintHeight,0
;   useMaxPrintHeight,0
;   maxPrintHeight,0
;   useDiaphragm,0
;   diaphragmLayerInterval,20
;   robustSlicing,1
;   mergeAllIntoSolid,0
;   onlyRetractWhenCrossingOutline,1
;   retractBetweenLayers,1
;   useRetractionMinTravel,0
;   retractionMinTravel,3
;   retractWhileWiping,0
;   onlyWipeOutlines,1
;   avoidCrossingOutline,0
;   maxMovementDetourFactor,3
;   toolChangeRetractionDistance,12
;   toolChangeExtraRestartDistance,-0.5
;   toolChangeRetractionSpeed,600
;   externalThinWallType,0
;   internalThinWallType,2
;   thinWallAllowedOverlapPercentage,10
;   singleExtrusionMinLength,1
;   singleExtrusionMinPrintingWidthPercentage,50
;   singleExtrusionMaxPrintingWidthPercentage,200
;   singleExtrusionEndpointExtension,0.2
;   horizontalSizeCompensation,0
G90
M82
M106 S0
M104 S214 T0
M109 S214 T0
G28 ; home all axes
G32 ; run bed.g -- probe bed and enable compensation
; process Process1
; layer 1, Z = 0.300
T0
G92 E0.0000
G1 E-5.0000 F1800
; feature skirt
; tool H0.300 W0.480
G1 Z0.300 F1200
G1 X71.189 Y89.260 F18000
G1 E0.0000 F1800
G92 E0.0000
G1 X71.865 Y88.782 E0.0446 F1800
G1 X72.316 Y88.521 E0.0727
G1 X73.191 Y88.117 E0.1246
G1 X73.843 Y87.907 E0.1615
G1 X74.853 Y87.711 E0.2170
G1 X75.221 Y87.665 E0.2369
G1 X98.883 Y86.218 E1.5142
G1 X99.020 Y86.213 E1.5216
G1 X100.644 Y86.192 E1.6091
G1 X100.930 Y86.203 E1.6246
G1 X102.776 Y86.366 E1.7244
G1 X103.015 Y86.398 E1.7374
G1 X104.141 Y86.594 E1.7990
G1 X104.323 Y86.632 E1.8090
G1 X105.502 Y86.919 E1.8744
G1 X105.680 Y86.968 E1.8844
G1 X106.785 Y87.314 E1.9467
G1 X106.954 Y87.373 E1.9564
G1 X107.959 Y87.759 E2.0144
G1 X108.137 Y87.834 E2.0248
G1 X109.315 Y88.381 E2.0948
G1 X109.480 Y88.464 E2.1047
G1 X110.382 Y88.956 E2.1601
G1 X110.539 Y89.049 E2.1699
G1 X111.605 Y89.722 E2.2379
G1 X111.761 Y89.828 E2.2480
G1 X112.673 Y90.493 E2.3088
G1 X112.830 Y90.616 E2.3196
G1 X113.850 Y91.476 E2.3915
G1 X113.992 Y91.603 E2.4017
G1 X114.752 Y92.336 E2.4586
G1 X114.885 Y92.474 E2.4690
G1 X115.793 Y93.477 E2.5418
G1 X115.911 Y93.615 E2.5516
G1 X116.478 Y94.329 E2.6008
G1 X116.558 Y94.434 E2.6079
G1 X117.019 Y95.073 E2.6503
G1 X117.118 Y95.219 E2.6598
G1 X117.892 Y96.446 E2.7380
G1 X118.053 Y96.737 E2.7559
G1 X118.343 Y97.343 E2.7921
G1 X118.545 Y97.916 E2.8249
G1 X118.799 Y98.991 E2.8844
G1 X118.871 Y99.822 E2.9293
G1 X118.804 Y100.923 E2.9887
G1 X118.692 Y101.557 E3.0234
G1 X118.451 Y102.375 E3.0694
G1 X118.215 Y102.941 E3.1024
G1 X117.728 Y103.828 E3.1569
G1 X117.613 Y104.018 E3.1689
G1 X116.979 Y104.985 E3.2312
G1 X116.860 Y105.152 E3.2423
G1 X116.024 Y106.246 E3.3165
G1 X115.906 Y106.390 E3.3265
G1 X115.275 Y107.112 E3.3782
G1 X115.159 Y107.237 E3.3873
G1 X114.322 Y108.086 E3.4515
G1 X114.194 Y108.209 E3.4611
G1 X113.415 Y108.906 E3.5175
G1 X113.278 Y109.021 E3.5271
G1 X112.370 Y109.737 E3.5894
G1 X112.227 Y109.842 E3.5989
G1 X111.353 Y110.447 E3.6562
G1 X111.209 Y110.539 E3.6654
G1 X110.312 Y111.083 E3.7220
G1 X110.170 Y111.164 E3.7308
G1 X109.236 Y111.659 E3.7877
G1 X109.089 Y111.731 E3.7965
G1 X108.201 Y112.139 E3.8492
G1 X108.044 Y112.205 E3.8584
G1 X106.975 Y112.620 E3.9201
G1 X106.813 Y112.677 E3.9294
G1 X105.872 Y112.978 E3.9826
G1 X105.717 Y113.023 E3.9913
G1 X104.737 Y113.276 E4.0459
G1 X104.589 Y113.310 E4.0541
G1 X103.647 Y113.500 E4.1058
G1 X103.490 Y113.527 E4.1144
G1 X102.513 Y113.668 E4.1676
G1 X102.358 Y113.686 E4.1760
G1 X101.373 Y113.773 E4.2293
G1 X101.217 Y113.783 E4.2377
G1 X100.253 Y113.815 E4.2897
G1 X100.094 Y113.816 E4.2983
G1 X99.114 Y113.793 E4.3511
G1 X99.006 Y113.789 E4.3569
G1 X75.318 Y112.341 E5.6356
G1 X75.144 Y112.325 E5.6450
G1 X74.564 Y112.254 E5.6765
G1 X74.088 Y112.153 E5.7027
G1 X73.267 Y111.905 E5.7490
G1 X72.804 Y111.720 E5.7758
G1 X72.089 Y111.357 E5.8190
G1 X71.572 Y111.020 E5.8523
G1 X70.681 Y110.291 E5.9143
G1 X70.183 Y109.764 E5.9534
G1 X69.613 Y108.982 E6.0055
G1 X69.354 Y108.551 E6.0326
G1 X69.031 Y107.888 E6.0723
G1 X68.857 Y107.436 E6.0985
G1 X68.609 Y106.584 E6.1463
G1 X68.509 Y106.052 E6.1754
G1 X68.436 Y105.266 E6.2180
G1 X68.424 Y105.003 E6.2321
G1 X68.428 Y94.736 E6.7853
G1 X68.476 Y94.214 E6.8136
G1 X68.689 Y93.078 E6.8759
G1 X68.928 Y92.353 E6.9170
G1 X69.483 Y91.212 E6.9854
G1 X69.934 Y90.545 E7.0287
G1 X70.723 Y89.674 E7.0921
G1 X71.189 Y89.260 E7.1257
G92 E0.0000
G1 E-5.0000 F1800
G1 X71.488 Y89.636 F18000
G1 E0.0000 F1800
G92 E0.0000
G1 X72.124 Y89.186 E0.0420 F1800
G1 X72.537 Y88.948 E0.0677
G1 X73.366 Y88.565 E0.1169
G1 X73.963 Y88.373 E0.1507
G1 X74.929 Y88.185 E0.2037
G1 X75.266 Y88.143 E0.2220
G1 X98.906 Y86.697 E1.4982
G1 X99.032 Y86.693 E1.5049
G1 X100.638 Y86.672 E1.5915
G1 X100.900 Y86.682 E1.6056
G1 X102.724 Y86.843 E1.7042
G1 X102.942 Y86.872 E1.7161
G1 X104.051 Y87.066 E1.7768
G1 X104.217 Y87.101 E1.7859
G1 X105.381 Y87.383 E1.8505
G1 X105.544 Y87.429 E1.8596
G1 X106.634 Y87.770 E1.9211
G1 X106.789 Y87.824 E1.9299
G1 X107.780 Y88.204 E1.9871
G1 X107.942 Y88.273 E1.9966
G1 X109.106 Y88.813 E2.0658
G1 X109.257 Y88.889 E2.0749
G1 X110.145 Y89.374 E2.1294
G1 X110.290 Y89.458 E2.1384
G1 X111.342 Y90.124 E2.2055
G1 X111.485 Y90.221 E2.2148
G1 X112.383 Y90.876 E2.2747
G1 X112.527 Y90.989 E2.2846
G1 X113.535 Y91.838 E2.3556
G1 X113.664 Y91.954 E2.3649
G1 X114.412 Y92.676 E2.4210
G1 X114.535 Y92.802 E2.4304
G1 X115.432 Y93.793 E2.5025
G1 X115.540 Y93.920 E2.5114
G1 X116.099 Y94.624 E2.5599
G1 X116.172 Y94.720 E2.5663
G1 X116.625 Y95.348 E2.6081
G1 X116.716 Y95.482 E2.6168
G1 X117.479 Y96.690 E2.6938
G1 X117.626 Y96.957 E2.7102
G1 X117.899 Y97.527 E2.7443
G1 X118.084 Y98.052 E2.7743
G1 X118.324 Y99.067 E2.8305
G1 X118.390 Y99.828 E2.8716
G1 X118.326 Y100.867 E2.9277
G1 X118.224 Y101.447 E2.9594
G1 X117.998 Y102.215 E3.0026
G1 X117.782 Y102.732 E3.0328
G1 X117.312 Y103.588 E3.0854
G1 X117.207 Y103.762 E3.0963
G1 X116.582 Y104.714 E3.1577
G1 X116.474 Y104.868 E3.1678
G1 X115.647 Y105.948 E3.2411
G1 X115.540 Y106.080 E3.2503
G1 X114.918 Y106.791 E3.3012
G1 X114.812 Y106.905 E3.3096
G1 X113.986 Y107.744 E3.3730
G1 X113.868 Y107.856 E3.3818
G1 X113.100 Y108.543 E3.4373
G1 X112.975 Y108.648 E3.4461
G1 X112.078 Y109.355 E3.5076
G1 X111.948 Y109.451 E3.5163
G1 X111.085 Y110.048 E3.5728
G1 X110.954 Y110.133 E3.5813
G1 X110.069 Y110.669 E3.6371
G1 X109.939 Y110.743 E3.6451
G1 X109.017 Y111.232 E3.7013
G1 X108.883 Y111.298 E3.7094
G1 X108.007 Y111.699 E3.7613
G1 X107.864 Y111.760 E3.7697
G1 X106.808 Y112.169 E3.8307
G1 X106.660 Y112.222 E3.8391
G1 X105.732 Y112.518 E3.8916
G1 X105.590 Y112.560 E3.8996
G1 X104.623 Y112.809 E3.9534
G1 X104.488 Y112.840 E3.9609
G1 X103.558 Y113.028 E4.0120
G1 X103.415 Y113.053 E4.0198
G1 X102.451 Y113.192 E4.0723
G1 X102.309 Y113.208 E4.0800
G1 X101.337 Y113.294 E4.1326
G1 X101.195 Y113.303 E4.1403
G1 X100.244 Y113.335 E4.1915
G1 X100.098 Y113.335 E4.1994
G1 X99.130 Y113.313 E4.2516
G1 X99.031 Y113.309 E4.2569
G1 X75.355 Y111.863 E5.5350
G1 X75.195 Y111.848 E5.5436
G1 X74.643 Y111.780 E5.5736
G1 X74.208 Y111.688 E5.5976
G1 X73.426 Y111.452 E5.6416
G1 X73.002 Y111.282 E5.6662
G1 X72.329 Y110.941 E5.7068
G1 X71.856 Y110.632 E5.7373
G1 X71.009 Y109.939 E5.7963
G1 X70.553 Y109.457 E5.8320
G1 X70.013 Y108.717 E5.8814
G1 X69.776 Y108.322 E5.9062
G1 X69.471 Y107.697 E5.9437
G1 X69.312 Y107.282 E5.9676
G1 X69.077 Y106.472 E6.0130
G1 X68.984 Y105.985 E6.0397
G1 X68.915 Y105.233 E6.0805
G1 X68.904 Y104.992 E6.0934
G1 X68.908 Y94.758 E6.6448
G1 X68.952 Y94.281 E6.6707
G1 X69.154 Y93.197 E6.7301
G1 X69.373 Y92.534 E6.7677
G1 X69.900 Y91.452 E6.8325
G1 X70.312 Y90.842 E6.8722
G1 X71.061 Y90.015 E6.9323
G1 X71.488 Y89.636 E6.9631
G92 E0.0000
G1 E-5.0000 F1800
G1 X71.787 Y90.013 F18000
G1 E0.0000 F1800
G92 E0.0000
G1 X72.384 Y89.591 E0.0394 F1800
G1 X72.758 Y89.374 E0.0627
G1 X73.541 Y89.013 E0.1092
G1 X74.083 Y88.838 E0.1398
G1 X75.005 Y88.660 E0.1905
G1 X75.310 Y88.621 E0.2070
G1 X98.930 Y87.177 E1.4821
G1 X99.044 Y87.173 E1.4882
G1 X100.632 Y87.152 E1.5738
G1 X100.870 Y87.161 E1.5866
G1 X102.671 Y87.321 E1.6841
G1 X102.870 Y87.347 E1.6948
G1 X103.961 Y87.537 E1.7545
G1 X104.112 Y87.569 E1.7628
G1 X105.260 Y87.848 E1.8265
G1 X105.408 Y87.889 E1.8348
G1 X106.483 Y88.226 E1.8955
G1 X106.624 Y88.275 E1.9035
G1 X107.600 Y88.649 E1.9598
G1 X107.748 Y88.712 E1.9685
G1 X108.897 Y89.245 E2.0368
G1 X109.034 Y89.314 E2.0450
G1 X109.909 Y89.791 E2.0987
G1 X110.040 Y89.868 E2.1069
G1 X111.079 Y90.525 E2.1731
G1 X111.209 Y90.613 E2.1816
G1 X112.094 Y91.258 E2.2406
G1 X112.225 Y91.361 E2.2496
G1 X113.219 Y92.199 E2.3196
G1 X113.337 Y92.305 E2.3282
G1 X114.073 Y93.016 E2.3833
G1 X114.185 Y93.131 E2.3919
G1 X115.071 Y94.110 E2.4631
G1 X115.169 Y94.225 E2.4712
G1 X115.720 Y94.918 E2.5189
G1 X115.786 Y95.005 E2.5248
G1 X116.232 Y95.622 E2.5659
G1 X116.314 Y95.744 E2.5738
G1 X117.065 Y96.935 E2.6496
G1 X117.199 Y97.176 E2.6645
G1 X117.455 Y97.711 E2.6964
G1 X117.623 Y98.187 E2.7237
G1 X117.849 Y99.143 E2.7766
G1 X117.908 Y99.834 E2.8139
G1 X117.849 Y100.811 E2.8667
G1 X117.756 Y101.337 E2.8955
G1 X117.545 Y102.054 E2.9357
G1 X117.349 Y102.524 E2.9632
G1 X116.895 Y103.349 E3.0139
G1 X116.800 Y103.507 E3.0238
G1 X116.186 Y104.444 E3.0842
G1 X116.087 Y104.583 E3.0934
G1 X115.271 Y105.651 E3.1658
G1 X115.173 Y105.770 E3.1741
G1 X114.561 Y106.470 E3.2242
G1 X114.465 Y106.574 E3.2318
G1 X113.649 Y107.401 E3.2945
G1 X113.542 Y107.503 E3.3024
G1 X112.786 Y108.181 E3.3571
G1 X112.672 Y108.276 E3.3651
G1 X111.787 Y108.973 E3.4258
G1 X111.669 Y109.061 E3.4337
G1 X110.818 Y109.649 E3.4895
G1 X110.699 Y109.726 E3.4971
G1 X109.826 Y110.255 E3.5521
G1 X109.708 Y110.322 E3.5594
G1 X108.798 Y110.804 E3.6149
G1 X108.677 Y110.864 E3.6222
G1 X107.814 Y111.260 E3.6734
G1 X107.683 Y111.315 E3.6810
G1 X106.642 Y111.719 E3.7412
G1 X106.507 Y111.767 E3.7489
G1 X105.593 Y112.059 E3.8006
G1 X105.464 Y112.096 E3.8079
G1 X104.509 Y112.343 E3.8610
G1 X104.386 Y112.371 E3.8678
G1 X103.470 Y112.556 E3.9181
G1 X103.340 Y112.579 E3.9253
G1 X102.388 Y112.716 E3.9770
G1 X102.260 Y112.731 E3.9840
G1 X101.302 Y112.816 E4.0359
G1 X101.172 Y112.824 E4.0429
G1 X100.235 Y112.855 E4.0934
G1 X100.102 Y112.855 E4.1005
G1 X99.145 Y112.834 E4.1521
G1 X99.055 Y112.830 E4.1569
G1 X75.392 Y111.384 E5.4344
G1 X75.247 Y111.371 E5.4422
G1 X74.722 Y111.306 E5.4707
G1 X74.327 Y111.223 E5.4924
G1 X73.585 Y110.998 E5.5342
G1 X73.201 Y110.844 E5.5565
G1 X72.569 Y110.524 E5.5946
G1 X72.140 Y110.245 E5.6223
G1 X71.336 Y109.587 E5.6782
G1 X70.923 Y109.149 E5.7107
G1 X70.414 Y108.451 E5.7572
G1 X70.198 Y108.093 E5.7797
G1 X69.912 Y107.505 E5.8150
G1 X69.767 Y107.129 E5.8367
G1 X69.544 Y106.360 E5.8798
G1 X69.460 Y105.918 E5.9040
G1 X69.394 Y105.200 E5.9429
G1 X69.384 Y104.981 E5.9547
G1 X69.388 Y94.781 E6.5043
G1 X69.428 Y94.347 E6.5278
G1 X69.620 Y93.317 E6.5842
G1 X69.819 Y92.716 E6.6184
G1 X70.317 Y91.693 E6.6797
G1 X70.691 Y91.139 E6.7157
G1 X71.399 Y90.357 E6.7725
G1 X71.787 Y90.013 E6.8005
G92 E0.0000
G1 E-5.0000 F1800
G1 X72.086 Y90.390 F18000
G1 E0.0000 F1800
G92 E0.0000
G1 X72.643 Y89.995 E0.0368 F1800
G1 X72.980 Y89.801 E0.0577
G1 X73.716 Y89.461 E0.1014
G1 X74.203 Y89.304 E0.1290
G1 X75.081 Y89.134 E0.1772
G1 X75.355 Y89.099 E0.1921
G1 X98.953 Y87.656 E1.4660
G1 X99.056 Y87.653 E1.4715
G1 X100.626 Y87.633 E1.5561
G1 X100.840 Y87.641 E1.5676
G1 X102.619 Y87.798 E1.6639
G1 X102.797 Y87.821 E1.6736
G1 X103.870 Y88.009 E1.7323
G1 X104.006 Y88.037 E1.7397
G1 X105.139 Y88.313 E1.8026
G1 X105.272 Y88.350 E1.8100
