; G-Code generated by Simplify3D(R) Version 4.1.2
; Apr 2, 2021 at 9:16:06 PM
; Settings Summary
;   processName,V6-2
;   applyToModels,bone
;   profileName,HBot
;   profileVersion,2021-04-01 14:49:35
;   baseProfile,Default
;   printMaterial,PLA - ERYONE
;   printQuality,Fast
;   printExtruders,
;   extruderName,Extruder 1,Extruder 2 - support
;   extruderToolheadNumber,0,1
;   extruderDiameter,0.4,0.4
;   extruderAutoWidth,1,1
;   extruderWidth,0.48,0.48
;   extrusionMultiplier,1,1
;   extruderUseRetract,1,0
;   extruderRetractionDistance,3,3
;   extruderExtraRestartDistance,0,0
;   extruderRetractionZLift,0,0
;   extruderRetractionSpeed,1800,1800
;   extruderUseCoasting,1,0
;   extruderCoastingDistance,0.2,0.2
;   extruderUseWipe,1,0
;   extruderWipeDistance,2,5
;   primaryExtruder,0
;   layerHeight,0.2
;   topSolidLayers,4
;   bottomSolidLayers,3
;   perimeterOutlines,4
;   printPerimetersInsideOut,1
;   startPointOption,3
;   startPointOriginX,110
;   startPointOriginY,300
;   sequentialIslands,0
;   spiralVaseMode,0
;   firstLayerHeightPercentage,100
;   firstLayerWidthPercentage,100
;   firstLayerUnderspeed,0.5
;   useRaft,0
;   raftExtruder,0
;   raftTopLayers,3
;   raftBaseLayers,2
;   raftOffset,3
;   raftSeparationDistance,0.18
;   raftTopInfill,100
;   aboveRaftSpeedMultiplier,0.3
;   useSkirt,1
;   skirtExtruder,0
;   skirtLayers,1
;   skirtOutlines,3
;   skirtOffset,10
;   usePrimePillar,0
;   primePillarExtruder,999
;   primePillarWidth,12
;   primePillarLocation,7
;   primePillarSpeedMultiplier,1
;   useOozeShield,0
;   oozeShieldExtruder,999
;   oozeShieldOffset,0.9
;   oozeShieldOutlines,2
;   oozeShieldSidewallShape,0
;   oozeShieldSidewallAngle,30
;   oozeShieldSpeedMultiplier,1.5
;   infillExtruder,0
;   internalInfillPattern,Fast Honeycomb
;   externalInfillPattern,Rectilinear
;   infillPercentage,15
;   outlineOverlapPercentage,25
;   infillExtrusionWidthPercentage,100
;   minInfillLength,5
;   infillLayerInterval,1
;   internalInfillAngles,0
;   overlapInternalInfillAngles,0
;   externalInfillAngles,45,-45
;   generateSupport,1
;   supportExtruder,0
;   supportInfillPercentage,20
;   supportExtraInflation,0
;   supportBaseLayers,1
;   denseSupportExtruder,1
;   denseSupportLayers,8
;   denseSupportInfillPercentage,100
;   supportLayerInterval,1
;   supportHorizontalPartOffset,0.3
;   supportUpperSeparationLayers,1
;   supportLowerSeparationLayers,1
;   supportType,0
;   supportGridSpacing,2
;   maxOverhangAngle,25
;   supportAngles,0
;   temperatureName,Extruder 1,Heated Bed,Extruder 2 - support
;   temperatureNumber,0,1,1
;   temperatureSetpointCount,2,1,1
;   temperatureSetpointLayers,1,2,1,1
;   temperatureSetpointTemperatures,215,215,65,205
;   temperatureStabilizeAtStartup,1,1,1
;   temperatureHeatedBed,0,1,0
;   fanLayers,1,5,10
;   fanSpeeds,0,65,75
;   blipFanToFullPower,1
;   adjustSpeedForCooling,0
;   minSpeedLayerTime,15
;   minCoolingSpeedSlowdown,20
;   increaseFanForCooling,1
;   minFanLayerTime,15
;   maxCoolingFanSpeed,40
;   increaseFanForBridging,1
;   bridgingFanSpeed,85
;   use5D,1
;   relativeEdistances,0
;   allowEaxisZeroing,1
;   independentExtruderAxes,0
;   includeM10123,0
;   stickySupport,1
;   applyToolheadOffsets,0
;   gcodeXoffset,0
;   gcodeYoffset,0
;   gcodeZoffset,0
;   overrideMachineDefinition,1
;   machineTypeOverride,0
;   strokeXoverride,210
;   strokeYoverride,210
;   strokeZoverride,150
;   originOffsetXoverride,0
;   originOffsetYoverride,0
;   originOffsetZoverride,0
;   homeXdirOverride,1
;   homeYdirOverride,-1
;   homeZdirOverride,-1
;   flipXoverride,1
;   flipYoverride,-1
;   flipZoverride,1
;   toolheadOffsets,0,0|0,0|0,0|0,0|0,0|0,0
;   overrideFirmwareConfiguration,0
;   firmwareTypeOverride,RepRap (Marlin/Repetier/Sprinter)
;   GPXconfigOverride,r2
;   baudRateOverride,115200
;   overridePrinterModels,0
;   printerModelsOverride
;   startingGcode,;G28 is now included in bed.g G28 ; home all axes,G32 ; run bed.g -- probe bed and enable compensation
;   layerChangeGcode,
;   retractionGcode,
;   toolChangeGcode,
;   endingGcode,M0 ; call stop.g
;   exportFileFormat,gcode
;   celebration,0
;   celebrationSong,Random Song
;   postProcessing,
;   defaultSpeed,3600
;   outlineUnderspeed,0.5
;   solidInfillUnderspeed,0.8
;   supportUnderspeed,0.8
;   rapidXYspeed,18000
;   rapidZspeed,1200
;   minBridgingArea,50
;   bridgingExtraInflation,0
;   bridgingExtrusionMultiplier,0.96
;   bridgingSpeedMultiplier,1
;   useFixedBridgingAngle,0
;   fixedBridgingAngle,0
;   applyBridgingToPerimeters,0
;   filamentDiameters,1.75|1.75|1.75|1.75|1.75|1.75
;   filamentPricesPerKg,46|46|46|46|46|46
;   filamentDensities,1.25|1.25|1.25|1.25|1.25|1.25
;   useMinPrintHeight,1
;   minPrintHeight,0
;   useMaxPrintHeight,1
;   maxPrintHeight,11.59
;   useDiaphragm,0
;   diaphragmLayerInterval,20
;   robustSlicing,1
;   mergeAllIntoSolid,0
;   onlyRetractWhenCrossingOutline,1
;   retractBetweenLayers,0
;   useRetractionMinTravel,1
;   retractionMinTravel,3
;   retractWhileWiping,1
;   onlyWipeOutlines,1
;   avoidCrossingOutline,1
;   maxMovementDetourFactor,5
;   toolChangeRetractionDistance,0
;   toolChangeExtraRestartDistance,0
;   toolChangeRetractionSpeed,600
;   externalThinWallType,1
;   internalThinWallType,1
;   thinWallAllowedOverlapPercentage,10
;   singleExtrusionMinLength,1
;   singleExtrusionMinPrintingWidthPercentage,50
;   singleExtrusionMaxPrintingWidthPercentage,150
;   singleExtrusionEndpointExtension,0.2
;   horizontalSizeCompensation,0
G90
M82
M106 S255
G4 P500
M106 S86
M140 S65
M190 S65
G10 P0 S215 R{215-50}
G10 P1 S205 R{205-50}
M116 P0
M116 P1
;G28 is now included in bed.g G28 ; home all axes
G32 ; run bed.g -- probe bed and enable compensation
; process V6-2
; layer 1, Z = 0.200
T0
G92 E0.0000
G1 E-3.0000 F1800
; feature skirt
; tool H0.200 W0.480
G1 Z0.200 F1200
G1 X117.859 Y120.420 F18000
G1 E0.0000 F1800
G92 E0.0000
G1 X94.141 Y120.420 E0.9467 F1800
G1 X85.580 Y111.859 E1.4299
G1 X85.580 Y96.141 E2.0572
G1 X92.141 Y89.580 E2.4275
G1 X117.859 Y89.580 E3.4540
G1 X124.420 Y96.141 E3.8243
G1 X124.420 Y113.859 E4.5315
G1 X117.859 Y120.420 E4.9018
G1 X117.660 Y119.940 F18000
G92 E0.0000
G1 X94.340 Y119.940 E0.9308 F1800
G1 X86.060 Y111.660 E1.3981
G1 X86.060 Y96.340 E2.0096
G1 X92.340 Y90.060 E2.3641
G1 X117.660 Y90.060 E3.3747
G1 X123.940 Y96.340 E3.7291
G1 X123.940 Y113.660 E4.4204
G1 X117.660 Y119.940 E4.7749
G1 X117.462 Y119.460 F18000
G92 E0.0000
G1 X94.538 Y119.460 E0.9149 F1800
G1 X86.540 Y111.462 E1.3664
G1 X86.540 Y96.538 E1.9620
G1 X92.538 Y90.540 E2.3006
G1 X117.462 Y90.540 E3.2953
G1 X123.460 Y96.538 E3.6339
G1 X123.460 Y113.462 E4.3093
G1 X117.462 Y119.460 E4.6479
G92 E0.0000
G1 E-3.0000 F1800
; feature inner perimeter
G1 X106.918 Y106.364 F18000
G1 X106.721 Y106.512
G1 X106.510 Y106.643
G1 X106.288 Y106.757
G1 X106.102 Y106.834
G1 X104.999 Y105.608
G1 E0.0000 F1800
G92 E0.0000
G1 X104.847 Y105.607 E0.0061 F1350
G1 X104.695 Y105.595 E0.0121
G1 X104.543 Y105.571 E0.0183
G1 X104.394 Y105.535 E0.0244
G1 X104.248 Y105.488 E0.0305
G1 X104.111 Y105.431 E0.0365
G1 X103.988 Y105.366 E0.0420
G1 X103.880 Y105.295 E0.0472
G1 X103.788 Y105.222 E0.0519
G1 X103.709 Y105.142 E0.0563
G1 X103.642 Y105.058 E0.0606
G1 X103.591 Y104.976 E0.0645
G1 X103.556 Y104.901 E0.0678
G1 X103.533 Y104.828 E0.0708
G1 X103.520 Y104.749 E0.0740
G1 X103.517 Y104.672 E0.0771
G1 X103.523 Y104.603 E0.0799
G1 X103.539 Y104.534 E0.0827
G1 X103.566 Y104.459 E0.0859
G1 X103.613 Y104.370 E0.0899
G1 X103.663 Y104.295 E0.0935
G1 X103.728 Y104.219 E0.0975
G1 X103.806 Y104.146 E0.1018
G1 X103.897 Y104.076 E0.1064
G1 X104.000 Y104.012 E0.1112
G1 X104.113 Y103.957 E0.1162
G1 X104.237 Y103.909 E0.1215
G1 X104.369 Y103.871 E0.1270
G1 X104.508 Y103.843 E0.1327
G1 X104.653 Y103.825 E0.1385
G1 X104.803 Y103.819 E0.1445
G1 X104.928 Y103.823 E0.1494
G1 X105.265 Y103.869 E0.1630
G1 X105.586 Y103.961 E0.1763
G1 X105.692 Y104.004 E0.1809
G1 X105.815 Y104.065 E0.1864
G1 X105.922 Y104.130 E0.1914
G1 X106.013 Y104.197 E0.1959
G1 X106.088 Y104.263 E0.1999
G1 X106.150 Y104.331 E0.2036
G1 X106.203 Y104.402 E0.2071
G1 X106.244 Y104.472 E0.2104
G1 X106.274 Y104.539 E0.2133
G1 X106.294 Y104.603 E0.2159
G1 X106.306 Y104.665 E0.2185
G1 X106.310 Y104.723 E0.2208
G1 X106.307 Y104.773 E0.2228
G1 X106.297 Y104.826 E0.2249
G1 X106.277 Y104.890 E0.2276
G1 X106.245 Y104.961 E0.2307
G1 X106.203 Y105.033 E0.2340
G1 X106.150 Y105.104 E0.2376
G1 X106.083 Y105.177 E0.2416
G1 X106.002 Y105.251 E0.2459
G1 X105.906 Y105.323 E0.2507
G1 X105.799 Y105.390 E0.2558
G1 X105.683 Y105.449 E0.2609
G1 X105.559 Y105.501 E0.2663
G1 X105.428 Y105.543 E0.2718
G1 X105.291 Y105.575 E0.2774
G1 X105.198 Y105.589 E0.2812
G1 X105.147 Y105.597 F1350
G1 X104.999 Y105.608
G1 X105.016 Y106.088 F18000
G92 E0.0000
G1 X104.827 Y106.087 E0.0075 F1350
G1 X104.638 Y106.072 E0.0151
G1 X104.449 Y106.042 E0.0227
G1 X104.263 Y105.998 E0.0304
G1 X104.081 Y105.938 E0.0380
G1 X103.907 Y105.865 E0.0456
G1 X103.745 Y105.780 E0.0529
G1 X103.597 Y105.684 E0.0599
G1 X103.467 Y105.579 E0.0666
G1 X103.350 Y105.462 E0.0732
G1 X103.249 Y105.335 E0.0796
G1 X103.168 Y105.204 E0.0858
G1 X103.107 Y105.074 E0.0915
G1 X103.066 Y104.940 E0.0971
G1 X103.042 Y104.801 E0.1028
G1 X103.036 Y104.661 E0.1083
G1 X103.048 Y104.528 E0.1137
G1 X103.078 Y104.397 E0.1190
G1 X103.126 Y104.265 E0.1247
G1 X103.199 Y104.125 E0.1310
G1 X103.280 Y104.005 E0.1367
G1 X103.379 Y103.888 E0.1429
G1 X103.495 Y103.779 E0.1492
G1 X103.625 Y103.680 E0.1557
G1 X103.767 Y103.592 E0.1624
G1 X103.920 Y103.517 E0.1692
G1 X104.083 Y103.454 E0.1762
G1 X104.254 Y103.404 E0.1833
G1 X104.432 Y103.368 E0.1905
G1 X104.614 Y103.347 E0.1978
G1 X104.800 Y103.339 E0.2053
G1 X104.968 Y103.344 E0.2120
G1 X105.364 Y103.399 E0.2279
G1 X105.742 Y103.506 E0.2436
G1 X105.890 Y103.566 E0.2500
G1 X106.046 Y103.644 E0.2570
G1 X106.188 Y103.730 E0.2636
G1 X106.315 Y103.823 E0.2698
G1 X106.425 Y103.920 E0.2757
G1 X106.521 Y104.025 E0.2814
G1 X106.603 Y104.136 E0.2869
G1 X106.671 Y104.252 E0.2923
G1 X106.723 Y104.368 E0.2973
G1 X106.761 Y104.486 E0.3023
G1 X106.783 Y104.604 E0.3071
G1 X106.791 Y104.721 E0.3117
G1 X106.785 Y104.831 E0.3162
G1 X106.764 Y104.943 E0.3207
G1 X106.726 Y105.061 E0.3257
G1 X106.672 Y105.181 E0.3309
G1 X106.604 Y105.298 E0.3363
G1 X106.521 Y105.410 E0.3419
G1 X106.422 Y105.518 E0.3477
G1 X106.307 Y105.622 E0.3539
G1 X106.177 Y105.719 E0.3604
G1 X106.036 Y105.807 E0.3670
G1 X105.885 Y105.885 E0.3738
G1 X105.724 Y105.951 E0.3807
G1 X105.557 Y106.005 E0.3878
G1 X105.382 Y106.046 E0.3949
G1 X105.215 Y106.072 E0.4017
G1 X105.201 Y106.074 F1350
G1 X105.016 Y106.088
G1 X105.033 Y106.568 F18000
G92 E0.0000
G1 X104.808 Y106.567 E0.0090 F1350
G1 X104.581 Y106.549 E0.0181
G1 X104.356 Y106.513 E0.0272
G1 X104.133 Y106.460 E0.0363
G1 X103.914 Y106.389 E0.0455
G1 X103.702 Y106.300 E0.0547
G1 X103.501 Y106.195 E0.0637
G1 X103.315 Y106.073 E0.0726
G1 X103.145 Y105.936 E0.0813
G1 X102.991 Y105.782 E0.0900
G1 X102.857 Y105.613 E0.0986
G1 X102.745 Y105.433 E0.1071
G1 X102.658 Y105.247 E0.1153
G1 X102.598 Y105.053 E0.1234
G1 X102.563 Y104.852 E0.1315
G1 X102.555 Y104.650 E0.1396
G1 X102.572 Y104.453 E0.1475
G1 X102.617 Y104.260 E0.1554
G1 X102.687 Y104.070 E0.1635
G1 X102.786 Y103.879 E0.1720
G1 X102.897 Y103.714 E0.1800
G1 X103.031 Y103.556 E0.1883
G1 X103.184 Y103.413 E0.1966
G1 X103.353 Y103.284 E0.2051
G1 X103.535 Y103.172 E0.2136
G1 X103.727 Y103.076 E0.2222
G1 X103.930 Y102.998 E0.2309
G1 X104.140 Y102.938 E0.2396
G1 X104.356 Y102.894 E0.2484
G1 X104.576 Y102.868 E0.2572
G1 X104.798 Y102.858 E0.2661
G1 X105.008 Y102.865 E0.2745
G1 X105.463 Y102.928 E0.2928
G1 X105.899 Y103.052 E0.3109
G1 X106.088 Y103.129 E0.3191
G1 X106.278 Y103.224 E0.3275
G1 X106.455 Y103.330 E0.3358
G1 X106.617 Y103.449 E0.3438
G1 X106.762 Y103.578 E0.3515
G1 X106.891 Y103.719 E0.3592
G1 X107.004 Y103.871 E0.3667
G1 X107.099 Y104.031 E0.3742
G1 X107.173 Y104.197 E0.3814
G1 X107.227 Y104.368 E0.3886
G1 X107.260 Y104.543 E0.3957
G1 X107.272 Y104.718 E0.4027
G1 X107.262 Y104.890 E0.4095
G1 X107.230 Y105.061 E0.4165
G1 X107.176 Y105.232 E0.4237
G1 X107.100 Y105.402 E0.4311
G1 X107.005 Y105.564 E0.4386
G1 X106.892 Y105.716 E0.4462
G1 X106.761 Y105.859 E0.4539
G1 X106.613 Y105.993 E0.4619
G1 X106.449 Y106.115 E0.4700
G1 X106.273 Y106.225 E0.4783
G1 X106.086 Y106.321 E0.4867
G1 X105.890 Y106.403 E0.4952
G1 X105.685 Y106.468 E0.5037
G1 X105.473 Y106.518 E0.5124
G1 X105.255 Y106.551 E0.5212
G1 X105.232 Y106.553 E0.5221
G1 X105.033 Y106.568 F1350
; feature outer perimeter
G1 X105.050 Y107.048 F18000
G92 E0.0000
G1 X104.788 Y107.047 E0.0105 F900
G1 X104.525 Y107.026 E0.0210
G1 X104.262 Y106.985 E0.0316
G1 X104.002 Y106.922 E0.0423
G1 X103.746 Y106.839 E0.0530
G1 X103.497 Y106.735 E0.0638
G1 X103.258 Y106.609 E0.0746
G1 X103.033 Y106.462 E0.0853
G1 X102.823 Y106.293 E0.0961
G1 X102.632 Y106.102 E0.1068
G1 X102.464 Y105.890 E0.1177
G1 X102.321 Y105.661 E0.1284
G1 X102.209 Y105.419 E0.1390
G1 X102.131 Y105.165 E0.1497
G1 X102.085 Y104.903 E0.1603
G1 X102.074 Y104.639 E0.1708
G1 X102.097 Y104.377 E0.1813
G1 X102.156 Y104.122 E0.1918
G1 X102.247 Y103.876 E0.2022
G1 X102.372 Y103.634 E0.2131
G1 X102.514 Y103.423 E0.2233
G1 X102.683 Y103.225 E0.2337
G1 X102.873 Y103.046 E0.2441
G1 X103.080 Y102.888 E0.2545
G1 X103.302 Y102.751 E0.2649
G1 X103.535 Y102.636 E0.2752
G1 X103.777 Y102.543 E0.2856
G1 X104.026 Y102.471 E0.2959
G1 X104.280 Y102.420 E0.3063
G1 X104.537 Y102.389 E0.3166
G1 X104.795 Y102.378 E0.3269
G1 X105.049 Y102.386 E0.3371
G1 X105.562 Y102.457 E0.3577
G1 X106.056 Y102.597 E0.3782
G1 X106.286 Y102.691 E0.3881
G1 X106.509 Y102.803 E0.3981
G1 X106.721 Y102.930 E0.4080
G1 X106.918 Y103.075 E0.4177
G1 X107.099 Y103.235 E0.4274
G1 X107.262 Y103.412 E0.4370
G1 X107.405 Y103.605 E0.4466
G1 X107.526 Y103.810 E0.4561
G1 X107.622 Y104.026 E0.4655
G1 X107.693 Y104.251 E0.4749
G1 X107.737 Y104.482 E0.4843
G1 X107.753 Y104.715 E0.4936
G1 X107.740 Y104.948 E0.5029
G1 X107.696 Y105.178 E0.5123
G1 X107.625 Y105.403 E0.5217
G1 X107.527 Y105.622 E0.5313
G1 X107.406 Y105.829 E0.5408
G1 X107.262 Y106.022 E0.5504
G1 X107.099 Y106.200 E0.5601
G1 X106.918 Y106.364 E0.5698
G1 X106.721 Y106.512 E0.5797
G1 X106.510 Y106.643 E0.5896
G1 X106.288 Y106.757 E0.5995
G1 X106.055 Y106.853 E0.6096
G1 X105.814 Y106.931 E0.6197
G1 X105.565 Y106.990 E0.6299
G1 X105.310 Y107.029 E0.6402
G1 X105.249 Y107.033 E0.6426
G1 X105.050 Y107.048 F900
G1 X104.788 Y107.047 F900
G1 X104.525 Y107.026
G1 X104.262 Y106.985
G1 X104.002 Y106.922
G1 X103.746 Y106.839
G1 X103.497 Y106.735
G1 X103.258 Y106.609
G1 X103.148 Y106.537
; feature solid layer
G1 X104.516 Y105.194 F18000
G92 E0.0000
G1 X103.907 Y104.585 E0.0344 F1440
G1 X103.923 Y104.554 E0.0358
G1 X103.950 Y104.513 E0.0377
G1 X103.989 Y104.468 E0.0401
G1 X104.039 Y104.421 E0.0429
G1 X104.102 Y104.373 E0.0460
G1 X104.175 Y104.328 E0.0495
G1 X104.258 Y104.287 E0.0531
G1 X104.279 Y104.279 E0.0540
G1 X105.221 Y105.221 E0.1072
G1 X105.332 Y105.195 E0.1118
G1 X105.435 Y105.162 E0.1161
G1 X105.532 Y105.122 E0.1203
G1 X105.621 Y105.076 E0.1243
G1 X105.702 Y105.026 E0.1281
G1 X105.001 Y104.322 E0.1678
G1 X104.860 Y104.181 F1440
G92 E0.0000
G1 E-3.0000 F1800
; feature support
G1 X107.487 Y105.690 F18000
G1 X107.527 Y105.622
G1 X112.970 Y108.840
G1 E0.0000 F1800
G92 E0.0000
G1 X107.030 Y108.840 E0.2371 F1440
G1 X107.030 Y108.360 E0.2562
G1 X112.970 Y108.360 E0.4933
G1 X112.970 Y107.880 E0.5125
G1 X107.030 Y107.880 E0.7496
G1 X107.030 Y107.400 E0.7687
G1 X112.970 Y107.400 E1.0058
G1 X112.970 Y106.920 E1.0249
G1 X109.030 Y106.920 E1.1822
G1 X109.030 Y106.440 E1.2014
G1 X112.970 Y106.440 E1.3586
G1 X112.970 Y105.960 E1.3778
G1 X109.030 Y105.960 E1.5350
G1 X109.030 Y105.480 E1.5542
G1 X112.970 Y105.480 E1.7114
G1 X112.970 Y105.000 E1.7306
G1 X109.030 Y105.000 E1.8878
G1 X109.030 Y104.520 E1.9070
G1 X112.970 Y104.520 E2.0643
G1 X112.970 Y104.040 E2.0834
G1 X109.030 Y104.040 E2.2407
G1 X109.030 Y103.560 E2.2598
G1 X112.970 Y103.560 E2.4171
G1 X112.970 Y103.080 E2.4362
G1 X109.030 Y103.080 E2.5935
G1 X109.030 Y102.970 E2.5979
