; G-Code generated by Simplify3D(R) Version 4.1.2
; Apr 2, 2021 at 11:41:53 PM
; Settings Summary
;   processName,V6
;   applyToModels,bone
;   profileName,HBot (modified)
;   profileVersion,2021-04-01 14:49:35
;   baseProfile,Default
;   printMaterial,PLA - ERYONE
;   printQuality,High
;   printExtruders,
;   extruderName,Extruder 1,Extruder 2 - support
;   extruderToolheadNumber,0,1
;   extruderDiameter,0.4,0.4
;   extruderAutoWidth,1,1
;   extruderWidth,0.48,0.48
;   extrusionMultiplier,1,1
;   extruderUseRetract,1,0
;   extruderRetractionDistance,3,3
;   extruderExtraRestartDistance,0,0
;   extruderRetractionZLift,0,0
;   extruderRetractionSpeed,1800,1800
;   extruderUseCoasting,1,0
;   extruderCoastingDistance,0.2,0.2
;   extruderUseWipe,1,0
;   extruderWipeDistance,2,5
;   primaryExtruder,0
;   layerHeight,0.1
;   topSolidLayers,5
;   bottomSolidLayers,5
;   perimeterOutlines,4
;   printPerimetersInsideOut,1
;   startPointOption,3
;   startPointOriginX,110
;   startPointOriginY,300
;   sequentialIslands,0
;   spiralVaseMode,0
;   firstLayerHeightPercentage,100
;   firstLayerWidthPercentage,100
;   firstLayerUnderspeed,0.5
;   useRaft,0
;   raftExtruder,0
;   raftTopLayers,3
;   raftBaseLayers,2
;   raftOffset,3
;   raftSeparationDistance,0.18
;   raftTopInfill,100
;   aboveRaftSpeedMultiplier,0.3
;   useSkirt,1
;   skirtExtruder,0
;   skirtLayers,1
;   skirtOutlines,3
;   skirtOffset,10
;   usePrimePillar,0
;   primePillarExtruder,999
;   primePillarWidth,12
;   primePillarLocation,7
;   primePillarSpeedMultiplier,1
;   useOozeShield,0
;   oozeShieldExtruder,999
;   oozeShieldOffset,0.9
;   oozeShieldOutlines,2
;   oozeShieldSidewallShape,0
;   oozeShieldSidewallAngle,30
;   oozeShieldSpeedMultiplier,1.5
;   infillExtruder,0
;   internalInfillPattern,Fast Honeycomb
;   externalInfillPattern,Rectilinear
;   infillPercentage,30
;   outlineOverlapPercentage,25
;   infillExtrusionWidthPercentage,100
;   minInfillLength,5
;   infillLayerInterval,1
;   internalInfillAngles,0
;   overlapInternalInfillAngles,0
;   externalInfillAngles,45,-45
;   generateSupport,0
;   supportExtruder,0
;   supportInfillPercentage,40
;   supportExtraInflation,0
;   supportBaseLayers,1
;   denseSupportExtruder,1
;   denseSupportLayers,8
;   denseSupportInfillPercentage,100
;   supportLayerInterval,1
;   supportHorizontalPartOffset,0.3
;   supportUpperSeparationLayers,1
;   supportLowerSeparationLayers,1
;   supportType,0
;   supportGridSpacing,2
;   maxOverhangAngle,25
;   supportAngles,0
;   temperatureName,Extruder 1,Heated Bed,Extruder 2 - support
;   temperatureNumber,0,1,1
;   temperatureSetpointCount,2,1,1
;   temperatureSetpointLayers,1,2,1,1
;   temperatureSetpointTemperatures,215,215,65,0
;   temperatureStabilizeAtStartup,1,1,1
;   temperatureHeatedBed,0,1,0
;   fanLayers,1,5,10
;   fanSpeeds,0,65,75
;   blipFanToFullPower,1
;   adjustSpeedForCooling,0
;   minSpeedLayerTime,15
;   minCoolingSpeedSlowdown,20
;   increaseFanForCooling,1
;   minFanLayerTime,15
;   maxCoolingFanSpeed,40
;   increaseFanForBridging,1
;   bridgingFanSpeed,85
;   use5D,1
;   relativeEdistances,0
;   allowEaxisZeroing,1
;   independentExtruderAxes,0
;   includeM10123,0
;   stickySupport,1
;   applyToolheadOffsets,0
;   gcodeXoffset,0
;   gcodeYoffset,0
;   gcodeZoffset,0
;   overrideMachineDefinition,1
;   machineTypeOverride,0
;   strokeXoverride,210
;   strokeYoverride,210
;   strokeZoverride,150
;   originOffsetXoverride,0
;   originOffsetYoverride,0
;   originOffsetZoverride,0
;   homeXdirOverride,1
;   homeYdirOverride,-1
;   homeZdirOverride,-1
;   flipXoverride,1
;   flipYoverride,-1
;   flipZoverride,1
;   toolheadOffsets,0,0|0,0|0,0|0,0|0,0|0,0
;   overrideFirmwareConfiguration,0
;   firmwareTypeOverride,RepRap (Marlin/Repetier/Sprinter)
;   GPXconfigOverride,r2
;   baudRateOverride,115200
;   overridePrinterModels,0
;   printerModelsOverride
;   startingGcode,;G28 is now included in bed.g G28 ; home all axes,G32 ; run bed.g -- probe bed and enable compensation
;   layerChangeGcode,
;   retractionGcode,
;   toolChangeGcode,
;   endingGcode,M0 ; call stop.g
;   exportFileFormat,gcode
;   celebration,0
;   celebrationSong,Random Song
;   postProcessing,
;   defaultSpeed,3600
;   outlineUnderspeed,0.5
;   solidInfillUnderspeed,0.8
;   supportUnderspeed,0.8
;   rapidXYspeed,18000
;   rapidZspeed,1200
;   minBridgingArea,50
;   bridgingExtraInflation,0
;   bridgingExtrusionMultiplier,0.96
;   bridgingSpeedMultiplier,1
;   useFixedBridgingAngle,0
;   fixedBridgingAngle,0
;   applyBridgingToPerimeters,0
;   filamentDiameters,1.75|1.75|1.75|1.75|1.75|1.75
;   filamentPricesPerKg,46|46|46|46|46|46
;   filamentDensities,1.25|1.25|1.25|1.25|1.25|1.25
;   useMinPrintHeight,0
;   minPrintHeight,0
;   useMaxPrintHeight,0
;   maxPrintHeight,11.59
;   useDiaphragm,0
;   diaphragmLayerInterval,20
;   robustSlicing,1
;   mergeAllIntoSolid,0
;   onlyRetractWhenCrossingOutline,1
;   retractBetweenLayers,0
;   useRetractionMinTravel,1
;   retractionMinTravel,3
;   retractWhileWiping,1
;   onlyWipeOutlines,1
;   avoidCrossingOutline,1
;   maxMovementDetourFactor,5
;   toolChangeRetractionDistance,5
;   toolChangeExtraRestartDistance,0
;   toolChangeRetractionSpeed,600
;   externalThinWallType,1
;   internalThinWallType,1
;   thinWallAllowedOverlapPercentage,10
;   singleExtrusionMinLength,1
;   singleExtrusionMinPrintingWidthPercentage,50
;   singleExtrusionMaxPrintingWidthPercentage,150
;   singleExtrusionEndpointExtension,0.2
;   horizontalSizeCompensation,0
G90
M82
M106 S255
G4 P500
M106 S102
M140 S65
M190 S65
G10 P0 S215 R{215-50}
G10 P1 S0 R{0-50}
M116 P0
;G28 is now included in bed.g G28 ; home all axes
G32 ; run bed.g -- probe bed and enable compensation
; process V6
; layer 1, Z = 0.100
T0
G92 E0.0000
G1 E-3.0000 F1800
; feature skirt
; tool H0.100 W0.480
G1 Z0.100 F1200
G1 X104.744 Y118.495 F18000
G1 E0.0000 F1800
G92 E0.0000
G1 X103.882 Y118.460 E0.0172 F1800
G1 X102.455 Y118.290 E0.0459
G1 X101.593 Y118.118 E0.0634
G1 X100.175 Y117.717 E0.0929
G1 X99.310 Y117.394 E0.1113
G1 X97.890 Y116.725 E0.1426
G1 X96.983 Y116.189 E0.1636
G1 X95.595 Y115.181 E0.1979
G1 X94.702 Y114.373 E0.2219
G1 X93.472 Y112.993 E0.2588
G1 X92.723 Y111.925 E0.2848
G1 X91.872 Y110.349 E0.3206
G1 X91.450 Y109.346 E0.3423
G1 X91.039 Y108.023 E0.3699
G1 X90.819 Y106.959 E0.3916
G1 X90.639 Y105.284 E0.4252
G1 X90.629 Y104.184 E0.4472
G1 X90.754 Y102.783 E0.4752
G1 X90.966 Y101.679 E0.4977
G1 X91.488 Y99.925 E0.5342
G1 X92.034 Y98.674 E0.5614
G1 X93.002 Y97.035 E0.5994
G1 X93.771 Y96.017 E0.6249
G1 X95.007 Y94.719 E0.6606
G1 X95.890 Y93.966 E0.6838
G1 X97.274 Y93.014 E0.7173
G1 X98.201 Y92.497 E0.7385
G1 X99.646 Y91.864 E0.7700
G1 X100.564 Y91.553 E0.7893
G1 X102.010 Y91.198 E0.8191
G1 X102.892 Y91.055 E0.8369
G1 X104.399 Y90.933 E0.8671
G1 X105.422 Y90.944 E0.8875
G1 X107.341 Y91.140 E0.9260
G1 X108.503 Y91.385 E0.9497
G1 X110.345 Y91.982 E0.9883
G1 X111.317 Y92.403 E1.0094
G1 X112.683 Y93.154 E1.0405
G1 X113.502 Y93.703 E1.0602
G1 X114.738 Y94.700 E1.0919
G1 X115.541 Y95.494 E1.1145
G1 X116.620 Y96.800 E1.1483
G1 X117.281 Y97.800 E1.1722
G1 X118.095 Y99.375 E1.2076
G1 X118.552 Y100.584 E1.2334
G1 X119.002 Y102.376 E1.2702
G1 X119.172 Y103.714 E1.2972
G1 X119.182 Y105.621 E1.3352
G1 X119.012 Y107.024 E1.3634
G1 X118.554 Y108.845 E1.4009
G1 X118.100 Y110.049 E1.4266
G1 X117.287 Y111.626 E1.4620
G1 X116.627 Y112.626 E1.4859
G1 X115.566 Y113.913 E1.5192
G1 X114.804 Y114.674 E1.5407
G1 X113.603 Y115.663 E1.5717
G1 X112.805 Y116.212 E1.5910
G1 X111.515 Y116.944 E1.6206
G1 X110.678 Y117.332 E1.6390
G1 X109.312 Y117.833 E1.6681
G1 X108.446 Y118.073 E1.6860
G1 X107.036 Y118.346 E1.7147
G1 X106.170 Y118.445 E1.7321
G1 X104.744 Y118.495 E1.7605
G1 X104.746 Y118.015 F18000
G92 E0.0000
G1 X103.920 Y117.981 E0.0165 F1800
G1 X102.530 Y117.815 E0.0444
G1 X101.706 Y117.651 E0.0612
G1 X100.324 Y117.260 E0.0898
G1 X99.497 Y116.951 E0.1075
G1 X98.115 Y116.301 E0.1380
G1 X97.246 Y115.787 E0.1581
G1 X95.898 Y114.808 E0.1914
G1 X95.043 Y114.034 E0.2144
G1 X93.849 Y112.695 E0.2502
G1 X93.132 Y111.672 E0.2751
G1 X92.305 Y110.142 E0.3098
G1 X91.901 Y109.181 E0.3306
G1 X91.504 Y107.903 E0.3573
G1 X91.294 Y106.885 E0.3781
G1 X91.119 Y105.256 E0.4108
G1 X91.109 Y104.204 E0.4318
G1 X91.230 Y102.850 E0.4589
G1 X91.433 Y101.793 E0.4803
G1 X91.940 Y100.091 E0.5158
G1 X92.463 Y98.893 E0.5419
G1 X93.401 Y97.303 E0.5787
G1 X94.138 Y96.328 E0.6031
G1 X95.337 Y95.068 E0.6378
G1 X96.183 Y94.347 E0.6600
G1 X97.527 Y93.422 E0.6926
G1 X98.415 Y92.928 E0.7128
G1 X99.820 Y92.312 E0.7435
G1 X100.698 Y92.014 E0.7620
G1 X102.106 Y91.669 E0.7909
G1 X102.950 Y91.532 E0.8080
G1 X104.416 Y91.413 E0.8373
G1 X105.395 Y91.424 E0.8568
G1 X107.266 Y91.615 E0.8944
G1 X108.380 Y91.849 E0.9171
G1 X110.175 Y92.432 E0.9548
G1 X111.105 Y92.834 E0.9750
G1 X112.433 Y93.564 E1.0052
G1 X113.217 Y94.090 E1.0240
G1 X114.418 Y95.059 E1.0548
G1 X115.187 Y95.818 E1.0764
G1 X116.234 Y97.086 E1.1092
G1 X116.866 Y98.043 E1.1321
G1 X117.656 Y99.571 E1.1664
G1 X118.093 Y100.728 E1.1911
G1 X118.530 Y102.465 E1.2269
G1 X118.692 Y103.746 E1.2526
G1 X118.702 Y105.593 E1.2895
G1 X118.540 Y106.936 E1.3165
G1 X118.095 Y108.701 E1.3528
G1 X117.660 Y109.853 E1.3774
G1 X116.872 Y111.383 E1.4117
G1 X116.240 Y112.341 E1.4346
G1 X115.210 Y113.590 E1.4669
G1 X114.481 Y114.318 E1.4875
G1 X113.314 Y115.280 E1.5177
G1 X112.550 Y115.805 E1.5362
G1 X111.295 Y116.517 E1.5650
G1 X110.494 Y116.888 E1.5826
G1 X109.165 Y117.375 E1.6108
G1 X108.336 Y117.606 E1.6280
G1 X106.963 Y117.871 E1.6559
G1 X106.134 Y117.966 E1.6726
G1 X104.746 Y118.015 E1.7003
G1 X104.747 Y117.535 F18000
G92 E0.0000
G1 X103.959 Y117.502 E0.0157 F1800
G1 X102.606 Y117.341 E0.0429
G1 X101.818 Y117.184 E0.0590
G1 X100.474 Y116.804 E0.0868
G1 X99.683 Y116.509 E0.1037
G1 X98.340 Y115.876 E0.1333
G1 X97.510 Y115.386 E0.1525
G1 X96.200 Y114.435 E0.1848
G1 X95.384 Y113.696 E0.2068
G1 X94.226 Y112.396 E0.2416
G1 X93.541 Y111.420 E0.2654
G1 X92.739 Y109.934 E0.2991
G1 X92.353 Y109.016 E0.3189
G1 X91.970 Y107.783 E0.3447
G1 X91.768 Y106.810 E0.3645
G1 X91.598 Y105.228 E0.3963
G1 X91.589 Y104.223 E0.4163
G1 X91.706 Y102.917 E0.4425
G1 X91.899 Y101.907 E0.4630
G1 X92.392 Y100.256 E0.4974
G1 X92.891 Y99.111 E0.5223
G1 X93.801 Y97.570 E0.5580
G1 X94.504 Y96.639 E0.5813
G1 X95.668 Y95.417 E0.6150
G1 X96.475 Y94.728 E0.6362
G1 X97.780 Y93.830 E0.6678
G1 X98.628 Y93.358 E0.6872
G1 X99.993 Y92.760 E0.7169
G1 X100.832 Y92.475 E0.7346
G1 X102.201 Y92.140 E0.7627
G1 X103.008 Y92.009 E0.7790
G1 X104.433 Y91.894 E0.8075
G1 X105.368 Y91.903 E0.8262
G1 X107.192 Y92.090 E0.8628
G1 X108.256 Y92.314 E0.8845
G1 X110.005 Y92.881 E0.9212
G1 X110.894 Y93.266 E0.9405
G1 X112.183 Y93.975 E0.9699
G1 X112.932 Y94.477 E0.9879
G1 X114.098 Y95.417 E1.0178
G1 X114.832 Y96.143 E1.0384
G1 X115.848 Y97.372 E1.0702
G1 X116.452 Y98.286 E1.0921
G1 X117.216 Y99.767 E1.1253
G1 X117.634 Y100.872 E1.1489
G1 X118.057 Y102.554 E1.1835
G1 X118.212 Y103.778 E1.2081
G1 X118.222 Y105.566 E1.2438
G1 X118.067 Y106.848 E1.2696
G1 X117.637 Y108.558 E1.3048
G1 X117.221 Y109.658 E1.3282
G1 X116.457 Y111.140 E1.3615
G1 X115.854 Y112.055 E1.3834
G1 X114.854 Y113.267 E1.4147
G1 X114.158 Y113.962 E1.4344
G1 X113.024 Y114.896 E1.4637
G1 X112.295 Y115.397 E1.4813
G1 X111.076 Y116.089 E1.5093
G1 X110.310 Y116.444 E1.5261
G1 X109.018 Y116.918 E1.5536
G1 X108.226 Y117.138 E1.5700
G1 X106.890 Y117.397 E1.5972
G1 X106.098 Y117.487 E1.6131
G1 X104.747 Y117.535 E1.6401
G92 E0.0000
G1 E-3.0000 F1800
; feature inner perimeter
G1 X104.788 Y107.047 F18000
G1 X104.968 Y107.048
G1 X104.999 Y105.608
G1 E0.0000 F1800
G92 E0.0000
G1 X104.847 Y105.607 E0.0030 F1350
G1 X104.695 Y105.595 E0.0061
G1 X104.543 Y105.571 E0.0091
G1 X104.394 Y105.535 E0.0122
G1 X104.248 Y105.488 E0.0153
G1 X104.111 Y105.431 E0.0182
G1 X103.988 Y105.366 E0.0210
G1 X103.880 Y105.295 E0.0236
G1 X103.788 Y105.222 E0.0259
G1 X103.709 Y105.142 E0.0282
G1 X103.642 Y105.058 E0.0303
G1 X103.591 Y104.976 E0.0322
G1 X103.556 Y104.901 E0.0339
G1 X103.533 Y104.828 E0.0354
G1 X103.520 Y104.749 E0.0370
G1 X103.517 Y104.672 E0.0385
G1 X103.523 Y104.603 E0.0399
G1 X103.539 Y104.534 E0.0413
G1 X103.567 Y104.458 E0.0430
G1 X103.611 Y104.372 E0.0449
G1 X103.663 Y104.295 E0.0467
G1 X103.727 Y104.220 E0.0487
G1 X103.806 Y104.146 E0.0509
G1 X103.897 Y104.076 E0.0532
G1 X104.000 Y104.012 E0.0556
G1 X104.113 Y103.957 E0.0581
G1 X104.237 Y103.909 E0.0607
G1 X104.369 Y103.871 E0.0635
G1 X104.508 Y103.843 E0.0663
G1 X104.653 Y103.825 E0.0692
G1 X104.803 Y103.819 E0.0722
G1 X104.928 Y103.823 E0.0747
G1 X105.265 Y103.869 E0.0815
G1 X105.586 Y103.961 E0.0882
G1 X105.692 Y104.004 E0.0905
G1 X105.815 Y104.065 E0.0932
G1 X105.923 Y104.130 E0.0957
G1 X106.013 Y104.197 E0.0979
G1 X106.088 Y104.263 E0.0999
G1 X106.150 Y104.331 E0.1018
G1 X106.203 Y104.402 E0.1035
G1 X106.244 Y104.472 E0.1052
G1 X106.274 Y104.539 E0.1066
G1 X106.294 Y104.603 E0.1080
G1 X106.306 Y104.666 E0.1092
G1 X106.310 Y104.723 E0.1104
G1 X106.307 Y104.773 E0.1114
G1 X106.297 Y104.826 E0.1125
G1 X106.277 Y104.890 E0.1138
G1 X106.245 Y104.961 E0.1154
G1 X106.203 Y105.033 E0.1170
G1 X106.150 Y105.104 E0.1188
G1 X106.083 Y105.177 E0.1208
G1 X106.002 Y105.251 E0.1230
G1 X105.906 Y105.323 E0.1254
G1 X105.799 Y105.390 E0.1279
G1 X105.683 Y105.449 E0.1305
G1 X105.559 Y105.501 E0.1332
G1 X105.428 Y105.543 E0.1359
G1 X105.291 Y105.575 E0.1387
G1 X105.198 Y105.589 E0.1406
G1 X105.147 Y105.597 F1350
G1 X104.999 Y105.608
G1 X105.016 Y106.088 F18000
G92 E0.0000
G1 X104.827 Y106.087 E0.0038 F1350
G1 X104.638 Y106.072 E0.0075
G1 X104.449 Y106.042 E0.0114
G1 X104.263 Y105.998 E0.0152
G1 X104.081 Y105.938 E0.0190
G1 X103.907 Y105.865 E0.0228
G1 X103.744 Y105.780 E0.0264
G1 X103.597 Y105.684 E0.0299
G1 X103.467 Y105.579 E0.0333
G1 X103.350 Y105.462 E0.0366
G1 X103.249 Y105.335 E0.0398
G1 X103.168 Y105.204 E0.0429
G1 X103.107 Y105.074 E0.0458
G1 X103.066 Y104.940 E0.0486
G1 X103.042 Y104.801 E0.0514
G1 X103.036 Y104.661 E0.0542
G1 X103.048 Y104.528 E0.0568
G1 X103.078 Y104.397 E0.0595
G1 X103.127 Y104.264 E0.0624
G1 X103.197 Y104.127 E0.0654
G1 X103.280 Y104.005 E0.0684
G1 X103.379 Y103.888 E0.0714
G1 X103.495 Y103.779 E0.0746
G1 X103.625 Y103.680 E0.0779
G1 X103.767 Y103.592 E0.0812
G1 X103.920 Y103.516 E0.0846
G1 X104.083 Y103.454 E0.0881
G1 X104.254 Y103.404 E0.0916
G1 X104.432 Y103.368 E0.0953
G1 X104.614 Y103.347 E0.0989
G1 X104.800 Y103.339 E0.1026
G1 X104.968 Y103.344 E0.1060
G1 X105.364 Y103.399 E0.1140
G1 X105.742 Y103.506 E0.1218
G1 X105.890 Y103.566 E0.1250
G1 X106.046 Y103.644 E0.1285
G1 X106.189 Y103.730 E0.1318
G1 X106.315 Y103.823 E0.1349
G1 X106.425 Y103.920 E0.1379
G1 X106.521 Y104.025 E0.1407
G1 X106.603 Y104.136 E0.1435
G1 X106.671 Y104.252 E0.1461
G1 X106.723 Y104.368 E0.1487
G1 X106.761 Y104.486 E0.1511
G1 X106.783 Y104.604 E0.1535
G1 X106.791 Y104.721 E0.1559
G1 X106.785 Y104.831 E0.1581
G1 X106.764 Y104.943 E0.1604
G1 X106.726 Y105.061 E0.1628
G1 X106.672 Y105.181 E0.1655
G1 X106.604 Y105.298 E0.1682
G1 X106.521 Y105.410 E0.1709
G1 X106.422 Y105.518 E0.1739
G1 X106.307 Y105.622 E0.1769
G1 X106.177 Y105.719 E0.1802
G1 X106.036 Y105.807 E0.1835
G1 X105.885 Y105.885 E0.1869
G1 X105.724 Y105.951 E0.1904
G1 X105.557 Y106.005 E0.1939
G1 X105.382 Y106.046 E0.1975
G1 X105.215 Y106.072 E0.2008
G1 X105.201 Y106.074 F1350
G1 X105.016 Y106.088
G1 X105.033 Y106.568 F18000
G92 E0.0000
G1 X104.808 Y106.567 E0.0045 F1350
G1 X104.581 Y106.549 E0.0090
G1 X104.356 Y106.513 E0.0136
G1 X104.133 Y106.460 E0.0182
G1 X103.914 Y106.389 E0.0228
G1 X103.702 Y106.300 E0.0273
G1 X103.501 Y106.195 E0.0319
G1 X103.315 Y106.073 E0.0363
G1 X103.145 Y105.936 E0.0407
G1 X102.991 Y105.782 E0.0450
G1 X102.857 Y105.613 E0.0493
G1 X102.745 Y105.433 E0.0535
G1 X102.658 Y105.247 E0.0576
G1 X102.598 Y105.053 E0.0617
G1 X102.563 Y104.852 E0.0658
G1 X102.555 Y104.650 E0.0698
G1 X102.572 Y104.453 E0.0737
G1 X102.617 Y104.260 E0.0777
G1 X102.687 Y104.070 E0.0817
G1 X102.784 Y103.883 E0.0859
G1 X102.897 Y103.714 E0.0900
G1 X103.031 Y103.556 E0.0941
G1 X103.184 Y103.413 E0.0983
G1 X103.353 Y103.284 E0.1026
