; G-Code generated by Simplify3D(R) Version 4.1.2
; Nov 4, 2019 at 7:56:55 PM
; Settings Summary
;   processName,Process1
;   applyToModels,chainmail_flowalistik_sample
;   profileName,HBot
;   profileVersion,2019-10-26 23:38:43
;   baseProfile,Default
;   printMaterial,PLA
;   printQuality,Fast
;   printExtruders,
;   extruderName,Extruder 1
;   extruderToolheadNumber,0
;   extruderDiameter,0.4
;   extruderAutoWidth,0
;   extruderWidth,0.4
;   extrusionMultiplier,0.94
;   extruderUseRetract,1
;   extruderRetractionDistance,2
;   extruderExtraRestartDistance,0
;   extruderRetractionZLift,0
;   extruderRetractionSpeed,3600
;   extruderUseCoasting,1
;   extruderCoastingDistance,0.2
;   extruderUseWipe,1
;   extruderWipeDistance,5
;   primaryExtruder,0
;   layerHeight,0.3
;   topSolidLayers,3
;   bottomSolidLayers,3
;   perimeterOutlines,3
;   printPerimetersInsideOut,1
;   startPointOption,2
;   startPointOriginX,0
;   startPointOriginY,0
;   sequentialIslands,0
;   spiralVaseMode,0
;   firstLayerHeightPercentage,150
;   firstLayerWidthPercentage,150
;   firstLayerUnderspeed,0.2
;   useRaft,0
;   raftExtruder,0
;   raftTopLayers,3
;   raftBaseLayers,2
;   raftOffset,3
;   raftSeparationDistance,0.18
;   raftTopInfill,100
;   aboveRaftSpeedMultiplier,0.3
;   useSkirt,1
;   skirtExtruder,0
;   skirtLayers,1
;   skirtOutlines,3
;   skirtOffset,4
;   usePrimePillar,0
;   primePillarExtruder,999
;   primePillarWidth,12
;   primePillarLocation,7
;   primePillarSpeedMultiplier,1
;   useOozeShield,0
;   oozeShieldExtruder,999
;   oozeShieldOffset,2
;   oozeShieldOutlines,1
;   oozeShieldSidewallShape,1
;   oozeShieldSidewallAngle,30
;   oozeShieldSpeedMultiplier,1
;   infillExtruder,0
;   internalInfillPattern,Fast Honeycomb
;   externalInfillPattern,Rectilinear
;   infillPercentage,15
;   outlineOverlapPercentage,15
;   infillExtrusionWidthPercentage,150
;   minInfillLength,5
;   infillLayerInterval,1
;   internalInfillAngles,0
;   overlapInternalInfillAngles,0
;   externalInfillAngles,45,-45
;   generateSupport,0
;   supportExtruder,0
;   supportInfillPercentage,25
;   supportExtraInflation,0
;   supportBaseLayers,2
;   denseSupportExtruder,0
;   denseSupportLayers,0
;   denseSupportInfillPercentage,70
;   supportLayerInterval,1
;   supportHorizontalPartOffset,0.3
;   supportUpperSeparationLayers,1
;   supportLowerSeparationLayers,1
;   supportType,0
;   supportGridSpacing,4
;   maxOverhangAngle,45
;   supportAngles,0
;   temperatureName,Extruder 1
;   temperatureNumber,0
;   temperatureSetpointCount,1
;   temperatureSetpointLayers,1
;   temperatureSetpointTemperatures,215
;   temperatureStabilizeAtStartup,1
;   temperatureHeatedBed,0
;   fanLayers,1,2,3
;   fanSpeeds,0,15,25
;   blipFanToFullPower,1
;   adjustSpeedForCooling,1
;   minSpeedLayerTime,15
;   minCoolingSpeedSlowdown,20
;   increaseFanForCooling,1
;   minFanLayerTime,45
;   maxCoolingFanSpeed,40
;   increaseFanForBridging,1
;   bridgingFanSpeed,80
;   use5D,1
;   relativeEdistances,0
;   allowEaxisZeroing,1
;   independentExtruderAxes,0
;   includeM10123,0
;   stickySupport,1
;   applyToolheadOffsets,0
;   gcodeXoffset,0
;   gcodeYoffset,0
;   gcodeZoffset,0
;   overrideMachineDefinition,1
;   machineTypeOverride,0
;   strokeXoverride,200
;   strokeYoverride,200
;   strokeZoverride,150
;   originOffsetXoverride,0
;   originOffsetYoverride,0
;   originOffsetZoverride,0
;   homeXdirOverride,-1
;   homeYdirOverride,-1
;   homeZdirOverride,-1
;   flipXoverride,1
;   flipYoverride,-1
;   flipZoverride,1
;   toolheadOffsets,0,0|0,0|0,0|0,0|0,0|0,0
;   overrideFirmwareConfiguration,1
;   firmwareTypeOverride,RepRap (Marlin/Repetier/Sprinter)
;   GPXconfigOverride,r2
;   baudRateOverride,115200
;   overridePrinterModels,0
;   printerModelsOverride
;   startingGcode,G28 ; home all axes,G32 ; run bed.g -- probe bed and enable compensation
;   layerChangeGcode,
;   retractionGcode,
;   toolChangeGcode,
;   endingGcode,M0 ; call stop.g
;   exportFileFormat,gcode
;   celebration,0
;   celebrationSong,Random Song
;   postProcessing,
;   defaultSpeed,12000
;   outlineUnderspeed,0.5
;   solidInfillUnderspeed,0.8
;   supportUnderspeed,0.8
;   rapidXYspeed,18000
;   rapidZspeed,1200
;   minBridgingArea,50
;   bridgingExtraInflation,0
;   bridgingExtrusionMultiplier,0.96
;   bridgingSpeedMultiplier,1
;   useFixedBridgingAngle,0
;   fixedBridgingAngle,0
;   applyBridgingToPerimeters,0
;   filamentDiameters,1.75|1.75|1.75|1.75|1.75|1.75
;   filamentPricesPerKg,46|46|46|46|46|46
;   filamentDensities,1.25|1.25|1.25|1.25|1.25|1.25
;   useMinPrintHeight,0
;   minPrintHeight,0
;   useMaxPrintHeight,0
;   maxPrintHeight,0
;   useDiaphragm,1
;   diaphragmLayerInterval,20
;   robustSlicing,1
;   mergeAllIntoSolid,0
;   onlyRetractWhenCrossingOutline,1
;   retractBetweenLayers,0
;   useRetractionMinTravel,1
;   retractionMinTravel,3
;   retractWhileWiping,1
;   onlyWipeOutlines,1
;   avoidCrossingOutline,1
;   maxMovementDetourFactor,3
;   toolChangeRetractionDistance,12
;   toolChangeExtraRestartDistance,-0.5
;   toolChangeRetractionSpeed,600
;   externalThinWallType,1
;   internalThinWallType,1
;   thinWallAllowedOverlapPercentage,10
;   singleExtrusionMinLength,1
;   singleExtrusionMinPrintingWidthPercentage,50
;   singleExtrusionMaxPrintingWidthPercentage,200
;   singleExtrusionEndpointExtension,0.2
;   horizontalSizeCompensation,-0.1
G90
M82
M106 S0
M104 S215 T0
M109 S215 T0
G28 ; home all axes
G32 ; run bed.g -- probe bed and enable compensation
; process Process1
; layer 1, Z = 0.450
T0
G92 E0.0000
G1 E-2.0000 F3600
; feature skirt
; tool H0.450 W0.600
G1 Z0.450 F1200
G1 X67.597 Y74.281 F18000
G1 E0.0000 F3600
G92 E0.0000
G1 X74.390 Y67.488 E1.0137 F2400
G1 X74.590 Y67.307 E1.0422
G1 X75.081 Y66.904 E1.1092
G1 X75.530 Y66.603 E1.1663
G1 X76.225 Y66.232 E1.2494
G1 X76.768 Y66.012 E1.3112
G1 X78.687 Y65.465 E1.5217
G1 X81.598 Y66.227 E1.8393
G1 X83.863 Y68.514 E2.1790
G1 X84.890 Y67.488 E2.3321
G1 X85.090 Y67.307 E2.3606
G1 X85.581 Y66.904 E2.4276
G1 X86.030 Y66.603 E2.4847
G1 X86.725 Y66.232 E2.5678
G1 X87.268 Y66.012 E2.6296
G1 X89.186 Y65.465 E2.8401
G1 X92.098 Y66.227 E3.1577
G1 X94.363 Y68.514 E3.4974
G1 X95.390 Y67.488 E3.6505
G1 X95.590 Y67.307 E3.6790
G1 X96.081 Y66.904 E3.7461
G1 X96.530 Y66.603 E3.8031
G1 X97.225 Y66.232 E3.8862
G1 X97.768 Y66.012 E3.9480
G1 X99.686 Y65.465 E4.1585
G1 X102.598 Y66.227 E4.4761
G1 X104.863 Y68.514 E4.8158
G1 X105.781 Y67.597 E4.9527
G1 X105.916 Y67.470 E4.9723
G1 X106.479 Y66.978 E5.0512
G1 X106.994 Y66.623 E5.1172
G1 X107.725 Y66.232 E5.2046
G1 X108.268 Y66.012 E5.2664
G1 X110.186 Y65.465 E5.4769
G1 X113.098 Y66.227 E5.7945
G1 X115.363 Y68.514 E6.1342
G1 X116.390 Y67.488 E6.2874
G1 X116.590 Y67.307 E6.3158
G1 X117.081 Y66.904 E6.3829
G1 X117.530 Y66.603 E6.4399
G1 X118.225 Y66.232 E6.5230
G1 X118.768 Y66.012 E6.5849
G1 X120.686 Y65.465 E6.7954
G1 X123.598 Y66.227 E7.1129
G1 X127.392 Y70.058 E7.6818
G1 X127.386 Y72.614 E7.9516
G1 X129.942 Y72.608 E8.2213
G1 X133.773 Y76.402 E8.7902
G1 X134.535 Y79.313 E9.1078
G1 X133.988 Y81.232 E9.3183
G1 X133.768 Y81.775 E9.3801
G1 X133.396 Y82.470 E9.4632
G1 X133.096 Y82.919 E9.5202
G1 X132.693 Y83.410 E9.5873
G1 X132.512 Y83.610 E9.6158
G1 X131.486 Y84.636 E9.7689
G1 X133.773 Y86.902 E10.1086
G1 X134.535 Y89.813 E10.4262
G1 X133.987 Y91.732 E10.6367
G1 X133.768 Y92.275 E10.6985
G1 X133.396 Y92.970 E10.7816
G1 X133.096 Y93.419 E10.8386
G1 X132.693 Y93.910 E10.9057
G1 X132.512 Y94.110 E10.9342
G1 X131.486 Y95.136 E11.0873
G1 X133.773 Y97.402 E11.4270
G1 X134.535 Y100.313 E11.7446
G1 X133.987 Y102.232 E11.9551
G1 X133.768 Y102.775 E12.0169
G1 X133.396 Y103.470 E12.1000
G1 X133.096 Y103.919 E12.1571
G1 X132.693 Y104.410 E12.2241
G1 X132.512 Y104.610 E12.2526
G1 X131.486 Y105.636 E12.4058
G1 X133.773 Y107.902 E12.7455
G1 X134.535 Y110.813 E13.0630
G1 X133.987 Y112.732 E13.2735
G1 X133.768 Y113.275 E13.3354
G1 X133.396 Y113.970 E13.4185
G1 X133.096 Y114.419 E13.4755
G1 X132.693 Y114.910 E13.5425
G1 X132.512 Y115.110 E13.5710
G1 X131.486 Y116.136 E13.7242
G1 X133.773 Y118.402 E14.0639
G1 X134.535 Y121.313 E14.3814
G1 X133.987 Y123.232 E14.5920
G1 X133.768 Y123.775 E14.6538
G1 X133.396 Y124.470 E14.7369
G1 X133.096 Y124.919 E14.7939
G1 X132.693 Y125.410 E14.8609
G1 X132.512 Y125.610 E14.8894
G1 X125.610 Y132.512 E15.9193
G1 X125.410 Y132.693 E15.9478
G1 X124.919 Y133.096 E16.0149
G1 X124.470 Y133.397 E16.0719
G1 X123.775 Y133.768 E16.1550
G1 X123.232 Y133.987 E16.2168
G1 X121.313 Y134.535 E16.4273
G1 X118.402 Y133.773 E16.7449
G1 X116.137 Y131.486 E17.0846
G1 X115.110 Y132.512 E17.2377
G1 X114.910 Y132.693 E17.2663
G1 X114.419 Y133.096 E17.3333
G1 X113.970 Y133.397 E17.3903
G1 X113.294 Y133.757 E17.4711
G1 X112.795 Y133.964 E17.5281
G1 X110.886 Y134.543 E17.7386
G1 X107.921 Y133.793 E18.0614
G1 X105.636 Y131.486 E18.4040
G1 X104.610 Y132.512 E18.5571
G1 X104.410 Y132.693 E18.5856
G1 X103.919 Y133.096 E18.6527
G1 X103.470 Y133.396 E18.7097
G1 X102.775 Y133.768 E18.7928
G1 X102.232 Y133.987 E18.8546
G1 X100.313 Y134.535 E19.0651
G1 X97.402 Y133.773 E19.3827
G1 X95.137 Y131.486 E19.7224
G1 X94.110 Y132.512 E19.8755
G1 X93.910 Y132.693 E19.9040
G1 X93.419 Y133.096 E19.9711
G1 X92.970 Y133.396 E20.0281
G1 X92.275 Y133.768 E20.1112
G1 X91.732 Y133.987 E20.1730
G1 X89.813 Y134.535 E20.3835
G1 X86.902 Y133.773 E20.7011
G1 X84.636 Y131.486 E21.0408
G1 X83.610 Y132.512 E21.1939
G1 X83.410 Y132.693 E21.2224
G1 X82.919 Y133.096 E21.2895
G1 X82.470 Y133.396 E21.3465
G1 X81.775 Y133.768 E21.4296
G1 X81.232 Y133.988 E21.4914
G1 X79.313 Y134.535 E21.7019
G1 X76.402 Y133.773 E22.0195
G1 X72.608 Y129.942 E22.5884
G1 X72.614 Y127.386 E22.8581
G1 X70.058 Y127.392 E23.1279
G1 X66.227 Y123.598 E23.6968
G1 X65.465 Y120.686 E24.0143
G1 X66.013 Y118.768 E24.2249
G1 X66.232 Y118.225 E24.2867
G1 X66.623 Y117.494 E24.3741
G1 X66.978 Y116.980 E24.4401
G1 X67.470 Y116.416 E24.5190
G1 X67.597 Y116.281 E24.5385
G1 X68.514 Y115.363 E24.6755
G1 X66.227 Y113.098 E25.0152
G1 X65.465 Y110.186 E25.3328
G1 X66.013 Y108.268 E25.5433
G1 X66.232 Y107.725 E25.6051
G1 X66.623 Y106.994 E25.6925
G1 X66.978 Y106.480 E25.7585
G1 X67.470 Y105.916 E25.8374
G1 X67.597 Y105.781 E25.8570
G1 X68.514 Y104.863 E25.9939
G1 X66.227 Y102.598 E26.3336
G1 X65.465 Y99.686 E26.6512
G1 X66.013 Y97.768 E26.8617
G1 X66.232 Y97.225 E26.9235
G1 X66.623 Y96.494 E27.0109
G1 X66.978 Y95.980 E27.0769
G1 X67.470 Y95.416 E27.1558
G1 X67.597 Y95.281 E27.1754
G1 X68.514 Y94.363 E27.3123
G1 X66.227 Y92.098 E27.6520
G1 X65.465 Y89.186 E27.9696
G1 X66.013 Y87.268 E28.1801
G1 X66.232 Y86.725 E28.2419
G1 X66.623 Y85.994 E28.3293
G1 X66.978 Y85.480 E28.3954
G1 X67.470 Y84.916 E28.4743
G1 X67.597 Y84.781 E28.4938
G1 X68.514 Y83.863 E28.6307
G1 X66.227 Y81.598 E28.9704
G1 X65.465 Y78.687 E29.2880
G1 X66.013 Y76.768 E29.4985
G1 X66.232 Y76.225 E29.5603
G1 X66.623 Y75.494 E29.6478
G1 X66.978 Y74.980 E29.7138
G1 X67.470 Y74.417 E29.7927
G1 X67.597 Y74.281 E29.8122
G1 X68.028 Y74.698 F18000
G92 E0.0000
G1 X74.804 Y67.923 E1.0111 F2400
G1 X74.982 Y67.761 E1.0364
G1 X75.439 Y67.386 E1.0988
G1 X75.839 Y67.119 E1.1496
G1 X76.480 Y66.776 E1.2263
G1 X76.963 Y66.581 E1.2813
G1 X78.693 Y66.087 E1.4712
G1 X81.287 Y66.766 E1.7541
G1 X83.861 Y69.365 E2.1401
G1 X85.304 Y67.923 E2.3553
G1 X85.482 Y67.761 E2.3807
G1 X85.939 Y67.386 E2.4431
G1 X86.339 Y67.119 E2.4939
G1 X86.980 Y66.776 E2.5705
G1 X87.463 Y66.581 E2.6256
G1 X89.193 Y66.087 E2.8154
G1 X91.787 Y66.766 E3.0983
G1 X94.361 Y69.365 E3.4843
G1 X95.804 Y67.923 E3.6995
G1 X95.982 Y67.761 E3.7249
G1 X96.439 Y67.386 E3.7873
G1 X96.839 Y67.119 E3.8381
G1 X97.480 Y66.776 E3.9147
G1 X97.963 Y66.581 E3.9698
G1 X99.693 Y66.087 E4.1596
G1 X102.287 Y66.766 E4.4425
G1 X104.861 Y69.365 E4.8285
G1 X106.198 Y68.028 E5.0280
G1 X106.319 Y67.916 E5.0454
G1 X106.849 Y67.453 E5.1196
G1 X107.307 Y67.136 E5.1785
G1 X107.980 Y66.776 E5.2589
G1 X108.463 Y66.581 E5.3140
G1 X110.193 Y66.087 E5.5038
G1 X112.787 Y66.766 E5.7867
G1 X115.361 Y69.365 E6.1727
G1 X116.804 Y67.923 E6.3879
G1 X116.982 Y67.761 E6.4133
G1 X117.439 Y67.386 E6.4757
G1 X117.839 Y67.119 E6.5265
G1 X118.480 Y66.776 E6.6031
G1 X118.963 Y66.581 E6.6582
G1 X120.693 Y66.087 E6.8480
G1 X123.287 Y66.766 E7.1309
G1 X126.791 Y70.304 E7.6564
G1 X126.785 Y73.215 E7.9636
G1 X129.696 Y73.209 E8.2708
G1 X133.234 Y76.713 E8.7963
G1 X133.913 Y79.307 E9.0792
G1 X133.419 Y81.036 E9.2690
G1 X133.224 Y81.520 E9.3241
G1 X132.881 Y82.161 E9.4007
G1 X132.614 Y82.561 E9.4515
G1 X132.239 Y83.018 E9.5139
G1 X132.077 Y83.196 E9.5393
G1 X130.635 Y84.639 E9.7545
G1 X133.234 Y87.213 E10.1405
G1 X133.913 Y89.807 E10.4234
G1 X133.419 Y91.537 E10.6132
G1 X133.224 Y92.020 E10.6683
G1 X132.881 Y92.661 E10.7449
G1 X132.614 Y93.061 E10.7957
G1 X132.239 Y93.518 E10.8581
G1 X132.077 Y93.696 E10.8835
G1 X130.635 Y95.139 E11.0987
G1 X133.234 Y97.713 E11.4847
G1 X133.913 Y100.307 E11.7676
G1 X133.419 Y102.037 E11.9574
G1 X133.224 Y102.520 E12.0125
G1 X132.881 Y103.161 E12.0891
G1 X132.614 Y103.561 E12.1399
G1 X132.239 Y104.018 E12.2023
G1 X132.077 Y104.196 E12.2277
G1 X130.635 Y105.639 E12.4429
G1 X133.234 Y108.213 E12.8289
G1 X133.913 Y110.807 E13.1118
G1 X133.419 Y112.537 E13.3017
G1 X133.224 Y113.020 E13.3567
G1 X132.881 Y113.661 E13.4334
G1 X132.614 Y114.061 E13.4841
G1 X132.239 Y114.518 E13.5465
G1 X132.077 Y114.696 E13.5719
G1 X130.635 Y116.139 E13.7871
G1 X133.234 Y118.713 E14.1731
G1 X133.913 Y121.307 E14.4560
G1 X133.419 Y123.037 E14.6459
G1 X133.224 Y123.520 E14.7009
G1 X132.881 Y124.161 E14.7776
G1 X132.614 Y124.561 E14.8284
G1 X132.239 Y125.018 E14.8908
G1 X132.077 Y125.196 E14.9161
G1 X125.196 Y132.077 E15.9429
G1 X125.018 Y132.239 E15.9683
G1 X124.561 Y132.614 E16.0307
G1 X124.161 Y132.881 E16.0815
G1 X123.520 Y133.224 E16.1581
G1 X123.037 Y133.419 E16.2132
G1 X121.307 Y133.913 E16.4030
G1 X118.713 Y133.234 E16.6859
G1 X116.139 Y130.635 E17.0719
G1 X114.696 Y132.077 E17.2871
G1 X114.518 Y132.239 E17.3125
G1 X114.061 Y132.614 E17.3749
G1 X113.661 Y132.881 E17.4257
G1 X113.038 Y133.214 E17.5003
G1 X112.593 Y133.399 E17.5511
G1 X110.872 Y133.921 E17.7409
G1 X108.230 Y133.252 E18.0284
G1 X105.638 Y130.635 E18.4170
G1 X104.196 Y132.077 E18.6322
G1 X104.018 Y132.239 E18.6576
G1 X103.561 Y132.614 E18.7200
G1 X103.161 Y132.881 E18.7708
G1 X102.520 Y133.224 E18.8474
G1 X102.037 Y133.419 E18.9025
G1 X100.307 Y133.913 E19.0923
G1 X97.713 Y133.234 E19.3752
G1 X95.139 Y130.635 E19.7612
G1 X93.696 Y132.077 E19.9764
G1 X93.518 Y132.239 E20.0018
G1 X93.061 Y132.614 E20.0642
G1 X92.661 Y132.881 E20.1150
G1 X92.020 Y133.224 E20.1916
G1 X91.537 Y133.419 E20.2467
G1 X89.807 Y133.913 E20.4365
G1 X87.213 Y133.234 E20.7194
G1 X84.639 Y130.635 E21.1054
G1 X83.196 Y132.077 E21.3207
G1 X83.018 Y132.239 E21.3461
G1 X82.561 Y132.614 E21.4084
G1 X82.161 Y132.881 E21.4592
G1 X81.520 Y133.224 E21.5358
G1 X81.036 Y133.419 E21.5909
G1 X79.307 Y133.913 E21.7808
G1 X76.713 Y133.234 E22.0637
G1 X73.209 Y129.696 E22.5891
G1 X73.215 Y126.785 E22.8963
G1 X70.304 Y126.791 E23.2035
G1 X66.766 Y123.287 E23.7290
G1 X66.087 Y120.693 E24.0119
G1 X66.581 Y118.963 E24.2017
G1 X66.776 Y118.480 E24.2568
G1 X67.136 Y117.807 E24.3373
G1 X67.453 Y117.349 E24.3961
G1 X67.916 Y116.819 E24.4703
G1 X68.028 Y116.698 E24.4877
G1 X69.365 Y115.361 E24.6872
G1 X66.766 Y112.787 E25.0732
G1 X66.087 Y110.193 E25.3561
G1 X66.581 Y108.463 E25.5459
G1 X66.776 Y107.980 E25.6010
G1 X67.136 Y107.307 E25.6815
G1 X67.453 Y106.849 E25.7403
G1 X67.916 Y106.319 E25.8145
G1 X68.028 Y106.198 E25.8319
G1 X69.365 Y104.861 E26.0314
G1 X66.766 Y102.287 E26.4174
G1 X66.087 Y99.693 E26.7003
G1 X66.581 Y97.963 E26.8902
G1 X66.776 Y97.480 E26.9452
G1 X67.136 Y96.807 E27.0257
G1 X67.453 Y96.349 E27.0845
G1 X67.916 Y95.819 E27.1587
G1 X68.028 Y95.698 E27.1761
G1 X69.365 Y94.361 E27.3756
G1 X66.766 Y91.787 E27.7616
G1 X66.087 Y89.193 E28.0445
G1 X66.581 Y87.463 E28.2344
G1 X66.776 Y86.980 E28.2894
G1 X67.136 Y86.307 E28.3699
G1 X67.453 Y85.849 E28.4287
G1 X67.916 Y85.319 E28.5029
G1 X68.028 Y85.198 E28.5203
G1 X69.365 Y83.861 E28.7198
G1 X66.766 Y81.287 E29.1058
G1 X66.087 Y78.693 E29.3887
