; G-Code generated by Simplify3D(R) Version 4.1.2
; Dec 25, 2020 at 8:05:10 PM
; Settings Summary
;   processName,Process1
;   applyToModels,freezing-pixels-christmas-tree-a
;   profileName,HBot (modified)
;   profileVersion,2019-10-26 23:38:43
;   baseProfile,Default
;   printMaterial,PETG - SUNLU
;   printQuality,Medium
;   printExtruders,
;   extruderName,Extruder 1
;   extruderToolheadNumber,0
;   extruderDiameter,0.4
;   extruderAutoWidth,1
;   extruderWidth,0.48
;   extrusionMultiplier,1
;   extruderUseRetract,1
;   extruderRetractionDistance,4
;   extruderExtraRestartDistance,0
;   extruderRetractionZLift,0
;   extruderRetractionSpeed,5400
;   extruderUseCoasting,1
;   extruderCoastingDistance,0.2
;   extruderUseWipe,1
;   extruderWipeDistance,5
;   primaryExtruder,0
;   layerHeight,0.2
;   topSolidLayers,4
;   bottomSolidLayers,4
;   perimeterOutlines,1
;   printPerimetersInsideOut,1
;   startPointOption,3
;   startPointOriginX,110
;   startPointOriginY,300
;   sequentialIslands,0
;   spiralVaseMode,1
;   firstLayerHeightPercentage,100
;   firstLayerWidthPercentage,100
;   firstLayerUnderspeed,0.5
;   useRaft,0
;   raftExtruder,0
;   raftTopLayers,3
;   raftBaseLayers,2
;   raftOffset,3
;   raftSeparationDistance,0.18
;   raftTopInfill,100
;   aboveRaftSpeedMultiplier,0.3
;   useSkirt,0
;   skirtExtruder,0
;   skirtLayers,1
;   skirtOutlines,10
;   skirtOffset,0
;   usePrimePillar,0
;   primePillarExtruder,999
;   primePillarWidth,12
;   primePillarLocation,7
;   primePillarSpeedMultiplier,1
;   useOozeShield,0
;   oozeShieldExtruder,999
;   oozeShieldOffset,0.9
;   oozeShieldOutlines,2
;   oozeShieldSidewallShape,0
;   oozeShieldSidewallAngle,30
;   oozeShieldSpeedMultiplier,1.5
;   infillExtruder,0
;   internalInfillPattern,Fast Honeycomb
;   externalInfillPattern,Rectilinear
;   infillPercentage,0
;   outlineOverlapPercentage,25
;   infillExtrusionWidthPercentage,100
;   minInfillLength,5
;   infillLayerInterval,1
;   internalInfillAngles,0
;   overlapInternalInfillAngles,0
;   externalInfillAngles,45,-45
;   generateSupport,0
;   supportExtruder,0
;   supportInfillPercentage,25
;   supportExtraInflation,0
;   supportBaseLayers,0
;   denseSupportExtruder,0
;   denseSupportLayers,0
;   denseSupportInfillPercentage,70
;   supportLayerInterval,1
;   supportHorizontalPartOffset,0.3
;   supportUpperSeparationLayers,1
;   supportLowerSeparationLayers,1
;   supportType,0
;   supportGridSpacing,4
;   maxOverhangAngle,25
;   supportAngles,0
;   temperatureName,Extruder 1,Heated Bed
;   temperatureNumber,0,1
;   temperatureSetpointCount,2,1
;   temperatureSetpointLayers,1,2,1
;   temperatureSetpointTemperatures,215,215,85
;   temperatureStabilizeAtStartup,1,1
;   temperatureHeatedBed,0,1
;   fanLayers,1,5,10
;   fanSpeeds,0,5,20
;   blipFanToFullPower,1
;   adjustSpeedForCooling,0
;   minSpeedLayerTime,15
;   minCoolingSpeedSlowdown,20
;   increaseFanForCooling,0
;   minFanLayerTime,45
;   maxCoolingFanSpeed,35
;   increaseFanForBridging,1
;   bridgingFanSpeed,85
;   use5D,1
;   relativeEdistances,0
;   allowEaxisZeroing,1
;   independentExtruderAxes,0
;   includeM10123,0
;   stickySupport,1
;   applyToolheadOffsets,0
;   gcodeXoffset,0
;   gcodeYoffset,0
;   gcodeZoffset,0
;   overrideMachineDefinition,1
;   machineTypeOverride,0
;   strokeXoverride,210
;   strokeYoverride,210
;   strokeZoverride,150
;   originOffsetXoverride,0
;   originOffsetYoverride,0
;   originOffsetZoverride,0
;   homeXdirOverride,-1
;   homeYdirOverride,-1
;   homeZdirOverride,-1
;   flipXoverride,1
;   flipYoverride,-1
;   flipZoverride,1
;   toolheadOffsets,0,0|0,0|0,0|0,0|0,0|0,0
;   overrideFirmwareConfiguration,1
;   firmwareTypeOverride,RepRap (Marlin/Repetier/Sprinter)
;   GPXconfigOverride,r2
;   baudRateOverride,115200
;   overridePrinterModels,0
;   printerModelsOverride
;   startingGcode,G28 ; home all axes,G32 ; run bed.g -- probe bed and enable compensation
;   layerChangeGcode,
;   retractionGcode,
;   toolChangeGcode,
;   endingGcode,M0 ; call stop.g
;   exportFileFormat,gcode
;   celebration,0
;   celebrationSong,Random Song
;   postProcessing,
;   defaultSpeed,3600
;   outlineUnderspeed,0.5
;   solidInfillUnderspeed,0.8
;   supportUnderspeed,0.8
;   rapidXYspeed,18000
;   rapidZspeed,1200
;   minBridgingArea,50
;   bridgingExtraInflation,0
;   bridgingExtrusionMultiplier,0.96
;   bridgingSpeedMultiplier,1
;   useFixedBridgingAngle,0
;   fixedBridgingAngle,0
;   applyBridgingToPerimeters,0
;   filamentDiameters,1.75|1.75|1.75|1.75|1.75|1.75
;   filamentPricesPerKg,46|46|46|46|46|46
;   filamentDensities,1.25|1.25|1.25|1.25|1.25|1.25
;   useMinPrintHeight,0
;   minPrintHeight,20
;   useMaxPrintHeight,0
;   maxPrintHeight,15
;   useDiaphragm,0
;   diaphragmLayerInterval,20
;   robustSlicing,1
;   mergeAllIntoSolid,0
;   onlyRetractWhenCrossingOutline,1
;   retractBetweenLayers,0
;   useRetractionMinTravel,1
;   retractionMinTravel,3
;   retractWhileWiping,1
;   onlyWipeOutlines,1
;   avoidCrossingOutline,1
;   maxMovementDetourFactor,5
;   toolChangeRetractionDistance,12
;   toolChangeExtraRestartDistance,-0.5
;   toolChangeRetractionSpeed,600
;   externalThinWallType,0
;   internalThinWallType,2
;   thinWallAllowedOverlapPercentage,10
;   singleExtrusionMinLength,1
;   singleExtrusionMinPrintingWidthPercentage,50
;   singleExtrusionMaxPrintingWidthPercentage,150
;   singleExtrusionEndpointExtension,0.2
;   horizontalSizeCompensation,-0.1
G90
M82
M106 S0
M140 S85
M190 S85
M104 S215 T0
M109 S215 T0
G28 ; home all axes
G32 ; run bed.g -- probe bed and enable compensation
; process Process1
; layer 1, Z = 0.200
T0
G92 E0.0000
G1 E-4.0000 F5400
; feature outer perimeter
; tool H0.200 W0.480
G1 Z0.200 F1200
G1 X105.094 Y120.390 F18000
G1 E0.0000 F5400
G92 E0.0000
G1 X101.747 Y114.694 E0.2637 F900
G1 X95.523 Y116.907 E0.5273
G1 X96.620 Y110.393 E0.7910
G1 X90.430 Y108.086 E1.0546
G1 X95.460 Y103.802 E1.3183
G1 X92.199 Y98.055 E1.5820
G1 X98.806 Y98.007 E1.8457
G1 X100.002 Y91.508 E2.1095
G1 X105.094 Y95.719 E2.3732
G1 X110.187 Y91.508 E2.6370
G1 X111.377 Y98.012 E2.9009
G1 X117.989 Y98.055 E3.1648
G1 X114.718 Y103.803 E3.4288
G1 X119.758 Y108.086 E3.6927
G1 X113.564 Y110.391 E3.9565
G1 X114.666 Y116.906 E4.2202
G1 X108.440 Y114.695 E4.4839
G1 X105.196 Y120.218 E4.7396
G1 X105.094 Y120.390 F900
G1 X102.561 Y116.079 F900
; feature solid layer
G1 X102.690 Y115.588 F18000
G92 E0.0000
G1 X105.719 Y118.617 E0.1710 F1440
G1 X105.468 Y119.044 E0.1908
G1 X103.657 Y117.234 E0.2929
G1 X104.624 Y118.880 E0.3691
G1 X105.075 Y119.330 E0.3946
G1 X105.217 Y119.472 F1440
G1 X104.391 Y119.192 F18000
G1 X101.747 Y114.694
G1 X96.553 Y116.540
G1 X95.982 Y116.347
G92 E0.0000
G1 X95.993 Y116.357 E0.0006 F1440
G1 X96.494 Y116.179 E0.0218
G1 X96.080 Y115.766 E0.0451
G1 X96.178 Y115.185 E0.0687
G1 X96.994 Y116.001 E0.1147
G1 X97.495 Y115.823 E0.1360
G1 X96.276 Y114.604 E0.2048
G1 X96.374 Y114.023 E0.2283
G1 X97.996 Y115.645 E0.3199
G1 X98.497 Y115.467 E0.3411
G1 X96.472 Y113.442 E0.4554
G1 X96.569 Y112.861 E0.4789
G1 X98.998 Y115.289 E0.6160
G1 X99.498 Y115.111 E0.6372
G1 X96.667 Y112.280 E0.7970
G1 X96.765 Y111.699 E0.8205
G1 X99.999 Y114.933 E1.0031
G1 X100.500 Y114.755 E1.0243
G1 X97.004 Y111.260 E1.2216
G1 X96.863 Y111.118 F1440
G1 X96.533 Y110.912 F18000
G1 X96.620 Y110.393
G1 X94.353 Y109.548
G1 X91.422 Y107.714
G92 E0.0000
G1 X91.992 Y108.283 E0.0321 F1440
G1 X93.074 Y108.687 E0.0782
G1 X91.789 Y107.402 E0.1508
G1 X92.155 Y107.089 E0.1700
G1 X94.156 Y109.090 E0.2829
G1 X95.238 Y109.494 E0.3290
G1 X92.522 Y106.777 E0.4824
G1 X92.888 Y106.465 E0.5016
G1 X96.320 Y109.897 E0.6953
G1 X97.024 Y110.159 E0.7253
G1 X96.961 Y110.537 E0.7406
G1 X101.001 Y114.577 E0.9686
G1 X101.502 Y114.399 E0.9898
G1 X93.255 Y106.153 E1.4553
G1 X93.622 Y105.840 E1.4745
G1 X105.970 Y118.189 E2.1715
G1 X106.221 Y117.761 E2.1913
G1 X93.988 Y105.528 E2.8818
G1 X94.355 Y105.216 E2.9010
G1 X106.472 Y117.334 E3.5850
G1 X106.724 Y116.906 E3.6048
G1 X94.721 Y104.904 E4.2823
G1 X95.088 Y104.591 E4.3015
G1 X106.975 Y116.478 E4.9724
G1 X107.226 Y116.051 E4.9922
G1 X95.455 Y104.279 E5.6567
G1 X95.821 Y103.967 E5.6759
G1 X107.477 Y115.623 E6.3338
G1 X107.728 Y115.196 E6.3536
G1 X95.269 Y102.736 E7.0569
G1 X94.379 Y101.167 E7.1289
G1 X107.980 Y114.768 E7.8966
G1 X108.231 Y114.340 E7.9164
G1 X93.489 Y99.598 E8.7485
G1 X92.815 Y98.410 E8.8030
G1 X92.979 Y98.409 E8.8095
G1 X109.126 Y114.556 E9.7209
G1 X110.179 Y114.930 E9.7655
G1 X93.653 Y98.404 E10.6983
G1 X94.327 Y98.400 E10.7252
G1 X111.232 Y115.305 E11.6794
G1 X112.284 Y115.679 E11.7240
G1 X95.001 Y98.395 E12.6996
G1 X95.675 Y98.390 E12.7265
G1 X113.337 Y116.053 E13.7234
G1 X114.208 Y116.362 E13.7603
G1 X114.185 Y116.221 E13.7660
G1 X96.349 Y98.385 E14.7728
G1 X97.023 Y98.380 E14.7997
G1 X114.047 Y115.404 E15.7606
G1 X113.908 Y114.587 E15.7937
G1 X97.697 Y98.375 E16.7087
G1 X98.371 Y98.371 E16.7356
G1 X113.770 Y113.770 E17.6049
G1 X113.632 Y112.953 E17.6379
G1 X99.045 Y98.366 E18.4613
G1 X99.106 Y98.365 E18.4638
G1 X99.202 Y97.845 E18.4849
G1 X113.494 Y112.136 E19.2916
G1 X113.356 Y111.319 E19.3247
G1 X99.308 Y97.271 E20.1176
G1 X99.413 Y96.698 E20.1409
G1 X113.218 Y110.503 E20.9201
G1 X113.160 Y110.157 E20.9341
G1 X113.445 Y110.051 E20.9462
G1 X99.519 Y96.124 E21.7323
G1 X99.624 Y95.551 E21.7556
G1 X113.940 Y109.867 E22.5636
G1 X114.435 Y109.683 E22.5847
G1 X99.730 Y94.978 E23.4147
G1 X99.835 Y94.404 E23.4380
G1 X114.929 Y109.499 E24.2900
G1 X115.424 Y109.315 E24.3110
G1 X99.940 Y93.831 E25.1850
G1 X100.046 Y93.258 E25.2083
G1 X115.919 Y109.130 E26.1042
G1 X116.413 Y108.946 E26.1253
G1 X100.151 Y92.684 E27.0432
G1 X100.245 Y92.176 E27.0638
G1 X100.690 Y92.544 E27.0868
G1 X116.908 Y108.762 E28.0023
G1 X117.403 Y108.578 E28.0233
G1 X104.615 Y95.790 E28.7451
G1 X105.094 Y96.186 E28.7699
G1 X105.420 Y95.916 E28.7868
G1 X117.897 Y108.394 E29.4911
G1 X118.392 Y108.210 E29.5122
G1 X105.791 Y95.609 E30.2234
G1 X106.163 Y95.302 E30.2427
G1 X114.435 Y103.574 E30.7096
G1 X114.681 Y103.141 E30.7294
G1 X106.676 Y95.136 E31.1812
G1 X106.535 Y94.995 F1440
G1 X109.879 Y92.230 F18000
G92 E0.0000
G1 X109.969 Y92.320 E0.0051 F1440
G1 X110.121 Y93.151 E0.0388
G1 X109.507 Y92.537 E0.0735
G1 X109.136 Y92.844 E0.0927
G1 X110.273 Y93.982 E0.1569
G1 X110.425 Y94.813 E0.1906
G1 X108.764 Y93.151 E0.2844
G1 X108.393 Y93.459 E0.3037
G1 X110.578 Y95.643 E0.4270
G1 X110.730 Y96.474 E0.4607
G1 X108.021 Y93.766 E0.6136
G1 X107.649 Y94.073 E0.6328
G1 X110.882 Y97.305 E0.8152
G1 X111.034 Y98.136 E0.8490
G1 X107.278 Y94.380 E1.0610
G1 X106.906 Y94.687 E1.0802
G1 X114.927 Y102.708 E1.5329
G1 X115.173 Y102.276 E1.5528
G1 X111.269 Y98.372 E1.7732
G1 X111.953 Y98.376 E1.8004
G1 X115.419 Y101.843 E1.9961
G1 X115.666 Y101.410 E2.0160
G1 X112.636 Y98.380 E2.1870
G1 X113.319 Y98.385 E2.2143
G1 X115.912 Y100.978 E2.3606
G1 X116.158 Y100.545 E2.3805
G1 X114.002 Y98.389 E2.5022
G1 X114.686 Y98.394 E2.5294
G1 X116.404 Y100.112 E2.6264
G1 X116.650 Y99.680 E2.6463
G1 X115.369 Y98.398 E2.7186
G1 X116.052 Y98.403 E2.7459
G1 X116.896 Y99.247 E2.7936
G1 X117.143 Y98.814 E2.8134
G1 X116.877 Y98.548 E2.8284
G1 X116.735 Y98.407 F1440
G1 X116.884 Y99.997 F18000
G1 X114.718 Y103.803
G1 X117.457 Y106.131
G1 X117.505 Y106.644
G92 E0.0000
G1 X118.745 Y107.884 E0.0700 F1440
G1 X118.887 Y108.026 F1440
G92 E0.0000
G1 E-4.0000 F5400
; layer 2, Z = 0.400
; feature outer perimeter
G1 Z0.400 F1200
G1 X118.154 Y108.683 F18000
G1 X113.564 Y110.391
G1 X113.917 Y112.481
G1 X110.594 Y115.460
G1 X108.440 Y114.695
G1 X105.094 Y120.390
G1 E0.0000 F5400
G92 E0.0000
G1 X101.747 Y114.694 E0.2637 F1800
G1 X95.523 Y116.907 E0.5273
G1 X96.620 Y110.393 E0.7910
G1 X90.430 Y108.086 E1.0546
G1 X95.460 Y103.802 E1.3183
G1 X92.199 Y98.055 E1.5820
G1 X98.806 Y98.007 E1.8457
G1 X100.002 Y91.508 E2.1095
G1 X105.094 Y95.719 E2.3732
G1 X110.187 Y91.508 E2.6370
G1 X111.377 Y98.012 E2.9009
G1 X117.989 Y98.055 E3.1648
G1 X114.718 Y103.803 E3.4288
G1 X119.758 Y108.086 E3.6927
G1 X113.564 Y110.391 E3.9565
G1 X114.666 Y116.906 E4.2202
G1 X108.440 Y114.695 E4.4839
G1 X105.196 Y120.218 E4.7396
G1 X105.094 Y120.390 F1800
G1 X102.561 Y116.079 F1800
; feature solid layer
G1 X105.833 Y118.422 F18000
G92 E0.0000
G1 X104.902 Y119.353 E0.0525 F2880
G1 X104.651 Y118.925 E0.0723
G1 X106.799 Y116.777 E0.1936
G1 X107.766 Y115.132 E0.2697
G1 X104.400 Y118.498 E0.4597
G1 X104.149 Y118.070 E0.4795
G1 X116.462 Y105.757 E1.1745
G1 X116.095 Y105.445 E1.1937
G1 X103.897 Y117.643 E1.8822
G1 X103.646 Y117.215 E1.9020
G1 X115.728 Y105.134 E2.5839
G1 X115.361 Y104.822 E2.6031
G1 X103.395 Y116.787 E3.2785
G1 X103.144 Y116.360 E3.2983
G1 X114.994 Y104.510 E3.9672
G1 X114.627 Y104.198 E3.9864
G1 X102.893 Y115.932 E4.6487
G1 X102.641 Y115.505 E4.6685
G1 X114.260 Y103.886 E5.3243
G1 X115.149 Y102.318 E5.3963
G1 X102.390 Y115.077 E6.1165
G1 X102.139 Y114.649 E6.1363
G1 X116.045 Y100.743 E6.9213
G1 X116.941 Y99.168 E6.9936
G1 X101.825 Y114.284 E7.8468
G1 X100.772 Y114.659 E7.8914
G1 X117.022 Y98.409 E8.8087
G1 X116.347 Y98.405 E8.8356
G1 X99.719 Y115.033 E9.7742
G1 X98.665 Y115.407 E9.8188
G1 X115.673 Y98.400 E10.7787
G1 X114.998 Y98.396 E10.8057
G1 X97.612 Y115.782 E11.7870
G1 X96.559 Y116.156 E11.8316
G1 X114.324 Y98.391 E12.8343
G1 X113.649 Y98.387 E12.8613
G1 X96.042 Y115.995 E13.8551
G1 X96.179 Y115.179 E13.8881
G1 X112.975 Y98.383 E14.8362
G1 X112.301 Y98.378 E14.8631
G1 X96.317 Y114.362 E15.7653
G1 X96.454 Y113.546 E15.7983
G1 X111.626 Y98.374 E16.6547
G1 X111.076 Y98.370 E16.6767
G1 X111.057 Y98.264 E16.6810
G1 X96.592 Y112.730 E17.4975
G1 X96.729 Y111.913 E17.5305
G1 X110.952 Y97.690 E18.3333
G1 X110.847 Y97.117 E18.3566
G1 X96.866 Y111.097 E19.1457
G1 X97.004 Y110.281 E19.1788
G1 X110.742 Y96.543 E19.9542
G1 X110.637 Y95.969 E19.9775
G1 X96.604 Y110.002 E20.7696
G1 X96.109 Y109.818 E20.7907
G1 X110.532 Y95.395 E21.6048
G1 X110.427 Y94.821 E21.6280
G1 X95.615 Y109.634 E22.4641
G1 X95.120 Y109.449 E22.4852
G1 X110.322 Y94.247 E23.3433
G1 X110.217 Y93.674 E23.3665
G1 X94.626 Y109.265 E24.2466
G1 X94.131 Y109.081 E24.2677
G1 X110.112 Y93.100 E25.1697
G1 X110.007 Y92.526 E25.1930
G1 X93.637 Y108.896 E26.1170
G1 X93.142 Y108.712 E26.1381
G1 X108.410 Y93.444 E26.9999
G1 X105.094 Y96.186 E27.1716
G1 X105.036 Y96.139 E27.1746
G1 X92.648 Y108.528 E27.8739
G1 X92.153 Y108.344 E27.8949
G1 X104.665 Y95.832 E28.6012
G1 X104.293 Y95.524 E28.6204
G1 X91.659 Y108.159 E29.3336
G1 X91.164 Y107.975 E29.3546
G1 X91.442 Y107.697 E29.3703
G1 X95.920 Y103.883 E29.6051
G1 X95.679 Y103.459 E29.6245
G1 X103.922 Y95.217 E30.0897
G1 X103.550 Y94.910 E30.1090
G1 X95.434 Y103.026 E30.5671
G1 X95.188 Y102.593 E30.5870
G1 X103.179 Y94.602 E31.0380
G1 X102.807 Y94.295 E31.0573
G1 X99.190 Y97.913 E31.2615
G1 X99.106 Y98.365 E31.2798
G1 X98.734 Y98.368 E31.2947
G1 X94.942 Y102.160 E31.5087
G1 X94.697 Y101.727 E31.5286
G1 X98.051 Y98.373 E31.7179
G1 X97.367 Y98.378 E31.7452
G1 X94.451 Y101.294 E31.9098
G1 X94.205 Y100.861 E31.9297
G1 X96.683 Y98.383 E32.0696
G1 X96.000 Y98.388 E32.0969
G1 X93.959 Y100.428 E32.2120
G1 X93.714 Y99.995 E32.2319
G1 X95.316 Y98.392 E32.3223
G1 X94.632 Y98.397 E32.3496
G1 X93.468 Y99.562 E32.4153
G1 X93.222 Y99.128 E32.4352
G1 X93.948 Y98.402 E32.4762
G1 X93.265 Y98.407 E32.5035
G1 X93.118 Y98.554 E32.5117
G1 X92.977 Y98.695 F2880
G1 X95.598 Y98.030 F18000
G1 X98.806 Y98.007
G1 X98.959 Y97.178
G1 X99.343 Y97.081
G92 E0.0000
G1 X102.436 Y93.988 E0.1746 F2880
G1 X102.064 Y93.681 E0.1938
G1 X99.496 Y96.249 E0.3388
G1 X99.649 Y95.417 E0.3726
G1 X101.693 Y93.373 E0.4879
G1 X101.321 Y93.066 E0.5072
G1 X99.802 Y94.585 E0.5929
G1 X99.955 Y93.754 E0.6267
G1 X100.950 Y92.759 E0.6829
G1 X100.578 Y92.451 E0.7021
G1 X100.249 Y92.780 E0.7207
G1 X100.108 Y92.922 F2880
G1 X114.654 Y109.601 F18000
G92 E0.0000
G1 X117.563 Y106.693 E0.1642 F2880
G1 X117.930 Y107.005 E0.1834
G1 X115.736 Y109.199 E0.3072
G1 X116.817 Y108.796 E0.3533
G1 X118.297 Y107.316 E0.4368
G1 X118.663 Y107.628 E0.4560
G1 X117.898 Y108.394 E0.4992
G1 X118.860 Y108.036 E0.5402
G1 X118.979 Y107.991 F2880
G1 X119.030 Y107.940
G1 X118.713 Y108.475 F18000
G1 X113.564 Y110.391
G1 X114.452 Y115.643
