; G-Code generated by Simplify3D(R) Version 4.1.2
; Dec 2, 2019 at 7:44:30 PM
; Settings Summary
;   processName,Process1
;   applyToModels,druckplatte-halterung-hinten,druckplatte-halterung-vorne-rechts,druckplatte-halterung-vorne-rechts(2)
;   profileName,HBot
;   profileVersion,2019-10-26 23:38:43
;   baseProfile,Default
;   printMaterial,PLA
;   printQuality,Fast
;   printExtruders,
;   extruderName,Extruder 1
;   extruderToolheadNumber,0
;   extruderDiameter,0.4
;   extruderAutoWidth,1
;   extruderWidth,0.48
;   extrusionMultiplier,0.94
;   extruderUseRetract,1
;   extruderRetractionDistance,3
;   extruderExtraRestartDistance,0
;   extruderRetractionZLift,0
;   extruderRetractionSpeed,3600
;   extruderUseCoasting,1
;   extruderCoastingDistance,0.2
;   extruderUseWipe,1
;   extruderWipeDistance,5
;   primaryExtruder,0
;   layerHeight,0.3
;   topSolidLayers,3
;   bottomSolidLayers,3
;   perimeterOutlines,3
;   printPerimetersInsideOut,1
;   startPointOption,2
;   startPointOriginX,0
;   startPointOriginY,0
;   sequentialIslands,0
;   spiralVaseMode,0
;   firstLayerHeightPercentage,100
;   firstLayerWidthPercentage,150
;   firstLayerUnderspeed,0.5
;   useRaft,0
;   raftExtruder,0
;   raftTopLayers,3
;   raftBaseLayers,2
;   raftOffset,3
;   raftSeparationDistance,0.18
;   raftTopInfill,100
;   aboveRaftSpeedMultiplier,0.3
;   useSkirt,1
;   skirtExtruder,0
;   skirtLayers,1
;   skirtOutlines,3
;   skirtOffset,4
;   usePrimePillar,0
;   primePillarExtruder,999
;   primePillarWidth,12
;   primePillarLocation,7
;   primePillarSpeedMultiplier,1
;   useOozeShield,0
;   oozeShieldExtruder,999
;   oozeShieldOffset,2
;   oozeShieldOutlines,1
;   oozeShieldSidewallShape,1
;   oozeShieldSidewallAngle,30
;   oozeShieldSpeedMultiplier,1
;   infillExtruder,0
;   internalInfillPattern,Rectilinear
;   externalInfillPattern,Rectilinear
;   infillPercentage,15
;   outlineOverlapPercentage,25
;   infillExtrusionWidthPercentage,150
;   minInfillLength,5
;   infillLayerInterval,1
;   internalInfillAngles,45,-45
;   overlapInternalInfillAngles,0
;   externalInfillAngles,45,-45
;   generateSupport,0
;   supportExtruder,0
;   supportInfillPercentage,25
;   supportExtraInflation,0
;   supportBaseLayers,1
;   denseSupportExtruder,0
;   denseSupportLayers,0
;   denseSupportInfillPercentage,70
;   supportLayerInterval,1
;   supportHorizontalPartOffset,0.3
;   supportUpperSeparationLayers,1
;   supportLowerSeparationLayers,1
;   supportType,0
;   supportGridSpacing,4
;   maxOverhangAngle,45
;   supportAngles,0
;   temperatureName,Extruder 1,Heated Bed
;   temperatureNumber,0,1
;   temperatureSetpointCount,2,1
;   temperatureSetpointLayers,1,2,1
;   temperatureSetpointTemperatures,217,210,55
;   temperatureStabilizeAtStartup,1,1
;   temperatureHeatedBed,0,1
;   fanLayers,1,3,5
;   fanSpeeds,0,15,20
;   blipFanToFullPower,1
;   adjustSpeedForCooling,1
;   minSpeedLayerTime,15
;   minCoolingSpeedSlowdown,20
;   increaseFanForCooling,0
;   minFanLayerTime,45
;   maxCoolingFanSpeed,40
;   increaseFanForBridging,0
;   bridgingFanSpeed,80
;   use5D,1
;   relativeEdistances,0
;   allowEaxisZeroing,1
;   independentExtruderAxes,0
;   includeM10123,0
;   stickySupport,1
;   applyToolheadOffsets,0
;   gcodeXoffset,0
;   gcodeYoffset,0
;   gcodeZoffset,0
;   overrideMachineDefinition,1
;   machineTypeOverride,0
;   strokeXoverride,200
;   strokeYoverride,200
;   strokeZoverride,150
;   originOffsetXoverride,0
;   originOffsetYoverride,0
;   originOffsetZoverride,0
;   homeXdirOverride,-1
;   homeYdirOverride,-1
;   homeZdirOverride,-1
;   flipXoverride,1
;   flipYoverride,-1
;   flipZoverride,1
;   toolheadOffsets,0,0|0,0|0,0|0,0|0,0|0,0
;   overrideFirmwareConfiguration,1
;   firmwareTypeOverride,RepRap (Marlin/Repetier/Sprinter)
;   GPXconfigOverride,r2
;   baudRateOverride,115200
;   overridePrinterModels,0
;   printerModelsOverride
;   startingGcode,G28 ; home all axes,G32 ; run bed.g -- probe bed and enable compensation
;   layerChangeGcode,
;   retractionGcode,
;   toolChangeGcode,
;   endingGcode,M0 ; call stop.g
;   exportFileFormat,gcode
;   celebration,0
;   celebrationSong,Random Song
;   postProcessing,
;   defaultSpeed,3600
;   outlineUnderspeed,0.5
;   solidInfillUnderspeed,0.8
;   supportUnderspeed,0.8
;   rapidXYspeed,18000
;   rapidZspeed,1200
;   minBridgingArea,50
;   bridgingExtraInflation,0
;   bridgingExtrusionMultiplier,0.96
;   bridgingSpeedMultiplier,1
;   useFixedBridgingAngle,0
;   fixedBridgingAngle,0
;   applyBridgingToPerimeters,0
;   filamentDiameters,1.75|1.75|1.75|1.75|1.75|1.75
;   filamentPricesPerKg,46|46|46|46|46|46
;   filamentDensities,1.25|1.25|1.25|1.25|1.25|1.25
;   useMinPrintHeight,0
;   minPrintHeight,0
;   useMaxPrintHeight,0
;   maxPrintHeight,0
;   useDiaphragm,1
;   diaphragmLayerInterval,20
;   robustSlicing,1
;   mergeAllIntoSolid,0
;   onlyRetractWhenCrossingOutline,1
;   retractBetweenLayers,0
;   useRetractionMinTravel,1
;   retractionMinTravel,3
;   retractWhileWiping,1
;   onlyWipeOutlines,1
;   avoidCrossingOutline,1
;   maxMovementDetourFactor,3
;   toolChangeRetractionDistance,12
;   toolChangeExtraRestartDistance,-0.5
;   toolChangeRetractionSpeed,600
;   externalThinWallType,1
;   internalThinWallType,1
;   thinWallAllowedOverlapPercentage,10
;   singleExtrusionMinLength,1
;   singleExtrusionMinPrintingWidthPercentage,50
;   singleExtrusionMaxPrintingWidthPercentage,200
;   singleExtrusionEndpointExtension,0.2
;   horizontalSizeCompensation,-0.1
G90
M82
M106 S0
M140 S55
M190 S55
M104 S217 T0
M109 S217 T0
G28 ; home all axes
G32 ; run bed.g -- probe bed and enable compensation
; process Process1
; layer 1, Z = 0.300
T0
G92 E0.0000
G1 E-3.0000 F3600
; feature skirt
; tool H0.300 W0.720
G1 Z0.300 F1200
G1 X96.385 Y18.430 F18000
G1 E0.0000 F3600
G92 E0.0000
G1 X99.783 Y15.033 E0.4056 F1800
G1 X109.388 Y15.033 E1.2164
G1 X112.785 Y18.430 E1.6220
G1 X112.785 Y27.866 E2.4185
G1 X140.583 Y76.013 E7.1115
G1 X139.340 Y80.654 E7.5171
G1 X132.297 Y84.720 E8.2036
G1 X132.565 Y84.988 E8.2356
G1 X132.565 Y109.593 E10.3126
G1 X132.277 Y109.881 E10.3470
G1 X139.148 Y113.848 E11.0167
G1 X140.391 Y118.489 E11.4223
G1 X112.593 Y166.636 E16.1154
G1 X112.593 Y176.072 E16.9118
G1 X109.196 Y179.469 E17.3174
G1 X99.591 Y179.469 E18.1282
G1 X96.193 Y176.072 E18.5338
G1 X96.193 Y124.622 E22.8769
G1 X96.165 Y124.593 E22.8804
G1 X96.165 Y69.988 E27.4898
G1 X96.385 Y69.768 E27.5161
G1 X96.385 Y18.430 E31.8497
G1 X97.105 Y18.729 F18000
G92 E0.0000
G1 X100.081 Y15.753 E0.3552 F1800
G1 X109.090 Y15.753 E1.1157
G1 X112.065 Y18.729 E1.4709
G1 X112.065 Y28.059 E2.2585
G1 X139.811 Y76.115 E6.9427
G1 X138.721 Y80.180 E7.2979
G1 X131.124 Y84.566 E8.0385
G1 X131.845 Y85.286 E8.1245
G1 X131.845 Y109.295 E10.1511
G1 X131.104 Y110.036 E10.2395
G1 X138.529 Y114.322 E10.9633
G1 X139.619 Y118.387 E11.3185
G1 X111.873 Y166.444 E16.0027
G1 X111.873 Y175.774 E16.7903
G1 X108.898 Y178.749 E17.1456
G1 X99.889 Y178.749 E17.9060
G1 X96.913 Y175.774 E18.2612
G1 X96.913 Y124.323 E22.6044
G1 X96.885 Y124.295 E22.6078
G1 X96.885 Y70.286 E27.1669
G1 X97.105 Y70.066 E27.1932
G1 X97.105 Y18.729 E31.5268
G1 X97.825 Y19.027 F18000
G92 E0.0000
G1 X100.379 Y16.473 E0.3049 F1800
G1 X108.791 Y16.473 E1.0150
G1 X111.345 Y19.027 E1.3199
G1 X111.345 Y28.252 E2.0986
G1 X139.038 Y76.217 E6.7739
G1 X138.103 Y79.705 E7.0788
G1 X129.952 Y84.412 E7.8733
G1 X131.125 Y85.585 E8.0134
G1 X131.125 Y108.997 E9.9897
G1 X129.931 Y110.190 E10.1321
G1 X137.911 Y114.797 E10.9099
G1 X138.846 Y118.286 E11.2148
G1 X111.153 Y166.251 E15.8901
G1 X111.153 Y175.475 E16.6688
G1 X108.599 Y178.029 E16.9737
G1 X100.187 Y178.029 E17.6838
G1 X97.633 Y175.475 E17.9887
G1 X97.633 Y124.025 E22.3318
G1 X97.605 Y123.997 E22.3352
G1 X97.605 Y70.585 E26.8439
G1 X97.825 Y70.364 E26.8703
G1 X97.825 Y19.027 E31.2038
G92 E0.0000
G1 E-3.0000 F3600
; feature inner perimeter
G1 X102.545 Y21.193 F18000
G1 X102.545 Y21.790
G1 X103.985 Y22.633
G1 E0.0000 F3600
G92 E0.0000
G1 X105.185 Y22.633 E0.1013 F1350
G1 X105.185 Y29.902 E0.7149
G1 X131.900 Y76.174 E5.2252
G1 X117.871 Y84.274 E6.5927
G1 X108.002 Y67.181 E8.2588
G1 X105.185 Y67.935 E8.5049
G1 X105.185 Y68.833 E8.5807
G1 X103.985 Y68.833 E8.6820
G1 X103.985 Y22.833 E12.5650
G1 X103.985 Y22.633 F1350
G1 X103.265 Y21.913 F18000
G92 E0.0000
G1 X105.905 Y21.913 E0.2229 F1350
G1 X105.905 Y29.709 E0.8810
G1 X132.884 Y76.437 E5.4357
G1 X117.607 Y85.257 E6.9248
G1 X107.655 Y68.019 E8.6050
G1 X105.905 Y68.488 E8.7579
G1 X105.905 Y69.553 E8.8478
G1 X103.265 Y69.553 E9.0707
G1 X103.265 Y22.113 E13.0753
G1 X103.265 Y21.913 F1350
; feature outer perimeter
G1 X102.545 Y21.193 F18000
G92 E0.0000
G1 X106.625 Y21.193 E0.3444 F900
G1 X106.625 Y29.516 E1.0470
G1 X133.867 Y76.701 E5.6462
G1 X117.344 Y86.241 E7.2569
G1 X107.307 Y68.858 E8.9513
G1 X106.625 Y69.040 E9.0109
G1 X106.625 Y70.273 E9.1149
G1 X102.545 Y70.273 E9.4593
G1 X102.545 Y21.393 E13.5855
G1 X102.545 Y21.193 F900
G1 X106.625 Y21.193 F900
G1 X106.625 Y22.113
; feature solid layer
G1 X104.525 Y24.002 F18000
G92 E0.0000
G1 X104.645 Y24.122 E0.0143 F1440
G1 X104.645 Y25.141 E0.1003
G1 X104.525 Y25.021 E0.1146
G1 X104.525 Y26.039 E0.2006
G1 X104.645 Y26.159 E0.2149
G1 X104.645 Y27.177 E0.3008
G1 X104.525 Y27.057 E0.3152
G1 X104.525 Y28.075 E0.4011
G1 X104.645 Y28.195 E0.4154
G1 X104.645 Y29.214 E0.5014
G1 X104.525 Y29.094 E0.5157
G1 X104.525 Y30.112 E0.6017
G1 X104.898 Y30.484 E0.6461
G1 X106.289 Y32.893 E0.8810
G1 X104.525 Y31.130 E1.0915
G1 X104.525 Y32.148 E1.1774
G1 X107.680 Y35.302 E1.5540
G1 X109.071 Y37.712 E1.7888
G1 X104.525 Y33.166 E2.3314
G1 X104.525 Y34.185 E2.4174
G1 X110.462 Y40.121 E3.1260
G1 X111.852 Y42.530 E3.3609
G1 X104.525 Y35.203 E4.2356
G1 X104.525 Y36.221 E4.3215
G1 X113.243 Y44.939 E5.3623
G1 X114.634 Y47.348 E5.5971
G1 X104.525 Y37.239 E6.8039
G1 X104.525 Y38.258 E6.8898
G1 X116.025 Y49.757 E8.2627
G1 X117.416 Y52.167 E8.4975
G1 X104.525 Y39.276 E10.0364
G1 X104.525 Y40.294 E10.1224
G1 X118.807 Y54.576 E11.8273
G1 X120.198 Y56.985 E12.0622
G1 X104.525 Y41.312 E13.9331
G1 X104.525 Y42.331 E14.0191
G1 X121.589 Y59.394 E16.0561
G1 X122.980 Y61.803 E16.2910
G1 X104.525 Y43.349 E18.4941
G1 X104.525 Y44.367 E18.5800
G1 X124.371 Y64.212 E20.9492
G1 X125.762 Y66.622 E21.1840
G1 X104.525 Y45.385 E23.7192
G1 X104.525 Y46.403 E23.8051
G1 X127.153 Y69.031 E26.5064
G1 X128.544 Y71.440 E26.7412
G1 X104.525 Y47.422 E29.6085
G1 X104.525 Y48.440 E29.6945
G1 X129.935 Y73.849 E32.7278
G1 X131.163 Y75.976 E32.9351
G1 X131.087 Y76.020 E32.9425
G1 X104.525 Y49.458 E36.1134
G1 X104.525 Y50.476 E36.1993
G1 X130.441 Y76.392 E39.2932
G1 X129.796 Y76.765 E39.3561
G1 X104.525 Y51.495 E42.3729
G1 X104.525 Y52.513 E42.4588
G1 X129.150 Y77.138 E45.3986
G1 X128.505 Y77.511 E45.4615
G1 X104.525 Y53.531 E48.3241
G1 X104.525 Y54.549 E48.4101
G1 X127.859 Y77.883 E51.1957
G1 X127.214 Y78.256 E51.2586
G1 X104.525 Y55.568 E53.9671
G1 X104.525 Y56.586 E54.0531
G1 X126.568 Y78.629 E56.6845
G1 X125.923 Y79.001 E56.7475
G1 X104.525 Y57.604 E59.3019
G1 X104.525 Y58.622 E59.3878
G1 X125.277 Y79.374 E61.8651
G1 X124.632 Y79.747 E61.9281
G1 X104.525 Y59.641 E64.3283
G1 X104.525 Y60.659 E64.4143
G1 X123.986 Y80.119 E66.7375
G1 X123.341 Y80.492 E66.8004
G1 X104.525 Y61.677 E69.0466
G1 X104.525 Y62.695 E69.1325
G1 X122.695 Y80.865 E71.3016
G1 X122.049 Y81.238 E71.3645
G1 X109.490 Y68.678 E72.8639
G1 X108.262 Y66.552 E73.0711
G1 X107.554 Y66.742 E73.1331
G1 X104.525 Y63.713 E73.4946
G1 X104.525 Y64.732 E73.5805
G1 X106.751 Y66.957 E73.8462
G1 X105.947 Y67.172 E73.9163
G1 X104.525 Y65.750 E74.0861
G1 X104.525 Y66.768 E74.1721
G1 X105.144 Y67.387 E74.2459
G1 X104.645 Y67.521 E74.2896
G1 X104.645 Y67.876 E74.3195
G1 X104.645 Y67.906 F1440
G1 X104.525 Y67.786
G1 X106.833 Y68.985 F18000
G1 X107.307 Y68.858
G1 X107.615 Y69.391
G1 X110.881 Y71.087
G92 E0.0000
G1 X121.404 Y81.610 E1.2562 F1440
G1 X120.758 Y81.983 E1.3192
G1 X112.272 Y73.496 E2.3323
G1 X113.663 Y75.906 E2.5671
G1 X120.113 Y82.356 E3.3371
G1 X119.467 Y82.728 E3.4000
G1 X115.054 Y78.315 E3.9269
G1 X116.445 Y80.724 E4.1617
G1 X118.822 Y83.101 E4.4455
G1 X118.176 Y83.474 E4.5084
G1 X117.977 Y83.274 E4.5322
G1 X117.836 Y83.133 F1440
G92 E0.0000
G1 E-3.0000 F3600
; feature inner perimeter
G1 X124.965 Y89.191 F18000
G1 E0.0000 F3600
G92 E0.0000
G1 X124.965 Y105.391 E1.3675 F1350
G1 X104.965 Y105.391 E3.0558
G1 X104.965 Y120.391 E4.3220
G1 X103.765 Y120.391 E4.4233
G1 X103.765 Y74.191 E8.3232
G1 X104.965 Y74.191 E8.4245
G1 X104.965 Y89.191 E9.6908
G1 X124.765 Y89.191 E11.3622
G1 X124.965 Y89.191 F1350
G1 X125.685 Y88.471 F18000
G92 E0.0000
G1 X125.685 Y106.111 E1.4891 F1350
G1 X105.685 Y106.111 E3.1774
G1 X105.685 Y121.111 E4.4436
G1 X103.045 Y121.111 E4.6664
G1 X103.045 Y73.471 E8.6879
G1 X105.685 Y73.471 E8.9108
G1 X105.685 Y88.471 E10.1770
G1 X125.485 Y88.471 E11.8484
G1 X125.685 Y88.471 F1350
; feature outer perimeter
G1 X126.405 Y87.751 F18000
G92 E0.0000
G1 X126.405 Y106.831 E1.6106 F900
G1 X106.405 Y106.831 E3.2989
G1 X106.405 Y121.831 E4.5651
G1 X102.325 Y121.831 E4.9095
G1 X102.325 Y72.751 E9.0526
G1 X106.405 Y72.751 E9.3970
G1 X106.405 Y87.751 E10.6632
G1 X126.205 Y87.751 E12.3346
G1 X126.405 Y87.751 F900
G1 X126.405 Y92.751 F900
; feature solid layer
G1 X123.415 Y89.731 F18000
G92 E0.0000
G1 X124.425 Y90.740 E0.1205 F1440
G1 X124.425 Y91.759 E0.2065
G1 X122.397 Y89.731 E0.4486
G1 X121.379 Y89.731 E0.5345
G1 X124.425 Y92.777 E0.8982
G1 X124.425 Y93.795 E0.9841
G1 X120.360 Y89.731 E1.4694
G1 X119.342 Y89.731 E1.5553
G1 X124.425 Y94.813 E2.1621
G1 X124.425 Y95.832 E2.2480
G1 X118.324 Y89.731 E2.9763
G1 X117.306 Y89.731 E3.0623
G1 X124.425 Y96.850 E3.9122
G1 X124.425 Y97.868 E3.9981
G1 X116.287 Y89.731 E4.9696
G1 X115.269 Y89.731 E5.0555
G1 X124.425 Y98.886 E6.1485
G1 X124.425 Y99.904 E6.2345
G1 X114.251 Y89.731 E7.4490
G1 X113.233 Y89.731 E7.5350
G1 X124.425 Y100.923 E8.8711
G1 X124.425 Y101.941 E8.9570
G1 X112.214 Y89.731 E10.4147
G1 X111.196 Y89.731 E10.5006
G1 X124.425 Y102.959 E12.0799
G1 X124.425 Y103.977 E12.1658
G1 X110.178 Y89.731 E13.8666
G1 X109.160 Y89.731 E13.9525
G1 X124.280 Y104.851 E15.7576
G1 X123.261 Y104.851 E15.8435
G1 X108.141 Y89.731 E17.6485
G1 X107.123 Y89.731 E17.7345
G1 X122.243 Y104.851 E19.5395
G1 X121.225 Y104.851 E19.6255
G1 X106.105 Y89.731 E21.4305
G1 X105.087 Y89.731 E21.5164
G1 X120.207 Y104.851 E23.3215
G1 X119.189 Y104.851 E23.4074
G1 X104.305 Y89.967 E25.1842
G1 X104.305 Y88.949 E25.2702
G1 X104.425 Y89.069 E25.2845
G1 X104.425 Y88.050 E25.3705
G1 X104.305 Y87.930 E25.3848
G1 X104.305 Y86.912 E25.4708
G1 X104.425 Y87.032 E25.4851
G1 X104.425 Y86.014 E25.5710
G1 X104.305 Y85.894 E25.5854
G1 X104.305 Y84.876 E25.6713
G1 X104.425 Y84.996 E25.6856
G1 X104.425 Y83.977 E25.7716
G1 X104.305 Y83.857 E25.7859
G1 X104.305 Y82.839 E25.8719
G1 X104.425 Y82.959 E25.8862
G1 X104.425 Y81.941 E25.9722
G1 X104.305 Y81.821 E25.9865
G1 X104.305 Y80.803 E26.0724
G1 X104.425 Y80.923 E26.0868
G1 X104.425 Y79.904 E26.1727
G1 X104.305 Y79.784 E26.1870
G1 X104.305 Y78.766 E26.2730
G1 X104.425 Y78.886 E26.2873
G1 X104.425 Y77.868 E26.3733
G1 X104.305 Y77.748 E26.3876
G1 X104.305 Y76.730 E26.4735
G1 X104.425 Y76.850 E26.4879
G1 X104.425 Y75.832 E26.5738
G1 X104.305 Y75.712 E26.5882
G1 X104.305 Y74.776 E26.6671
G1 X104.305 Y74.731 F1440
G1 X104.342 Y74.731
G1 X104.425 Y74.813
G1 X104.305 Y90.985 F18000
G92 E0.0000
G1 X118.170 Y104.851 E1.6553 F1440
G1 X117.152 Y104.851 E1.7412
G1 X104.305 Y92.003 E3.2749
G1 X104.305 Y93.022 E3.3609
G1 X116.134 Y104.851 E4.7731
G1 X115.116 Y104.851 E4.8590
G1 X104.305 Y94.040 E6.1496
G1 X104.305 Y95.058 E6.2356
G1 X114.097 Y104.851 E7.4046
G1 X113.079 Y104.851 E7.4906
G1 X104.305 Y96.076 E8.5381
G1 X104.305 Y97.094 E8.6240
G1 X112.061 Y104.851 E9.5500
G1 X111.043 Y104.851 E9.6359
G1 X104.305 Y98.113 E10.4403
G1 X104.305 Y99.131 E10.5262
G1 X110.024 Y104.851 E11.2091
G1 X109.006 Y104.851 E11.2950
G1 X104.305 Y100.149 E11.8563
G1 X104.305 Y101.167 E11.9422
G1 X107.988 Y104.851 E12.3819
G1 X106.970 Y104.851 E12.4679
G1 X104.305 Y102.186 E12.7861
G1 X104.305 Y103.204 E12.8720
G1 X105.952 Y104.851 E13.0686
