; G-Code generated by Simplify3D(R) Version 4.1.2
; Apr 24, 2020 at 2:35:10 PM
; Settings Summary
;   processName,First Layer
;   applyToModels,face-mask-band_rev1
;   profileName,HBot - First Layer (modified)
;   profileVersion,2019-10-26 23:38:43
;   baseProfile,Default
;   printMaterial,PETG - ERYONE
;   printQuality,High
;   printExtruders,
;   extruderName,Extruder 1
;   extruderToolheadNumber,0
;   extruderDiameter,0.4
;   extruderAutoWidth,1
;   extruderWidth,0.48
;   extrusionMultiplier,0.98
;   extruderUseRetract,1
;   extruderRetractionDistance,3
;   extruderExtraRestartDistance,0
;   extruderRetractionZLift,0
;   extruderRetractionSpeed,1500
;   extruderUseCoasting,0
;   extruderCoastingDistance,0.2
;   extruderUseWipe,0
;   extruderWipeDistance,5
;   primaryExtruder,0
;   layerHeight,0.1
;   topSolidLayers,4
;   bottomSolidLayers,4
;   perimeterOutlines,3
;   printPerimetersInsideOut,1
;   startPointOption,3
;   startPointOriginX,200
;   startPointOriginY,100
;   sequentialIslands,0
;   spiralVaseMode,0
;   firstLayerHeightPercentage,100
;   firstLayerWidthPercentage,150
;   firstLayerUnderspeed,1
;   useRaft,0
;   raftExtruder,0
;   raftTopLayers,3
;   raftBaseLayers,2
;   raftOffset,3
;   raftSeparationDistance,0.18
;   raftTopInfill,100
;   aboveRaftSpeedMultiplier,0.3
;   useSkirt,1
;   skirtExtruder,0
;   skirtLayers,1
;   skirtOutlines,8
;   skirtOffset,0
;   usePrimePillar,0
;   primePillarExtruder,999
;   primePillarWidth,12
;   primePillarLocation,7
;   primePillarSpeedMultiplier,1
;   useOozeShield,0
;   oozeShieldExtruder,999
;   oozeShieldOffset,2
;   oozeShieldOutlines,1
;   oozeShieldSidewallShape,1
;   oozeShieldSidewallAngle,30
;   oozeShieldSpeedMultiplier,1
;   infillExtruder,0
;   internalInfillPattern,Rectilinear
;   externalInfillPattern,Rectilinear
;   infillPercentage,30
;   outlineOverlapPercentage,25
;   infillExtrusionWidthPercentage,150
;   minInfillLength,5
;   infillLayerInterval,1
;   internalInfillAngles,45,-45
;   overlapInternalInfillAngles,0
;   externalInfillAngles,45,-45
;   generateSupport,0
;   supportExtruder,0
;   supportInfillPercentage,40
;   supportExtraInflation,0
;   supportBaseLayers,1
;   denseSupportExtruder,0
;   denseSupportLayers,0
;   denseSupportInfillPercentage,70
;   supportLayerInterval,1
;   supportHorizontalPartOffset,0.3
;   supportUpperSeparationLayers,1
;   supportLowerSeparationLayers,1
;   supportType,0
;   supportGridSpacing,4
;   maxOverhangAngle,25
;   supportAngles,0
;   temperatureName,Extruder 1,Heated Bed
;   temperatureNumber,0,1
;   temperatureSetpointCount,1,1
;   temperatureSetpointLayers,1,1
;   temperatureSetpointTemperatures,230,75
;   temperatureStabilizeAtStartup,1,1
;   temperatureHeatedBed,0,1
;   fanLayers,1
;   fanSpeeds,0
;   blipFanToFullPower,1
;   adjustSpeedForCooling,1
;   minSpeedLayerTime,15
;   minCoolingSpeedSlowdown,20
;   increaseFanForCooling,1
;   minFanLayerTime,45
;   maxCoolingFanSpeed,35
;   increaseFanForBridging,1
;   bridgingFanSpeed,80
;   use5D,1
;   relativeEdistances,0
;   allowEaxisZeroing,1
;   independentExtruderAxes,0
;   includeM10123,0
;   stickySupport,1
;   applyToolheadOffsets,0
;   gcodeXoffset,0
;   gcodeYoffset,0
;   gcodeZoffset,0
;   overrideMachineDefinition,1
;   machineTypeOverride,0
;   strokeXoverride,200
;   strokeYoverride,200
;   strokeZoverride,150
;   originOffsetXoverride,0
;   originOffsetYoverride,0
;   originOffsetZoverride,0
;   homeXdirOverride,-1
;   homeYdirOverride,-1
;   homeZdirOverride,-1
;   flipXoverride,1
;   flipYoverride,-1
;   flipZoverride,1
;   toolheadOffsets,0,0|0,0|0,0|0,0|0,0|0,0
;   overrideFirmwareConfiguration,1
;   firmwareTypeOverride,RepRap (Marlin/Repetier/Sprinter)
;   GPXconfigOverride,r2
;   baudRateOverride,115200
;   overridePrinterModels,0
;   printerModelsOverride
;   startingGcode,G28 ; home all axes,G32 ; run bed.g -- probe bed and enable compensation
;   layerChangeGcode,
;   retractionGcode,
;   toolChangeGcode,
;   endingGcode,M0 ; call stop.g
;   exportFileFormat,gcode
;   celebration,0
;   celebrationSong,Random Song
;   postProcessing,
;   defaultSpeed,1800
;   outlineUnderspeed,0.5
;   solidInfillUnderspeed,0.8
;   supportUnderspeed,0.8
;   rapidXYspeed,3600
;   rapidZspeed,1200
;   minBridgingArea,50
;   bridgingExtraInflation,0
;   bridgingExtrusionMultiplier,0.96
;   bridgingSpeedMultiplier,1
;   useFixedBridgingAngle,0
;   fixedBridgingAngle,0
;   applyBridgingToPerimeters,0
;   filamentDiameters,1.75|1.75|1.75|1.75|1.75|1.75
;   filamentPricesPerKg,46|46|46|46|46|46
;   filamentDensities,1.25|1.25|1.25|1.25|1.25|1.25
;   useMinPrintHeight,0
;   minPrintHeight,0
;   useMaxPrintHeight,1
;   maxPrintHeight,0.1
;   useDiaphragm,0
;   diaphragmLayerInterval,20
;   robustSlicing,1
;   mergeAllIntoSolid,0
;   onlyRetractWhenCrossingOutline,1
;   retractBetweenLayers,0
;   useRetractionMinTravel,1
;   retractionMinTravel,3
;   retractWhileWiping,1
;   onlyWipeOutlines,1
;   avoidCrossingOutline,1
;   maxMovementDetourFactor,5
;   toolChangeRetractionDistance,12
;   toolChangeExtraRestartDistance,-0.5
;   toolChangeRetractionSpeed,600
;   externalThinWallType,0
;   internalThinWallType,2
;   thinWallAllowedOverlapPercentage,10
;   singleExtrusionMinLength,1
;   singleExtrusionMinPrintingWidthPercentage,50
;   singleExtrusionMaxPrintingWidthPercentage,200
;   singleExtrusionEndpointExtension,0.2
;   horizontalSizeCompensation,-0.1
G90
M82
M106 S0
M140 S75
M190 S75
M104 S230 T0
M109 S230 T0
G28 ; home all axes
G32 ; run bed.g -- probe bed and enable compensation
; process First Layer
; layer 1, Z = 0.100
T0
G92 E0.0000
G1 E-3.0000 F1500
; feature skirt
; tool H0.100 W0.720
G1 Z0.100 F1200
G1 X187.286 Y92.454 F3600
G1 E0.0000 F1500
G92 E0.0000
G1 X182.618 Y118.928 E0.7886 F1800
G1 X178.948 Y121.494 E0.9200
G1 X172.482 Y120.346 E1.1127
G1 X171.958 Y120.197 E1.1286
G1 X171.248 Y119.916 E1.1510
G1 X170.705 Y119.625 E1.1691
G1 X169.978 Y119.123 E1.1950
G1 X169.469 Y118.665 E1.2151
G1 X168.870 Y117.971 E1.2420
G1 X168.698 Y117.712 E1.2511
G1 X166.436 Y119.291 E1.3321
G1 X159.859 Y118.114 E1.5281
G1 X159.212 Y117.912 E1.5479
G1 X158.421 Y117.551 E1.5735
G1 X157.838 Y117.190 E1.5936
G1 X157.038 Y116.541 E1.6238
G1 X156.485 Y115.933 E1.6479
G1 X156.199 Y115.500 E1.6631
G1 X153.934 Y117.084 E1.7442
G1 X147.436 Y115.929 E1.9378
G1 X146.848 Y115.755 E1.9558
G1 X146.037 Y115.409 E1.9816
G1 X145.446 Y115.064 E2.0017
G1 X144.720 Y114.505 E2.0286
G1 X144.234 Y114.022 E2.0487
G1 X143.692 Y113.325 E2.0746
G1 X143.679 Y113.304 E2.0753
G1 X141.427 Y114.878 E2.1559
G1 X134.961 Y113.730 E2.3486
G1 X134.437 Y113.581 E2.3646
G1 X133.727 Y113.300 E2.3870
G1 X133.184 Y113.009 E2.4050
G1 X132.557 Y112.576 E2.4274
G1 X131.930 Y112.852 E2.4475
G1 X131.396 Y113.024 E2.4639
G1 X130.560 Y113.200 E2.4890
G1 X130.002 Y113.258 E2.5055
G1 X70.292 Y113.266 E4.2571
G1 X70.012 Y113.252 E4.2653
G1 X69.295 Y113.177 E4.2865
G1 X68.746 Y113.061 E4.3029
G1 X67.931 Y112.799 E4.3280
G1 X67.436 Y112.581 E4.3439
G1 X66.816 Y113.009 E4.3660
G1 X66.273 Y113.300 E4.3841
G1 X65.563 Y113.581 E4.4065
G1 X65.039 Y113.730 E4.4225
G1 X58.573 Y114.878 E4.6151
G1 X56.317 Y113.301 E4.6959
G1 X56.144 Y113.561 E4.7050
G1 X55.567 Y114.229 E4.7309
G1 X55.114 Y114.647 E4.7490
G1 X54.469 Y115.118 E4.7725
G1 X53.933 Y115.422 E4.7905
G1 X53.152 Y115.755 E4.8154
G1 X52.564 Y115.929 E4.8334
G1 X46.066 Y117.084 E5.0270
G1 X43.801 Y115.500 E5.1081
G1 X43.514 Y115.933 E5.1233
G1 X42.962 Y116.541 E5.1474
G1 X42.162 Y117.190 E5.1776
G1 X41.579 Y117.551 E5.1978
G1 X40.788 Y117.912 E5.2233
G1 X40.141 Y118.114 E5.2432
G1 X33.564 Y119.291 E5.4392
G1 X31.302 Y117.712 E5.5201
G1 X31.130 Y117.971 E5.5292
G1 X30.553 Y118.640 E5.5551
G1 X30.100 Y119.057 E5.5732
G1 X29.454 Y119.528 E5.5966
G1 X28.919 Y119.833 E5.6147
G1 X28.138 Y120.165 E5.6396
G1 X27.550 Y120.340 E5.6576
G1 X21.052 Y121.494 E5.8512
G1 X17.382 Y118.928 E5.9826
G1 X12.714 Y92.454 E6.7712
G1 X15.285 Y88.787 E6.9026
G1 X21.765 Y87.654 E7.0956
G1 X22.326 Y87.615 E7.1121
G1 X23.117 Y87.642 E7.1353
G1 X23.746 Y87.739 E7.1539
G1 X24.592 Y87.974 E7.1797
G1 X25.182 Y88.215 E7.1984
G1 X25.904 Y88.615 E7.2226
G1 X26.211 Y88.836 E7.2337
G1 X27.792 Y86.582 E7.3145
G1 X34.306 Y85.442 E7.5085
G1 X34.939 Y85.407 E7.5271
G1 X35.814 Y85.460 E7.5528
G1 X36.441 Y85.574 E7.5715
G1 X37.230 Y85.815 E7.5957
G1 X37.813 Y86.071 E7.6144
G1 X38.570 Y86.517 E7.6401
G1 X38.719 Y86.630 E7.6456
G1 X40.299 Y84.377 E7.7264
G1 X46.779 Y83.243 E7.9194
G1 X47.340 Y83.204 E7.9359
G1 X48.131 Y83.231 E7.9591
G1 X48.760 Y83.328 E7.9777
G1 X49.607 Y83.563 E8.0035
G1 X50.196 Y83.805 E8.0222
G1 X50.918 Y84.205 E8.0464
G1 X51.225 Y84.426 E8.0575
G1 X52.806 Y82.171 E8.1383
G1 X59.286 Y81.038 E8.3313
G1 X59.848 Y80.999 E8.3478
G1 X60.638 Y81.026 E8.3710
G1 X61.267 Y81.123 E8.3897
G1 X62.147 Y81.367 E8.4164
G1 X62.798 Y81.644 E8.4372
G1 X63.585 Y82.107 E8.4640
G1 X64.091 Y82.492 E8.4826
G1 X64.661 Y83.042 E8.5059
G1 X65.025 Y83.476 E8.5225
G1 X65.467 Y84.132 E8.5457
G1 X65.759 Y84.698 E8.5644
G1 X66.043 Y85.457 E8.5881
G1 X66.057 Y85.512 E8.5898
G1 X71.119 Y84.619 E8.7406
G1 X71.817 Y82.722 E8.7999
G1 X72.169 Y82.064 E8.8218
G1 X72.804 Y81.190 E8.8535
G1 X73.279 Y80.687 E8.8738
G1 X74.093 Y80.020 E8.9046
G1 X74.676 Y79.655 E8.9248
G1 X75.659 Y79.202 E8.9566
G1 X76.384 Y78.984 E8.9788
G1 X77.394 Y78.829 E9.0087
G1 X77.804 Y78.798 E9.0208
G1 X122.416 Y78.806 E10.3295
G1 X122.963 Y78.862 E10.3457
G1 X123.819 Y79.039 E10.3713
G1 X124.406 Y79.232 E10.3894
G1 X125.325 Y79.655 E10.4191
G1 X125.908 Y80.020 E10.4393
G1 X126.722 Y80.688 E10.4702
G1 X127.196 Y81.190 E10.4904
G1 X127.831 Y82.064 E10.5221
G1 X128.183 Y82.722 E10.5440
G1 X128.881 Y84.619 E10.6033
G1 X133.950 Y85.513 E10.7543
G1 X134.204 Y84.771 E10.7773
G1 X134.562 Y84.074 E10.8003
G1 X135.158 Y83.239 E10.8304
G1 X135.698 Y82.675 E10.8533
G1 X136.480 Y82.065 E10.8824
G1 X137.023 Y81.735 E10.9010
G1 X137.732 Y81.412 E10.9239
G1 X138.339 Y81.218 E10.9426
G1 X139.246 Y81.042 E10.9697
G1 X139.881 Y80.994 E10.9884
G1 X140.519 Y81.022 E11.0071
G1 X140.870 Y81.061 E11.0175
G1 X147.197 Y82.174 E11.2059
G1 X148.775 Y84.426 E11.2866
G1 X149.081 Y84.205 E11.2977
G1 X149.804 Y83.805 E11.3219
G1 X150.393 Y83.563 E11.3406
G1 X151.240 Y83.328 E11.3664
G1 X151.869 Y83.231 E11.3851
G1 X152.659 Y83.204 E11.4082
G1 X153.221 Y83.243 E11.4247
G1 X159.701 Y84.377 E11.6177
G1 X161.281 Y86.630 E11.6985
G1 X161.469 Y86.488 E11.7054
G1 X162.050 Y86.146 E11.7252
G1 X162.431 Y85.960 E11.7376
G1 X163.059 Y85.712 E11.7574
G1 X163.675 Y85.550 E11.7761
G1 X164.691 Y85.407 E11.8062
G1 X165.533 Y85.421 E11.8309
G1 X172.203 Y86.578 E12.0295
G1 X173.789 Y88.836 E12.1105
G1 X174.096 Y88.615 E12.1215
G1 X174.818 Y88.215 E12.1458
G1 X175.408 Y87.974 E12.1645
G1 X176.254 Y87.739 E12.1902
G1 X176.884 Y87.642 E12.2089
G1 X177.674 Y87.615 E12.2321
G1 X178.235 Y87.654 E12.2486
G1 X184.715 Y88.787 E12.4416
G1 X187.286 Y92.454 E12.5729
G92 E0.0000
G1 E-3.0000 F1500
G1 X184.297 Y89.445 F3600
G1 E0.0000 F1500
G92 E0.0000
G1 X186.525 Y92.622 E0.1138 F1800
G1 X181.961 Y118.510 E0.8850
G1 X178.780 Y120.733 E0.9988
G1 X172.644 Y119.643 E1.1816
G1 X172.190 Y119.514 E1.1955
G1 X171.552 Y119.262 E1.2156
G1 X171.080 Y119.010 E1.2313
G1 X170.425 Y118.556 E1.2547
G1 X169.984 Y118.160 E1.2721
G1 X169.445 Y117.535 E1.2963
G1 X169.117 Y117.041 E1.3137
G1 X168.933 Y116.669 E1.3258
G1 X166.268 Y118.530 E1.4212
G1 X160.031 Y117.413 E1.6071
G1 X159.470 Y117.238 E1.6243
G1 X158.761 Y116.915 E1.6472
G1 X158.256 Y116.602 E1.6646
G1 X157.534 Y116.016 E1.6919
G1 X157.055 Y115.489 E1.7128
G1 X156.558 Y114.739 E1.7392
G1 X156.419 Y114.467 E1.7481
G1 X153.766 Y116.323 E1.8431
G1 X147.602 Y115.228 E2.0267
G1 X147.093 Y115.076 E2.0423
G1 X146.361 Y114.765 E2.0657
G1 X145.849 Y114.465 E2.0831
G1 X145.195 Y113.962 E2.1073
G1 X144.774 Y113.543 E2.1247
G1 X144.285 Y112.915 E2.1480
G1 X144.007 Y112.459 E2.1637
G1 X143.915 Y112.260 E2.1701
G1 X141.259 Y114.117 E2.2652
G1 X135.122 Y113.027 E2.4480
G1 X134.669 Y112.898 E2.4619
G1 X134.031 Y112.646 E2.4820
G1 X133.560 Y112.394 E2.4977
G1 X132.904 Y111.940 E2.5211
G1 X132.651 Y111.713 E2.5310
G1 X132.389 Y111.863 E2.5399
G1 X131.674 Y112.178 E2.5628
G1 X131.211 Y112.327 E2.5771
G1 X130.448 Y112.488 E2.6000
G1 X129.965 Y112.538 E2.6142
G1 X70.311 Y112.546 E4.3642
G1 X70.068 Y112.534 E4.3713
G1 X69.406 Y112.465 E4.3908
G1 X68.931 Y112.364 E4.4051
G1 X68.187 Y112.125 E4.4280
G1 X67.743 Y111.929 E4.4422
G1 X67.355 Y111.708 E4.4553
G1 X67.096 Y111.941 E4.4656
G1 X66.441 Y112.394 E4.4889
G1 X65.969 Y112.646 E4.5046
G1 X65.331 Y112.898 E4.5247
G1 X64.878 Y113.027 E4.5386
G1 X58.741 Y114.117 E4.7214
G1 X56.081 Y112.258 E4.8166
G1 X55.897 Y112.630 E4.8288
G1 X55.569 Y113.125 E4.8462
G1 X55.049 Y113.727 E4.8696
G1 X54.656 Y114.089 E4.8852
G1 X54.077 Y114.512 E4.9063
G1 X53.613 Y114.776 E4.9219
G1 X52.907 Y115.076 E4.9444
G1 X52.398 Y115.228 E4.9600
G1 X46.234 Y116.323 E5.1437
G1 X43.581 Y114.467 E5.2387
G1 X43.442 Y114.738 E5.2476
G1 X42.945 Y115.489 E5.2740
G1 X42.466 Y116.016 E5.2949
G1 X41.744 Y116.602 E5.3222
G1 X41.239 Y116.915 E5.3396
G1 X40.530 Y117.238 E5.3625
G1 X39.969 Y117.413 E5.3797
G1 X33.732 Y118.530 E5.5656
G1 X31.067 Y116.669 E5.6609
G1 X30.884 Y117.040 E5.6731
G1 X30.556 Y117.535 E5.6905
G1 X30.035 Y118.138 E5.7138
G1 X29.642 Y118.500 E5.7295
G1 X29.063 Y118.923 E5.7505
G1 X28.599 Y119.186 E5.7662
G1 X27.893 Y119.487 E5.7887
G1 X27.384 Y119.638 E5.8043
G1 X21.220 Y120.733 E5.9880
G1 X18.039 Y118.510 E6.1018
G1 X13.475 Y92.623 E6.8729
G1 X15.703 Y89.445 E6.9868
G1 X21.853 Y88.369 E7.1699
G1 X22.339 Y88.335 E7.1842
G1 X23.049 Y88.360 E7.2050
G1 X23.594 Y88.444 E7.2212
G1 X24.359 Y88.656 E7.2445
G1 X24.870 Y88.865 E7.2607
G1 X25.518 Y89.224 E7.2824
G1 X25.966 Y89.547 E7.2986
G1 X26.347 Y89.896 E7.3138
G1 X28.210 Y87.240 E7.4090
G1 X34.389 Y86.159 E7.5930
G1 X34.937 Y86.128 E7.6091
G1 X35.728 Y86.176 E7.6323
G1 X36.271 Y86.275 E7.6485
G1 X36.979 Y86.491 E7.6703
G1 X37.484 Y86.713 E7.6864
G1 X38.168 Y87.116 E7.7097
G1 X38.607 Y87.450 E7.7259
G1 X38.855 Y87.689 E7.7360
G1 X40.717 Y85.034 E7.8312
G1 X46.867 Y83.959 E8.0143
G1 X47.353 Y83.925 E8.0286
G1 X48.063 Y83.950 E8.0494
G1 X48.608 Y84.034 E8.0656
G1 X49.373 Y84.246 E8.0889
G1 X49.884 Y84.455 E8.1051
G1 X50.532 Y84.814 E8.1268
G1 X50.980 Y85.137 E8.1430
G1 X51.361 Y85.486 E8.1582
G1 X53.224 Y82.829 E8.2534
G1 X59.374 Y81.753 E8.4365
G1 X59.860 Y81.719 E8.4508
G1 X60.570 Y81.744 E8.4717
G1 X61.116 Y81.828 E8.4879
G1 X61.909 Y82.048 E8.5120
G1 X62.473 Y82.288 E8.5300
G1 X63.182 Y82.706 E8.5541
G1 X63.622 Y83.040 E8.5703
G1 X64.133 Y83.534 E8.5912
G1 X64.449 Y83.910 E8.6056
G1 X64.847 Y84.499 E8.6265
G1 X65.099 Y84.990 E8.6427
G1 X65.357 Y85.678 E8.6642
G1 X65.469 Y86.092 E8.6768
G1 X65.513 Y86.339 E8.6841
G1 X71.652 Y85.257 E8.8670
G1 X72.476 Y83.018 E8.9370
G1 X72.780 Y82.447 E8.9560
G1 X73.360 Y81.650 E8.9849
G1 X73.771 Y81.215 E9.0024
G1 X74.513 Y80.606 E9.0306
G1 X75.019 Y80.290 E9.0481
G1 X75.915 Y79.877 E9.0770
G1 X76.543 Y79.688 E9.0963
G1 X77.476 Y79.545 E9.1240
G1 X77.831 Y79.518 E9.1344
G1 X122.380 Y79.526 E10.4413
G1 X122.854 Y79.574 E10.4552
G1 X123.633 Y79.735 E10.4786
G1 X124.142 Y79.903 E10.4943
G1 X124.981 Y80.290 E10.5214
G1 X125.487 Y80.606 E10.5389
G1 X126.230 Y81.215 E10.5671
G1 X126.641 Y81.651 E10.5847
G1 X127.219 Y82.447 E10.6135
G1 X127.524 Y83.018 E10.6325
G1 X128.348 Y85.257 E10.7025
G1 X134.486 Y86.339 E10.8853
G1 X134.515 Y86.172 E10.8903
G1 X134.606 Y85.820 E10.9010
G1 X134.868 Y85.054 E10.9247
G1 X135.178 Y84.450 E10.9446
G1 X135.714 Y83.699 E10.9717
G1 X136.182 Y83.210 E10.9915
G1 X136.890 Y82.658 E11.0179
G1 X137.360 Y82.373 E11.0340
G1 X137.992 Y82.085 E11.0544
G1 X138.518 Y81.916 E11.0706
G1 X139.342 Y81.756 E11.0952
G1 X139.892 Y81.716 E11.1114
G1 X140.464 Y81.741 E11.1282
G1 X140.768 Y81.774 E11.1372
G1 X146.779 Y82.832 E11.3162
G1 X148.638 Y85.486 E11.4113
G1 X149.020 Y85.136 E11.4264
G1 X149.468 Y84.814 E11.4426
G1 X150.116 Y84.455 E11.4644
G1 X150.627 Y84.246 E11.4806
G1 X151.392 Y84.034 E11.5039
G1 X151.937 Y83.950 E11.5200
G1 X152.647 Y83.925 E11.5409
