; G-Code generated by Simplify3D(R) Version 4.1.2
; Apr 2, 2021 at 6:19:39 PM
; Settings Summary
;   processName,V6
;   applyToModels,gut
;   profileName,HBot
;   profileVersion,2021-04-01 14:49:35
;   baseProfile,Default
;   printMaterial,PLA - ERYONE
;   printQuality,Medium
;   printExtruders,
;   extruderName,Extruder 1,Extruder 2 - support
;   extruderToolheadNumber,0,1
;   extruderDiameter,0.4,0.4
;   extruderAutoWidth,1,1
;   extruderWidth,0.48,0.48
;   extrusionMultiplier,1,1
;   extruderUseRetract,1,1
;   extruderRetractionDistance,3,1
;   extruderExtraRestartDistance,0,0
;   extruderRetractionZLift,0,0
;   extruderRetractionSpeed,5400,1800
;   extruderUseCoasting,1,1
;   extruderCoastingDistance,0.2,0.2
;   extruderUseWipe,1,1
;   extruderWipeDistance,2,5
;   primaryExtruder,0
;   layerHeight,0.2
;   topSolidLayers,4
;   bottomSolidLayers,4
;   perimeterOutlines,4
;   printPerimetersInsideOut,1
;   startPointOption,3
;   startPointOriginX,110
;   startPointOriginY,300
;   sequentialIslands,0
;   spiralVaseMode,0
;   firstLayerHeightPercentage,100
;   firstLayerWidthPercentage,100
;   firstLayerUnderspeed,0.5
;   useRaft,0
;   raftExtruder,0
;   raftTopLayers,3
;   raftBaseLayers,2
;   raftOffset,3
;   raftSeparationDistance,0.18
;   raftTopInfill,100
;   aboveRaftSpeedMultiplier,0.3
;   useSkirt,1
;   skirtExtruder,0
;   skirtLayers,1
;   skirtOutlines,3
;   skirtOffset,10
;   usePrimePillar,0
;   primePillarExtruder,999
;   primePillarWidth,12
;   primePillarLocation,7
;   primePillarSpeedMultiplier,1
;   useOozeShield,0
;   oozeShieldExtruder,999
;   oozeShieldOffset,0.9
;   oozeShieldOutlines,2
;   oozeShieldSidewallShape,0
;   oozeShieldSidewallAngle,30
;   oozeShieldSpeedMultiplier,1.5
;   infillExtruder,0
;   internalInfillPattern,Fast Honeycomb
;   externalInfillPattern,Rectilinear
;   infillPercentage,15
;   outlineOverlapPercentage,25
;   infillExtrusionWidthPercentage,100
;   minInfillLength,5
;   infillLayerInterval,1
;   internalInfillAngles,0
;   overlapInternalInfillAngles,0
;   externalInfillAngles,45,-45
;   generateSupport,0
;   supportExtruder,0
;   supportInfillPercentage,25
;   supportExtraInflation,0
;   supportBaseLayers,1
;   denseSupportExtruder,1
;   denseSupportLayers,0
;   denseSupportInfillPercentage,70
;   supportLayerInterval,1
;   supportHorizontalPartOffset,0.3
;   supportUpperSeparationLayers,1
;   supportLowerSeparationLayers,1
;   supportType,0
;   supportGridSpacing,2
;   maxOverhangAngle,25
;   supportAngles,0
;   temperatureName,Extruder 1,Heated Bed,Extruder 2 - support
;   temperatureNumber,0,1,1
;   temperatureSetpointCount,2,1,1
;   temperatureSetpointLayers,1,2,1,1
;   temperatureSetpointTemperatures,215,215,65,0
;   temperatureStabilizeAtStartup,1,1,1
;   temperatureHeatedBed,0,1,0
;   fanLayers,1,5,10
;   fanSpeeds,0,65,75
;   blipFanToFullPower,1
;   adjustSpeedForCooling,0
;   minSpeedLayerTime,15
;   minCoolingSpeedSlowdown,20
;   increaseFanForCooling,1
;   minFanLayerTime,15
;   maxCoolingFanSpeed,40
;   increaseFanForBridging,1
;   bridgingFanSpeed,85
;   use5D,1
;   relativeEdistances,0
;   allowEaxisZeroing,1
;   independentExtruderAxes,0
;   includeM10123,0
;   stickySupport,1
;   applyToolheadOffsets,0
;   gcodeXoffset,0
;   gcodeYoffset,0
;   gcodeZoffset,0
;   overrideMachineDefinition,1
;   machineTypeOverride,0
;   strokeXoverride,210
;   strokeYoverride,210
;   strokeZoverride,150
;   originOffsetXoverride,0
;   originOffsetYoverride,0
;   originOffsetZoverride,0
;   homeXdirOverride,1
;   homeYdirOverride,-1
;   homeZdirOverride,-1
;   flipXoverride,1
;   flipYoverride,-1
;   flipZoverride,1
;   toolheadOffsets,0,0|0,0|0,0|0,0|0,0|0,0
;   overrideFirmwareConfiguration,0
;   firmwareTypeOverride,RepRap (Marlin/Repetier/Sprinter)
;   GPXconfigOverride,r2
;   baudRateOverride,115200
;   overridePrinterModels,0
;   printerModelsOverride
;   startingGcode,;G28 is now included in bed.g G28 ; home all axes,G32 ; run bed.g -- probe bed and enable compensation
;   layerChangeGcode,
;   retractionGcode,
;   toolChangeGcode,
;   endingGcode,M0 ; call stop.g
;   exportFileFormat,gcode
;   celebration,0
;   celebrationSong,Random Song
;   postProcessing,
;   defaultSpeed,3600
;   outlineUnderspeed,0.5
;   solidInfillUnderspeed,0.8
;   supportUnderspeed,0.8
;   rapidXYspeed,18000
;   rapidZspeed,1200
;   minBridgingArea,50
;   bridgingExtraInflation,0
;   bridgingExtrusionMultiplier,0.96
;   bridgingSpeedMultiplier,1
;   useFixedBridgingAngle,0
;   fixedBridgingAngle,0
;   applyBridgingToPerimeters,0
;   filamentDiameters,1.75|1.75|1.75|1.75|1.75|1.75
;   filamentPricesPerKg,46|46|46|46|46|46
;   filamentDensities,1.25|1.25|1.25|1.25|1.25|1.25
;   useMinPrintHeight,0
;   minPrintHeight,17.2
;   useMaxPrintHeight,0
;   maxPrintHeight,13.72
;   useDiaphragm,0
;   diaphragmLayerInterval,20
;   robustSlicing,1
;   mergeAllIntoSolid,0
;   onlyRetractWhenCrossingOutline,1
;   retractBetweenLayers,0
;   useRetractionMinTravel,1
;   retractionMinTravel,3
;   retractWhileWiping,1
;   onlyWipeOutlines,1
;   avoidCrossingOutline,1
;   maxMovementDetourFactor,5
;   toolChangeRetractionDistance,12
;   toolChangeExtraRestartDistance,-0.5
;   toolChangeRetractionSpeed,600
;   externalThinWallType,1
;   internalThinWallType,1
;   thinWallAllowedOverlapPercentage,10
;   singleExtrusionMinLength,1
;   singleExtrusionMinPrintingWidthPercentage,50
;   singleExtrusionMaxPrintingWidthPercentage,150
;   singleExtrusionEndpointExtension,0.2
;   horizontalSizeCompensation,0
G90
M82
M106 S0
M140 S65
M190 S65
G10 P0 S215 R{215-50}
G10 P1 S0 R{0-50}
M116 P0
;G28 is now included in bed.g G28 ; home all axes
G32 ; run bed.g -- probe bed and enable compensation
; process V6
; layer 1, Z = 0.200
T0
G92 E0.0000
G1 E-3.0000 F5400
; feature skirt
; tool H0.200 W0.480
G1 Z0.200 F1200
G1 X105.150 Y128.625 F18000
G1 E0.0000 F5400
G92 E0.0000
G1 X104.850 Y128.625 E0.0120 F1800
G1 X103.600 Y128.592 E0.0619
G1 X103.216 Y128.568 E0.0772
G1 X101.443 Y128.398 E0.1483
G1 X100.965 Y128.332 E0.1676
G1 X99.175 Y128.003 E0.2402
G1 X98.681 Y127.889 E0.2605
G1 X96.927 Y127.399 E0.3331
G1 X96.438 Y127.238 E0.3537
G1 X94.734 Y126.589 E0.4265
G1 X94.254 Y126.379 E0.4474
G1 X92.653 Y125.591 E0.5186
G1 X92.265 Y125.381 E0.5362
G1 X91.176 Y124.733 E0.5868
G1 X90.879 Y124.543 E0.6009
G1 X89.829 Y123.826 E0.6516
G1 X89.476 Y123.564 E0.6691
G1 X88.103 Y122.459 E0.7395
G1 X87.772 Y122.170 E0.7570
G1 X86.798 Y121.251 E0.8105
G1 X86.470 Y120.914 E0.8292
G1 X85.238 Y119.539 E0.9029
G1 X84.853 Y119.058 E0.9275
G1 X83.772 Y117.546 E1.0017
G1 X83.473 Y117.081 E1.0238
G1 X82.780 Y115.874 E1.0793
G1 X82.541 Y115.410 E1.1001
G1 X81.786 Y113.757 E1.1727
G1 X81.600 Y113.296 E1.1925
G1 X81.146 Y112.012 E1.2469
G1 X81.002 Y111.541 E1.2665
G1 X80.551 Y109.787 E1.3388
G1 X80.427 Y109.162 E1.3642
G1 X80.174 Y107.337 E1.4378
G1 X80.122 Y106.690 E1.4637
G1 X80.080 Y104.808 E1.5388
G1 X80.098 Y104.210 E1.5627
G1 X80.260 Y102.301 E1.6392
G1 X80.319 Y101.837 E1.6578
G1 X80.557 Y100.433 E1.7147
G1 X80.660 Y99.955 E1.7342
G1 X81.134 Y98.139 E1.8091
G1 X81.300 Y97.611 E1.8312
G1 X81.783 Y96.306 E1.8867
G1 X82.001 Y95.796 E1.9089
G1 X82.772 Y94.212 E1.9792
G1 X83.024 Y93.751 E2.0001
G1 X83.684 Y92.667 E2.0508
G1 X83.895 Y92.347 E2.0661
G1 X84.613 Y91.330 E2.1158
G1 X84.889 Y90.972 E2.1338
G1 X86.001 Y89.641 E2.2031
G1 X86.365 Y89.245 E2.2245
G1 X87.594 Y88.034 E2.2934
G1 X87.922 Y87.735 E2.3111
G1 X88.888 Y86.922 E2.3615
G1 X89.234 Y86.653 E2.3790
G1 X90.593 Y85.680 E2.4457
G1 X90.952 Y85.444 E2.4628
G1 X91.991 Y84.815 E2.5113
G1 X92.284 Y84.649 E2.5248
G1 X93.357 Y84.084 E2.5732
G1 X93.729 Y83.906 E2.5896
G1 X95.307 Y83.218 E2.6583
G1 X95.757 Y83.045 E2.6776
G1 X97.430 Y82.482 E2.7480
G1 X97.888 Y82.349 E2.7670
G1 X99.599 Y81.931 E2.8374
G1 X100.066 Y81.838 E2.8564
G1 X101.764 Y81.574 E2.9249
G1 X102.155 Y81.527 E2.9407
G1 X103.400 Y81.422 E2.9905
G1 X103.792 Y81.403 E3.0062
G1 X105.467 Y81.379 E3.0730
G1 X105.859 Y81.387 E3.0887
G1 X107.145 Y81.460 E3.1401
G1 X107.615 Y81.506 E3.1590
G1 X109.817 Y81.817 E3.2477
G1 X110.362 Y81.922 E3.2699
G1 X112.112 Y82.349 E3.3418
G1 X112.570 Y82.482 E3.3608
G1 X114.243 Y83.045 E3.4312
G1 X114.693 Y83.218 E3.4505
G1 X116.309 Y83.922 E3.5209
G1 X116.755 Y84.140 E3.5406
G1 X118.298 Y84.982 E3.6108
G1 X118.734 Y85.246 E3.6312
G1 X120.194 Y86.224 E3.7013
G1 X120.614 Y86.535 E3.7222
G1 X121.979 Y87.647 E3.7924
G1 X122.375 Y88.002 E3.8137
G1 X123.635 Y89.245 E3.8843
G1 X123.999 Y89.641 E3.9057
G1 X125.111 Y90.972 E3.9750
G1 X125.387 Y91.330 E3.9930
G1 X126.105 Y92.347 E4.0427
G1 X126.316 Y92.667 E4.0580
G1 X126.976 Y93.751 E4.1087
G1 X127.228 Y94.212 E4.1296
G1 X128.025 Y95.848 E4.2023
G1 X128.282 Y96.469 E4.2291
G1 X128.897 Y98.244 E4.3040
G1 X129.048 Y98.760 E4.3255
G1 X129.384 Y100.149 E4.3825
G1 X129.477 Y100.621 E4.4018
G1 X129.769 Y102.538 E4.4792
G1 X129.826 Y103.101 E4.5018
G1 X129.924 Y105.037 E4.5791
G1 X129.921 Y105.657 E4.6038
G1 X129.808 Y107.517 E4.6782
G1 X129.731 Y108.165 E4.7043
G1 X129.407 Y109.977 E4.7777
G1 X129.265 Y110.580 E4.8025
G1 X128.733 Y112.379 E4.8774
G1 X128.536 Y112.935 E4.9009
G1 X127.804 Y114.701 E4.9772
G1 X127.538 Y115.255 E5.0017
G1 X126.636 Y116.896 E5.0764
G1 X126.347 Y117.367 E5.0985
G1 X125.563 Y118.509 E5.1538
G1 X125.246 Y118.928 E5.1747
G1 X124.065 Y120.344 E5.2484
G1 X123.673 Y120.768 E5.2714
G1 X122.330 Y122.077 E5.3462
G1 X121.933 Y122.430 E5.3675
G1 X120.489 Y123.592 E5.4414
G1 X120.064 Y123.903 E5.4625
G1 X118.566 Y124.892 E5.5341
G1 X118.188 Y125.120 E5.5517
G1 X117.080 Y125.733 E5.6022
G1 X116.766 Y125.894 E5.6163
G1 X115.665 Y126.415 E5.6650
G1 X115.345 Y126.554 E5.6789
G1 X114.215 Y127.005 E5.7274
G1 X113.891 Y127.123 E5.7412
G1 X112.697 Y127.516 E5.7914
G1 X112.286 Y127.634 E5.8084
G1 X110.561 Y128.059 E5.8793
G1 X110.071 Y128.157 E5.8993
G1 X108.309 Y128.428 E5.9704
G1 X107.915 Y128.474 E5.9863
G1 X106.667 Y128.576 E6.0363
G1 X106.361 Y128.593 E6.0485
G1 X105.150 Y128.625 E6.0968
G1 X105.143 Y128.145 F18000
G92 E0.0000
G1 X104.857 Y128.145 E0.0114 F1800
G1 X103.621 Y128.112 E0.0608
G1 X103.254 Y128.090 E0.0755
G1 X101.499 Y127.922 E0.1458
G1 X101.042 Y127.858 E0.1643
G1 X99.272 Y127.533 E0.2360
G1 X98.799 Y127.424 E0.2554
G1 X97.067 Y126.940 E0.3272
G1 X96.598 Y126.786 E0.3469
G1 X94.915 Y126.144 E0.4188
G1 X94.456 Y125.944 E0.4388
G1 X92.874 Y125.164 E0.5092
G1 X92.503 Y124.963 E0.5260
G1 X91.428 Y124.324 E0.5760
G1 X91.143 Y124.143 E0.5894
G1 X90.108 Y123.435 E0.6395
G1 X89.770 Y123.184 E0.6563
G1 X88.412 Y122.091 E0.7259
G1 X88.094 Y121.814 E0.7427
G1 X87.135 Y120.909 E0.7953
G1 X86.821 Y120.586 E0.8133
G1 X85.604 Y119.229 E0.8860
G1 X85.236 Y118.768 E0.9096
G1 X84.170 Y117.277 E0.9827
G1 X83.884 Y116.831 E1.0039
G1 X83.201 Y115.645 E1.0585
G1 X82.973 Y115.201 E1.0784
G1 X82.227 Y113.567 E1.1501
G1 X82.049 Y113.126 E1.1691
G1 X81.602 Y111.862 E1.2226
G1 X81.464 Y111.411 E1.2414
G1 X81.019 Y109.681 E1.3127
G1 X80.901 Y109.083 E1.3371
G1 X80.651 Y107.285 E1.4095
G1 X80.601 Y106.665 E1.4343
G1 X80.560 Y104.810 E1.5084
G1 X80.578 Y104.238 E1.5312
G1 X80.738 Y102.352 E1.6068
G1 X80.794 Y101.908 E1.6247
G1 X81.029 Y100.524 E1.6807
G1 X81.127 Y100.066 E1.6993
G1 X81.596 Y98.272 E1.7734
G1 X81.755 Y97.766 E1.7945
G1 X82.229 Y96.483 E1.8491
G1 X82.438 Y95.995 E1.8703
G1 X83.199 Y94.432 E1.9397
G1 X83.440 Y93.991 E1.9598
G1 X84.090 Y92.924 E2.0096
G1 X84.291 Y92.617 E2.0243
G1 X85.000 Y91.615 E2.0732
G1 X85.264 Y91.272 E2.0905
G1 X86.362 Y89.957 E2.1589
G1 X86.711 Y89.579 E2.1794
G1 X87.924 Y88.382 E2.2475
G1 X88.238 Y88.096 E2.2644
G1 X89.190 Y87.295 E2.3141
G1 X89.521 Y87.038 E2.3308
G1 X90.865 Y86.076 E2.3968
G1 X91.208 Y85.849 E2.4132
G1 X92.233 Y85.229 E2.4610
G1 X92.514 Y85.070 E2.4739
G1 X93.573 Y84.513 E2.5216
G1 X93.929 Y84.342 E2.5374
G1 X95.489 Y83.663 E2.6053
G1 X95.920 Y83.497 E2.6237
G1 X97.573 Y82.940 E2.6934
G1 X98.011 Y82.813 E2.7116
G1 X99.703 Y82.400 E2.7811
G1 X100.150 Y82.311 E2.7993
G1 X101.830 Y82.049 E2.8671
G1 X102.204 Y82.004 E2.8822
G1 X103.432 Y81.901 E2.9313
G1 X103.807 Y81.883 E2.9463
G1 X105.465 Y81.859 E3.0125
G1 X105.841 Y81.867 E3.0275
G1 X107.108 Y81.938 E3.0782
G1 X107.558 Y81.983 E3.0962
G1 X109.738 Y82.291 E3.1841
G1 X110.260 Y82.391 E3.2053
G1 X111.988 Y82.813 E3.2763
G1 X112.427 Y82.940 E3.2945
G1 X114.080 Y83.497 E3.3642
G1 X114.511 Y83.663 E3.3826
G1 X116.108 Y84.358 E3.4521
G1 X116.534 Y84.567 E3.4710
G1 X118.058 Y85.398 E3.5403
G1 X118.476 Y85.651 E3.5598
G1 X119.917 Y86.617 E3.6291
G1 X120.320 Y86.914 E3.6491
G1 X121.667 Y88.012 E3.7184
G1 X122.046 Y88.352 E3.7387
G1 X123.289 Y89.579 E3.8084
G1 X123.638 Y89.957 E3.8290
G1 X124.736 Y91.272 E3.8974
G1 X125.000 Y91.615 E3.9146
G1 X125.709 Y92.617 E3.9636
G1 X125.910 Y92.924 E3.9782
G1 X126.560 Y93.991 E4.0281
G1 X126.801 Y94.432 E4.0482
G1 X127.587 Y96.045 E4.1198
G1 X127.833 Y96.639 E4.1455
G1 X128.439 Y98.390 E4.2194
G1 X128.584 Y98.884 E4.2400
G1 X128.915 Y100.252 E4.2961
G1 X129.004 Y100.704 E4.3145
G1 X129.293 Y102.599 E4.3910
G1 X129.348 Y103.138 E4.4126
G1 X129.444 Y105.048 E4.4890
G1 X129.441 Y105.641 E4.5127
G1 X129.330 Y107.474 E4.5859
G1 X129.256 Y108.094 E4.6109
G1 X128.937 Y109.879 E4.6833
G1 X128.801 Y110.456 E4.7069
G1 X128.276 Y112.231 E4.7808
G1 X128.088 Y112.763 E4.8033
G1 X127.366 Y114.505 E4.8786
G1 X127.111 Y115.036 E4.9021
G1 X126.222 Y116.655 E4.9758
G1 X125.944 Y117.105 E4.9969
G1 X125.174 Y118.228 E5.0513
G1 X124.870 Y118.629 E5.0713
G1 X123.704 Y120.028 E5.1440
G1 X123.329 Y120.433 E5.1661
G1 X122.004 Y121.726 E5.2399
G1 X121.623 Y122.063 E5.2603
G1 X120.197 Y123.211 E5.3333
G1 X119.790 Y123.508 E5.3534
G1 X118.309 Y124.486 E5.4243
G1 X117.948 Y124.705 E5.4411
G1 X116.855 Y125.309 E5.4910
G1 X116.554 Y125.463 E5.5044
G1 X115.466 Y125.978 E5.5525
G1 X115.160 Y126.111 E5.5658
G1 X114.044 Y126.556 E5.6137
G1 X113.734 Y126.669 E5.6269
G1 X112.555 Y127.057 E5.6765
G1 X112.162 Y127.170 E5.6928
G1 X110.457 Y127.591 E5.7629
G1 X109.987 Y127.685 E5.7820
G1 X108.245 Y127.952 E5.8524
G1 X107.867 Y127.996 E5.8675
G1 X106.634 Y128.097 E5.9169
G1 X106.341 Y128.113 E5.9286
G1 X105.143 Y128.145 E5.9764
G1 X105.137 Y127.665 F18000
G92 E0.0000
G1 X104.863 Y127.665 E0.0109 F1800
G1 X103.642 Y127.632 E0.0597
G1 X103.291 Y127.611 E0.0737
G1 X101.555 Y127.445 E0.1433
G1 X101.118 Y127.384 E0.1609
G1 X99.370 Y127.063 E0.2319
G1 X98.918 Y126.958 E0.2504
G1 X97.207 Y126.481 E0.3213
G1 X96.759 Y126.333 E0.3401
G1 X95.097 Y125.700 E0.4111
G1 X94.658 Y125.508 E0.4302
G1 X93.094 Y124.738 E0.4998
G1 X92.740 Y124.546 E0.5159
G1 X91.679 Y123.915 E0.5651
G1 X91.408 Y123.742 E0.5780
G1 X90.386 Y123.044 E0.6274
G1 X90.064 Y122.805 E0.6434
G1 X88.720 Y121.723 E0.7122
G1 X88.417 Y121.458 E0.7283
G1 X87.472 Y120.567 E0.7802
G1 X87.172 Y120.259 E0.7973
G1 X85.971 Y118.918 E0.8692
G1 X85.619 Y118.479 E0.8916
G1 X84.567 Y117.007 E0.9638
G1 X84.294 Y116.582 E0.9840
G1 X83.623 Y115.415 E1.0377
G1 X83.405 Y114.991 E1.0567
G1 X82.668 Y113.378 E1.1275
G1 X82.498 Y112.956 E1.1457
G1 X82.058 Y111.712 E1.1983
G1 X81.926 Y111.281 E1.2163
G1 X81.487 Y109.574 E1.2867
G1 X81.374 Y109.003 E1.3099
G1 X81.128 Y107.232 E1.3813
G1 X81.081 Y106.641 E1.4050
G1 X81.040 Y104.812 E1.4779
G1 X81.057 Y104.266 E1.4998
G1 X81.215 Y102.402 E1.5744
G1 X81.269 Y101.978 E1.5915
G1 X81.500 Y100.614 E1.6467
G1 X81.594 Y100.177 E1.6645
G1 X82.057 Y98.405 E1.7376
G1 X82.209 Y97.922 E1.7579
G1 X82.675 Y96.661 E1.8115
G1 X82.874 Y96.195 E1.8317
G1 X83.626 Y94.652 E1.9002
G1 X83.856 Y94.231 E1.9194
G1 X84.496 Y93.180 E1.9685
G1 X84.688 Y92.888 E1.9824
G1 X85.386 Y91.900 E2.0307
G1 X85.638 Y91.572 E2.0472
G1 X86.723 Y90.274 E2.1148
G1 X87.056 Y89.913 E2.1344
G1 X88.254 Y88.730 E2.2016
G1 X88.554 Y88.457 E2.2177
G1 X89.492 Y87.668 E2.2666
G1 X89.808 Y87.422 E2.2826
G1 X91.136 Y86.472 E2.3478
G1 X91.465 Y86.255 E2.3635
G1 X92.475 Y85.643 E2.4107
G1 X92.744 Y85.492 E2.4230
G1 X93.789 Y84.942 E2.4701
G1 X94.129 Y84.779 E2.4852
G1 X95.671 Y84.107 E2.5523
G1 X96.083 Y83.948 E2.5699
G1 X97.717 Y83.398 E2.6387
G1 X98.135 Y83.277 E2.6561
G1 X99.807 Y82.869 E2.7248
G1 X100.234 Y82.784 E2.7422
