; G-Code generated by Simplify3D(R) Version 4.1.2
; Nov 9, 2019 at 4:20:32 PM
; Settings Summary
;   processName,Process1
;   applyToModels,huelle-seite(2)
;   profileName,HBot
;   profileVersion,2019-10-26 23:38:43
;   baseProfile,Default
;   printMaterial,PLA
;   printQuality,Medium
;   printExtruders,
;   extruderName,Extruder 1
;   extruderToolheadNumber,0
;   extruderDiameter,0.4
;   extruderAutoWidth,1
;   extruderWidth,0.48
;   extrusionMultiplier,0.94
;   extruderUseRetract,1
;   extruderRetractionDistance,3
;   extruderExtraRestartDistance,0
;   extruderRetractionZLift,0
;   extruderRetractionSpeed,3600
;   extruderUseCoasting,1
;   extruderCoastingDistance,0.2
;   extruderUseWipe,1
;   extruderWipeDistance,5
;   primaryExtruder,0
;   layerHeight,0.2
;   topSolidLayers,3
;   bottomSolidLayers,3
;   perimeterOutlines,3
;   printPerimetersInsideOut,0
;   startPointOption,2
;   startPointOriginX,0
;   startPointOriginY,0
;   sequentialIslands,0
;   spiralVaseMode,0
;   firstLayerHeightPercentage,150
;   firstLayerWidthPercentage,150
;   firstLayerUnderspeed,0.5
;   useRaft,0
;   raftExtruder,0
;   raftTopLayers,3
;   raftBaseLayers,2
;   raftOffset,3
;   raftSeparationDistance,0.18
;   raftTopInfill,100
;   aboveRaftSpeedMultiplier,0.3
;   useSkirt,1
;   skirtExtruder,0
;   skirtLayers,1
;   skirtOutlines,3
;   skirtOffset,4
;   usePrimePillar,0
;   primePillarExtruder,999
;   primePillarWidth,12
;   primePillarLocation,7
;   primePillarSpeedMultiplier,1
;   useOozeShield,0
;   oozeShieldExtruder,999
;   oozeShieldOffset,2
;   oozeShieldOutlines,1
;   oozeShieldSidewallShape,1
;   oozeShieldSidewallAngle,30
;   oozeShieldSpeedMultiplier,1
;   infillExtruder,0
;   internalInfillPattern,Fast Honeycomb
;   externalInfillPattern,Rectilinear
;   infillPercentage,20
;   outlineOverlapPercentage,15
;   infillExtrusionWidthPercentage,150
;   minInfillLength,5
;   infillLayerInterval,1
;   internalInfillAngles,0
;   overlapInternalInfillAngles,0
;   externalInfillAngles,45,-45
;   generateSupport,0
;   supportExtruder,0
;   supportInfillPercentage,30
;   supportExtraInflation,0
;   supportBaseLayers,1
;   denseSupportExtruder,0
;   denseSupportLayers,0
;   denseSupportInfillPercentage,70
;   supportLayerInterval,1
;   supportHorizontalPartOffset,0.3
;   supportUpperSeparationLayers,1
;   supportLowerSeparationLayers,1
;   supportType,0
;   supportGridSpacing,4
;   maxOverhangAngle,45
;   supportAngles,0
;   temperatureName,Extruder 1
;   temperatureNumber,0
;   temperatureSetpointCount,2
;   temperatureSetpointLayers,1,2
;   temperatureSetpointTemperatures,220,210
;   temperatureStabilizeAtStartup,1
;   temperatureHeatedBed,0
;   fanLayers,1,2,3
;   fanSpeeds,0,15,25
;   blipFanToFullPower,1
;   adjustSpeedForCooling,1
;   minSpeedLayerTime,15
;   minCoolingSpeedSlowdown,20
;   increaseFanForCooling,0
;   minFanLayerTime,45
;   maxCoolingFanSpeed,40
;   increaseFanForBridging,0
;   bridgingFanSpeed,80
;   use5D,1
;   relativeEdistances,0
;   allowEaxisZeroing,1
;   independentExtruderAxes,0
;   includeM10123,0
;   stickySupport,1
;   applyToolheadOffsets,0
;   gcodeXoffset,0
;   gcodeYoffset,0
;   gcodeZoffset,0
;   overrideMachineDefinition,1
;   machineTypeOverride,0
;   strokeXoverride,200
;   strokeYoverride,200
;   strokeZoverride,150
;   originOffsetXoverride,0
;   originOffsetYoverride,0
;   originOffsetZoverride,0
;   homeXdirOverride,-1
;   homeYdirOverride,-1
;   homeZdirOverride,-1
;   flipXoverride,1
;   flipYoverride,-1
;   flipZoverride,1
;   toolheadOffsets,0,0|0,0|0,0|0,0|0,0|0,0
;   overrideFirmwareConfiguration,1
;   firmwareTypeOverride,RepRap (Marlin/Repetier/Sprinter)
;   GPXconfigOverride,r2
;   baudRateOverride,115200
;   overridePrinterModels,0
;   printerModelsOverride
;   startingGcode,G28 ; home all axes,G32 ; run bed.g -- probe bed and enable compensation
;   layerChangeGcode,
;   retractionGcode,
;   toolChangeGcode,
;   endingGcode,M0 ; call stop.g
;   exportFileFormat,gcode
;   celebration,0
;   celebrationSong,Random Song
;   postProcessing,
;   defaultSpeed,3600
;   outlineUnderspeed,0.5
;   solidInfillUnderspeed,0.8
;   supportUnderspeed,0.8
;   rapidXYspeed,18000
;   rapidZspeed,1200
;   minBridgingArea,50
;   bridgingExtraInflation,0
;   bridgingExtrusionMultiplier,0.96
;   bridgingSpeedMultiplier,1
;   useFixedBridgingAngle,0
;   fixedBridgingAngle,0
;   applyBridgingToPerimeters,0
;   filamentDiameters,1.75|1.75|1.75|1.75|1.75|1.75
;   filamentPricesPerKg,46|46|46|46|46|46
;   filamentDensities,1.25|1.25|1.25|1.25|1.25|1.25
;   useMinPrintHeight,0
;   minPrintHeight,0
;   useMaxPrintHeight,0
;   maxPrintHeight,0
;   useDiaphragm,1
;   diaphragmLayerInterval,20
;   robustSlicing,1
;   mergeAllIntoSolid,0
;   onlyRetractWhenCrossingOutline,1
;   retractBetweenLayers,0
;   useRetractionMinTravel,1
;   retractionMinTravel,3
;   retractWhileWiping,1
;   onlyWipeOutlines,0
;   avoidCrossingOutline,1
;   maxMovementDetourFactor,3
;   toolChangeRetractionDistance,12
;   toolChangeExtraRestartDistance,-0.5
;   toolChangeRetractionSpeed,600
;   externalThinWallType,1
;   internalThinWallType,1
;   thinWallAllowedOverlapPercentage,10
;   singleExtrusionMinLength,1
;   singleExtrusionMinPrintingWidthPercentage,50
;   singleExtrusionMaxPrintingWidthPercentage,200
;   singleExtrusionEndpointExtension,0.2
;   horizontalSizeCompensation,-0.1
G90
M82
M106 S0
M104 S220 T0
M109 S220 T0
G28 ; home all axes
G32 ; run bed.g -- probe bed and enable compensation
; process Process1
; layer 1, Z = 0.300
T0
G92 E0.0000
G1 E-3.0000 F3600
; feature skirt
; tool H0.300 W0.720
G1 Z0.300 F1200
G1 X66.300 Y23.888 F18000
G1 E0.0000 F3600
G92 E0.0000
G1 X67.183 Y21.756 E0.1948 F1800
G1 X78.756 Y10.183 E1.5764
G1 X80.888 Y9.300 E1.7711
G1 X130.302 Y9.300 E5.9424
G1 X133.700 Y12.698 E6.3480
G1 X133.700 Y160.290 E18.8069
G1 X128.471 Y163.726 E19.3351
G1 X124.783 Y162.132 E19.6742
G1 X124.380 Y161.995 E19.7102
G1 X123.935 Y161.877 E19.7490
G1 X123.482 Y161.788 E19.7880
G1 X123.025 Y161.731 E19.8269
G1 X122.565 Y161.705 E19.8658
G1 X122.104 Y161.710 E19.9047
G1 X121.645 Y161.746 E19.9436
G1 X121.189 Y161.814 E19.9825
G1 X120.739 Y161.912 E20.0214
G1 X120.344 Y162.026 E20.0561
G1 X119.607 Y162.310 E20.1228
G1 X119.237 Y162.489 E20.1575
G1 X118.837 Y162.718 E20.1964
G1 X118.453 Y162.974 E20.2353
G1 X118.127 Y163.224 E20.2700
G1 X117.544 Y163.757 E20.3367
G1 X117.265 Y164.059 E20.3714
G1 X116.975 Y164.418 E20.4103
G1 X116.711 Y164.795 E20.4492
G1 X116.499 Y165.148 E20.4839
G1 X116.150 Y165.857 E20.5506
G1 X116.000 Y166.239 E20.5853
G1 X115.862 Y166.679 E20.6242
G1 X115.753 Y167.127 E20.6631
G1 X115.676 Y167.581 E20.7020
G1 X115.629 Y168.039 E20.7409
G1 X115.615 Y168.451 E20.7756
G1 X115.655 Y169.240 E20.8423
G1 X115.711 Y169.647 E20.8770
G1 X115.794 Y170.049 E20.9117
G1 X116.004 Y170.759 E20.9742
G1 X116.266 Y171.398 E21.0325
G1 X116.593 Y172.007 E21.0908
G1 X116.979 Y172.580 E21.1491
G1 X117.421 Y173.110 E21.2074
G1 X117.950 Y173.627 E21.2699
G1 X118.268 Y173.889 E21.3046
G1 X118.603 Y174.129 E21.3394
G1 X119.281 Y174.532 E21.4060
G1 X119.651 Y174.712 E21.4408
G1 X120.078 Y174.884 E21.4796
G1 X120.516 Y175.028 E21.5185
G1 X120.963 Y175.141 E21.5574
G1 X121.367 Y175.215 E21.5921
G1 X122.154 Y175.290 E21.6588
G1 X122.565 Y175.295 E21.6935
G1 X123.025 Y175.269 E21.7324
G1 X123.482 Y175.212 E21.7713
G1 X123.935 Y175.123 E21.8103
G1 X124.380 Y175.005 E21.8491
G1 X124.783 Y174.868 E21.8851
G1 X128.471 Y173.274 E22.2242
G1 X133.700 Y176.710 E22.7524
G1 X133.700 Y187.302 E23.6465
G1 X130.302 Y190.700 E24.0521
G1 X80.888 Y190.700 E28.2234
G1 X78.756 Y189.817 E28.4182
G1 X67.183 Y178.244 E29.7998
G1 X66.300 Y176.112 E29.9946
G1 X66.300 Y23.888 E42.8445
G1 X67.020 Y24.031 F18000
G92 E0.0000
G1 X67.793 Y22.164 E0.1706 F1800
G1 X79.164 Y10.793 E1.5280
G1 X81.031 Y10.020 E1.6986
G1 X130.004 Y10.020 E5.8326
G1 X132.980 Y12.996 E6.1879
G1 X132.980 Y159.901 E18.5888
G1 X128.400 Y162.911 E19.0514
G1 X125.042 Y161.460 E19.3602
G1 X124.589 Y161.306 E19.4006
G1 X124.097 Y161.175 E19.4436
G1 X123.596 Y161.077 E19.4867
G1 X123.090 Y161.014 E19.5297
G1 X122.582 Y160.985 E19.5727
G1 X122.072 Y160.990 E19.6157
G1 X121.564 Y161.031 E19.6588
G1 X121.060 Y161.105 E19.7018
G1 X120.562 Y161.214 E19.7448
G1 X120.114 Y161.343 E19.7841
G1 X119.320 Y161.649 E19.8560
G1 X118.900 Y161.852 E19.8954
G1 X118.458 Y162.106 E19.9384
G1 X118.034 Y162.388 E19.9814
G1 X117.664 Y162.672 E20.0207
G1 X117.036 Y163.246 E20.0926
G1 X116.719 Y163.588 E20.1319
G1 X116.399 Y163.985 E20.1750
G1 X116.107 Y164.403 E20.2180
G1 X115.867 Y164.802 E20.2574
G1 X115.490 Y165.566 E20.3292
G1 X115.321 Y166.000 E20.3685
G1 X115.168 Y166.486 E20.4116
G1 X115.048 Y166.981 E20.4546
G1 X114.962 Y167.484 E20.4976
G1 X114.910 Y167.991 E20.5406
G1 X114.894 Y168.457 E20.5800
G1 X114.937 Y169.307 E20.6519
G1 X115.000 Y169.768 E20.6912
G1 X115.095 Y170.225 E20.7305
G1 X115.324 Y170.999 E20.7986
G1 X115.614 Y171.705 E20.8631
G1 X115.975 Y172.379 E20.9277
G1 X116.402 Y173.013 E20.9922
G1 X116.891 Y173.599 E21.0566
G1 X117.469 Y174.163 E21.1248
G1 X117.829 Y174.460 E21.1642
G1 X118.208 Y174.732 E21.2035
G1 X118.940 Y175.167 E21.2754
G1 X119.359 Y175.370 E21.3147
G1 X119.831 Y175.561 E21.3577
G1 X120.316 Y175.720 E21.4008
G1 X120.810 Y175.845 E21.4438
G1 X121.268 Y175.929 E21.4831
G1 X122.115 Y176.010 E21.5549
G1 X122.582 Y176.015 E21.5943
G1 X123.090 Y175.986 E21.6373
G1 X123.596 Y175.923 E21.6804
G1 X124.097 Y175.825 E21.7234
G1 X124.589 Y175.694 E21.7664
G1 X125.042 Y175.540 E21.8068
G1 X128.400 Y174.089 E22.1156
G1 X132.980 Y177.099 E22.5782
G1 X132.980 Y187.004 E23.4144
G1 X130.004 Y189.980 E23.7697
G1 X81.031 Y189.980 E27.9037
G1 X79.164 Y189.207 E28.0743
G1 X67.793 Y177.836 E29.4317
G1 X67.020 Y175.969 E29.6023
G1 X67.020 Y24.031 E42.4280
G1 X67.740 Y24.174 F18000
G92 E0.0000
G1 X68.404 Y22.572 E0.1464 F1800
G1 X79.572 Y11.404 E1.4796
G1 X81.174 Y10.740 E1.6261
G1 X129.706 Y10.740 E5.7228
G1 X132.260 Y13.294 E6.0277
G1 X132.260 Y159.513 E18.3707
G1 X128.329 Y162.096 E18.7677
G1 X125.301 Y160.788 E19.0462
G1 X124.798 Y160.616 E19.0911
G1 X124.258 Y160.472 E19.1382
G1 X123.710 Y160.366 E19.1854
G1 X123.156 Y160.296 E19.2325
G1 X122.598 Y160.265 E19.2797
G1 X122.040 Y160.271 E19.3268
G1 X121.483 Y160.315 E19.3740
G1 X120.930 Y160.396 E19.4211
G1 X120.384 Y160.515 E19.4683
G1 X119.884 Y160.660 E19.5122
G1 X119.033 Y160.988 E19.5892
G1 X118.564 Y161.215 E19.6332
G1 X118.079 Y161.493 E19.6804
G1 X117.614 Y161.802 E19.7275
G1 X117.201 Y162.120 E19.7715
G1 X116.528 Y162.735 E19.8485
G1 X116.174 Y163.118 E19.8925
G1 X115.823 Y163.553 E19.9397
G1 X115.503 Y164.010 E19.9868
G1 X115.234 Y164.457 E20.0308
G1 X114.831 Y165.275 E20.1078
G1 X114.641 Y165.760 E20.1518
G1 X114.474 Y166.293 E20.1989
G1 X114.342 Y166.836 E20.2461
G1 X114.248 Y167.386 E20.2932
G1 X114.191 Y167.942 E20.3404
G1 X114.174 Y168.463 E20.3844
G1 X114.220 Y169.374 E20.4614
G1 X114.290 Y169.890 E20.5053
G1 X114.396 Y170.400 E20.5493
G1 X114.644 Y171.238 E20.6231
G1 X114.962 Y172.013 E20.6938
G1 X115.358 Y172.751 E20.7645
G1 X115.826 Y173.445 E20.8352
G1 X116.362 Y174.088 E20.9058
G1 X116.987 Y174.700 E20.9797
G1 X117.390 Y175.031 E21.0237
G1 X117.814 Y175.335 E21.0677
G1 X118.598 Y175.801 E21.1447
G1 X119.066 Y176.029 E21.1887
G1 X119.584 Y176.238 E21.2358
G1 X120.115 Y176.411 E21.2830
G1 X120.656 Y176.549 E21.3301
G1 X121.169 Y176.642 E21.3741
G1 X122.077 Y176.730 E21.4511
G1 X122.598 Y176.735 E21.4951
G1 X123.156 Y176.704 E21.5422
G1 X123.710 Y176.634 E21.5894
G1 X124.258 Y176.528 E21.6365
G1 X124.798 Y176.384 E21.6837
G1 X125.301 Y176.212 E21.7286
G1 X128.329 Y174.904 E22.0070
G1 X132.260 Y177.487 E22.4041
G1 X132.260 Y186.706 E23.1823
G1 X129.706 Y189.260 E23.4872
G1 X81.174 Y189.260 E27.5839
G1 X79.572 Y188.596 E27.7304
G1 X68.404 Y177.428 E29.0636
G1 X67.740 Y175.826 E29.2100
G1 X67.740 Y24.174 E42.0116
G92 E0.0000
G1 E-3.0000 F3600
; feature outer perimeter
G1 X72.460 Y25.191 F18000
G1 E0.0000 F3600
G92 E0.0000
G1 X82.191 Y15.460 E1.1616 F900
G1 X127.540 Y15.460 E4.9898
G1 X127.540 Y156.605 E16.9045
G1 X126.999 Y156.379 E16.9540
G1 X126.167 Y156.096 E17.0282
G1 X125.318 Y155.870 E17.1023
G1 X124.455 Y155.702 E17.1765
G1 X123.583 Y155.593 E17.2507
G1 X122.706 Y155.543 E17.3249
G1 X121.827 Y155.553 E17.3990
G1 X120.951 Y155.622 E17.4732
G1 X120.082 Y155.750 E17.5474
G1 X119.223 Y155.938 E17.6216
G1 X118.383 Y156.181 E17.6954
G1 X117.961 Y156.327 E17.7332
G1 X117.149 Y156.655 E17.8070
G1 X116.359 Y157.039 E17.8812
G1 X115.596 Y157.475 E17.9554
G1 X114.865 Y157.962 E18.0296
G1 X114.171 Y158.495 E18.1034
G1 X113.831 Y158.786 E18.1411
G1 X113.195 Y159.387 E18.2150
G1 X112.599 Y160.032 E18.2892
G1 X112.047 Y160.716 E18.3634
G1 X111.544 Y161.436 E18.4375
G1 X111.090 Y162.189 E18.5117
G1 X110.690 Y162.967 E18.5856
G1 X110.506 Y163.375 E18.6233
G1 X110.188 Y164.189 E18.6971
G1 X109.923 Y165.027 E18.7713
G1 X109.717 Y165.882 E18.8455
G1 X109.569 Y166.747 E18.9197
G1 X109.479 Y167.622 E18.9939
G1 X109.450 Y168.500 E19.0680
G1 X109.479 Y169.374 E19.1419
G1 X109.517 Y169.820 E19.1797
G1 X109.635 Y170.687 E19.2535
G1 X109.812 Y171.544 E19.3273
G1 X109.925 Y171.976 E19.3651
G1 X110.186 Y172.807 E19.4386
G1 X110.342 Y173.226 E19.4764
G1 X110.687 Y174.026 E19.5499
G1 X110.884 Y174.427 E19.5876
G1 X111.311 Y175.191 E19.6615
G1 X111.787 Y175.925 E19.7353
G1 X112.048 Y176.284 E19.7728
G1 X112.320 Y176.633 E19.8102
G1 X112.889 Y177.293 E19.8837
G1 X113.198 Y177.616 E19.9214
G1 X113.834 Y178.217 E19.9953
G1 X114.512 Y178.776 E20.0695
G1 X115.226 Y179.287 E20.1436
G1 X115.970 Y179.747 E20.2175
G1 X116.362 Y179.963 E20.2552
G1 X117.149 Y180.345 E20.3291
G1 X117.964 Y180.674 E20.4033
G1 X118.799 Y180.947 E20.4774
G1 X119.651 Y181.163 E20.5516
G1 X120.512 Y181.320 E20.6255
G1 X120.955 Y181.378 E20.6632
G1 X121.827 Y181.447 E20.7371
G1 X122.706 Y181.457 E20.8112
G1 X123.583 Y181.407 E20.8854
G1 X124.455 Y181.298 E20.9596
G1 X125.318 Y181.130 E21.0338
G1 X126.167 Y180.904 E21.1079
G1 X126.999 Y180.621 E21.1821
G1 X127.540 Y180.394 E21.2317
G1 X127.540 Y184.540 E21.5816
G1 X82.191 Y184.540 E25.4097
G1 X72.460 Y174.809 E26.5714
G1 X72.460 Y25.391 E39.1844
G1 X72.460 Y25.191 F900
G1 X75.996 Y21.655 F900
; feature inner perimeter
G1 X73.180 Y25.489 F18000
G92 E0.0000
G1 X82.489 Y16.180 E1.1113 F1350
G1 X126.820 Y16.180 E4.8535
G1 X126.820 Y155.558 E16.6189
G1 X126.376 Y155.407 E16.6586
G1 X125.479 Y155.168 E16.7369
G1 X124.569 Y154.991 E16.8152
G1 X123.648 Y154.875 E16.8935
G1 X122.722 Y154.823 E16.9718
G1 X121.795 Y154.833 E17.0501
G1 X120.870 Y154.906 E17.1284
G1 X119.953 Y155.042 E17.2067
G1 X119.046 Y155.239 E17.2850
G1 X118.165 Y155.495 E17.3624
G1 X117.708 Y155.653 E17.4033
G1 X116.857 Y155.997 E17.4807
G1 X116.023 Y156.402 E17.5590
G1 X115.217 Y156.863 E17.6373
G1 X114.445 Y157.377 E17.7156
G1 X113.718 Y157.936 E17.7931
G1 X113.350 Y158.250 E17.8339
G1 X112.683 Y158.880 E17.9114
G1 X112.053 Y159.561 E17.9897
G1 X111.471 Y160.284 E18.0680
G1 X110.940 Y161.044 E18.1463
G1 X110.461 Y161.838 E18.2246
G1 X110.041 Y162.654 E18.3020
G1 X109.842 Y163.095 E18.3429
G1 X109.508 Y163.950 E18.4203
G1 X109.229 Y164.834 E18.4986
G1 X109.011 Y165.736 E18.5769
G1 X108.855 Y166.650 E18.6552
G1 X108.761 Y167.573 E18.7335
G1 X108.729 Y168.500 E18.8118
G1 X108.760 Y169.417 E18.8893
G1 X108.801 Y169.899 E18.9301
G1 X108.925 Y170.808 E19.0076
G1 X109.111 Y171.707 E19.0851
G1 X109.232 Y172.175 E19.1259
G1 X109.505 Y173.041 E19.2025
G1 X109.674 Y173.494 E19.2433
G1 X110.033 Y174.328 E19.3200
G1 X110.247 Y174.762 E19.3608
G1 X110.694 Y175.563 E19.4383
G1 X111.194 Y176.333 E19.5157
G1 X111.472 Y176.716 E19.5557
G1 X111.763 Y177.090 E19.5957
G1 X112.356 Y177.777 E19.6723
G1 X112.690 Y178.127 E19.7132
G1 X113.357 Y178.757 E19.7906
G1 X114.073 Y179.347 E19.8689
G1 X114.827 Y179.887 E19.9472
G1 X115.608 Y180.369 E20.0247
G1 X116.032 Y180.602 E20.0655
G1 X116.857 Y181.003 E20.1430
G1 X117.717 Y181.351 E20.2213
G1 X118.599 Y181.639 E20.2996
G1 X119.498 Y181.867 E20.3779
G1 X120.400 Y182.032 E20.4553
G1 X120.880 Y182.095 E20.4962
G1 X121.795 Y182.167 E20.5736
