; G-Code generated by Simplify3D(R) Version 4.1.2
; Jan 7, 2020 at 10:10:43 PM
; Settings Summary
;   processName,Process1
;   applyToModels,karte,karte(2),karte(3),karte(4)
;   profileName,HBot (modified)
;   profileVersion,2019-10-26 23:38:43
;   baseProfile,Default
;   printMaterial,PLA
;   printQuality,Fast
;   printExtruders,
;   extruderName,Extruder 1
;   extruderToolheadNumber,0
;   extruderDiameter,0.4
;   extruderAutoWidth,1
;   extruderWidth,0.48
;   extrusionMultiplier,0.94
;   extruderUseRetract,1
;   extruderRetractionDistance,3
;   extruderExtraRestartDistance,0
;   extruderRetractionZLift,0
;   extruderRetractionSpeed,3600
;   extruderUseCoasting,1
;   extruderCoastingDistance,0.2
;   extruderUseWipe,1
;   extruderWipeDistance,5
;   primaryExtruder,0
;   layerHeight,0.3
;   topSolidLayers,3
;   bottomSolidLayers,3
;   perimeterOutlines,3
;   printPerimetersInsideOut,1
;   startPointOption,2
;   startPointOriginX,0
;   startPointOriginY,0
;   sequentialIslands,0
;   spiralVaseMode,0
;   firstLayerHeightPercentage,100
;   firstLayerWidthPercentage,150
;   firstLayerUnderspeed,0.5
;   useRaft,0
;   raftExtruder,0
;   raftTopLayers,3
;   raftBaseLayers,2
;   raftOffset,3
;   raftSeparationDistance,0.18
;   raftTopInfill,100
;   aboveRaftSpeedMultiplier,0.3
;   useSkirt,1
;   skirtExtruder,0
;   skirtLayers,1
;   skirtOutlines,3
;   skirtOffset,4
;   usePrimePillar,0
;   primePillarExtruder,999
;   primePillarWidth,12
;   primePillarLocation,7
;   primePillarSpeedMultiplier,1
;   useOozeShield,0
;   oozeShieldExtruder,999
;   oozeShieldOffset,2
;   oozeShieldOutlines,1
;   oozeShieldSidewallShape,1
;   oozeShieldSidewallAngle,30
;   oozeShieldSpeedMultiplier,1
;   infillExtruder,0
;   internalInfillPattern,Rectilinear
;   externalInfillPattern,Rectilinear
;   infillPercentage,10
;   outlineOverlapPercentage,25
;   infillExtrusionWidthPercentage,150
;   minInfillLength,5
;   infillLayerInterval,1
;   internalInfillAngles,0,90
;   overlapInternalInfillAngles,1
;   externalInfillAngles,45,-45
;   generateSupport,0
;   supportExtruder,0
;   supportInfillPercentage,25
;   supportExtraInflation,0
;   supportBaseLayers,1
;   denseSupportExtruder,0
;   denseSupportLayers,0
;   denseSupportInfillPercentage,70
;   supportLayerInterval,1
;   supportHorizontalPartOffset,0.3
;   supportUpperSeparationLayers,1
;   supportLowerSeparationLayers,1
;   supportType,0
;   supportGridSpacing,4
;   maxOverhangAngle,45
;   supportAngles,0
;   temperatureName,Extruder 1,Heated Bed
;   temperatureNumber,0,1
;   temperatureSetpointCount,2,1
;   temperatureSetpointLayers,1,2,1
;   temperatureSetpointTemperatures,217,210,55
;   temperatureStabilizeAtStartup,1,1
;   temperatureHeatedBed,0,1
;   fanLayers,1,3,5
;   fanSpeeds,0,15,20
;   blipFanToFullPower,1
;   adjustSpeedForCooling,1
;   minSpeedLayerTime,15
;   minCoolingSpeedSlowdown,20
;   increaseFanForCooling,0
;   minFanLayerTime,45
;   maxCoolingFanSpeed,40
;   increaseFanForBridging,0
;   bridgingFanSpeed,80
;   use5D,1
;   relativeEdistances,0
;   allowEaxisZeroing,1
;   independentExtruderAxes,0
;   includeM10123,0
;   stickySupport,1
;   applyToolheadOffsets,0
;   gcodeXoffset,0
;   gcodeYoffset,0
;   gcodeZoffset,0
;   overrideMachineDefinition,1
;   machineTypeOverride,0
;   strokeXoverride,200
;   strokeYoverride,200
;   strokeZoverride,150
;   originOffsetXoverride,0
;   originOffsetYoverride,0
;   originOffsetZoverride,0
;   homeXdirOverride,-1
;   homeYdirOverride,-1
;   homeZdirOverride,-1
;   flipXoverride,1
;   flipYoverride,-1
;   flipZoverride,1
;   toolheadOffsets,0,0|0,0|0,0|0,0|0,0|0,0
;   overrideFirmwareConfiguration,1
;   firmwareTypeOverride,RepRap (Marlin/Repetier/Sprinter)
;   GPXconfigOverride,r2
;   baudRateOverride,115200
;   overridePrinterModels,0
;   printerModelsOverride
;   startingGcode,G28 ; home all axes,G32 ; run bed.g -- probe bed and enable compensation
;   layerChangeGcode,
;   retractionGcode,
;   toolChangeGcode,
;   endingGcode,M0 ; call stop.g
;   exportFileFormat,gcode
;   celebration,0
;   celebrationSong,Random Song
;   postProcessing,
;   defaultSpeed,3600
;   outlineUnderspeed,0.5
;   solidInfillUnderspeed,0.8
;   supportUnderspeed,0.8
;   rapidXYspeed,18000
;   rapidZspeed,1200
;   minBridgingArea,50
;   bridgingExtraInflation,0
;   bridgingExtrusionMultiplier,0.96
;   bridgingSpeedMultiplier,1
;   useFixedBridgingAngle,0
;   fixedBridgingAngle,0
;   applyBridgingToPerimeters,0
;   filamentDiameters,1.75|1.75|1.75|1.75|1.75|1.75
;   filamentPricesPerKg,46|46|46|46|46|46
;   filamentDensities,1.25|1.25|1.25|1.25|1.25|1.25
;   useMinPrintHeight,0
;   minPrintHeight,0
;   useMaxPrintHeight,0
;   maxPrintHeight,0
;   useDiaphragm,1
;   diaphragmLayerInterval,20
;   robustSlicing,1
;   mergeAllIntoSolid,0
;   onlyRetractWhenCrossingOutline,1
;   retractBetweenLayers,0
;   useRetractionMinTravel,1
;   retractionMinTravel,3
;   retractWhileWiping,1
;   onlyWipeOutlines,1
;   avoidCrossingOutline,1
;   maxMovementDetourFactor,3
;   toolChangeRetractionDistance,12
;   toolChangeExtraRestartDistance,-0.5
;   toolChangeRetractionSpeed,600
;   externalThinWallType,1
;   internalThinWallType,1
;   thinWallAllowedOverlapPercentage,10
;   singleExtrusionMinLength,1
;   singleExtrusionMinPrintingWidthPercentage,50
;   singleExtrusionMaxPrintingWidthPercentage,200
;   singleExtrusionEndpointExtension,0.2
;   horizontalSizeCompensation,-0.1
G90
M82
M106 S0
M140 S55
M190 S55
M104 S217 T0
M109 S217 T0
G28 ; home all axes
G32 ; run bed.g -- probe bed and enable compensation
; process Process1
; layer 1, Z = 0.300
T0
G92 E0.0000
G1 E-3.0000 F3600
; feature skirt
; tool H0.300 W0.720
G1 Z0.300 F1200
G1 X15.198 Y31.800 F18000
G1 E0.0000 F3600
G92 E0.0000
G1 X99.802 Y31.800 E7.1419 F1800
G1 X100.000 Y31.998 E7.1654
G1 X100.198 Y31.800 E7.1890
G1 X184.802 Y31.800 E14.3309
G1 X188.200 Y35.198 E14.7365
G1 X188.200 Y99.802 E20.1900
G1 X188.002 Y100.000 E20.2136
G1 X188.200 Y100.198 E20.2372
G1 X188.200 Y164.802 E25.6908
G1 X184.802 Y168.200 E26.0964
G1 X100.198 Y168.200 E33.2382
G1 X100.000 Y168.002 E33.2618
G1 X99.802 Y168.200 E33.2854
G1 X15.198 Y168.200 E40.4273
G1 X11.800 Y164.802 E40.8329
G1 X11.800 Y100.198 E46.2864
G1 X11.998 Y100.000 E46.3100
G1 X11.800 Y99.802 E46.3336
G1 X11.800 Y35.198 E51.7872
G1 X15.198 Y31.800 E52.1928
G1 X15.496 Y32.520 F18000
G92 E0.0000
G1 X99.504 Y32.520 E7.0915 F1800
G1 X100.000 Y33.016 E7.1507
G1 X100.496 Y32.520 E7.2099
G1 X184.504 Y32.520 E14.3014
G1 X187.480 Y35.496 E14.6566
G1 X187.480 Y99.504 E20.0599
G1 X186.984 Y100.000 E20.1190
G1 X187.480 Y100.496 E20.1782
G1 X187.480 Y164.504 E25.5815
G1 X184.504 Y167.480 E25.9367
G1 X100.496 Y167.480 E33.0282
G1 X100.000 Y166.984 E33.0874
G1 X99.504 Y167.480 E33.1466
G1 X15.496 Y167.480 E40.2381
G1 X12.520 Y164.504 E40.5933
G1 X12.520 Y100.496 E45.9966
G1 X13.016 Y100.000 E46.0557
G1 X12.520 Y99.504 E46.1149
G1 X12.520 Y35.496 E51.5182
G1 X15.496 Y32.520 E51.8734
G1 X15.794 Y33.240 F18000
G92 E0.0000
G1 X99.206 Y33.240 E7.0412 F1800
G1 X100.000 Y34.034 E7.1359
G1 X100.794 Y33.240 E7.2307
G1 X184.206 Y33.240 E14.2719
G1 X186.760 Y35.794 E14.5768
G1 X186.760 Y99.206 E19.9297
G1 X185.966 Y100.000 E20.0245
G1 X186.760 Y100.794 E20.1192
G1 X186.760 Y164.206 E25.4721
G1 X184.206 Y166.760 E25.7770
G1 X100.794 Y166.760 E32.8182
G1 X100.000 Y165.966 E32.9130
G1 X99.206 Y166.760 E33.0077
G1 X15.794 Y166.760 E40.0489
G1 X13.240 Y164.206 E40.3538
G1 X13.240 Y100.794 E45.7067
G1 X14.034 Y100.000 E45.8015
G1 X13.240 Y99.206 E45.8963
G1 X13.240 Y35.794 E51.2491
G1 X15.794 Y33.240 E51.5540
G92 E0.0000
G1 E-3.0000 F3600
; feature inner perimeter
G1 X17.960 Y37.960 F18000
G1 X18.557 Y37.960
G1 X19.400 Y39.400
G1 E0.0000 F3600
G92 E0.0000
G1 X95.600 Y39.400 E6.4324 F1350
G1 X95.600 Y95.600 E11.1764
G1 X19.400 Y95.600 E17.6088
G1 X19.400 Y39.600 E22.3360
G1 X19.400 Y39.400 F1350
G1 X18.680 Y38.680 F18000
G92 E0.0000
G1 X96.320 Y38.680 E6.5539 F1350
G1 X96.320 Y96.320 E11.4196
G1 X18.680 Y96.320 E17.9735
G1 X18.680 Y38.880 E22.8222
G1 X18.680 Y38.680 F1350
; feature outer perimeter
G1 X17.960 Y37.960 F18000
G92 E0.0000
G1 X97.040 Y37.960 E6.6755 F900
G1 X97.040 Y97.040 E11.6627
G1 X17.960 Y97.040 E18.3381
G1 X17.960 Y38.160 E23.3085
G1 X17.960 Y37.960 F900
G1 X22.960 Y37.960 F900
; feature solid layer
G1 X19.940 Y94.271 F18000
G92 E0.0000
G1 X20.729 Y95.060 E0.0942 F1440
G1 X21.747 Y95.060 E0.1801
G1 X19.940 Y93.253 E0.3959
G1 X19.940 Y92.235 E0.4818
G1 X22.765 Y95.060 E0.8191
G1 X23.784 Y95.060 E0.9051
G1 X19.940 Y91.216 E1.3639
G1 X19.940 Y90.198 E1.4499
G1 X24.802 Y95.060 E2.0303
G1 X25.820 Y95.060 E2.1163
G1 X19.940 Y89.180 E2.8182
G1 X19.940 Y88.162 E2.9042
G1 X26.838 Y95.060 E3.7277
G1 X27.857 Y95.060 E3.8137
G1 X19.940 Y87.143 E4.7587
G1 X19.940 Y86.125 E4.8447
G1 X28.875 Y95.060 E5.9113
G1 X29.893 Y95.060 E5.9973
G1 X19.940 Y85.107 E7.1855
G1 X19.940 Y84.089 E7.2714
G1 X30.911 Y95.060 E8.5812
G1 X31.930 Y95.060 E8.6671
G1 X19.940 Y83.070 E10.0984
G1 X19.940 Y82.052 E10.1844
G1 X32.948 Y95.060 E11.7372
G1 X33.966 Y95.060 E11.8232
G1 X19.940 Y81.034 E13.4976
G1 X19.940 Y80.016 E13.5836
G1 X34.984 Y95.060 E15.3795
G1 X36.002 Y95.060 E15.4655
G1 X19.940 Y78.998 E17.3830
G1 X19.940 Y77.979 E17.4690
G1 X37.021 Y95.060 E19.5081
G1 X38.039 Y95.060 E19.5940
G1 X19.940 Y76.961 E21.7547
G1 X19.940 Y75.943 E21.8406
G1 X39.057 Y95.060 E24.1228
G1 X40.075 Y95.060 E24.2088
G1 X19.940 Y74.925 E26.6125
G1 X19.940 Y73.906 E26.6985
G1 X41.094 Y95.060 E29.2238
G1 X42.112 Y95.060 E29.3098
G1 X19.940 Y72.888 E31.9566
G1 X19.940 Y71.870 E32.0426
G1 X43.130 Y95.060 E34.8110
G1 X44.148 Y95.060 E34.8970
G1 X19.940 Y70.852 E37.7869
G1 X19.940 Y69.833 E37.8729
G1 X45.167 Y95.060 E40.8844
G1 X46.185 Y95.060 E40.9704
G1 X19.940 Y68.815 E44.1035
G1 X19.940 Y67.797 E44.1894
G1 X47.203 Y95.060 E47.4441
G1 X48.221 Y95.060 E47.5300
G1 X19.940 Y66.779 E50.9063
G1 X19.940 Y65.761 E50.9922
G1 X49.239 Y95.060 E54.4900
G1 X50.258 Y95.060 E54.5759
G1 X19.940 Y64.742 E58.1953
G1 X19.940 Y63.724 E58.2812
G1 X51.276 Y95.060 E62.0221
G1 X52.294 Y95.060 E62.1080
G1 X19.940 Y62.706 E65.9705
G1 X19.940 Y61.688 E66.0564
G1 X53.312 Y95.060 E70.0404
G1 X54.331 Y95.060 E70.1264
G1 X19.940 Y60.669 E74.2319
G1 X19.940 Y59.651 E74.3179
G1 X55.349 Y95.060 E78.5450
G1 X56.367 Y95.060 E78.6309
G1 X19.940 Y58.633 E82.9796
G1 X19.940 Y57.615 E83.0655
G1 X57.385 Y95.060 E87.5358
G1 X58.404 Y95.060 E87.6217
G1 X19.940 Y56.596 E92.2135
G1 X19.940 Y55.578 E92.2994
G1 X59.422 Y95.060 E97.0128
G1 X60.440 Y95.060 E97.0987
G1 X19.940 Y54.560 E101.9336
G1 X19.940 Y53.542 E102.0196
G1 X61.458 Y95.060 E106.9760
G1 X62.477 Y95.060 E107.0620
G1 X19.940 Y52.523 E112.1400
G1 X19.940 Y51.505 E112.2259
G1 X63.495 Y95.060 E117.4255
G1 X64.513 Y95.060 E117.5114
G1 X19.940 Y50.487 E122.8325
G1 X19.940 Y49.469 E122.9185
G1 X65.531 Y95.060 E128.3612
G1 X66.549 Y95.060 E128.4471
G1 X19.940 Y48.451 E134.0113
G1 X19.940 Y47.432 E134.0973
G1 X67.568 Y95.060 E139.7831
G1 X68.586 Y95.060 E139.8690
G1 X19.940 Y46.414 E145.6764
G1 X19.940 Y45.396 E145.7623
G1 X69.604 Y95.060 E151.6912
G1 X70.622 Y95.060 E151.7772
G1 X19.940 Y44.378 E157.8276
G1 X19.940 Y43.359 E157.9136
G1 X71.641 Y95.060 E164.0856
G1 X72.659 Y95.060 E164.1715
G1 X19.940 Y42.341 E170.4651
G1 X19.940 Y41.323 E170.5511
G1 X73.677 Y95.060 E176.9662
G1 X74.695 Y95.060 E177.0521
G1 X19.940 Y40.305 E183.5888
G1 X19.940 Y39.940 E183.6196
G1 X20.594 Y39.940 E183.6748
G1 X75.714 Y95.060 E190.2550
G1 X76.732 Y95.060 E190.3409
G1 X21.612 Y39.940 E196.9211
G1 X22.630 Y39.940 E197.0071
G1 X77.750 Y95.060 E203.5873
G1 X78.768 Y95.060 E203.6733
G1 X23.648 Y39.940 E210.2535
G1 X24.667 Y39.940 E210.3394
G1 X79.787 Y95.060 E216.9196
G1 X80.805 Y95.060 E217.0056
G1 X25.685 Y39.940 E223.5858
G1 X26.703 Y39.940 E223.6718
G1 X81.823 Y95.060 E230.2520
G1 X82.841 Y95.060 E230.3379
G1 X27.721 Y39.940 E236.9181
G1 X28.739 Y39.940 E237.0041
G1 X83.859 Y95.060 E243.5843
G1 X84.878 Y95.060 E243.6703
G1 X29.758 Y39.940 E250.2505
G1 X30.776 Y39.940 E250.3364
G1 X85.896 Y95.060 E256.9166
G1 X86.914 Y95.060 E257.0026
G1 X31.794 Y39.940 E263.5828
G1 X32.812 Y39.940 E263.6687
G1 X87.932 Y95.060 E270.2490
G1 X88.951 Y95.060 E270.3349
G1 X33.831 Y39.940 E276.9151
G1 X34.849 Y39.940 E277.0011
G1 X89.969 Y95.060 E283.5813
G1 X90.987 Y95.060 E283.6672
G1 X35.867 Y39.940 E290.2475
G1 X36.885 Y39.940 E290.3334
G1 X92.005 Y95.060 E296.9136
G1 X93.024 Y95.060 E296.9996
G1 X37.904 Y39.940 E303.5798
G1 X38.922 Y39.940 E303.6657
G1 X94.042 Y95.060 E310.2460
G1 X95.060 Y95.060 E310.3319
G1 X39.940 Y39.940 E316.9121
G1 X40.958 Y39.940 E316.9981
G1 X95.060 Y94.042 E323.4567
G1 X95.060 Y93.024 E323.5427
G1 X41.976 Y39.940 E329.8798
G1 X42.995 Y39.940 E329.9657
G1 X95.060 Y92.005 E336.1813
G1 X95.060 Y90.987 E336.2672
G1 X44.013 Y39.940 E342.3612
G1 X45.031 Y39.940 E342.4472
G1 X95.060 Y89.969 E348.4196
G1 X95.060 Y88.951 E348.5055
G1 X46.049 Y39.940 E354.3564
G1 X47.068 Y39.940 E354.4424
G1 X95.060 Y87.932 E360.1717
G1 X95.060 Y86.914 E360.2576
G1 X48.086 Y39.940 E365.8654
G1 X49.104 Y39.940 E365.9513
G1 X95.060 Y85.896 E371.4375
G1 X95.060 Y84.878 E371.5235
G1 X50.122 Y39.940 E376.8881
G1 X51.141 Y39.940 E376.9741
G1 X95.060 Y83.859 E382.2172
G1 X95.060 Y82.841 E382.3031
G1 X52.159 Y39.940 E387.4247
G1 X53.177 Y39.940 E387.5106
G1 X95.060 Y81.823 E392.5106
G1 X95.060 Y80.805 E392.5966
G1 X54.195 Y39.940 E397.4750
G1 X55.214 Y39.940 E397.5609
G1 X95.060 Y79.786 E402.3178
G1 X95.060 Y78.768 E402.4037
G1 X56.232 Y39.940 E407.0390
G1 X57.250 Y39.940 E407.1250
G1 X95.060 Y77.750 E411.6387
G1 X95.060 Y76.732 E411.7247
G1 X58.268 Y39.940 E416.1169
G1 X59.286 Y39.940 E416.2028
G1 X95.060 Y75.714 E420.4735
G1 X95.060 Y74.695 E420.5594
G1 X60.305 Y39.940 E424.7085
G1 X61.323 Y39.940 E424.7945
G1 X95.060 Y73.677 E428.8220
G1 X95.060 Y72.659 E428.9079
G1 X62.341 Y39.940 E432.8139
G1 X63.359 Y39.940 E432.8999
G1 X95.060 Y71.641 E436.6843
G1 X95.060 Y70.622 E436.7702
G1 X64.378 Y39.940 E440.4331
G1 X65.396 Y39.940 E440.5190
G1 X95.060 Y69.604 E444.0603
G1 X95.060 Y68.586 E444.1463
G1 X66.414 Y39.940 E447.5660
G1 X67.432 Y39.940 E447.6520
G1 X95.060 Y67.568 E450.9502
G1 X95.060 Y66.549 E451.0361
G1 X68.451 Y39.940 E454.2128
G1 X69.469 Y39.940 E454.2987
G1 X95.060 Y65.531 E457.3538
G1 X95.060 Y64.513 E457.4397
G1 X70.487 Y39.940 E460.3732
G1 X71.505 Y39.940 E460.4592
G1 X95.060 Y63.495 E463.2712
G1 X95.060 Y62.477 E463.3571
G1 X72.523 Y39.940 E466.0475
G1 X73.542 Y39.940 E466.1335
G1 X95.060 Y61.458 E468.7023
G1 X95.060 Y60.440 E468.7883
G1 X74.560 Y39.940 E471.2356
G1 X75.578 Y39.940 E471.3215
G1 X95.060 Y59.422 E473.6472
G1 X95.060 Y58.404 E473.7332
G1 X76.596 Y39.940 E475.9374
G1 X77.615 Y39.940 E476.0233
G1 X95.060 Y57.385 E478.1059
G1 X95.060 Y56.367 E478.1919
G1 X78.633 Y39.940 E480.1530
G1 X79.651 Y39.940 E480.2389
G1 X95.060 Y55.349 E482.0784
G1 X95.060 Y54.331 E482.1644
G1 X80.669 Y39.940 E483.8823
G1 X81.688 Y39.940 E483.9683
G1 X95.060 Y53.312 E485.5647
G1 X95.060 Y52.294 E485.6506
G1 X82.706 Y39.940 E487.1255
G1 X83.724 Y39.940 E487.2114
G1 X95.060 Y51.276 E488.5647
G1 X95.060 Y50.258 E488.6507
G1 X84.742 Y39.940 E489.8824
G1 X85.761 Y39.940 E489.9683
G1 X95.060 Y49.239 E491.0785
G1 X95.060 Y48.221 E491.1645
G1 X86.779 Y39.940 E492.1531
G1 X87.797 Y39.940 E492.2390
G1 X95.060 Y47.203 E493.1061
G1 X95.060 Y46.185 E493.1920
G1 X88.815 Y39.940 E493.9375
G1 X89.833 Y39.940 E494.0235
G1 X95.060 Y45.167 E494.6474
G1 X95.060 Y44.148 E494.7334
G1 X90.852 Y39.940 E495.2358
G1 X91.870 Y39.940 E495.3217
G1 X95.060 Y43.130 E495.7025
G1 X95.060 Y42.112 E495.7885
G1 X92.888 Y39.940 E496.0478
G1 X93.906 Y39.940 E496.1337
G1 X95.060 Y41.094 E496.2714
G1 X95.060 Y40.084 E496.3567
G1 X95.060 Y40.075 F1440
G1 X94.925 Y39.940
G92 E0.0000
G1 E-3.0000 F3600
; feature inner perimeter
G1 X104.400 Y39.400 F18000
G1 E0.0000 F3600
G92 E0.0000
G1 X180.600 Y39.400 E6.4324 F1350
G1 X180.600 Y95.600 E11.1764
G1 X104.400 Y95.600 E17.6088
G1 X104.400 Y39.600 E22.3360
G1 X104.400 Y39.400 F1350
G1 X103.680 Y38.680 F18000
G92 E0.0000
G1 X181.320 Y38.680 E6.5539 F1350
