; G-Code generated by Simplify3D(R) Version 4.1.2
; Mar 20, 2020 at 4:29:17 PM
; Settings Summary
;   processName,Process1
;   applyToModels,kuehlschrank
;   profileName,HBot (modified)
;   profileVersion,2019-10-26 23:38:43
;   baseProfile,Default
;   printMaterial,PLA
;   printQuality,Medium
;   printExtruders,
;   extruderName,Extruder 1
;   extruderToolheadNumber,0
;   extruderDiameter,0.4
;   extruderAutoWidth,1
;   extruderWidth,0.48
;   extrusionMultiplier,0.94
;   extruderUseRetract,1
;   extruderRetractionDistance,3
;   extruderExtraRestartDistance,0
;   extruderRetractionZLift,0
;   extruderRetractionSpeed,3600
;   extruderUseCoasting,1
;   extruderCoastingDistance,0.2
;   extruderUseWipe,1
;   extruderWipeDistance,5
;   primaryExtruder,0
;   layerHeight,0.2
;   topSolidLayers,3
;   bottomSolidLayers,3
;   perimeterOutlines,3
;   printPerimetersInsideOut,1
;   startPointOption,2
;   startPointOriginX,0
;   startPointOriginY,0
;   sequentialIslands,0
;   spiralVaseMode,0
;   firstLayerHeightPercentage,100
;   firstLayerWidthPercentage,150
;   firstLayerUnderspeed,0.5
;   useRaft,0
;   raftExtruder,0
;   raftTopLayers,3
;   raftBaseLayers,2
;   raftOffset,3
;   raftSeparationDistance,0.18
;   raftTopInfill,100
;   aboveRaftSpeedMultiplier,0.3
;   useSkirt,1
;   skirtExtruder,0
;   skirtLayers,1
;   skirtOutlines,3
;   skirtOffset,4
;   usePrimePillar,0
;   primePillarExtruder,999
;   primePillarWidth,12
;   primePillarLocation,7
;   primePillarSpeedMultiplier,1
;   useOozeShield,0
;   oozeShieldExtruder,999
;   oozeShieldOffset,2
;   oozeShieldOutlines,1
;   oozeShieldSidewallShape,1
;   oozeShieldSidewallAngle,30
;   oozeShieldSpeedMultiplier,1
;   infillExtruder,0
;   internalInfillPattern,Rectilinear
;   externalInfillPattern,Rectilinear
;   infillPercentage,20
;   outlineOverlapPercentage,25
;   infillExtrusionWidthPercentage,150
;   minInfillLength,5
;   infillLayerInterval,1
;   internalInfillAngles,45,-45
;   overlapInternalInfillAngles,0
;   externalInfillAngles,45,-45
;   generateSupport,0
;   supportExtruder,0
;   supportInfillPercentage,30
;   supportExtraInflation,0
;   supportBaseLayers,1
;   denseSupportExtruder,0
;   denseSupportLayers,0
;   denseSupportInfillPercentage,70
;   supportLayerInterval,1
;   supportHorizontalPartOffset,0.3
;   supportUpperSeparationLayers,1
;   supportLowerSeparationLayers,1
;   supportType,0
;   supportGridSpacing,4
;   maxOverhangAngle,25
;   supportAngles,0
;   temperatureName,Extruder 1,Heated Bed
;   temperatureNumber,0,1
;   temperatureSetpointCount,2,1
;   temperatureSetpointLayers,1,2,1
;   temperatureSetpointTemperatures,217,208,55
;   temperatureStabilizeAtStartup,1,1
;   temperatureHeatedBed,0,1
;   fanLayers,1,2,4
;   fanSpeeds,0,20,30
;   blipFanToFullPower,1
;   adjustSpeedForCooling,1
;   minSpeedLayerTime,15
;   minCoolingSpeedSlowdown,20
;   increaseFanForCooling,0
;   minFanLayerTime,45
;   maxCoolingFanSpeed,40
;   increaseFanForBridging,0
;   bridgingFanSpeed,80
;   use5D,1
;   relativeEdistances,0
;   allowEaxisZeroing,1
;   independentExtruderAxes,0
;   includeM10123,0
;   stickySupport,1
;   applyToolheadOffsets,0
;   gcodeXoffset,0
;   gcodeYoffset,0
;   gcodeZoffset,0
;   overrideMachineDefinition,1
;   machineTypeOverride,0
;   strokeXoverride,200
;   strokeYoverride,200
;   strokeZoverride,150
;   originOffsetXoverride,0
;   originOffsetYoverride,0
;   originOffsetZoverride,0
;   homeXdirOverride,-1
;   homeYdirOverride,-1
;   homeZdirOverride,-1
;   flipXoverride,1
;   flipYoverride,-1
;   flipZoverride,1
;   toolheadOffsets,0,0|0,0|0,0|0,0|0,0|0,0
;   overrideFirmwareConfiguration,1
;   firmwareTypeOverride,RepRap (Marlin/Repetier/Sprinter)
;   GPXconfigOverride,r2
;   baudRateOverride,115200
;   overridePrinterModels,0
;   printerModelsOverride
;   startingGcode,G28 ; home all axes,G32 ; run bed.g -- probe bed and enable compensation
;   layerChangeGcode,
;   retractionGcode,
;   toolChangeGcode,
;   endingGcode,M0 ; call stop.g
;   exportFileFormat,gcode
;   celebration,0
;   celebrationSong,Random Song
;   postProcessing,
;   defaultSpeed,3600
;   outlineUnderspeed,0.5
;   solidInfillUnderspeed,0.8
;   supportUnderspeed,0.8
;   rapidXYspeed,18000
;   rapidZspeed,1200
;   minBridgingArea,50
;   bridgingExtraInflation,0
;   bridgingExtrusionMultiplier,0.96
;   bridgingSpeedMultiplier,1
;   useFixedBridgingAngle,0
;   fixedBridgingAngle,0
;   applyBridgingToPerimeters,0
;   filamentDiameters,1.75|1.75|1.75|1.75|1.75|1.75
;   filamentPricesPerKg,46|46|46|46|46|46
;   filamentDensities,1.25|1.25|1.25|1.25|1.25|1.25
;   useMinPrintHeight,0
;   minPrintHeight,0
;   useMaxPrintHeight,0
;   maxPrintHeight,0
;   useDiaphragm,0
;   diaphragmLayerInterval,20
;   robustSlicing,1
;   mergeAllIntoSolid,0
;   onlyRetractWhenCrossingOutline,1
;   retractBetweenLayers,0
;   useRetractionMinTravel,1
;   retractionMinTravel,3
;   retractWhileWiping,1
;   onlyWipeOutlines,1
;   avoidCrossingOutline,1
;   maxMovementDetourFactor,3
;   toolChangeRetractionDistance,12
;   toolChangeExtraRestartDistance,-0.5
;   toolChangeRetractionSpeed,600
;   externalThinWallType,1
;   internalThinWallType,1
;   thinWallAllowedOverlapPercentage,10
;   singleExtrusionMinLength,1
;   singleExtrusionMinPrintingWidthPercentage,50
;   singleExtrusionMaxPrintingWidthPercentage,200
;   singleExtrusionEndpointExtension,0.2
;   horizontalSizeCompensation,-0.1
G90
M82
M106 S0
M140 S55
M190 S55
M104 S217 T0
M109 S217 T0
G28 ; home all axes
G32 ; run bed.g -- probe bed and enable compensation
; process Process1
; layer 1, Z = 0.200
T0
G92 E0.0000
G1 E-3.0000 F3600
; feature skirt
; tool H0.200 W0.720
G1 Z0.200 F1200
G1 X78.708 Y80.299 F18000
G1 E0.0000 F3600
G92 E0.0000
G1 X79.529 Y79.588 E0.0611 F1800
G1 X80.227 Y79.139 E0.1078
G1 X81.216 Y78.688 E0.1690
G1 X82.015 Y78.454 E0.2158
G1 X82.889 Y78.329 E0.2655
G1 X83.303 Y78.300 E0.2889
G1 X92.152 Y78.310 E0.7869
G1 X93.171 Y78.494 E0.8451
G1 X94.500 Y78.990 E0.9250
G1 X95.392 Y79.520 E0.9834
G1 X96.370 Y80.367 E1.0562
G1 X97.022 Y81.175 E1.1146
G1 X97.703 Y82.424 E1.1946
G1 X98.032 Y83.412 E1.2532
G1 X98.171 Y84.388 E1.3087
G1 X98.200 Y84.798 E1.3319
G1 X98.200 Y91.300 E1.6978
G1 X116.702 Y91.300 E2.7390
G1 X117.112 Y91.329 E2.7621
G1 X117.985 Y91.454 E2.8117
G1 X118.784 Y91.688 E2.8586
G1 X119.773 Y92.139 E2.9198
G1 X120.471 Y92.588 E2.9665
G1 X121.370 Y93.367 E3.0334
G1 X122.022 Y94.176 E3.0919
G1 X122.703 Y95.424 E3.1719
G1 X123.031 Y96.412 E3.2305
G1 X123.172 Y97.393 E3.2863
G1 X123.201 Y97.815 E3.3101
G1 X123.189 Y100.806 E3.4784
G1 X123.172 Y101.111 E3.4956
G1 X123.056 Y102.168 E3.5555
G1 X123.004 Y102.481 E3.5733
G1 X122.781 Y103.487 E3.6313
G1 X122.720 Y103.716 E3.6446
G1 X122.538 Y104.303 E3.6792
G1 X122.459 Y104.527 E3.6926
G1 X122.075 Y105.483 E3.7505
G1 X121.941 Y105.770 E3.7684
G1 X121.454 Y106.678 E3.8264
G1 X121.334 Y106.883 E3.8397
G1 X121.001 Y107.399 E3.8743
G1 X120.864 Y107.593 E3.8876
G1 X120.236 Y108.410 E3.9456
G1 X120.030 Y108.650 E3.9635
G1 X119.317 Y109.394 E4.0214
G1 X119.145 Y109.558 E4.0348
G1 X118.685 Y109.966 E4.0694
G1 X118.501 Y110.116 E4.0827
G1 X117.738 Y110.687 E4.1364
G1 X117.607 Y110.779 E4.1454
G1 X103.948 Y119.873 E5.0688
G1 X103.613 Y120.065 E5.0906
G1 X102.239 Y120.736 E5.1767
G1 X101.806 Y120.906 E5.2028
G1 X100.340 Y121.350 E5.2891
G1 X99.962 Y121.437 E5.3109
G1 X98.890 Y121.611 E5.3720
G1 X98.582 Y121.644 E5.3894
G1 X97.610 Y121.696 E5.4442
G1 X97.455 Y121.700 E5.4529
G1 X90.198 Y121.700 E5.8613
G1 X86.800 Y118.302 E6.1317
G1 X86.800 Y109.700 E6.6158
G1 X80.198 Y109.700 E6.9874
G1 X76.800 Y106.302 E7.2578
G1 X76.800 Y84.695 E8.4738
G1 X76.866 Y84.080 E8.5086
G1 X77.123 Y82.892 E8.5770
G1 X77.521 Y81.929 E8.6356
G1 X78.165 Y80.926 E8.7027
G1 X78.708 Y80.299 E8.7494
G1 X79.219 Y80.809 F18000
G92 E0.0000
G1 X79.962 Y80.166 E0.0553 F1800
G1 X80.573 Y79.773 E0.0962
G1 X81.468 Y79.364 E0.1516
G1 X82.168 Y79.159 E0.1926
G1 X82.966 Y79.045 E0.2380
G1 X83.328 Y79.020 E0.2584
G1 X92.087 Y79.030 E0.7513
G1 X92.979 Y79.191 E0.8024
G1 X94.188 Y79.642 E0.8750
G1 X94.969 Y80.106 E0.9261
G1 X95.850 Y80.869 E0.9917
G1 X96.421 Y81.577 E1.0428
G1 X97.040 Y82.712 E1.1156
G1 X97.328 Y83.577 E1.1669
G1 X97.454 Y84.464 E1.2173
G1 X97.480 Y84.823 E1.2376
G1 X97.480 Y92.020 E1.6426
G1 X116.676 Y92.020 E2.7229
G1 X117.036 Y92.046 E2.7432
G1 X117.832 Y92.159 E2.7885
G1 X118.532 Y92.364 E2.8295
G1 X119.427 Y92.773 E2.8849
G1 X120.038 Y93.166 E2.9258
G1 X120.850 Y93.869 E2.9862
G1 X121.421 Y94.577 E3.0374
G1 X122.040 Y95.712 E3.1102
G1 X122.328 Y96.577 E3.1615
G1 X122.455 Y97.469 E3.2121
G1 X122.481 Y97.838 E3.2330
G1 X122.469 Y100.784 E3.3988
G1 X122.454 Y101.051 E3.4138
G1 X122.342 Y102.070 E3.4715
G1 X122.297 Y102.344 E3.4871
G1 X122.081 Y103.316 E3.5432
G1 X122.028 Y103.517 E3.5549
G1 X121.855 Y104.076 E3.5878
G1 X121.785 Y104.272 E3.5995
G1 X121.414 Y105.196 E3.6555
G1 X121.296 Y105.447 E3.6712
G1 X120.826 Y106.326 E3.7272
G1 X120.721 Y106.505 E3.7389
G1 X120.404 Y106.996 E3.7718
G1 X120.284 Y107.166 E3.7835
G1 X119.677 Y107.956 E3.8396
G1 X119.496 Y108.166 E3.8552
G1 X118.807 Y108.885 E3.9112
G1 X118.657 Y109.029 E3.9229
G1 X118.219 Y109.417 E3.9558
G1 X118.058 Y109.548 E3.9676
G1 X117.314 Y110.104 E4.0198
G1 X117.200 Y110.185 E4.0277
G1 X103.569 Y119.260 E4.9492
G1 X103.276 Y119.429 E4.9683
G1 X101.949 Y120.077 E5.0514
G1 X101.569 Y120.226 E5.0743
G1 X100.154 Y120.654 E5.1575
G1 X99.823 Y120.730 E5.1766
G1 X98.794 Y120.897 E5.2353
G1 X98.524 Y120.926 E5.2506
G1 X97.582 Y120.976 E5.3037
G1 X97.446 Y120.980 E5.3114
G1 X90.496 Y120.980 E5.7025
G1 X87.520 Y118.004 E5.9393
G1 X87.520 Y108.980 E6.4472
G1 X80.496 Y108.980 E6.8425
G1 X77.520 Y106.004 E7.0793
G1 X77.520 Y84.733 E8.2763
G1 X77.577 Y84.195 E8.3068
G1 X77.813 Y83.107 E8.3694
G1 X78.161 Y82.264 E8.4208
G1 X78.743 Y81.359 E8.4813
G1 X79.219 Y80.809 E8.5222
G1 X79.729 Y81.320 F18000
G92 E0.0000
G1 X80.394 Y80.744 E0.0495 F1800
G1 X80.919 Y80.407 E0.0846
G1 X81.720 Y80.041 E0.1342
G1 X82.321 Y79.865 E0.1694
G1 X83.042 Y79.762 E0.2104
G1 X83.353 Y79.740 E0.2279
G1 X92.022 Y79.750 E0.7158
G1 X92.788 Y79.888 E0.7596
G1 X93.876 Y80.294 E0.8250
G1 X94.547 Y80.692 E0.8689
G1 X95.330 Y81.371 E0.9272
G1 X95.820 Y81.979 E0.9711
G1 X96.377 Y83.000 E1.0366
G1 X96.624 Y83.743 E1.0806
G1 X96.738 Y84.541 E1.1260
G1 X96.760 Y84.849 E1.1434
G1 X96.760 Y92.740 E1.5875
G1 X116.651 Y92.740 E2.7068
G1 X116.959 Y92.762 E2.7242
G1 X117.679 Y92.865 E2.7652
G1 X118.280 Y93.041 E2.8004
G1 X119.081 Y93.407 E2.8500
G1 X119.606 Y93.744 E2.8851
G1 X120.330 Y94.371 E2.9390
G1 X120.820 Y94.979 E2.9829
G1 X121.377 Y96.000 E3.0484
G1 X121.624 Y96.743 E3.0924
G1 X121.739 Y97.545 E3.1380
G1 X121.761 Y97.862 E3.1559
G1 X121.749 Y100.762 E3.3191
G1 X121.736 Y100.991 E3.3320
G1 X121.629 Y101.972 E3.3876
G1 X121.590 Y102.207 E3.4010
G1 X121.382 Y103.146 E3.4551
G1 X121.336 Y103.318 E3.4651
G1 X121.171 Y103.849 E3.4964
G1 X121.112 Y104.017 E3.5064
G1 X120.753 Y104.909 E3.5605
G1 X120.652 Y105.125 E3.5739
G1 X120.199 Y105.973 E3.6281
G1 X120.108 Y106.127 E3.6381
G1 X119.807 Y106.593 E3.6693
G1 X119.704 Y106.739 E3.6794
G1 X119.118 Y107.501 E3.7335
G1 X118.963 Y107.682 E3.7469
G1 X118.298 Y108.376 E3.8010
G1 X118.169 Y108.500 E3.8111
G1 X117.753 Y108.868 E3.8423
G1 X117.614 Y108.981 E3.8524
G1 X116.891 Y109.522 E3.9032
G1 X116.793 Y109.591 E3.9100
G1 X103.190 Y118.648 E4.8296
G1 X102.938 Y118.792 E4.8460
G1 X101.659 Y119.417 E4.9261
G1 X101.333 Y119.545 E4.9458
G1 X99.968 Y119.958 E5.0260
G1 X99.685 Y120.024 E5.0424
G1 X98.698 Y120.183 E5.0987
G1 X98.466 Y120.208 E5.1118
G1 X97.553 Y120.257 E5.1633
G1 X97.436 Y120.260 E5.1698
G1 X90.794 Y120.260 E5.5436
G1 X88.240 Y117.706 E5.7469
G1 X88.240 Y108.260 E6.2785
G1 X80.794 Y108.260 E6.6975
G1 X78.240 Y105.706 E6.9008
G1 X78.240 Y84.771 E8.0789
G1 X78.289 Y84.310 E8.1050
G1 X78.503 Y83.322 E8.1619
G1 X78.802 Y82.599 E8.2059
G1 X79.321 Y81.791 E8.2599
G1 X79.729 Y81.320 E8.2950
G92 E0.0000
G1 E-3.0000 F3600
; feature inner perimeter
G1 X83.093 Y84.647 F18000
G1 X83.107 Y84.633
G1 X84.400 Y85.900
G1 E0.0000 F3600
G92 E0.0000
G1 X90.600 Y85.900 E0.3489 F1350
G1 X90.600 Y98.900 E1.0805
G1 X115.600 Y98.900 E2.4874
G1 X115.600 Y100.228 E2.5621
G1 X115.592 Y100.532 E2.5793
G1 X115.569 Y100.810 E2.5949
G1 X115.531 Y101.085 E2.6106
G1 X115.478 Y101.358 E2.6262
G1 X115.410 Y101.629 E2.6419
G1 X115.328 Y101.894 E2.6576
G1 X115.231 Y102.156 E2.6733
G1 X115.121 Y102.411 E2.6889
G1 X114.996 Y102.660 E2.7046
G1 X114.858 Y102.902 E2.7203
G1 X114.707 Y103.135 E2.7359
G1 X114.543 Y103.361 E2.7516
G1 X114.368 Y103.577 E2.7673
G1 X114.181 Y103.783 E2.7829
G1 X113.983 Y103.978 E2.7986
G1 X113.774 Y104.163 E2.8142
G1 X113.555 Y104.336 E2.8300
G1 X113.308 Y104.511 E2.8470
G1 X99.957 Y113.400 E3.7496
G1 X99.740 Y113.521 E3.7636
G1 X99.495 Y113.640 E3.7789
G1 X99.244 Y113.747 E3.7943
G1 X99.012 Y113.831 E3.8082
G1 X98.462 Y113.981 E3.8403
G1 X97.925 Y114.068 E3.8709
G1 X97.330 Y114.100 E3.9044
G1 X94.400 Y114.100 E4.0693
G1 X94.400 Y102.100 E4.7446
G1 X84.400 Y102.100 E5.3074
G1 X84.400 Y86.100 E6.2078
G1 X84.400 Y85.900 F1350
G1 X83.680 Y85.180 F18000
G92 E0.0000
G1 X91.320 Y85.180 E0.4299 F1350
G1 X91.320 Y98.180 E1.1615
G1 X116.320 Y98.180 E2.5684
G1 X116.320 Y100.238 E2.6842
G1 X116.311 Y100.571 E2.7030
G1 X116.285 Y100.888 E2.7209
G1 X116.242 Y101.203 E2.7388
G1 X116.181 Y101.515 E2.7567
G1 X116.104 Y101.823 E2.7745
G1 X116.010 Y102.126 E2.7924
G1 X115.900 Y102.424 E2.8103
G1 X115.773 Y102.716 E2.8282
G1 X115.631 Y103.000 E2.8461
G1 X115.473 Y103.276 E2.8639
G1 X115.301 Y103.542 E2.8818
G1 X115.114 Y103.800 E2.8997
G1 X114.914 Y104.046 E2.9176
G1 X114.701 Y104.281 E2.9355
G1 X114.475 Y104.505 E2.9533
G1 X114.237 Y104.715 E2.9712
G1 X113.987 Y104.913 E2.9891
G1 X113.715 Y105.105 E3.0079
G1 X100.332 Y114.015 E3.9127
G1 X100.073 Y114.159 E3.9293
G1 X99.794 Y114.296 E3.9468
G1 X99.508 Y114.417 E3.9643
G1 X99.230 Y114.517 E3.9809
G1 X98.615 Y114.686 E4.0168
G1 X98.001 Y114.785 E4.0518
G1 X97.349 Y114.820 E4.0886
G1 X93.680 Y114.820 E4.2950
G1 X93.680 Y102.820 E4.9704
G1 X83.680 Y102.820 E5.5331
G1 X83.680 Y85.380 E6.5146
G1 X83.680 Y85.180 F1350
; feature outer perimeter
G1 X82.960 Y85.016 F18000
G92 E0.0000
G1 X82.967 Y84.923 E0.0053 F900
G1 X82.983 Y84.848 E0.0096
G1 X83.010 Y84.776 E0.0139
G1 X83.047 Y84.709 E0.0182
G1 X83.093 Y84.647 E0.0226
G1 X83.147 Y84.593 E0.0269
G1 X83.209 Y84.547 E0.0312
G1 X83.276 Y84.510 E0.0355
G1 X83.348 Y84.483 E0.0399
G1 X83.423 Y84.467 E0.0442
G1 X83.516 Y84.460 E0.0494
G1 X91.484 Y84.460 E0.4978
G1 X91.577 Y84.467 E0.5031
G1 X91.652 Y84.483 E0.5074
G1 X91.724 Y84.510 E0.5117
G1 X91.791 Y84.547 E0.5160
G1 X91.853 Y84.593 E0.5204
G1 X91.907 Y84.647 E0.5247
G1 X91.953 Y84.709 E0.5290
G1 X91.990 Y84.776 E0.5333
G1 X92.017 Y84.848 E0.5377
G1 X92.033 Y84.923 E0.5420
G1 X92.040 Y85.017 E0.5473
G1 X92.040 Y97.460 E1.2475
G1 X116.484 Y97.460 E2.6231
G1 X116.577 Y97.467 E2.6284
G1 X116.652 Y97.483 E2.6327
G1 X116.724 Y97.510 E2.6370
G1 X116.791 Y97.547 E2.6413
G1 X116.853 Y97.593 E2.6457
G1 X116.907 Y97.647 E2.6500
G1 X116.953 Y97.709 E2.6543
G1 X116.990 Y97.776 E2.6587
G1 X117.017 Y97.848 E2.6630
G1 X117.033 Y97.923 E2.6673
G1 X117.040 Y98.017 E2.6726
G1 X117.040 Y100.247 E2.7981
G1 X117.030 Y100.611 E2.8186
G1 X117.001 Y100.966 E2.8386
G1 X116.952 Y101.320 E2.8587
G1 X116.884 Y101.671 E2.8788
G1 X116.798 Y102.017 E2.8989
G1 X116.692 Y102.358 E2.9190
G1 X116.568 Y102.693 E2.9391
G1 X116.426 Y103.020 E2.9592
G1 X116.266 Y103.339 E2.9793
G1 X116.089 Y103.650 E2.9994
G1 X115.895 Y103.950 E3.0195
G1 X115.685 Y104.239 E3.0396
G1 X115.460 Y104.516 E3.0597
G1 X115.220 Y104.780 E3.0798
G1 X114.966 Y105.031 E3.0998
G1 X114.699 Y105.267 E3.1199
G1 X114.419 Y105.489 E3.1401
G1 X114.123 Y105.699 E3.1605
G1 X100.707 Y114.630 E4.0675
G1 X100.407 Y114.798 E4.0868
G1 X100.093 Y114.951 E4.1065
G1 X99.771 Y115.087 E4.1261
G1 X99.448 Y115.204 E4.1455
G1 X98.768 Y115.390 E4.1851
G1 X98.078 Y115.502 E4.2245
G1 X97.368 Y115.540 E4.2645
G1 X92.960 Y115.540 E4.5126
G1 X92.960 Y103.540 E5.1879
G1 X82.960 Y103.540 E5.7506
G1 X82.960 Y85.216 E6.7818
