; G-Code generated by Simplify3D(R) Version 4.1.2
; Apr 4, 2021 at 11:51:25 PM
; Settings Summary
;   processName,V6
;   applyToModels,Lock
;   profileName,HBot (modified)
;   profileVersion,2021-04-01 14:49:35
;   baseProfile,Default
;   printMaterial,PLA - ERYONE
;   printQuality,Medium
;   printExtruders,
;   extruderName,Extruder 1,Extruder 2 - support
;   extruderToolheadNumber,0,1
;   extruderDiameter,0.4,0.4
;   extruderAutoWidth,1,1
;   extruderWidth,0.48,0.48
;   extrusionMultiplier,1,1
;   extruderUseRetract,1,1
;   extruderRetractionDistance,3,1
;   extruderExtraRestartDistance,0,0
;   extruderRetractionZLift,0,0
;   extruderRetractionSpeed,5400,1800
;   extruderUseCoasting,1,1
;   extruderCoastingDistance,0.2,0.2
;   extruderUseWipe,1,1
;   extruderWipeDistance,2,5
;   primaryExtruder,0
;   layerHeight,0.2
;   topSolidLayers,4
;   bottomSolidLayers,4
;   perimeterOutlines,4
;   printPerimetersInsideOut,1
;   startPointOption,3
;   startPointOriginX,110
;   startPointOriginY,300
;   sequentialIslands,0
;   spiralVaseMode,0
;   firstLayerHeightPercentage,100
;   firstLayerWidthPercentage,100
;   firstLayerUnderspeed,0.5
;   useRaft,0
;   raftExtruder,0
;   raftTopLayers,3
;   raftBaseLayers,2
;   raftOffset,3
;   raftSeparationDistance,0.18
;   raftTopInfill,100
;   aboveRaftSpeedMultiplier,0.3
;   useSkirt,1
;   skirtExtruder,0
;   skirtLayers,1
;   skirtOutlines,3
;   skirtOffset,10
;   usePrimePillar,0
;   primePillarExtruder,999
;   primePillarWidth,12
;   primePillarLocation,7
;   primePillarSpeedMultiplier,1
;   useOozeShield,0
;   oozeShieldExtruder,0
;   oozeShieldOffset,0.9
;   oozeShieldOutlines,2
;   oozeShieldSidewallShape,0
;   oozeShieldSidewallAngle,30
;   oozeShieldSpeedMultiplier,1.5
;   infillExtruder,0
;   internalInfillPattern,Fast Honeycomb
;   externalInfillPattern,Rectilinear
;   infillPercentage,15
;   outlineOverlapPercentage,25
;   infillExtrusionWidthPercentage,100
;   minInfillLength,5
;   infillLayerInterval,1
;   internalInfillAngles,0
;   overlapInternalInfillAngles,0
;   externalInfillAngles,45,-45
;   generateSupport,0
;   supportExtruder,0
;   supportInfillPercentage,25
;   supportExtraInflation,0
;   supportBaseLayers,1
;   denseSupportExtruder,1
;   denseSupportLayers,10
;   denseSupportInfillPercentage,100
;   supportLayerInterval,1
;   supportHorizontalPartOffset,0
;   supportUpperSeparationLayers,0
;   supportLowerSeparationLayers,0
;   supportType,0
;   supportGridSpacing,2
;   maxOverhangAngle,25
;   supportAngles,0
;   temperatureName,Extruder 1,Heated Bed,Extruder 2 - support
;   temperatureNumber,0,1,1
;   temperatureSetpointCount,2,1,1
;   temperatureSetpointLayers,1,2,1,1
;   temperatureSetpointTemperatures,215,215,65,0
;   temperatureStabilizeAtStartup,1,1,1
;   temperatureHeatedBed,0,1,0
;   fanLayers,1,3,10
;   fanSpeeds,0,65,75
;   blipFanToFullPower,1
;   adjustSpeedForCooling,0
;   minSpeedLayerTime,15
;   minCoolingSpeedSlowdown,20
;   increaseFanForCooling,1
;   minFanLayerTime,15
;   maxCoolingFanSpeed,100
;   increaseFanForBridging,1
;   bridgingFanSpeed,100
;   use5D,1
;   relativeEdistances,0
;   allowEaxisZeroing,1
;   independentExtruderAxes,0
;   includeM10123,0
;   stickySupport,1
;   applyToolheadOffsets,0
;   gcodeXoffset,0
;   gcodeYoffset,0
;   gcodeZoffset,0
;   overrideMachineDefinition,1
;   machineTypeOverride,0
;   strokeXoverride,210
;   strokeYoverride,210
;   strokeZoverride,150
;   originOffsetXoverride,0
;   originOffsetYoverride,0
;   originOffsetZoverride,0
;   homeXdirOverride,1
;   homeYdirOverride,-1
;   homeZdirOverride,-1
;   flipXoverride,1
;   flipYoverride,-1
;   flipZoverride,1
;   toolheadOffsets,0,0|0,0|0,0|0,0|0,0|0,0
;   overrideFirmwareConfiguration,0
;   firmwareTypeOverride,RepRap (Marlin/Repetier/Sprinter)
;   GPXconfigOverride,r2
;   baudRateOverride,115200
;   overridePrinterModels,0
;   printerModelsOverride
;   startingGcode,;G28 is now included in bed.g G28 ; home all axes,G32 ; run bed.g -- probe bed and enable compensation
;   layerChangeGcode,
;   retractionGcode,
;   toolChangeGcode,
;   endingGcode,M0 ; call stop.g
;   exportFileFormat,gcode
;   celebration,0
;   celebrationSong,Random Song
;   postProcessing,
;   defaultSpeed,3600
;   outlineUnderspeed,0.5
;   solidInfillUnderspeed,0.8
;   supportUnderspeed,0.8
;   rapidXYspeed,18000
;   rapidZspeed,1200
;   minBridgingArea,50
;   bridgingExtraInflation,0
;   bridgingExtrusionMultiplier,0.96
;   bridgingSpeedMultiplier,1
;   useFixedBridgingAngle,0
;   fixedBridgingAngle,0
;   applyBridgingToPerimeters,0
;   filamentDiameters,1.75|1.75|1.75|1.75|1.75|1.75
;   filamentPricesPerKg,46|46|46|46|46|46
;   filamentDensities,1.25|1.25|1.25|1.25|1.25|1.25
;   useMinPrintHeight,0
;   minPrintHeight,0
;   useMaxPrintHeight,0
;   maxPrintHeight,11.59
;   useDiaphragm,0
;   diaphragmLayerInterval,20
;   robustSlicing,1
;   mergeAllIntoSolid,0
;   onlyRetractWhenCrossingOutline,1
;   retractBetweenLayers,0
;   useRetractionMinTravel,1
;   retractionMinTravel,3
;   retractWhileWiping,1
;   onlyWipeOutlines,1
;   avoidCrossingOutline,1
;   maxMovementDetourFactor,5
;   toolChangeRetractionDistance,7.5
;   toolChangeExtraRestartDistance,0
;   toolChangeRetractionSpeed,600
;   externalThinWallType,1
;   internalThinWallType,1
;   thinWallAllowedOverlapPercentage,10
;   singleExtrusionMinLength,1
;   singleExtrusionMinPrintingWidthPercentage,50
;   singleExtrusionMaxPrintingWidthPercentage,150
;   singleExtrusionEndpointExtension,0.2
;   horizontalSizeCompensation,0
G90
M82
M106 S0
M140 S65
M190 S65
G10 P0 S215 R{215-50}
G10 P1 S0 R{0-50}
M116 P0
;G28 is now included in bed.g G28 ; home all axes
G32 ; run bed.g -- probe bed and enable compensation
; process V6
; layer 1, Z = 0.200
T0
G92 E0.0000
G1 E-3.0000 F5400
; feature skirt
; tool H0.200 W0.480
G1 Z0.200 F1200
G1 X105.607 Y128.623 F18000
G1 E0.0000 F5400
G92 E0.0000
G1 X104.393 Y128.623 E0.0484 F1800
G1 X104.092 Y128.615 E0.0605
G1 X102.839 Y128.547 E0.1105
G1 X102.448 Y128.512 E0.1262
G1 X100.671 Y128.291 E0.1977
G1 X100.183 Y128.208 E0.2174
G1 X98.392 Y127.822 E0.2906
G1 X97.895 Y127.691 E0.3111
G1 X96.147 Y127.143 E0.3842
G1 X95.661 Y126.965 E0.4049
G1 X93.975 Y126.260 E0.4778
G1 X93.501 Y126.035 E0.4987
G1 X91.887 Y125.174 E0.5717
G1 X91.435 Y124.904 E0.5928
G1 X89.901 Y123.890 E0.6662
G1 X89.476 Y123.580 E0.6871
G1 X88.031 Y122.416 E0.7612
G1 X87.634 Y122.064 E0.7824
G1 X86.289 Y120.751 E0.8574
G1 X85.896 Y120.327 E0.8804
G1 X84.676 Y118.863 E0.9566
G1 X84.296 Y118.350 E0.9820
G1 X83.242 Y116.744 E1.0587
G1 X82.917 Y116.181 E1.0846
G1 X82.050 Y114.451 E1.1619
G1 X81.809 Y113.899 E1.1859
G1 X81.142 Y112.113 E1.2620
G1 X80.965 Y111.548 E1.2856
G1 X80.500 Y109.741 E1.3601
G1 X80.377 Y109.116 E1.3855
G1 X80.123 Y107.285 E1.4593
G1 X80.071 Y106.638 E1.4852
G1 X80.030 Y104.752 E1.5605
G1 X80.049 Y104.155 E1.5843
G1 X80.211 Y102.242 E1.6610
G1 X80.270 Y101.778 E1.6796
G1 X80.509 Y100.372 E1.7366
G1 X80.612 Y99.893 E1.7561
G1 X81.074 Y98.127 E1.8290
G1 X81.202 Y97.704 E1.8466
G1 X81.487 Y96.883 E1.8813
G1 X81.651 Y96.467 E1.8991
G1 X82.347 Y94.884 E1.9681
G1 X82.588 Y94.401 E1.9897
G1 X83.216 Y93.280 E2.0410
G1 X83.423 Y92.939 E2.0569
G1 X84.087 Y91.930 E2.1051
G1 X84.299 Y91.630 E2.1198
G1 X85.020 Y90.676 E2.1675
G1 X85.247 Y90.396 E2.1819
G1 X86.023 Y89.496 E2.2293
G1 X86.265 Y89.233 E2.2436
G1 X87.094 Y88.388 E2.2908
G1 X87.351 Y88.143 E2.3050
G1 X88.229 Y87.355 E2.3521
G1 X88.499 Y87.127 E2.3662
G1 X89.423 Y86.398 E2.4131
G1 X89.703 Y86.191 E2.4271
G1 X90.668 Y85.521 E2.4739
G1 X90.956 Y85.335 E2.4876
G1 X91.960 Y84.726 E2.5345
G1 X92.253 Y84.560 E2.5480
G1 X93.294 Y84.012 E2.5949
G1 X93.591 Y83.867 E2.6081
G1 X94.663 Y83.381 E2.6551
G1 X94.962 Y83.256 E2.6680
G1 X96.063 Y82.831 E2.7151
G1 X96.364 Y82.725 E2.7278
G1 X97.487 Y82.364 E2.7749
G1 X97.792 Y82.276 E2.7876
G1 X98.933 Y81.979 E2.8347
G1 X99.244 Y81.908 E2.8474
G1 X100.398 Y81.678 E2.8943
G1 X100.711 Y81.624 E2.9070
G1 X102.964 Y81.305 E2.9978
G1 X103.593 Y80.818 E3.0296
G1 X105.000 Y81.017 E3.0863
G1 X106.407 Y80.818 E3.1430
G1 X107.036 Y81.305 E3.1748
G1 X109.289 Y81.624 E3.2656
G1 X109.602 Y81.678 E3.2783
G1 X110.756 Y81.908 E3.3253
G1 X111.067 Y81.979 E3.3380
G1 X112.246 Y82.286 E3.3866
G1 X112.627 Y82.399 E3.4025
G1 X114.267 Y82.952 E3.4715
G1 X114.717 Y83.125 E3.4908
G1 X116.299 Y83.815 E3.5597
G1 X116.670 Y83.993 E3.5761
G1 X117.747 Y84.560 E3.6247
G1 X118.040 Y84.726 E3.6381
G1 X119.044 Y85.335 E3.6850
G1 X119.332 Y85.521 E3.6987
G1 X120.297 Y86.191 E3.7455
G1 X120.577 Y86.398 E3.7595
G1 X121.536 Y87.155 E3.8082
G1 X121.872 Y87.442 E3.8258
G1 X123.105 Y88.585 E3.8930
G1 X123.420 Y88.901 E3.9107
G1 X124.283 Y89.839 E3.9616
G1 X124.574 Y90.182 E3.9796
G1 X125.621 Y91.520 E4.0474
G1 X125.888 Y91.892 E4.0657
G1 X126.577 Y92.939 E4.1157
G1 X126.784 Y93.280 E4.1316
G1 X127.385 Y94.352 E4.1807
G1 X127.579 Y94.733 E4.1977
G1 X128.108 Y95.873 E4.2479
G1 X128.280 Y96.286 E4.2657
G1 X128.746 Y97.544 E4.3193
G1 X128.912 Y98.072 E4.3414
G1 X129.400 Y99.939 E4.4184
G1 X129.517 Y100.509 E4.4416
G1 X129.819 Y102.481 E4.5212
G1 X129.876 Y103.043 E4.5438
G1 X129.971 Y104.930 E4.6192
G1 X129.974 Y105.443 E4.6397
G1 X129.920 Y106.745 E4.6917
G1 X129.886 Y107.176 E4.7089
G1 X129.739 Y108.404 E4.7583
G1 X129.672 Y108.832 E4.7756
G1 X129.422 Y110.090 E4.8268
G1 X129.300 Y110.587 E4.8472
G1 X128.782 Y112.340 E4.9202
G1 X128.585 Y112.897 E4.9437
G1 X127.852 Y114.668 E5.0202
G1 X127.586 Y115.222 E5.0448
G1 X126.655 Y116.917 E5.1219
G1 X126.304 Y117.476 E5.1483
G1 X125.188 Y119.038 E5.2249
G1 X124.803 Y119.519 E5.2495
G1 X123.538 Y120.931 E5.3252
G1 X123.145 Y121.329 E5.3475
G1 X121.763 Y122.592 E5.4222
G1 X121.359 Y122.929 E5.4432
G1 X119.884 Y124.042 E5.5170
G1 X119.450 Y124.339 E5.5380
G1 X117.925 Y125.280 E5.6095
G1 X117.542 Y125.496 E5.6270
G1 X116.419 Y126.073 E5.6774
G1 X116.103 Y126.223 E5.6914
G1 X114.987 Y126.710 E5.7400
G1 X114.665 Y126.839 E5.7538
G1 X113.480 Y127.272 E5.8042
G1 X113.070 Y127.404 E5.8214
G1 X111.387 Y127.876 E5.8911
G1 X110.972 Y127.975 E5.9082
G1 X109.691 Y128.231 E5.9603
G1 X109.287 Y128.296 E5.9766
G1 X107.552 Y128.512 E6.0464
G1 X107.161 Y128.547 E6.0621
G1 X105.908 Y128.615 E6.1122
G1 X105.607 Y128.623 E6.1242
G1 X105.600 Y128.143 F18000
G92 E0.0000
G1 X104.400 Y128.143 E0.0479 F1800
G1 X104.111 Y128.135 E0.0594
G1 X102.873 Y128.068 E0.1089
G1 X102.499 Y128.035 E0.1239
G1 X100.741 Y127.816 E0.1946
G1 X100.274 Y127.737 E0.2135
G1 X98.503 Y127.355 E0.2858
G1 X98.028 Y127.230 E0.3054
G1 X96.302 Y126.688 E0.3777
G1 X95.836 Y126.518 E0.3974
G1 X94.171 Y125.821 E0.4695
G1 X93.717 Y125.606 E0.4895
G1 X92.123 Y124.756 E0.5616
G1 X91.690 Y124.498 E0.5818
G1 X90.175 Y123.496 E0.6543
G1 X89.768 Y123.199 E0.6743
G1 X88.341 Y122.049 E0.7475
G1 X87.961 Y121.712 E0.7678
G1 X86.633 Y120.417 E0.8418
G1 X86.257 Y120.011 E0.8639
G1 X85.053 Y118.566 E0.9390
G1 X84.690 Y118.075 E0.9633
G1 X83.650 Y116.492 E1.0389
G1 X83.339 Y115.953 E1.0638
G1 X82.484 Y114.248 E1.1399
G1 X82.254 Y113.719 E1.1629
G1 X81.596 Y111.957 E1.2380
G1 X81.426 Y111.417 E1.2606
G1 X80.969 Y109.635 E1.3340
G1 X80.851 Y109.037 E1.3583
G1 X80.601 Y107.233 E1.4310
G1 X80.551 Y106.614 E1.4558
G1 X80.510 Y104.754 E1.5300
G1 X80.528 Y104.183 E1.5529
G1 X80.689 Y102.293 E1.6286
G1 X80.745 Y101.849 E1.6464
G1 X80.981 Y100.462 E1.7026
G1 X81.079 Y100.005 E1.7212
G1 X81.536 Y98.257 E1.7933
G1 X81.659 Y97.852 E1.8102
G1 X81.938 Y97.050 E1.8441
G1 X82.094 Y96.652 E1.8612
G1 X82.782 Y95.088 E1.9294
G1 X83.012 Y94.626 E1.9500
G1 X83.630 Y93.522 E2.0005
G1 X83.829 Y93.195 E2.0157
G1 X84.484 Y92.200 E2.0633
G1 X84.687 Y91.913 E2.0773
G1 X85.398 Y90.972 E2.1244
G1 X85.615 Y90.704 E2.1382
G1 X86.381 Y89.816 E2.1850
G1 X86.613 Y89.564 E2.1987
G1 X87.431 Y88.730 E2.2453
G1 X87.677 Y88.495 E2.2589
G1 X88.544 Y87.717 E2.3053
G1 X88.803 Y87.499 E2.3188
G1 X89.714 Y86.779 E2.3652
G1 X89.982 Y86.581 E2.3785
G1 X90.935 Y85.920 E2.4248
G1 X91.211 Y85.741 E2.4379
G1 X92.203 Y85.140 E2.4842
G1 X92.484 Y84.982 E2.4971
G1 X93.511 Y84.440 E2.5434
G1 X93.795 Y84.301 E2.5560
G1 X94.855 Y83.821 E2.6025
G1 X95.141 Y83.701 E2.6149
G1 X96.229 Y83.282 E2.6614
G1 X96.517 Y83.180 E2.6736
G1 X97.627 Y82.823 E2.7201
G1 X97.919 Y82.739 E2.7323
G1 X99.047 Y82.446 E2.7788
G1 X99.344 Y82.378 E2.7910
G1 X100.485 Y82.150 E2.8374
G1 X100.784 Y82.099 E2.8495
G1 X103.158 Y81.763 E2.9452
G1 X103.726 Y81.322 E2.9739
G1 X105.000 Y81.502 E3.0252
G1 X106.274 Y81.322 E3.0766
G1 X106.842 Y81.763 E3.1053
G1 X109.215 Y82.099 E3.2009
G1 X109.515 Y82.150 E3.2131
G1 X110.656 Y82.378 E3.2595
G1 X110.953 Y82.446 E3.2717
G1 X112.118 Y82.748 E3.3197
G1 X112.482 Y82.857 E3.3349
G1 X114.104 Y83.403 E3.4032
G1 X114.534 Y83.569 E3.4216
G1 X116.099 Y84.251 E3.4897
G1 X116.454 Y84.422 E3.5055
G1 X117.516 Y84.982 E3.5534
G1 X117.797 Y85.140 E3.5662
G1 X118.789 Y85.742 E3.6125
G1 X119.065 Y85.920 E3.6256
G1 X120.018 Y86.581 E3.6719
G1 X120.286 Y86.779 E3.6852
G1 X121.231 Y87.525 E3.7333
G1 X121.552 Y87.801 E3.7502
G1 X122.772 Y88.931 E3.8166
G1 X123.073 Y89.233 E3.8336
G1 X123.924 Y90.157 E3.8837
G1 X124.202 Y90.485 E3.9009
G1 X125.237 Y91.808 E3.9679
G1 X125.492 Y92.164 E3.9854
G1 X126.171 Y93.195 E4.0347
G1 X126.370 Y93.522 E4.0499
G1 X126.962 Y94.579 E4.0983
G1 X127.148 Y94.943 E4.1146
G1 X127.669 Y96.067 E4.1640
G1 X127.833 Y96.461 E4.1811
G1 X128.291 Y97.699 E4.2338
G1 X128.451 Y98.205 E4.2550
G1 X128.932 Y100.048 E4.3310
G1 X129.045 Y100.594 E4.3532
G1 X129.342 Y102.541 E4.4318
G1 X129.397 Y103.080 E4.4535
G1 X129.491 Y104.943 E4.5279
G1 X129.494 Y105.434 E4.5475
G1 X129.441 Y106.716 E4.5987
G1 X129.408 Y107.129 E4.6152
G1 X129.264 Y108.338 E4.6639
G1 X129.199 Y108.748 E4.6804
G1 X128.954 Y109.986 E4.7308
G1 X128.836 Y110.462 E4.7504
G1 X128.325 Y112.192 E4.8224
G1 X128.137 Y112.725 E4.8449
G1 X127.413 Y114.472 E4.9204
G1 X127.159 Y115.003 E4.9439
G1 X126.241 Y116.673 E5.0199
G1 X125.905 Y117.209 E5.0452
G1 X124.805 Y118.748 E5.1207
G1 X124.436 Y119.209 E5.1442
G1 X123.188 Y120.602 E5.2189
G1 X122.812 Y120.983 E5.2403
G1 X121.448 Y122.230 E5.3141
G1 X121.060 Y122.552 E5.3342
G1 X119.604 Y123.652 E5.4070
G1 X119.188 Y123.937 E5.4271
G1 X117.681 Y124.867 E5.4978
G1 X117.315 Y125.073 E5.5146
G1 X116.206 Y125.642 E5.5643
G1 X115.904 Y125.786 E5.5777
G1 X114.801 Y126.268 E5.6257
G1 X114.494 Y126.391 E5.6389
G1 X113.324 Y126.818 E5.6886
G1 X112.932 Y126.944 E5.7051
G1 X111.267 Y127.411 E5.7741
G1 X110.869 Y127.506 E5.7904
G1 X109.606 Y127.758 E5.8418
G1 X109.219 Y127.821 E5.8575
G1 X107.501 Y128.035 E5.9266
G1 X107.127 Y128.068 E5.9416
G1 X105.889 Y128.135 E5.9910
G1 X105.600 Y128.143 E6.0026
G1 X105.594 Y127.663 F18000
G92 E0.0000
G1 X104.406 Y127.663 E0.0474 F1800
G1 X104.130 Y127.655 E0.0584
G1 X102.907 Y127.589 E0.1073
G1 X102.550 Y127.558 E0.1216
G1 X100.811 Y127.341 E0.1916
G1 X100.365 Y127.265 E0.2096
G1 X98.615 Y126.888 E0.2810
G1 X98.161 Y126.768 E0.2998
G1 X96.456 Y126.234 E0.3711
G1 X96.011 Y126.071 E0.3900
G1 X94.366 Y125.383 E0.4612
G1 X93.933 Y125.177 E0.4803
G1 X92.359 Y124.337 E0.5515
G1 X91.945 Y124.091 E0.5708
G1 X90.449 Y123.102 E0.6424
G1 X90.061 Y122.818 E0.6615
G1 X88.651 Y121.683 E0.7338
G1 X88.288 Y121.360 E0.7532
G1 X86.977 Y120.082 E0.8263
G1 X86.618 Y119.694 E0.8473
G1 X85.431 Y118.269 E0.9214
G1 X85.083 Y117.801 E0.9446
G1 X84.059 Y116.241 E1.0191
G1 X83.762 Y115.725 E1.0429
G1 X82.919 Y114.044 E1.1179
G1 X82.699 Y113.539 E1.1399
G1 X82.050 Y111.801 E1.2139
G1 X81.888 Y111.285 E1.2356
G1 X81.437 Y109.529 E1.3079
G1 X81.324 Y108.957 E1.3312
G1 X81.078 Y107.181 E1.4027
G1 X81.031 Y106.589 E1.4264
G1 X80.990 Y104.757 E1.4996
G1 X81.008 Y104.211 E1.5214
G1 X81.166 Y102.343 E1.5962
G1 X81.220 Y101.919 E1.6133
G1 X81.452 Y100.553 E1.6686
G1 X81.546 Y100.116 E1.6864
G1 X81.998 Y98.388 E1.7577
G1 X82.115 Y98.001 E1.7738
G1 X82.388 Y97.216 E1.8070
G1 X82.537 Y96.836 E1.8233
G1 X83.216 Y95.292 E1.8906
G1 X83.437 Y94.850 E1.9103
G1 X84.045 Y93.764 E1.9600
G1 X84.235 Y93.452 E1.9746
G1 X84.880 Y92.471 E2.0215
G1 X85.074 Y92.196 E2.0349
G1 X85.776 Y91.268 E2.0813
G1 X85.984 Y91.011 E2.0945
G1 X86.740 Y90.135 E2.1407
