; G-Code generated by Simplify3D(R) Version 4.1.2
; Nov 12, 2019 at 7:26:29 PM
; Settings Summary
;   processName,Process1
;   applyToModels,motor-zwinge,motor-zwinge(2)
;   profileName,HBot
;   profileVersion,2019-10-26 23:38:43
;   baseProfile,Default
;   printMaterial,PLA
;   printQuality,Fast
;   printExtruders,
;   extruderName,Extruder 1
;   extruderToolheadNumber,0
;   extruderDiameter,0.4
;   extruderAutoWidth,1
;   extruderWidth,0.48
;   extrusionMultiplier,0.94
;   extruderUseRetract,1
;   extruderRetractionDistance,3
;   extruderExtraRestartDistance,0
;   extruderRetractionZLift,0
;   extruderRetractionSpeed,3600
;   extruderUseCoasting,1
;   extruderCoastingDistance,0.2
;   extruderUseWipe,1
;   extruderWipeDistance,5
;   primaryExtruder,0
;   layerHeight,0.3
;   topSolidLayers,3
;   bottomSolidLayers,3
;   perimeterOutlines,3
;   printPerimetersInsideOut,1
;   startPointOption,2
;   startPointOriginX,0
;   startPointOriginY,0
;   sequentialIslands,0
;   spiralVaseMode,0
;   firstLayerHeightPercentage,100
;   firstLayerWidthPercentage,150
;   firstLayerUnderspeed,0.5
;   useRaft,0
;   raftExtruder,0
;   raftTopLayers,3
;   raftBaseLayers,2
;   raftOffset,3
;   raftSeparationDistance,0.18
;   raftTopInfill,100
;   aboveRaftSpeedMultiplier,0.3
;   useSkirt,1
;   skirtExtruder,0
;   skirtLayers,1
;   skirtOutlines,3
;   skirtOffset,4
;   usePrimePillar,0
;   primePillarExtruder,999
;   primePillarWidth,12
;   primePillarLocation,7
;   primePillarSpeedMultiplier,1
;   useOozeShield,0
;   oozeShieldExtruder,999
;   oozeShieldOffset,2
;   oozeShieldOutlines,1
;   oozeShieldSidewallShape,1
;   oozeShieldSidewallAngle,30
;   oozeShieldSpeedMultiplier,1
;   infillExtruder,0
;   internalInfillPattern,Fast Honeycomb
;   externalInfillPattern,Rectilinear
;   infillPercentage,15
;   outlineOverlapPercentage,15
;   infillExtrusionWidthPercentage,150
;   minInfillLength,5
;   infillLayerInterval,1
;   internalInfillAngles,0
;   overlapInternalInfillAngles,0
;   externalInfillAngles,45,-45
;   generateSupport,0
;   supportExtruder,0
;   supportInfillPercentage,25
;   supportExtraInflation,0
;   supportBaseLayers,1
;   denseSupportExtruder,0
;   denseSupportLayers,0
;   denseSupportInfillPercentage,70
;   supportLayerInterval,1
;   supportHorizontalPartOffset,0.3
;   supportUpperSeparationLayers,1
;   supportLowerSeparationLayers,1
;   supportType,0
;   supportGridSpacing,4
;   maxOverhangAngle,45
;   supportAngles,0
;   temperatureName,Extruder 1
;   temperatureNumber,0
;   temperatureSetpointCount,2
;   temperatureSetpointLayers,1,2
;   temperatureSetpointTemperatures,220,210
;   temperatureStabilizeAtStartup,1
;   temperatureHeatedBed,0
;   fanLayers,1,2,3
;   fanSpeeds,0,15,25
;   blipFanToFullPower,1
;   adjustSpeedForCooling,1
;   minSpeedLayerTime,15
;   minCoolingSpeedSlowdown,20
;   increaseFanForCooling,0
;   minFanLayerTime,45
;   maxCoolingFanSpeed,40
;   increaseFanForBridging,0
;   bridgingFanSpeed,80
;   use5D,1
;   relativeEdistances,0
;   allowEaxisZeroing,1
;   independentExtruderAxes,0
;   includeM10123,0
;   stickySupport,1
;   applyToolheadOffsets,0
;   gcodeXoffset,0
;   gcodeYoffset,0
;   gcodeZoffset,0
;   overrideMachineDefinition,1
;   machineTypeOverride,0
;   strokeXoverride,200
;   strokeYoverride,200
;   strokeZoverride,150
;   originOffsetXoverride,0
;   originOffsetYoverride,0
;   originOffsetZoverride,0
;   homeXdirOverride,-1
;   homeYdirOverride,-1
;   homeZdirOverride,-1
;   flipXoverride,1
;   flipYoverride,-1
;   flipZoverride,1
;   toolheadOffsets,0,0|0,0|0,0|0,0|0,0|0,0
;   overrideFirmwareConfiguration,1
;   firmwareTypeOverride,RepRap (Marlin/Repetier/Sprinter)
;   GPXconfigOverride,r2
;   baudRateOverride,115200
;   overridePrinterModels,0
;   printerModelsOverride
;   startingGcode,G28 ; home all axes,G32 ; run bed.g -- probe bed and enable compensation
;   layerChangeGcode,
;   retractionGcode,
;   toolChangeGcode,
;   endingGcode,M0 ; call stop.g
;   exportFileFormat,gcode
;   celebration,0
;   celebrationSong,Random Song
;   postProcessing,
;   defaultSpeed,3600
;   outlineUnderspeed,0.5
;   solidInfillUnderspeed,0.8
;   supportUnderspeed,0.8
;   rapidXYspeed,18000
;   rapidZspeed,1200
;   minBridgingArea,50
;   bridgingExtraInflation,0
;   bridgingExtrusionMultiplier,0.96
;   bridgingSpeedMultiplier,1
;   useFixedBridgingAngle,0
;   fixedBridgingAngle,0
;   applyBridgingToPerimeters,0
;   filamentDiameters,1.75|1.75|1.75|1.75|1.75|1.75
;   filamentPricesPerKg,46|46|46|46|46|46
;   filamentDensities,1.25|1.25|1.25|1.25|1.25|1.25
;   useMinPrintHeight,0
;   minPrintHeight,0
;   useMaxPrintHeight,0
;   maxPrintHeight,0
;   useDiaphragm,1
;   diaphragmLayerInterval,20
;   robustSlicing,1
;   mergeAllIntoSolid,0
;   onlyRetractWhenCrossingOutline,1
;   retractBetweenLayers,0
;   useRetractionMinTravel,1
;   retractionMinTravel,3
;   retractWhileWiping,1
;   onlyWipeOutlines,0
;   avoidCrossingOutline,1
;   maxMovementDetourFactor,3
;   toolChangeRetractionDistance,12
;   toolChangeExtraRestartDistance,-0.5
;   toolChangeRetractionSpeed,600
;   externalThinWallType,1
;   internalThinWallType,1
;   thinWallAllowedOverlapPercentage,10
;   singleExtrusionMinLength,1
;   singleExtrusionMinPrintingWidthPercentage,50
;   singleExtrusionMaxPrintingWidthPercentage,200
;   singleExtrusionEndpointExtension,0.2
;   horizontalSizeCompensation,-0.1
G90
M82
M106 S0
M104 S220 T0
M109 S220 T0
G28 ; home all axes
G32 ; run bed.g -- probe bed and enable compensation
; process Process1
; layer 1, Z = 0.300
T0
G92 E0.0000
G1 E-3.0000 F3600
; feature skirt
; tool H0.300 W0.720
G1 Z0.300 F1200
G1 X89.631 Y97.683 F18000
G1 E0.0000 F3600
G92 E0.0000
G1 X91.763 Y96.800 E0.1948 F1800
G1 X107.659 Y96.800 E1.5367
G1 X107.659 Y96.618 E1.5520
G1 X111.057 Y93.221 E1.9576
G1 X120.248 Y93.221 E2.7334
G1 X123.035 Y94.926 E3.0093
G1 X124.211 Y97.228 E3.2275
G1 X124.395 Y97.523 E3.2568
G1 X124.854 Y98.138 E3.3216
G1 X125.117 Y98.434 E3.3550
G1 X125.399 Y98.711 E3.3884
G1 X125.990 Y99.200 E3.4531
G1 X126.315 Y99.425 E3.4865
G1 X126.697 Y99.653 E3.5241
G1 X127.094 Y99.855 E3.5617
G1 X127.504 Y100.029 E3.5993
G1 X127.925 Y100.175 E3.6369
G1 X128.354 Y100.292 E3.6744
G1 X128.791 Y100.380 E3.7120
G1 X129.183 Y100.431 E3.7454
G1 X129.949 Y100.465 E3.8101
G1 X130.344 Y100.449 E3.8435
G1 X130.787 Y100.401 E3.8811
G1 X131.225 Y100.323 E3.9187
G1 X131.609 Y100.228 E3.9521
G1 X132.335 Y99.980 E4.0169
G1 X132.651 Y99.841 E4.0460
G1 X133.281 Y99.497 E4.1065
G1 X133.872 Y99.092 E4.1671
G1 X134.178 Y98.841 E4.2005
G1 X134.466 Y98.570 E4.2339
G1 X134.945 Y98.036 E4.2944
G1 X135.367 Y97.457 E4.3549
G1 X135.572 Y97.118 E4.3883
G1 X135.754 Y96.766 E4.4217
G1 X136.027 Y96.103 E4.4823
G1 X136.231 Y95.416 E4.5428
G1 X136.301 Y95.078 E4.5719
G1 X136.393 Y94.316 E4.6367
G1 X136.489 Y91.480 E4.8762
G1 X139.861 Y88.221 E5.2721
G1 X154.412 Y88.221 E6.5004
G1 X157.809 Y91.618 E6.9060
G1 X157.809 Y100.033 E7.6163
G1 X156.926 Y102.165 E7.8111
G1 X143.103 Y115.988 E9.4613
G1 X140.972 Y116.871 E9.6561
G1 X125.075 Y116.871 E10.9980
G1 X125.075 Y117.052 E11.0133
G1 X121.677 Y120.450 E11.4189
G1 X112.487 Y120.450 E12.1947
G1 X109.699 Y118.744 E12.4706
G1 X108.523 Y116.443 E12.6888
G1 X108.313 Y116.105 E12.7223
G1 X108.082 Y115.784 E12.7558
G1 X107.582 Y115.202 E12.8205
G1 X107.300 Y114.925 E12.8539
G1 X106.962 Y114.636 E12.8914
G1 X106.645 Y114.399 E12.9248
G1 X105.993 Y113.995 E12.9896
G1 X105.684 Y113.838 E13.0188
G1 X105.020 Y113.569 E13.0793
G1 X104.331 Y113.369 E13.1398
G1 X103.943 Y113.291 E13.1732
G1 X103.551 Y113.240 E13.2066
G1 X102.785 Y113.205 E13.2714
G1 X102.390 Y113.221 E13.3047
G1 X101.947 Y113.269 E13.3423
G1 X101.509 Y113.347 E13.3799
G1 X101.077 Y113.455 E13.4174
G1 X100.699 Y113.577 E13.4510
G1 X99.993 Y113.873 E13.5156
G1 X99.687 Y114.034 E13.5448
G1 X99.040 Y114.446 E13.6095
G1 X98.726 Y114.686 E13.6429
G1 X98.428 Y114.947 E13.6763
G1 X97.897 Y115.500 E13.7411
G1 X97.680 Y115.769 E13.7703
G1 X97.250 Y116.404 E13.8350
G1 X97.081 Y116.705 E13.8642
G1 X96.785 Y117.358 E13.9247
G1 X96.557 Y118.039 E13.9852
G1 X96.476 Y118.375 E14.0144
G1 X96.366 Y119.087 E14.0753
G1 X96.199 Y122.265 E14.3439
G1 X92.842 Y125.450 E14.7345
G1 X78.323 Y125.450 E15.9602
G1 X74.925 Y122.052 E16.3658
G1 X74.925 Y113.638 E17.0761
G1 X75.808 Y111.506 E17.2709
G1 X89.631 Y97.683 E18.9210
G1 X90.039 Y98.293 F18000
G92 E0.0000
G1 X91.906 Y97.520 E0.1706 F1800
G1 X108.379 Y97.520 E1.5612
G1 X108.379 Y96.917 E1.6121
G1 X111.355 Y93.941 E1.9674
G1 X120.045 Y93.941 E2.7009
G1 X122.486 Y95.435 E2.9425
G1 X123.584 Y97.583 E3.1461
G1 X123.800 Y97.930 E3.1806
G1 X124.295 Y98.593 E3.2505
G1 X124.595 Y98.930 E3.2886
G1 X124.917 Y99.246 E3.3267
G1 X125.555 Y99.774 E3.3966
G1 X125.925 Y100.031 E3.4346
G1 X126.349 Y100.284 E3.4763
G1 X126.790 Y100.508 E3.5180
G1 X127.245 Y100.701 E3.5598
G1 X127.712 Y100.863 E3.6015
G1 X128.189 Y100.993 E3.6432
G1 X128.673 Y101.090 E3.6849
G1 X129.120 Y101.149 E3.7230
G1 X129.947 Y101.186 E3.7929
G1 X130.398 Y101.168 E3.8309
G1 X130.889 Y101.115 E3.8727
G1 X131.376 Y101.028 E3.9144
G1 X131.813 Y100.919 E3.9524
G1 X132.597 Y100.651 E4.0224
G1 X132.969 Y100.487 E4.0567
G1 X133.658 Y100.112 E4.1229
G1 X134.305 Y99.668 E4.1891
G1 X134.653 Y99.382 E4.2272
G1 X134.982 Y99.074 E4.2652
G1 X135.505 Y98.490 E4.3314
G1 X135.967 Y97.856 E4.3976
G1 X136.201 Y97.470 E4.4357
G1 X136.407 Y97.069 E4.4738
G1 X136.707 Y96.343 E4.5400
G1 X136.930 Y95.592 E4.6062
G1 X137.013 Y95.194 E4.6405
G1 X137.111 Y94.371 E4.7105
G1 X137.199 Y91.795 E4.9280
G1 X140.152 Y88.941 E5.2748
G1 X154.113 Y88.941 E6.4533
G1 X157.089 Y91.917 E6.8085
G1 X157.089 Y99.890 E7.4816
G1 X156.316 Y101.757 E7.6522
G1 X142.695 Y115.377 E9.2782
G1 X140.828 Y116.151 E9.4488
G1 X124.355 Y116.151 E10.8394
G1 X124.355 Y116.754 E10.8903
G1 X121.379 Y119.730 E11.2456
G1 X112.690 Y119.730 E11.9791
G1 X110.248 Y118.236 E12.2207
G1 X109.151 Y116.088 E12.4243
G1 X108.911 Y115.704 E12.4625
G1 X108.648 Y115.338 E12.5006
G1 X108.108 Y114.710 E12.5705
G1 X107.787 Y114.394 E12.6085
G1 X107.411 Y114.073 E12.6503
G1 X107.050 Y113.804 E12.6883
G1 X106.346 Y113.367 E12.7582
G1 X105.983 Y113.183 E12.7926
G1 X105.256 Y112.888 E12.8588
G1 X104.503 Y112.669 E12.9250
G1 X104.061 Y112.580 E12.9631
G1 X103.614 Y112.522 E13.0011
G1 X102.786 Y112.485 E13.0710
G1 X102.337 Y112.503 E13.1091
G1 X101.845 Y112.556 E13.1508
G1 X101.359 Y112.643 E13.1925
G1 X100.880 Y112.762 E13.2342
G1 X100.449 Y112.901 E13.2724
G1 X99.686 Y113.221 E13.3422
G1 X99.326 Y113.410 E13.3765
G1 X98.628 Y113.855 E13.4464
G1 X98.269 Y114.129 E13.4845
G1 X97.930 Y114.426 E13.5225
G1 X97.357 Y115.023 E13.5925
G1 X97.101 Y115.340 E13.6268
G1 X96.636 Y116.026 E13.6967
G1 X96.438 Y116.380 E13.7310
G1 X96.114 Y117.095 E13.7972
G1 X95.865 Y117.839 E13.8635
G1 X95.769 Y118.234 E13.8978
G1 X95.649 Y119.013 E13.9644
G1 X95.495 Y121.940 E14.2118
G1 X92.555 Y124.730 E14.5539
G1 X78.621 Y124.730 E15.7301
G1 X75.645 Y121.754 E16.0854
G1 X75.645 Y113.781 E16.7585
G1 X76.418 Y111.914 E16.9291
G1 X90.039 Y98.293 E18.5551
G1 X90.447 Y98.904 F18000
G92 E0.0000
G1 X92.049 Y98.240 E0.1464 F1800
G1 X109.099 Y98.240 E1.5857
G1 X109.099 Y97.215 E1.6722
G1 X111.653 Y94.661 E1.9771
G1 X119.842 Y94.661 E2.6684
G1 X121.937 Y95.943 E2.8757
G1 X122.956 Y97.937 E3.0648
G1 X123.204 Y98.336 E3.1044
G1 X123.737 Y99.049 E3.1795
G1 X124.073 Y99.427 E3.2222
G1 X124.434 Y99.781 E3.2649
G1 X125.119 Y100.348 E3.3400
G1 X125.535 Y100.636 E3.3827
G1 X126.001 Y100.915 E3.4286
G1 X126.486 Y101.161 E3.4744
G1 X126.986 Y101.373 E3.5203
G1 X127.499 Y101.552 E3.5661
G1 X128.023 Y101.694 E3.6120
G1 X128.556 Y101.801 E3.6579
G1 X129.057 Y101.867 E3.7005
G1 X129.946 Y101.907 E3.7756
G1 X130.451 Y101.886 E3.8183
G1 X130.991 Y101.828 E3.8642
G1 X131.526 Y101.732 E3.9101
G1 X132.017 Y101.610 E3.9528
G1 X132.859 Y101.322 E4.0279
G1 X133.287 Y101.134 E4.0673
G1 X134.035 Y100.726 E4.1392
G1 X134.737 Y100.244 E4.2112
G1 X135.129 Y99.924 E4.2539
G1 X135.497 Y99.577 E4.2966
G1 X136.066 Y98.944 E4.3684
G1 X136.567 Y98.255 E4.4404
G1 X136.830 Y97.822 E4.4831
G1 X137.061 Y97.372 E4.5258
G1 X137.386 Y96.584 E4.5978
G1 X137.629 Y95.768 E4.6697
G1 X137.724 Y95.310 E4.7091
G1 X137.830 Y94.427 E4.7842
G1 X137.908 Y92.111 E4.9798
G1 X140.443 Y89.661 E5.2774
G1 X153.815 Y89.661 E6.4062
G1 X156.369 Y92.215 E6.7111
G1 X156.369 Y99.747 E7.3469
G1 X155.706 Y101.349 E7.4933
G1 X142.288 Y114.767 E9.0951
G1 X140.685 Y115.431 E9.2415
G1 X123.635 Y115.431 E10.6808
G1 X123.635 Y116.456 E10.7674
G1 X121.081 Y119.010 E11.0723
G1 X112.892 Y119.010 E11.7635
G1 X110.797 Y117.728 E11.9708
G1 X109.778 Y115.734 E12.1599
G1 X109.510 Y115.303 E12.2027
G1 X109.214 Y114.892 E12.2455
G1 X108.634 Y114.217 E12.3205
G1 X108.274 Y113.863 E12.3632
G1 X107.861 Y113.510 E12.4091
G1 X107.456 Y113.208 E12.4517
G1 X106.700 Y112.739 E12.5268
G1 X106.282 Y112.527 E12.5664
G1 X105.493 Y112.207 E12.6383
G1 X104.675 Y111.969 E12.7102
G1 X104.179 Y111.870 E12.7529
G1 X103.677 Y111.804 E12.7956
G1 X102.788 Y111.764 E12.8707
G1 X102.283 Y111.784 E12.9134
G1 X101.743 Y111.843 E12.9592
G1 X101.208 Y111.938 E13.0051
G1 X100.682 Y112.069 E13.0509
G1 X100.199 Y112.225 E13.0937
G1 X99.379 Y112.569 E13.1688
G1 X98.965 Y112.786 E13.2082
G1 X98.215 Y113.264 E13.2833
G1 X97.813 Y113.572 E13.3260
G1 X97.432 Y113.905 E13.3688
G1 X96.816 Y114.547 E13.4438
G1 X96.522 Y114.911 E13.4834
G1 X96.023 Y115.647 E13.5585
G1 X95.795 Y116.055 E13.5979
G1 X95.443 Y116.831 E13.6698
G1 X95.173 Y117.639 E13.7418
G1 X95.062 Y118.094 E13.7813
G1 X94.932 Y118.939 E13.8534
G1 X94.791 Y121.616 E14.0797
G1 X92.268 Y124.010 E14.3733
G1 X78.919 Y124.010 E15.5001
G1 X76.365 Y121.456 E15.8050
G1 X76.365 Y113.924 E16.4408
G1 X77.029 Y112.322 E16.5872
G1 X90.447 Y98.904 E18.1891
G92 E0.0000
G1 E-3.0000 F3600
; feature inner perimeter
G1 X93.066 Y102.960 F18000
G1 X92.910 Y103.115
G1 X93.662 Y104.400
G1 E0.0000 F3600
G92 E0.0000
G1 X110.647 Y104.400 E1.4338 F1350
G1 X117.475 Y111.228 E2.2489
G1 X117.475 Y112.850 E2.3858
G1 X115.227 Y112.850 E2.5756
G1 X115.130 Y112.674 E2.5926
G1 X114.630 Y111.871 E2.6725
G1 X114.067 Y111.090 E2.7537
G1 X113.463 Y110.362 E2.8336
G1 X113.115 Y109.984 E2.8769
G1 X112.440 Y109.321 E2.9568
G1 X111.709 Y108.695 E3.0381
G1 X110.950 Y108.129 E3.1180
G1 X110.523 Y107.844 E3.1613
G1 X109.710 Y107.359 E3.2412
G1 X108.852 Y106.923 E3.3224
G1 X107.981 Y106.553 E3.4023
G1 X107.514 Y106.382 E3.4443
G1 X107.041 Y106.227 E3.4863
G1 X106.128 Y105.978 E3.5662
G1 X105.185 Y105.789 E3.6474
G1 X104.230 Y105.664 E3.7287
G1 X103.286 Y105.605 E3.8086
G1 X102.772 Y105.600 E3.8519
G1 X101.827 Y105.638 E3.9318
G1 X100.870 Y105.742 E4.0131
G1 X99.922 Y105.910 E4.0943
G1 X99.004 Y106.139 E4.1742
G1 X98.528 Y106.284 E4.2162
G1 X98.057 Y106.445 E4.2582
G1 X97.193 Y106.790 E4.3367
G1 X96.727 Y107.005 E4.3801
G1 X95.903 Y107.436 E4.4586
G1 X95.461 Y107.697 E4.5019
G1 X94.671 Y108.220 E4.5818
G1 X93.906 Y108.804 E4.6631
G1 X93.183 Y109.439 E4.7443
G1 X92.516 Y110.110 E4.8242
G1 X92.173 Y110.492 E4.8676
G1 X91.578 Y111.228 E4.9474
G1 X91.034 Y112.002 E5.0273
G1 X90.760 Y112.437 E5.0707
G1 X90.306 Y113.249 E5.1492
G1 X90.079 Y113.709 E5.1925
G1 X89.709 Y114.563 E5.2711
G1 X89.530 Y115.044 E5.3144
G1 X89.245 Y115.947 E5.3943
G1 X89.021 Y116.866 E5.4742
G1 X88.926 Y117.371 E5.5175
G1 X88.860 Y117.850 E5.5584
G1 X82.525 Y117.850 E6.0932
G1 X82.525 Y115.537 E6.2884
G1 X93.521 Y104.541 E7.6011
G1 X93.662 Y104.400 F1350
G1 X98.662 Y104.400 F1350
G1 X99.196 Y106.833 F18000
G92 E0.0000
G1 X98.749 Y106.969 E0.0394 F1350
G1 X98.307 Y107.120 E0.0788
G1 X97.478 Y107.452 E0.1542
G1 X97.044 Y107.651 E0.1945
G1 X96.253 Y108.066 E0.2699
G1 X95.842 Y108.308 E0.3102
G1 X95.089 Y108.807 E0.3864
G1 X94.363 Y109.361 E0.4635
G1 X93.677 Y109.964 E0.5406
G1 X93.040 Y110.605 E0.6169
G1 X92.721 Y110.960 E0.6572
G1 X92.153 Y111.662 E0.7334
G1 X91.634 Y112.401 E0.8097
G1 X91.380 Y112.805 E0.8500
G1 X90.944 Y113.584 E0.9254
G1 X90.732 Y114.012 E0.9656
G1 X90.377 Y114.832 E1.0410
G1 X90.211 Y115.279 E1.0813
G1 X89.938 Y116.140 E1.1576
G1 X89.725 Y117.018 E1.2338
G1 X89.637 Y117.487 E1.2741
