; G-Code generated by Simplify3D(R) Version 4.1.2
; Dec 1, 2019 at 10:03:03 PM
; Settings Summary
;   processName,Process1
;   applyToModels,ninjastar,ninjastar(2),ninjastar(3),ninjastar(4)
;   profileName,HBot
;   profileVersion,2019-10-26 23:38:43
;   baseProfile,Default
;   printMaterial,PLA
;   printQuality,Fast
;   printExtruders,
;   extruderName,Extruder 1
;   extruderToolheadNumber,0
;   extruderDiameter,0.4
;   extruderAutoWidth,1
;   extruderWidth,0.48
;   extrusionMultiplier,0.94
;   extruderUseRetract,1
;   extruderRetractionDistance,3
;   extruderExtraRestartDistance,0
;   extruderRetractionZLift,0
;   extruderRetractionSpeed,3600
;   extruderUseCoasting,1
;   extruderCoastingDistance,0.2
;   extruderUseWipe,1
;   extruderWipeDistance,5
;   primaryExtruder,0
;   layerHeight,0.3
;   topSolidLayers,3
;   bottomSolidLayers,3
;   perimeterOutlines,3
;   printPerimetersInsideOut,1
;   startPointOption,2
;   startPointOriginX,0
;   startPointOriginY,0
;   sequentialIslands,0
;   spiralVaseMode,0
;   firstLayerHeightPercentage,100
;   firstLayerWidthPercentage,150
;   firstLayerUnderspeed,0.5
;   useRaft,0
;   raftExtruder,0
;   raftTopLayers,3
;   raftBaseLayers,2
;   raftOffset,3
;   raftSeparationDistance,0.18
;   raftTopInfill,100
;   aboveRaftSpeedMultiplier,0.3
;   useSkirt,1
;   skirtExtruder,0
;   skirtLayers,1
;   skirtOutlines,3
;   skirtOffset,4
;   usePrimePillar,0
;   primePillarExtruder,999
;   primePillarWidth,12
;   primePillarLocation,7
;   primePillarSpeedMultiplier,1
;   useOozeShield,0
;   oozeShieldExtruder,999
;   oozeShieldOffset,2
;   oozeShieldOutlines,1
;   oozeShieldSidewallShape,1
;   oozeShieldSidewallAngle,30
;   oozeShieldSpeedMultiplier,1
;   infillExtruder,0
;   internalInfillPattern,Rectilinear
;   externalInfillPattern,Rectilinear
;   infillPercentage,15
;   outlineOverlapPercentage,25
;   infillExtrusionWidthPercentage,150
;   minInfillLength,5
;   infillLayerInterval,1
;   internalInfillAngles,45,-45
;   overlapInternalInfillAngles,0
;   externalInfillAngles,45,-45
;   generateSupport,0
;   supportExtruder,0
;   supportInfillPercentage,25
;   supportExtraInflation,0
;   supportBaseLayers,1
;   denseSupportExtruder,0
;   denseSupportLayers,0
;   denseSupportInfillPercentage,70
;   supportLayerInterval,1
;   supportHorizontalPartOffset,0.3
;   supportUpperSeparationLayers,1
;   supportLowerSeparationLayers,1
;   supportType,0
;   supportGridSpacing,4
;   maxOverhangAngle,45
;   supportAngles,0
;   temperatureName,Extruder 1,Heated Bed
;   temperatureNumber,0,1
;   temperatureSetpointCount,2,1
;   temperatureSetpointLayers,1,2,1
;   temperatureSetpointTemperatures,217,210,55
;   temperatureStabilizeAtStartup,1,1
;   temperatureHeatedBed,0,1
;   fanLayers,1,3,5
;   fanSpeeds,0,15,20
;   blipFanToFullPower,1
;   adjustSpeedForCooling,1
;   minSpeedLayerTime,15
;   minCoolingSpeedSlowdown,20
;   increaseFanForCooling,0
;   minFanLayerTime,45
;   maxCoolingFanSpeed,40
;   increaseFanForBridging,0
;   bridgingFanSpeed,80
;   use5D,1
;   relativeEdistances,0
;   allowEaxisZeroing,1
;   independentExtruderAxes,0
;   includeM10123,0
;   stickySupport,1
;   applyToolheadOffsets,0
;   gcodeXoffset,0
;   gcodeYoffset,0
;   gcodeZoffset,0
;   overrideMachineDefinition,1
;   machineTypeOverride,0
;   strokeXoverride,200
;   strokeYoverride,200
;   strokeZoverride,150
;   originOffsetXoverride,0
;   originOffsetYoverride,0
;   originOffsetZoverride,0
;   homeXdirOverride,-1
;   homeYdirOverride,-1
;   homeZdirOverride,-1
;   flipXoverride,1
;   flipYoverride,-1
;   flipZoverride,1
;   toolheadOffsets,0,0|0,0|0,0|0,0|0,0|0,0
;   overrideFirmwareConfiguration,1
;   firmwareTypeOverride,RepRap (Marlin/Repetier/Sprinter)
;   GPXconfigOverride,r2
;   baudRateOverride,115200
;   overridePrinterModels,0
;   printerModelsOverride
;   startingGcode,G28 ; home all axes,G32 ; run bed.g -- probe bed and enable compensation
;   layerChangeGcode,
;   retractionGcode,
;   toolChangeGcode,
;   endingGcode,M0 ; call stop.g
;   exportFileFormat,gcode
;   celebration,0
;   celebrationSong,Random Song
;   postProcessing,
;   defaultSpeed,3600
;   outlineUnderspeed,0.5
;   solidInfillUnderspeed,0.8
;   supportUnderspeed,0.8
;   rapidXYspeed,18000
;   rapidZspeed,1200
;   minBridgingArea,50
;   bridgingExtraInflation,0
;   bridgingExtrusionMultiplier,0.96
;   bridgingSpeedMultiplier,1
;   useFixedBridgingAngle,0
;   fixedBridgingAngle,0
;   applyBridgingToPerimeters,0
;   filamentDiameters,1.75|1.75|1.75|1.75|1.75|1.75
;   filamentPricesPerKg,46|46|46|46|46|46
;   filamentDensities,1.25|1.25|1.25|1.25|1.25|1.25
;   useMinPrintHeight,0
;   minPrintHeight,0
;   useMaxPrintHeight,0
;   maxPrintHeight,0
;   useDiaphragm,1
;   diaphragmLayerInterval,20
;   robustSlicing,1
;   mergeAllIntoSolid,0
;   onlyRetractWhenCrossingOutline,1
;   retractBetweenLayers,0
;   useRetractionMinTravel,1
;   retractionMinTravel,3
;   retractWhileWiping,1
;   onlyWipeOutlines,1
;   avoidCrossingOutline,1
;   maxMovementDetourFactor,3
;   toolChangeRetractionDistance,12
;   toolChangeExtraRestartDistance,-0.5
;   toolChangeRetractionSpeed,600
;   externalThinWallType,1
;   internalThinWallType,1
;   thinWallAllowedOverlapPercentage,10
;   singleExtrusionMinLength,1
;   singleExtrusionMinPrintingWidthPercentage,50
;   singleExtrusionMaxPrintingWidthPercentage,200
;   singleExtrusionEndpointExtension,0.2
;   horizontalSizeCompensation,-0.1
G90
M82
M106 S0
M140 S55
M190 S55
M104 S217 T0
M109 S217 T0
G28 ; home all axes
G32 ; run bed.g -- probe bed and enable compensation
; process Process1
; layer 1, Z = 0.300
T0
G92 E0.0000
G1 E-3.0000 F3600
; feature skirt
; tool H0.300 W0.720
G1 Z0.300 F1200
G1 X46.836 Y20.624 F18000
G1 E0.0000 F3600
G92 E0.0000
G1 X48.571 Y19.321 E0.1832 F1800
G1 X50.063 Y18.742 E0.3183
G1 X52.211 Y18.536 E0.5004
G1 X54.510 Y19.286 E0.7045
G1 X55.814 Y20.445 E0.8518
G1 X56.165 Y20.818 E0.8950
G1 X72.153 Y41.089 E3.0743
G1 X72.712 Y43.753 E3.3041
G1 X72.299 Y45.342 E3.4427
G1 X72.259 Y46.278 E3.5218
G1 X72.432 Y46.929 E3.5786
G1 X72.790 Y47.498 E3.6354
G1 X73.302 Y47.935 E3.6923
G1 X73.893 Y48.188 E3.7465
G1 X74.533 Y48.246 E3.8007
G1 X75.191 Y48.104 E3.8576
G1 X75.778 Y47.773 E3.9144
G1 X76.238 Y47.283 E3.9712
G1 X76.648 Y46.440 E4.0503
G1 X77.038 Y44.846 E4.1888
G1 X78.795 Y42.766 E4.4186
G1 X102.484 Y32.515 E6.5976
G1 X102.956 Y32.357 E6.6396
G1 X104.625 Y31.954 E6.7845
G1 X106.984 Y32.359 E6.9866
G1 X108.988 Y33.663 E7.1884
G1 X110.230 Y35.336 E7.3643
G1 X110.866 Y37.523 E7.5565
G1 X110.703 Y39.629 E7.7348
G1 X110.060 Y41.002 E7.8629
G1 X109.845 Y41.385 E7.8999
G1 X97.935 Y59.217 E9.7100
G1 X115.107 Y54.220 E11.2197
G1 X117.786 Y54.701 E11.4495
G1 X119.103 Y55.680 E11.5880
G1 X119.956 Y56.068 E11.6671
G1 X120.624 Y56.152 E11.7239
G1 X121.287 Y56.033 E11.7808
G1 X121.884 Y55.722 E11.8376
G1 X122.340 Y55.269 E11.8918
G1 X122.634 Y54.698 E11.9461
G1 X122.750 Y54.035 E12.0029
G1 X122.663 Y53.367 E12.0597
G1 X122.381 Y52.756 E12.1165
G1 X121.753 Y52.061 E12.1956
G1 X120.422 Y51.101 E12.3341
G1 X119.153 Y48.692 E12.5639
G1 X118.538 Y22.868 E14.7445
G1 X118.576 Y22.328 E14.7902
G1 X118.865 Y20.567 E14.9408
G1 X120.210 Y18.512 E15.1482
G1 X122.033 Y17.335 E15.3313
G1 X123.562 Y16.863 E15.4664
G1 X125.719 Y16.809 E15.6485
G1 X127.959 Y17.719 E15.8526
G1 X129.178 Y18.966 E15.9999
G1 X129.503 Y19.363 E16.0431
G1 X144.024 Y40.709 E18.2225
G1 X144.394 Y43.406 E18.4523
G1 X143.870 Y44.962 E18.5908
G1 X143.764 Y45.893 E18.6699
G1 X143.891 Y46.554 E18.7267
G1 X144.209 Y47.147 E18.7836
G1 X144.689 Y47.619 E18.8404
G1 X145.260 Y47.912 E18.8946
G1 X145.895 Y48.016 E18.9489
G1 X146.561 Y47.921 E19.0057
G1 X147.169 Y47.632 E19.0625
G1 X147.663 Y47.175 E19.1193
G1 X148.131 Y46.363 E19.1984
G1 X148.633 Y44.801 E19.3369
G1 X150.531 Y42.850 E19.5667
G1 X174.883 Y34.291 E21.7457
G1 X175.365 Y34.167 E21.7877
G1 X177.059 Y33.882 E21.9327
G1 X179.384 Y34.452 E22.1347
G1 X181.291 Y35.894 E22.3366
G1 X182.412 Y37.650 E22.5124
G1 X182.892 Y39.876 E22.7046
G1 X182.581 Y41.965 E22.8829
G1 X181.844 Y43.291 E23.0110
G1 X181.602 Y43.657 E23.0480
G1 X165.809 Y64.036 E25.2244
G1 X163.358 Y65.221 E25.4542
G1 X161.717 Y65.204 E25.5928
G1 X160.799 Y65.391 E25.6718
G1 X160.209 Y65.716 E25.7287
G1 X159.743 Y66.201 E25.7855
G1 X159.443 Y66.804 E25.8423
G1 X159.340 Y67.438 E25.8966
G1 X159.438 Y68.073 E25.9508
G1 X159.734 Y68.678 E26.0076
G1 X160.197 Y69.167 E26.0645
G1 X160.784 Y69.496 E26.1213
G1 X161.701 Y69.689 E26.2004
G1 X163.342 Y69.684 E26.3389
G1 X165.784 Y70.886 E26.5687
G1 X181.452 Y91.406 E28.7481
G1 X181.726 Y91.839 E28.7913
G1 X182.525 Y93.390 E28.9386
G1 X182.680 Y95.803 E29.1427
G1 X181.947 Y97.832 E29.3248
G1 X181.017 Y99.134 E29.4599
G1 X179.324 Y100.491 E29.6431
G1 X176.950 Y101.119 E29.8504
G1 X175.188 Y100.837 E30.0010
G1 X174.664 Y100.702 E30.0467
G1 X158.896 Y95.034 E31.4611
G1 X158.986 Y95.131 E31.4722
G1 X159.773 Y97.379 E31.6733
G1 X159.653 Y99.149 E31.8230
G1 X159.553 Y99.731 E31.8729
G1 X152.614 Y124.641 E34.0557
G1 X150.793 Y126.664 E34.2855
G1 X149.267 Y127.269 E34.4240
G1 X148.487 Y127.789 E34.5031
G1 X148.064 Y128.312 E34.5599
G1 X147.816 Y128.938 E34.6168
G1 X147.766 Y129.609 E34.6736
G1 X147.911 Y130.235 E34.7278
G1 X148.241 Y130.786 E34.7821
G1 X148.744 Y131.234 E34.8389
G1 X149.357 Y131.512 E34.8957
G1 X150.025 Y131.594 E34.9525
G1 X150.947 Y131.427 E35.0316
G1 X152.464 Y130.802 E35.1701
G1 X155.180 Y130.992 E35.3999
G1 X177.441 Y144.067 E37.5793
G1 X177.859 Y144.365 E37.6226
G1 X179.184 Y145.499 E37.7698
G1 X180.240 Y147.674 E37.9739
G1 X180.330 Y149.863 E38.1588
G1 X179.927 Y151.480 E38.2995
G1 X178.821 Y153.370 E38.4844
G1 X176.867 Y154.795 E38.6886
G1 X175.164 Y155.174 E38.8358
G1 X174.656 Y155.241 E38.8791
G1 X148.862 Y156.337 E41.0584
G1 X146.375 Y155.231 E41.2882
G1 X145.329 Y153.966 E41.4267
G1 X144.593 Y153.386 E41.5058
G1 X143.964 Y153.145 E41.5627
G1 X143.293 Y153.102 E41.6195
G1 X142.639 Y153.262 E41.6763
G1 X142.088 Y153.593 E41.7305
G1 X141.666 Y154.078 E41.7848
G1 X141.396 Y154.694 E41.8416
G1 X141.321 Y155.363 E41.8984
G1 X141.449 Y156.024 E41.9553
G1 X141.893 Y156.849 E42.0344
G1 X142.956 Y158.099 E42.1729
G1 X143.614 Y160.740 E42.4027
G1 X138.055 Y185.967 E44.5832
G1 X137.890 Y186.482 E44.6289
G1 X137.190 Y188.123 E44.7796
G1 X135.393 Y189.798 E44.9869
G1 X133.373 Y190.496 E45.1673
G1 X131.843 Y190.603 E45.2968
G1 X129.746 Y190.193 E45.4771
G1 X127.733 Y188.785 E45.6845
G1 X126.811 Y187.257 E45.8351
G1 X126.576 Y186.770 E45.8808
G1 X117.558 Y162.564 E48.0613
G1 X117.842 Y159.856 E48.2911
G1 X118.721 Y158.471 E48.4296
G1 X119.046 Y157.592 E48.5087
G1 X119.080 Y156.919 E48.5656
G1 X118.913 Y156.267 E48.6224
G1 X118.559 Y155.695 E48.6792
G1 X118.074 Y155.273 E48.7334
G1 X117.483 Y155.022 E48.7877
G1 X116.813 Y154.955 E48.8445
G1 X116.154 Y155.091 E48.9013
G1 X115.565 Y155.417 E48.9582
G1 X114.917 Y156.094 E49.0373
G1 X114.057 Y157.492 E49.1758
G1 X111.748 Y158.934 E49.4056
G1 X86.053 Y161.441 E51.5849
G1 X85.541 Y161.445 E51.6282
G1 X84.161 Y161.336 E51.7450
G1 X84.917 Y179.066 E53.2431
G1 X84.889 Y179.611 E53.2891
G1 X84.631 Y181.374 E53.4395
G1 X83.325 Y183.449 E53.6465
G1 X81.545 Y184.647 E53.8276
G1 X80.071 Y185.144 E53.9589
G1 X77.970 Y185.269 E54.1366
G1 X75.729 Y184.461 E54.3377
G1 X74.432 Y183.250 E54.4874
G1 X74.044 Y182.805 E54.5373
G1 X59.101 Y161.702 E56.7201
G1 X58.680 Y159.013 E56.9499
G1 X59.174 Y157.448 E57.0884
G1 X59.263 Y156.515 E57.1675
G1 X59.124 Y155.856 E57.2243
G1 X58.795 Y155.269 E57.2812
G1 X58.306 Y154.806 E57.3380
G1 X57.729 Y154.524 E57.3922
G1 X57.093 Y154.432 E57.4465
G1 X56.428 Y154.540 E57.5033
G1 X55.826 Y154.840 E57.5601
G1 X55.340 Y155.306 E57.6169
G1 X54.888 Y156.127 E57.6960
G1 X54.416 Y157.698 E57.8345
G1 X52.554 Y159.685 E58.0643
G1 X28.349 Y168.706 E60.2449
G1 X27.826 Y168.847 E60.2906
G1 X26.068 Y169.150 E60.4412
G1 X23.687 Y168.550 E60.6485
G1 X22.004 Y167.232 E60.8289
G1 X21.083 Y166.005 E60.9584
G1 X20.290 Y164.020 E61.1388
G1 X20.380 Y161.566 E61.3461
G1 X21.163 Y159.963 E61.4967
G1 X21.444 Y159.501 E61.5424
G1 X36.881 Y138.789 E63.7230
G1 X39.309 Y137.558 E63.9528
G1 X40.950 Y137.544 E64.0913
G1 X41.864 Y137.340 E64.1704
G1 X42.448 Y137.004 E64.2272
G1 X42.905 Y136.510 E64.2841
G1 X43.194 Y135.902 E64.3409
G1 X43.284 Y135.266 E64.3951
G1 X43.175 Y134.633 E64.4494
G1 X42.867 Y134.034 E64.5062
G1 X42.395 Y133.554 E64.5630
G1 X41.802 Y133.236 E64.6198
G1 X40.882 Y133.060 E64.6989
G1 X39.241 Y133.096 E64.8374
G1 X36.777 Y131.939 E65.0672
G1 X20.726 Y111.718 E67.2466
G1 X20.444 Y111.290 E67.2898
G1 X19.616 Y109.755 E67.4371
G1 X19.415 Y107.345 E67.6413
G1 X20.181 Y105.092 E67.8421
G1 X21.461 Y103.499 E68.0146
G1 X23.390 Y102.328 E68.2052
G1 X25.466 Y101.939 E68.3835
G1 X26.960 Y102.203 E68.5115
G1 X27.385 Y102.312 E68.5485
G1 X51.279 Y110.398 E70.6779
G1 X50.391 Y87.924 E72.5765
G1 X51.505 Y85.440 E72.8063
G1 X52.773 Y84.398 E72.9448
G1 X53.356 Y83.664 E73.0239
G1 X53.598 Y83.036 E73.0807
G1 X53.643 Y82.364 E73.1376
G1 X53.485 Y81.710 E73.1944
G1 X53.155 Y81.158 E73.2486
G1 X52.672 Y80.735 E73.3029
G1 X52.056 Y80.463 E73.3597
G1 X51.388 Y80.386 E73.4165
G1 X50.726 Y80.512 E73.4733
G1 X49.900 Y80.953 E73.5524
G1 X48.647 Y82.013 E73.6909
G1 X46.004 Y82.663 E73.9207
G1 X20.808 Y77.032 E76.1001
G1 X20.320 Y76.876 E76.1434
G1 X18.711 Y76.203 E76.2906
G1 X17.039 Y74.455 E76.4948
G1 X16.283 Y72.399 E76.6797
G1 X16.172 Y70.737 E76.8203
G1 X16.647 Y68.599 E77.0052
G1 X18.070 Y66.644 E77.2093
G1 X19.575 Y65.761 E77.3566
G1 X20.039 Y65.542 E77.3998
G1 X44.258 Y56.601 E79.5792
G1 X46.965 Y56.893 E79.8090
G1 X48.348 Y57.777 E79.9475
G1 X49.226 Y58.104 E80.0266
G1 X49.898 Y58.141 E80.0834
G1 X50.551 Y57.975 E80.1403
G1 X51.124 Y57.623 E80.1971
G1 X51.547 Y57.139 E80.2513
G1 X51.800 Y56.549 E80.3056
G1 X51.869 Y55.879 E80.3624
G1 X51.735 Y55.219 E80.4192
G1 X51.411 Y54.630 E80.4761
G1 X50.736 Y53.980 E80.5551
G1 X49.341 Y53.116 E80.6937
G1 X47.906 Y50.803 E80.9235
G1 X45.474 Y25.086 E83.1040
G1 X45.474 Y24.544 E83.1497
G1 X45.638 Y22.768 E83.3003
G1 X46.836 Y20.624 E83.5076
G1 X46.341 Y22.986 F18000
G92 E0.0000
G1 X47.390 Y21.108 E0.1816 F1800
G1 X48.924 Y19.956 E0.3435
G1 X50.231 Y19.450 E0.4618
G1 X52.130 Y19.267 E0.6229
G1 X54.144 Y19.924 E0.8017
G1 X55.312 Y20.962 E0.9335
G1 X55.620 Y21.289 E0.9714
G1 X71.483 Y41.402 E3.1338
G1 X71.972 Y43.736 E3.3351
G1 X71.583 Y45.235 E3.4658
G1 X71.535 Y46.357 E3.5606
G1 X71.764 Y47.220 E3.6360
G1 X72.240 Y47.975 E3.7113
G1 X72.919 Y48.554 E3.7867
G1 X73.715 Y48.894 E3.8598
G1 X74.577 Y48.973 E3.9329
G1 X75.450 Y48.785 E4.0082
G1 X76.227 Y48.346 E4.0836
G1 X76.838 Y47.696 E4.1589
G1 X77.329 Y46.685 E4.2537
G1 X77.697 Y45.182 E4.3844
G1 X79.236 Y43.360 E4.5857
G1 X102.741 Y33.188 E6.7477
G1 X103.155 Y33.050 E6.7845
G1 X104.650 Y32.688 E6.9144
G1 X106.716 Y33.043 E7.0913
G1 X108.487 Y34.196 E7.2697
G1 X109.575 Y35.661 E7.4238
G1 X110.138 Y37.598 E7.5940
G1 X109.995 Y39.442 E7.7502
G1 X109.420 Y40.673 E7.8648
G1 X109.231 Y41.008 E7.8973
G1 X96.239 Y60.460 E9.8719
G1 X115.146 Y54.958 E11.5341
G1 X117.492 Y55.380 E11.7354
G1 X118.736 Y56.303 E11.8661
G1 X119.758 Y56.769 E11.9609
G1 X120.643 Y56.880 E12.0363
G1 X121.522 Y56.722 E12.1116
G1 X122.314 Y56.310 E12.1870
G1 X122.928 Y55.700 E12.2601
G1 X123.324 Y54.930 E12.3332
G1 X123.478 Y54.051 E12.4085
G1 X123.362 Y53.166 E12.4839
G1 X122.989 Y52.355 E12.5592
G1 X122.236 Y51.521 E12.6540
G1 X120.980 Y50.616 E12.7847
G1 X119.869 Y48.506 E12.9860
G1 X119.259 Y22.884 E15.1495
G1 X119.292 Y22.411 E15.1895
G1 X119.550 Y20.834 E15.3244
G1 X120.729 Y19.034 E15.5060
G1 X122.340 Y17.994 E15.6679
G1 X123.679 Y17.580 E15.7862
G1 X125.587 Y17.532 E15.9473
G1 X127.549 Y18.329 E16.1260
G1 X128.641 Y19.447 E16.2579
G1 X128.925 Y19.794 E16.2958
G1 X143.333 Y40.974 E18.4582
G1 X143.657 Y43.337 E18.6595
G1 X143.163 Y44.804 E18.7902
G1 X143.036 Y45.920 E18.8850
G1 X143.204 Y46.797 E18.9604
G1 X143.626 Y47.584 E19.0357
G1 X144.262 Y48.210 E19.1111
G1 X145.033 Y48.605 E19.1842
G1 X145.887 Y48.744 E19.2572
G1 X146.771 Y48.618 E19.3326
G1 X147.577 Y48.235 E19.4079
G1 X148.233 Y47.629 E19.4833
