; G-Code generated by Simplify3D(R) Version 4.1.2
; Apr 4, 2021 at 10:32:53 PM
; Settings Summary
;   processName,V6
;   applyToModels,Rim
;   profileName,HBot (modified)
;   profileVersion,2021-04-01 14:49:35
;   baseProfile,Default
;   printMaterial,PETG - ERYONE
;   printQuality,High
;   printExtruders,
;   extruderName,Extruder 1,Extruder 2 - support
;   extruderToolheadNumber,0,1
;   extruderDiameter,0.4,0.4
;   extruderAutoWidth,1,1
;   extruderWidth,0.48,0.48
;   extrusionMultiplier,1,1
;   extruderUseRetract,1,1
;   extruderRetractionDistance,3,1
;   extruderExtraRestartDistance,0,0
;   extruderRetractionZLift,0,0
;   extruderRetractionSpeed,5400,1800
;   extruderUseCoasting,1,1
;   extruderCoastingDistance,0.2,0.2
;   extruderUseWipe,1,1
;   extruderWipeDistance,2,5
;   primaryExtruder,0
;   layerHeight,0.1
;   topSolidLayers,5
;   bottomSolidLayers,5
;   perimeterOutlines,4
;   printPerimetersInsideOut,1
;   startPointOption,3
;   startPointOriginX,110
;   startPointOriginY,300
;   sequentialIslands,0
;   spiralVaseMode,0
;   firstLayerHeightPercentage,100
;   firstLayerWidthPercentage,100
;   firstLayerUnderspeed,0.5
;   useRaft,0
;   raftExtruder,0
;   raftTopLayers,3
;   raftBaseLayers,2
;   raftOffset,3
;   raftSeparationDistance,0.18
;   raftTopInfill,100
;   aboveRaftSpeedMultiplier,0.3
;   useSkirt,1
;   skirtExtruder,0
;   skirtLayers,1
;   skirtOutlines,3
;   skirtOffset,10
;   usePrimePillar,0
;   primePillarExtruder,999
;   primePillarWidth,12
;   primePillarLocation,7
;   primePillarSpeedMultiplier,1
;   useOozeShield,0
;   oozeShieldExtruder,0
;   oozeShieldOffset,0.9
;   oozeShieldOutlines,2
;   oozeShieldSidewallShape,0
;   oozeShieldSidewallAngle,30
;   oozeShieldSpeedMultiplier,1.5
;   infillExtruder,0
;   internalInfillPattern,Fast Honeycomb
;   externalInfillPattern,Rectilinear
;   infillPercentage,30
;   outlineOverlapPercentage,25
;   infillExtrusionWidthPercentage,100
;   minInfillLength,5
;   infillLayerInterval,1
;   internalInfillAngles,0
;   overlapInternalInfillAngles,0
;   externalInfillAngles,45,-45
;   generateSupport,0
;   supportExtruder,0
;   supportInfillPercentage,40
;   supportExtraInflation,0
;   supportBaseLayers,1
;   denseSupportExtruder,1
;   denseSupportLayers,10
;   denseSupportInfillPercentage,100
;   supportLayerInterval,1
;   supportHorizontalPartOffset,0
;   supportUpperSeparationLayers,0
;   supportLowerSeparationLayers,0
;   supportType,0
;   supportGridSpacing,2
;   maxOverhangAngle,25
;   supportAngles,0
;   temperatureName,Extruder 1,Heated Bed,Extruder 2 - support
;   temperatureNumber,0,1,1
;   temperatureSetpointCount,2,1,1
;   temperatureSetpointLayers,1,2,1,1
;   temperatureSetpointTemperatures,215,215,85,0
;   temperatureStabilizeAtStartup,1,1,1
;   temperatureHeatedBed,0,1,0
;   fanLayers,1,10
;   fanSpeeds,0,75
;   blipFanToFullPower,1
;   adjustSpeedForCooling,0
;   minSpeedLayerTime,15
;   minCoolingSpeedSlowdown,20
;   increaseFanForCooling,1
;   minFanLayerTime,15
;   maxCoolingFanSpeed,100
;   increaseFanForBridging,1
;   bridgingFanSpeed,100
;   use5D,1
;   relativeEdistances,0
;   allowEaxisZeroing,1
;   independentExtruderAxes,0
;   includeM10123,0
;   stickySupport,1
;   applyToolheadOffsets,0
;   gcodeXoffset,0
;   gcodeYoffset,0
;   gcodeZoffset,0
;   overrideMachineDefinition,1
;   machineTypeOverride,0
;   strokeXoverride,210
;   strokeYoverride,210
;   strokeZoverride,150
;   originOffsetXoverride,0
;   originOffsetYoverride,0
;   originOffsetZoverride,0
;   homeXdirOverride,1
;   homeYdirOverride,-1
;   homeZdirOverride,-1
;   flipXoverride,1
;   flipYoverride,-1
;   flipZoverride,1
;   toolheadOffsets,0,0|0,0|0,0|0,0|0,0|0,0
;   overrideFirmwareConfiguration,0
;   firmwareTypeOverride,RepRap (Marlin/Repetier/Sprinter)
;   GPXconfigOverride,r2
;   baudRateOverride,115200
;   overridePrinterModels,0
;   printerModelsOverride
;   startingGcode,;G28 is now included in bed.g G28 ; home all axes,G32 ; run bed.g -- probe bed and enable compensation
;   layerChangeGcode,
;   retractionGcode,
;   toolChangeGcode,
;   endingGcode,M0 ; call stop.g
;   exportFileFormat,gcode
;   celebration,0
;   celebrationSong,Random Song
;   postProcessing,
;   defaultSpeed,2400
;   outlineUnderspeed,0.5
;   solidInfillUnderspeed,0.8
;   supportUnderspeed,0.8
;   rapidXYspeed,18000
;   rapidZspeed,1200
;   minBridgingArea,50
;   bridgingExtraInflation,0
;   bridgingExtrusionMultiplier,0.96
;   bridgingSpeedMultiplier,1
;   useFixedBridgingAngle,0
;   fixedBridgingAngle,0
;   applyBridgingToPerimeters,0
;   filamentDiameters,1.75|1.75|1.75|1.75|1.75|1.75
;   filamentPricesPerKg,46|46|46|46|46|46
;   filamentDensities,1.25|1.25|1.25|1.25|1.25|1.25
;   useMinPrintHeight,0
;   minPrintHeight,0
;   useMaxPrintHeight,0
;   maxPrintHeight,11.59
;   useDiaphragm,0
;   diaphragmLayerInterval,20
;   robustSlicing,1
;   mergeAllIntoSolid,0
;   onlyRetractWhenCrossingOutline,1
;   retractBetweenLayers,0
;   useRetractionMinTravel,1
;   retractionMinTravel,3
;   retractWhileWiping,1
;   onlyWipeOutlines,1
;   avoidCrossingOutline,1
;   maxMovementDetourFactor,5
;   toolChangeRetractionDistance,7.5
;   toolChangeExtraRestartDistance,0
;   toolChangeRetractionSpeed,600
;   externalThinWallType,1
;   internalThinWallType,1
;   thinWallAllowedOverlapPercentage,10
;   singleExtrusionMinLength,1
;   singleExtrusionMinPrintingWidthPercentage,50
;   singleExtrusionMaxPrintingWidthPercentage,150
;   singleExtrusionEndpointExtension,0.2
;   horizontalSizeCompensation,0
G90
M82
M106 S0
M140 S85
M190 S85
G10 P0 S215 R{215-50}
G10 P1 S0 R{0-50}
M116 P0
;G28 is now included in bed.g G28 ; home all axes
G32 ; run bed.g -- probe bed and enable compensation
; process V6
; layer 1, Z = 0.100
T0
G92 E0.0000
G1 E-3.0000 F5400
; feature skirt
; tool H0.100 W0.480
G1 Z0.100 F1200
G1 X104.614 Y129.376 F18000
G1 E0.0000 F5400
G92 E0.0000
G1 X103.868 Y129.361 E0.0149 F1200
G1 X102.432 Y129.237 E0.0437
G1 X101.598 Y129.101 E0.0605
G1 X99.804 Y128.667 E0.0974
G1 X98.883 Y128.359 E0.1167
G1 X97.458 Y127.738 E0.1478
G1 X96.662 Y127.313 E0.1658
G1 X95.357 Y126.474 E0.1967
G1 X94.685 Y125.967 E0.2135
G1 X93.557 Y124.974 E0.2435
G1 X93.079 Y124.500 E0.2570
G1 X92.349 Y123.682 E0.2788
G1 X91.883 Y123.083 E0.2940
G1 X91.022 Y121.807 E0.3247
G1 X90.619 Y121.106 E0.3408
G1 X89.988 Y119.795 E0.3699
G1 X89.764 Y119.262 E0.3814
G1 X89.325 Y118.044 E0.4072
G1 X89.186 Y117.602 E0.4165
G1 X88.871 Y116.433 E0.4406
G1 X88.790 Y116.086 E0.4477
G1 X88.557 Y114.935 E0.4712
G1 X88.505 Y114.637 E0.4772
G1 X88.258 Y112.948 E0.5113
G1 X88.224 Y112.672 E0.5168
G1 X87.988 Y110.211 E0.5662
G1 X87.969 Y109.961 E0.5712
G1 X87.866 Y107.937 E0.6116
G1 X87.859 Y107.753 E0.6153
G1 X87.823 Y105.752 E0.6552
G1 X87.822 Y105.613 E0.6580
G1 X87.839 Y102.992 E0.7103
G1 X87.844 Y102.809 E0.7140
G1 X87.924 Y100.772 E0.7547
G1 X87.939 Y100.530 E0.7595
G1 X88.148 Y98.002 E0.8101
G1 X88.176 Y97.737 E0.8154
G1 X88.403 Y96.006 E0.8503
G1 X88.440 Y95.761 E0.8552
G1 X88.649 Y94.576 E0.8792
G1 X88.733 Y94.182 E0.8873
G1 X89.147 Y92.536 E0.9211
G1 X89.310 Y92.001 E0.9323
G1 X89.765 Y90.738 E0.9591
G1 X89.990 Y90.204 E0.9707
G1 X90.623 Y88.891 E0.9997
G1 X91.027 Y88.189 E1.0159
G1 X91.957 Y86.812 E1.0491
G1 X92.588 Y86.037 E1.0690
G1 X93.748 Y84.846 E1.1022
G1 X94.363 Y84.301 E1.1186
G1 X95.628 Y83.336 E1.1503
G1 X96.382 Y82.851 E1.1682
G1 X97.738 Y82.125 E1.1989
G1 X98.554 Y81.768 E1.2167
G1 X99.900 Y81.303 E1.2451
G1 X100.599 Y81.111 E1.2596
G1 X101.922 Y80.838 E1.2865
G1 X102.618 Y80.740 E1.3006
G1 X103.993 Y80.633 E1.3281
G1 X104.751 Y80.625 E1.3432
G1 X106.227 Y80.710 E1.3727
G1 X107.128 Y80.836 E1.3909
G1 X108.982 Y81.250 E1.4288
G1 X109.904 Y81.542 E1.4481
G1 X111.411 Y82.166 E1.4806
G1 X112.187 Y82.560 E1.4980
G1 X113.604 Y83.424 E1.5311
G1 X114.260 Y83.892 E1.5472
G1 X115.532 Y84.945 E1.5802
G1 X116.004 Y85.384 E1.5930
G1 X116.734 Y86.144 E1.6141
G1 X117.065 Y86.523 E1.6241
G1 X117.669 Y87.278 E1.6434
G1 X117.946 Y87.655 E1.6527
G1 X118.519 Y88.510 E1.6733
G1 X118.834 Y89.041 E1.6856
G1 X119.563 Y90.438 E1.7170
G1 X119.781 Y90.908 E1.7274
G1 X120.162 Y91.840 E1.7475
G1 X120.313 Y92.254 E1.7563
G1 X120.779 Y93.711 E1.7868
G1 X120.881 Y94.069 E1.7942
G1 X121.115 Y95.015 E1.8137
G1 X121.192 Y95.377 E1.8211
G1 X121.599 Y97.647 E1.8671
G1 X121.647 Y97.974 E1.8737
G1 X121.836 Y99.560 E1.9055
G1 X121.861 Y99.829 E1.9109
G1 X122.010 Y101.961 E1.9536
G1 X122.023 Y102.270 E1.9597
G1 X122.072 Y105.539 E2.0250
G1 X122.071 Y105.724 E2.0287
G1 X122.046 Y107.120 E2.0566
G1 X122.039 Y107.314 E2.0604
G1 X121.930 Y109.363 E2.1014
G1 X121.911 Y109.614 E2.1064
G1 X121.764 Y111.114 E2.1365
G1 X121.737 Y111.345 E2.1411
G1 X121.517 Y112.913 E2.1727
G1 X121.469 Y113.197 E2.1785
G1 X121.158 Y114.810 E2.2112
G1 X121.065 Y115.211 E2.2195
G1 X120.632 Y116.810 E2.2525
G1 X120.464 Y117.328 E2.2634
G1 X119.901 Y118.819 E2.2952
G1 X119.709 Y119.267 E2.3049
G1 X119.252 Y120.216 E2.3259
G1 X118.967 Y120.737 E2.3378
G1 X118.109 Y122.121 E2.3703
G1 X117.711 Y122.684 E2.3840
G1 X116.965 Y123.611 E2.4078
G1 X116.475 Y124.145 E2.4222
G1 X115.223 Y125.344 E2.4569
G1 X114.580 Y125.875 E2.4735
G1 X113.257 Y126.809 E2.5058
G1 X112.721 Y127.144 E2.5184
G1 X111.809 Y127.645 E2.5392
G1 X111.212 Y127.928 E2.5524
G1 X109.882 Y128.466 E2.5810
G1 X109.139 Y128.708 E2.5966
G1 X107.879 Y129.023 E2.6225
G1 X107.351 Y129.128 E2.6333
G1 X106.482 Y129.259 E2.6508
G1 X105.915 Y129.314 E2.6622
G1 X104.614 Y129.376 E2.6881
G1 X104.608 Y128.895 F18000
G92 E0.0000
G1 X103.893 Y128.881 E0.0143 F1200
G1 X102.491 Y128.760 E0.0423
G1 X101.693 Y128.630 E0.0585
G1 X99.937 Y128.206 E0.0945
G1 X99.056 Y127.910 E0.1131
G1 X97.667 Y127.306 E0.1433
G1 X96.905 Y126.899 E0.1605
G1 X95.632 Y126.080 E0.1908
G1 X94.989 Y125.595 E0.2068
G1 X93.885 Y124.623 E0.2362
G1 X93.428 Y124.169 E0.2490
G1 X92.718 Y123.374 E0.2703
G1 X92.272 Y122.801 E0.2848
G1 X91.430 Y121.553 E0.3148
G1 X91.044 Y120.882 E0.3303
G1 X90.426 Y119.598 E0.3587
G1 X90.211 Y119.088 E0.3698
G1 X89.780 Y117.891 E0.3952
G1 X89.647 Y117.468 E0.4040
G1 X89.337 Y116.316 E0.4278
G1 X89.259 Y115.984 E0.4346
G1 X89.029 Y114.846 E0.4578
G1 X88.979 Y114.561 E0.4636
G1 X88.733 Y112.884 E0.4974
G1 X88.701 Y112.620 E0.5027
G1 X88.466 Y110.170 E0.5518
G1 X88.448 Y109.931 E0.5566
G1 X88.345 Y107.917 E0.5968
G1 X88.339 Y107.740 E0.6004
G1 X88.303 Y105.746 E0.6402
G1 X88.302 Y105.613 E0.6428
G1 X88.319 Y102.999 E0.6950
G1 X88.323 Y102.824 E0.6985
G1 X88.403 Y100.796 E0.7390
G1 X88.417 Y100.564 E0.7436
G1 X88.626 Y98.048 E0.7940
G1 X88.653 Y97.794 E0.7991
G1 X88.878 Y96.073 E0.8337
G1 X88.914 Y95.839 E0.8385
G1 X89.120 Y94.668 E0.8622
G1 X89.201 Y94.290 E0.8699
G1 X89.609 Y92.665 E0.9034
G1 X89.766 Y92.153 E0.9140
G1 X90.213 Y90.912 E0.9403
G1 X90.428 Y90.401 E0.9514
G1 X91.048 Y89.115 E0.9799
G1 X91.434 Y88.443 E0.9954
G1 X92.343 Y87.098 E1.0278
G1 X92.946 Y86.357 E1.0468
G1 X94.079 Y85.194 E1.0792
G1 X94.668 Y84.672 E1.0949
G1 X95.904 Y83.729 E1.1260
G1 X96.626 Y83.265 E1.1431
G1 X97.948 Y82.557 E1.1730
G1 X98.729 Y82.215 E1.1900
G1 X100.042 Y81.762 E1.2177
G1 X100.711 Y81.578 E1.2316
G1 X102.005 Y81.311 E1.2580
G1 X102.671 Y81.217 E1.2714
G1 X104.014 Y81.113 E1.2983
G1 X104.740 Y81.105 E1.3128
G1 X106.180 Y81.188 E1.3415
G1 X107.042 Y81.309 E1.3589
G1 X108.857 Y81.714 E1.3960
G1 X109.739 Y81.993 E1.4145
G1 X111.210 Y82.602 E1.4463
G1 X111.953 Y82.979 E1.4629
G1 X113.340 Y83.825 E1.4953
G1 X113.967 Y84.273 E1.5107
G1 X115.215 Y85.306 E1.5430
G1 X115.667 Y85.726 E1.5553
G1 X116.380 Y86.469 E1.5759
G1 X116.697 Y86.831 E1.5855
G1 X117.288 Y87.570 E1.6044
G1 X117.553 Y87.931 E1.6133
G1 X118.113 Y88.767 E1.6334
G1 X118.415 Y89.275 E1.6452
G1 X119.132 Y90.650 E1.6761
G1 X119.341 Y91.100 E1.6860
G1 X119.714 Y92.013 E1.7057
G1 X119.859 Y92.409 E1.7141
G1 X120.319 Y93.850 E1.7443
G1 X120.417 Y94.193 E1.7514
G1 X120.647 Y95.123 E1.7706
G1 X120.721 Y95.470 E1.7776
G1 X121.125 Y97.725 E1.8233
G1 X121.171 Y98.037 E1.8296
G1 X121.358 Y99.611 E1.8613
G1 X121.382 Y99.868 E1.8664
G1 X121.531 Y101.988 E1.9088
G1 X121.543 Y102.283 E1.9147
G1 X121.592 Y105.542 E1.9798
G1 X121.591 Y105.719 E1.9833
G1 X121.566 Y107.108 E2.0110
G1 X121.559 Y107.293 E2.0147
G1 X121.451 Y109.332 E2.0555
G1 X121.433 Y109.572 E2.0603
G1 X121.287 Y111.062 E2.0901
G1 X121.261 Y111.283 E2.0946
G1 X121.042 Y112.840 E2.1260
G1 X120.997 Y113.112 E2.1315
G1 X120.688 Y114.711 E2.1640
G1 X120.599 Y115.094 E2.1718
G1 X120.172 Y116.674 E2.2045
G1 X120.011 Y117.169 E2.2149
G1 X119.455 Y118.639 E2.2462
G1 X119.272 Y119.068 E2.2555
G1 X118.825 Y119.996 E2.2761
G1 X118.552 Y120.495 E2.2874
G1 X117.709 Y121.856 E2.3194
G1 X117.328 Y122.394 E2.3326
G1 X116.601 Y123.298 E2.3557
G1 X116.132 Y123.809 E2.3695
G1 X114.903 Y124.985 E2.4035
G1 X114.288 Y125.493 E2.4194
G1 X112.991 Y126.409 E2.4511
G1 X112.478 Y126.730 E2.4632
G1 X111.590 Y127.218 E2.4834
G1 X111.019 Y127.489 E2.4960
G1 X109.718 Y128.015 E2.5240
G1 X109.006 Y128.247 E2.5389
G1 X107.774 Y128.555 E2.5643
G1 X107.268 Y128.655 E2.5746
G1 X106.423 Y128.782 E2.5916
G1 X105.880 Y128.835 E2.6025
G1 X104.608 Y128.895 E2.6279
G1 X104.601 Y128.415 F18000
G92 E0.0000
G1 X103.918 Y128.402 E0.0136 F1200
G1 X102.551 Y128.284 E0.0410
G1 X101.788 Y128.159 E0.0564
G1 X100.070 Y127.744 E0.0917
G1 X99.228 Y127.462 E0.1094
G1 X97.876 Y126.874 E0.1389
G1 X97.148 Y126.485 E0.1553
G1 X95.906 Y125.686 E0.1848
G1 X95.292 Y125.222 E0.2001
G1 X94.213 Y124.273 E0.2288
G1 X93.776 Y123.839 E0.2411
G1 X93.086 Y123.066 E0.2618
G1 X92.661 Y122.519 E0.2756
G1 X91.838 Y121.299 E0.3050
G1 X91.469 Y120.658 E0.3198
G1 X90.863 Y119.401 E0.3476
G1 X90.659 Y118.913 E0.3582
G1 X90.235 Y117.738 E0.3831
G1 X90.108 Y117.333 E0.3915
G1 X89.802 Y116.198 E0.4150
G1 X89.728 Y115.881 E0.4215
G1 X89.501 Y114.757 E0.4444
G1 X89.453 Y114.485 E0.4499
G1 X89.209 Y112.821 E0.4835
G1 X89.179 Y112.569 E0.4885
G1 X88.944 Y110.129 E0.5374
G1 X88.927 Y109.901 E0.5420
G1 X88.825 Y107.896 E0.5821
G1 X88.819 Y107.727 E0.5854
G1 X88.783 Y105.741 E0.6251
G1 X88.782 Y105.613 E0.6276
G1 X88.799 Y103.006 E0.6797
G1 X88.803 Y102.839 E0.6830
G1 X88.883 Y100.820 E0.7233
G1 X88.896 Y100.599 E0.7277
G1 X89.104 Y98.093 E0.7779
G1 X89.130 Y97.851 E0.7828
G1 X89.353 Y96.141 E0.8172
G1 X89.388 Y95.917 E0.8217
G1 X89.592 Y94.759 E0.8452
G1 X89.668 Y94.399 E0.8525
G1 X90.072 Y92.793 E0.8856
G1 X90.221 Y92.304 E0.8958
G1 X90.660 Y91.087 E0.9216
G1 X90.865 Y90.598 E0.9322
G1 X91.473 Y89.340 E0.9601
G1 X91.842 Y88.698 E0.9748
G1 X92.729 Y87.385 E1.0065
G1 X93.305 Y86.676 E1.0247
G1 X94.411 Y85.541 E1.0563
G1 X94.973 Y85.043 E1.0713
G1 X96.179 Y84.123 E1.1016
G1 X96.870 Y83.679 E1.1180
G1 X98.158 Y82.989 E1.1471
G1 X98.904 Y82.663 E1.1634
G1 X100.184 Y82.221 E1.1904
G1 X100.823 Y82.045 E1.2036
G1 X102.087 Y81.785 E1.2294
G1 X102.723 Y81.695 E1.2422
G1 X104.035 Y81.592 E1.2685
G1 X104.728 Y81.585 E1.2823
G1 X106.133 Y81.666 E1.3104
G1 X106.956 Y81.781 E1.3270
G1 X108.732 Y82.178 E1.3633
G1 X109.575 Y82.445 E1.3809
G1 X111.010 Y83.038 E1.4119
G1 X111.719 Y83.399 E1.4278
G1 X113.075 Y84.226 E1.4595
G1 X113.674 Y84.653 E1.4742
G1 X114.899 Y85.667 E1.5059
G1 X115.330 Y86.068 E1.5176
G1 X116.026 Y86.793 E1.5377
G1 X116.329 Y87.139 E1.5469
G1 X116.906 Y87.862 E1.5653
G1 X117.160 Y88.207 E1.5739
G1 X117.707 Y89.023 E1.5935
G1 X117.996 Y89.509 E1.6048
G1 X118.702 Y90.862 E1.6352
G1 X118.901 Y91.292 E1.6447
G1 X119.267 Y92.186 E1.6640
G1 X119.404 Y92.565 E1.6720
G1 X119.860 Y93.989 E1.7018
G1 X119.953 Y94.316 E1.7086
G1 X120.180 Y95.231 E1.7274
G1 X120.250 Y95.562 E1.7342
G1 X120.651 Y97.802 E1.7796
G1 X120.696 Y98.101 E1.7856
G1 X120.881 Y99.662 E1.8170
G1 X120.904 Y99.908 E1.8219
G1 X121.052 Y102.015 E1.8641
G1 X121.064 Y102.297 E1.8697
G1 X121.112 Y105.545 E1.9345
G1 X121.111 Y105.715 E1.9379
G1 X121.086 Y107.095 E1.9655
G1 X121.080 Y107.272 E1.9690
G1 X120.972 Y109.301 E2.0096
G1 X120.955 Y109.531 E2.0142
G1 X120.810 Y111.010 E2.0438
G1 X120.784 Y111.222 E2.0481
G1 X120.568 Y112.767 E2.0792
G1 X120.524 Y113.027 E2.0845
G1 X120.218 Y114.611 E2.1167
G1 X120.133 Y114.978 E2.1242
G1 X119.711 Y116.537 E2.1564
