; G-Code generated by Simplify3D(R) Version 4.1.2
; Nov 24, 2019 at 2:59:23 PM
; Settings Summary
;   processName,Process1
;   applyToModels,sear
;   profileName,HBot
;   profileVersion,2019-10-26 23:38:43
;   baseProfile,Default
;   printMaterial,PLA
;   printQuality,Medium
;   printExtruders,
;   extruderName,Extruder 1
;   extruderToolheadNumber,0
;   extruderDiameter,0.4
;   extruderAutoWidth,1
;   extruderWidth,0.48
;   extrusionMultiplier,0.94
;   extruderUseRetract,1
;   extruderRetractionDistance,3
;   extruderExtraRestartDistance,0
;   extruderRetractionZLift,0
;   extruderRetractionSpeed,3600
;   extruderUseCoasting,1
;   extruderCoastingDistance,0.2
;   extruderUseWipe,1
;   extruderWipeDistance,5
;   primaryExtruder,0
;   layerHeight,0.2
;   topSolidLayers,3
;   bottomSolidLayers,3
;   perimeterOutlines,3
;   printPerimetersInsideOut,1
;   startPointOption,2
;   startPointOriginX,0
;   startPointOriginY,0
;   sequentialIslands,0
;   spiralVaseMode,0
;   firstLayerHeightPercentage,100
;   firstLayerWidthPercentage,150
;   firstLayerUnderspeed,0.5
;   useRaft,0
;   raftExtruder,0
;   raftTopLayers,3
;   raftBaseLayers,2
;   raftOffset,3
;   raftSeparationDistance,0.18
;   raftTopInfill,100
;   aboveRaftSpeedMultiplier,0.3
;   useSkirt,1
;   skirtExtruder,0
;   skirtLayers,1
;   skirtOutlines,3
;   skirtOffset,4
;   usePrimePillar,0
;   primePillarExtruder,999
;   primePillarWidth,12
;   primePillarLocation,7
;   primePillarSpeedMultiplier,1
;   useOozeShield,0
;   oozeShieldExtruder,999
;   oozeShieldOffset,2
;   oozeShieldOutlines,1
;   oozeShieldSidewallShape,1
;   oozeShieldSidewallAngle,30
;   oozeShieldSpeedMultiplier,1
;   infillExtruder,0
;   internalInfillPattern,Rectilinear
;   externalInfillPattern,Rectilinear
;   infillPercentage,20
;   outlineOverlapPercentage,25
;   infillExtrusionWidthPercentage,150
;   minInfillLength,5
;   infillLayerInterval,1
;   internalInfillAngles,45,-45
;   overlapInternalInfillAngles,0
;   externalInfillAngles,45,-45
;   generateSupport,1
;   supportExtruder,0
;   supportInfillPercentage,30
;   supportExtraInflation,0
;   supportBaseLayers,1
;   denseSupportExtruder,0
;   denseSupportLayers,0
;   denseSupportInfillPercentage,70
;   supportLayerInterval,1
;   supportHorizontalPartOffset,0.3
;   supportUpperSeparationLayers,1
;   supportLowerSeparationLayers,1
;   supportType,0
;   supportGridSpacing,4
;   maxOverhangAngle,45
;   supportAngles,0
;   temperatureName,Extruder 1,Heated Bed
;   temperatureNumber,0,1
;   temperatureSetpointCount,2,1
;   temperatureSetpointLayers,1,2,1
;   temperatureSetpointTemperatures,217,210,55
;   temperatureStabilizeAtStartup,1,1
;   temperatureHeatedBed,0,1
;   fanLayers,1,3,5
;   fanSpeeds,0,15,20
;   blipFanToFullPower,1
;   adjustSpeedForCooling,1
;   minSpeedLayerTime,15
;   minCoolingSpeedSlowdown,20
;   increaseFanForCooling,0
;   minFanLayerTime,45
;   maxCoolingFanSpeed,40
;   increaseFanForBridging,0
;   bridgingFanSpeed,80
;   use5D,1
;   relativeEdistances,0
;   allowEaxisZeroing,1
;   independentExtruderAxes,0
;   includeM10123,0
;   stickySupport,1
;   applyToolheadOffsets,0
;   gcodeXoffset,0
;   gcodeYoffset,0
;   gcodeZoffset,0
;   overrideMachineDefinition,1
;   machineTypeOverride,0
;   strokeXoverride,200
;   strokeYoverride,200
;   strokeZoverride,150
;   originOffsetXoverride,0
;   originOffsetYoverride,0
;   originOffsetZoverride,0
;   homeXdirOverride,-1
;   homeYdirOverride,-1
;   homeZdirOverride,-1
;   flipXoverride,1
;   flipYoverride,-1
;   flipZoverride,1
;   toolheadOffsets,0,0|0,0|0,0|0,0|0,0|0,0
;   overrideFirmwareConfiguration,1
;   firmwareTypeOverride,RepRap (Marlin/Repetier/Sprinter)
;   GPXconfigOverride,r2
;   baudRateOverride,115200
;   overridePrinterModels,0
;   printerModelsOverride
;   startingGcode,G28 ; home all axes,G32 ; run bed.g -- probe bed and enable compensation
;   layerChangeGcode,
;   retractionGcode,
;   toolChangeGcode,
;   endingGcode,M0 ; call stop.g
;   exportFileFormat,gcode
;   celebration,0
;   celebrationSong,Random Song
;   postProcessing,
;   defaultSpeed,3600
;   outlineUnderspeed,0.5
;   solidInfillUnderspeed,0.8
;   supportUnderspeed,0.8
;   rapidXYspeed,18000
;   rapidZspeed,1200
;   minBridgingArea,50
;   bridgingExtraInflation,0
;   bridgingExtrusionMultiplier,0.96
;   bridgingSpeedMultiplier,1
;   useFixedBridgingAngle,0
;   fixedBridgingAngle,0
;   applyBridgingToPerimeters,0
;   filamentDiameters,1.75|1.75|1.75|1.75|1.75|1.75
;   filamentPricesPerKg,46|46|46|46|46|46
;   filamentDensities,1.25|1.25|1.25|1.25|1.25|1.25
;   useMinPrintHeight,0
;   minPrintHeight,0
;   useMaxPrintHeight,0
;   maxPrintHeight,0
;   useDiaphragm,1
;   diaphragmLayerInterval,20
;   robustSlicing,1
;   mergeAllIntoSolid,0
;   onlyRetractWhenCrossingOutline,1
;   retractBetweenLayers,0
;   useRetractionMinTravel,1
;   retractionMinTravel,3
;   retractWhileWiping,1
;   onlyWipeOutlines,1
;   avoidCrossingOutline,1
;   maxMovementDetourFactor,3
;   toolChangeRetractionDistance,12
;   toolChangeExtraRestartDistance,-0.5
;   toolChangeRetractionSpeed,600
;   externalThinWallType,1
;   internalThinWallType,1
;   thinWallAllowedOverlapPercentage,10
;   singleExtrusionMinLength,1
;   singleExtrusionMinPrintingWidthPercentage,50
;   singleExtrusionMaxPrintingWidthPercentage,200
;   singleExtrusionEndpointExtension,0.2
;   horizontalSizeCompensation,-0.1
G90
M82
M106 S0
M140 S55
M190 S55
M104 S217 T0
M109 S217 T0
G28 ; home all axes
G32 ; run bed.g -- probe bed and enable compensation
; process Process1
; layer 1, Z = 0.200
T0
G92 E0.0000
G1 E-3.0000 F3600
; feature skirt
; tool H0.200 W0.720
G1 Z0.200 F1200
G1 X96.300 Y87.288 F18000
G1 E0.0000 F3600
G92 E0.0000
G1 X99.698 Y83.890 E0.2704 F1180
G1 X109.639 Y83.890 E0.8299
G1 X111.544 Y84.576 E0.9438
G1 X112.945 Y85.735 E1.0461
G1 X113.302 Y86.086 E1.0743
G1 X113.869 Y86.750 E1.1234
G1 X114.089 Y87.043 E1.1441
G1 X114.450 Y87.592 E1.1810
G1 X114.631 Y87.910 E1.2016
G1 X115.001 Y88.668 E1.2491
G1 X115.164 Y89.077 E1.2739
G1 X115.416 Y89.882 E1.3213
G1 X115.503 Y90.238 E1.3419
G1 X115.618 Y90.884 E1.3789
G1 X115.660 Y91.248 E1.3995
G1 X115.701 Y92.055 E1.4450
G1 X115.696 Y92.421 E1.4656
G1 X115.646 Y93.076 E1.5025
G1 X115.596 Y93.439 E1.5232
G1 X115.426 Y94.265 E1.5706
G1 X115.306 Y94.688 E1.5954
G1 X115.001 Y95.512 E1.6448
G1 X114.865 Y95.811 E1.6633
G1 X119.565 Y101.936 E2.0978
G1 X111.867 Y112.929 E2.8530
G1 X111.708 Y113.136 E2.8677
G1 X111.232 Y113.700 E2.9092
G1 X110.861 Y114.067 E2.9386
G1 X110.227 Y114.590 E2.9849
G1 X109.871 Y114.841 E3.0094
G1 X109.305 Y115.181 E3.0465
G1 X108.917 Y115.376 E3.0710
G1 X108.114 Y115.706 E3.1198
G1 X107.527 Y115.877 E3.1542
G1 X106.524 Y116.059 E3.2116
G1 X106.007 Y116.106 E3.2408
G1 X97.700 Y116.111 E3.7083
G1 X94.300 Y112.713 E3.9788
G1 X94.300 Y106.107 E4.3506
G1 X96.300 Y104.107 E4.5097
G1 X96.300 Y87.288 E5.4563
G1 X97.020 Y87.586 F18000
G92 E0.0000
G1 X99.996 Y84.610 E0.2368 F1180
G1 X109.513 Y84.610 E0.7724
G1 X111.182 Y85.211 E0.8722
G1 X112.462 Y86.270 E0.9657
G1 X112.774 Y86.578 E0.9904
G1 X113.307 Y87.201 E1.0365
G1 X113.500 Y87.457 E1.0546
G1 X113.835 Y87.968 E1.0890
G1 X113.994 Y88.247 E1.1071
G1 X114.343 Y88.960 E1.1517
G1 X114.485 Y89.318 E1.1734
G1 X114.722 Y90.075 E1.2180
G1 X114.798 Y90.387 E1.2361
G1 X114.906 Y90.988 E1.2705
G1 X114.942 Y91.307 E1.2885
G1 X114.980 Y92.069 E1.3315
G1 X114.976 Y92.389 E1.3495
G1 X114.930 Y92.999 E1.3839
G1 X114.886 Y93.317 E1.4020
G1 X114.726 Y94.094 E1.4466
G1 X114.621 Y94.464 E1.4683
G1 X114.335 Y95.237 E1.5147
G1 X114.175 Y95.588 E1.5363
G1 X113.868 Y96.143 E1.5721
G1 X114.137 Y96.045 E1.5882
G1 X118.672 Y101.955 E2.0074
G1 X111.287 Y112.503 E2.7321
G1 X111.147 Y112.684 E2.7449
G1 X110.703 Y113.211 E2.7837
G1 X110.377 Y113.533 E2.8094
G1 X109.789 Y114.018 E2.8523
G1 X109.478 Y114.238 E2.8738
G1 X108.959 Y114.549 E2.9079
G1 X108.618 Y114.720 E2.9293
G1 X107.875 Y115.025 E2.9745
G1 X107.361 Y115.176 E3.0046
G1 X106.427 Y115.345 E3.0581
G1 X105.975 Y115.386 E3.0836
G1 X97.998 Y115.391 E3.5325
G1 X95.020 Y112.415 E3.7695
G1 X95.020 Y106.405 E4.1077
G1 X97.020 Y104.405 E4.2668
G1 X97.020 Y87.586 E5.2134
G1 X97.740 Y87.884 F18000
G92 E0.0000
G1 X100.294 Y85.330 E0.2033 F1180
G1 X109.388 Y85.330 E0.7150
G1 X110.820 Y85.846 E0.8007
G1 X111.979 Y86.805 E0.8854
G1 X112.247 Y87.069 E0.9065
G1 X112.745 Y87.651 E0.9496
G1 X112.910 Y87.872 E0.9651
G1 X113.221 Y88.344 E0.9970
G1 X113.357 Y88.584 E1.0125
G1 X113.684 Y89.252 E1.0543
G1 X113.806 Y89.559 E1.0729
G1 X114.028 Y90.268 E1.1147
G1 X114.093 Y90.536 E1.1302
G1 X114.193 Y91.093 E1.1621
G1 X114.224 Y91.366 E1.1776
G1 X114.260 Y92.082 E1.2179
G1 X114.257 Y92.358 E1.2334
G1 X114.214 Y92.922 E1.2653
G1 X114.176 Y93.194 E1.2808
G1 X114.027 Y93.923 E1.3226
G1 X113.936 Y94.241 E1.3412
G1 X113.669 Y94.963 E1.3845
G1 X113.532 Y95.263 E1.4031
G1 X113.159 Y95.937 E1.4464
G1 X112.978 Y96.213 E1.4650
G1 X112.524 Y96.802 E1.5068
G1 X112.343 Y97.009 E1.5223
G1 X111.943 Y97.410 E1.5542
G1 X111.737 Y97.592 E1.5697
G1 X111.514 Y97.766 E1.5856
G1 X113.887 Y96.902 E1.7278
G1 X117.779 Y101.975 E2.0876
G1 X110.706 Y112.077 E2.7816
G1 X110.586 Y112.232 E2.7927
G1 X110.173 Y112.722 E2.8287
G1 X109.894 Y112.998 E2.8508
G1 X109.352 Y113.445 E2.8903
G1 X109.085 Y113.634 E2.9088
G1 X108.612 Y113.918 E2.9398
G1 X108.319 Y114.064 E2.9582
G1 X107.637 Y114.345 E2.9997
G1 X107.196 Y114.474 E3.0256
G1 X106.330 Y114.631 E3.0751
G1 X105.942 Y114.666 E3.0970
G1 X98.296 Y114.671 E3.5273
G1 X95.740 Y112.116 E3.7307
G1 X95.740 Y106.704 E4.0353
G1 X97.740 Y104.704 E4.1945
G1 X97.740 Y87.884 E5.1410
G92 E0.0000
G1 E-3.0000 F3600
; feature inner perimeter
G1 X102.460 Y90.050 F18000
G1 X102.460 Y92.167
G1 X103.900 Y93.474
G1 E0.0000 F3600
G92 E0.0000
G1 X104.380 Y93.345 E0.0280 F885
G1 X104.619 Y93.758 E0.0548
G1 X104.944 Y94.146 E0.0833
G1 X105.456 Y94.576 E0.1209
G1 X105.240 Y95.098 E0.1527
G1 X105.156 Y95.486 E0.1751
G1 X104.500 Y95.435 E0.2121
G1 X103.900 Y95.482 E0.2460
G1 X103.900 Y93.674 E0.3477
G1 X103.900 Y93.474 F885
G1 X105.020 Y93.014 F18000
G92 E0.0000
G1 X105.211 Y93.343 E0.0214 F885
G1 X105.455 Y93.635 E0.0429
G1 X105.747 Y93.880 E0.0643
G1 X106.099 Y94.083 E0.0872
G1 X106.523 Y94.217 E0.1122
G1 X106.134 Y94.822 E0.1527
G1 X105.930 Y95.314 E0.1826
G1 X105.844 Y95.709 E0.2054
G1 X105.792 Y96.439 E0.2466
G1 X104.904 Y96.189 E0.2985
G1 X104.500 Y96.157 E0.3213
G1 X104.096 Y96.189 E0.3441
G1 X103.180 Y96.447 E0.3977
G1 X103.180 Y90.770 E0.7171
G1 X105.139 Y90.770 E0.8274
G1 X104.851 Y91.685 E0.8814
G1 X104.813 Y92.116 E0.9057
G1 X104.881 Y92.631 E0.9350
G1 X104.952 Y92.826 E0.9466
G1 X105.020 Y93.014 F885
; feature outer perimeter
G1 X105.675 Y92.708 F18000
G92 E0.0000
G1 X105.803 Y92.929 E0.0143 F590
G1 X105.966 Y93.124 E0.0287
G1 X106.162 Y93.288 E0.0430
G1 X106.391 Y93.420 E0.0579
G1 X106.736 Y93.529 E0.0783
G1 X107.000 Y93.552 E0.0932
G1 X107.264 Y93.529 E0.1081
G1 X107.609 Y93.420 E0.1285
G1 X107.838 Y93.288 E0.1434
G1 X108.034 Y93.124 E0.1577
G1 X108.197 Y92.929 E0.1721
G1 X108.330 Y92.699 E0.1870
G1 X108.439 Y92.354 E0.2073
G1 X108.462 Y92.090 E0.2222
G1 X108.439 Y91.827 E0.2371
G1 X108.330 Y91.481 E0.2575
G1 X108.197 Y91.252 E0.2724
G1 X108.034 Y91.057 E0.2868
G1 X107.838 Y90.893 E0.3011
G1 X107.609 Y90.761 E0.3160
G1 X107.099 Y90.600 E0.3461
G1 X107.184 Y90.050 E0.3774
G1 X108.511 Y90.050 E0.4520
G1 X108.799 Y90.300 E0.4735
G1 X109.053 Y90.596 E0.4955
G1 X109.187 Y90.801 E0.5092
G1 X109.359 Y91.151 E0.5312
G1 X109.475 Y91.524 E0.5531
G1 X109.518 Y91.765 E0.5669
G1 X109.538 Y92.160 E0.5892
G1 X109.520 Y92.404 E0.6030
G1 X109.441 Y92.787 E0.6250
G1 X109.308 Y93.147 E0.6466
G1 X109.122 Y93.484 E0.6682
G1 X108.884 Y93.793 E0.6902
G1 X108.711 Y93.966 E0.7040
G1 X108.497 Y94.133 E0.7192
G1 X108.349 Y94.135 E0.7276
G1 X107.947 Y94.207 E0.7505
G1 X107.567 Y94.365 E0.7737
G1 X107.325 Y94.520 E0.7899
G1 X107.113 Y94.704 E0.8056
G1 X106.930 Y94.915 E0.8214
G1 X106.774 Y95.157 E0.8376
G1 X106.620 Y95.530 E0.8603
G1 X106.559 Y95.811 E0.8765
G1 X106.540 Y96.074 E0.8913
G1 X106.540 Y97.760 E0.9862
G1 X106.056 Y97.886 E1.0144
G1 X105.890 Y97.591 E1.0334
G1 X105.704 Y97.373 E1.0495
G1 X105.402 Y97.135 E1.0712
G1 X105.147 Y97.005 E1.0873
G1 X104.777 Y96.901 E1.1089
G1 X104.500 Y96.879 E1.1246
G1 X104.223 Y96.901 E1.1402
G1 X103.853 Y97.005 E1.1618
G1 X103.598 Y97.135 E1.1780
G1 X103.289 Y97.379 E1.2001
G1 X102.896 Y97.877 E1.2358
G1 X102.460 Y97.726 E1.2618
G1 X102.460 Y90.050 E1.6937
G1 X106.816 Y90.050 E1.9389
G1 X106.901 Y90.600 E1.9702
G1 X106.391 Y90.761 E2.0002
G1 X106.162 Y90.893 E2.0152
G1 X105.966 Y91.057 E2.0295
G1 X105.803 Y91.252 E2.0438
G1 X105.670 Y91.481 E2.0587
G1 X105.561 Y91.827 E2.0791
G1 X105.537 Y92.101 E2.0946
G1 X105.585 Y92.459 E2.1149
G1 X105.607 Y92.520 E2.1186
G1 X105.675 Y92.708 F590
G1 X105.803 Y92.929 F590
G1 X105.966 Y93.124
G1 X106.162 Y93.288
G1 X106.391 Y93.420
G1 X106.736 Y93.529
G1 X107.000 Y93.552
G1 X107.264 Y93.529
G1 X107.609 Y93.420
G1 X107.838 Y93.288
G1 X108.034 Y93.124
G1 X108.197 Y92.929
G1 X108.330 Y92.699
G1 X108.439 Y92.354
G1 X108.462 Y92.090
G1 X108.439 Y91.827
G1 X108.330 Y91.481
G1 X108.197 Y91.252
G1 X108.095 Y91.130
; feature inner perimeter
G1 X108.197 Y91.252 F18000
G1 X108.330 Y91.481
G1 X108.439 Y91.826
G1 X108.462 Y92.090
G1 X108.439 Y92.354
G1 X108.330 Y92.699
G1 X108.197 Y92.929
G1 X108.034 Y93.124
G1 X107.838 Y93.288
G1 X107.609 Y93.420
G1 X107.430 Y93.477
G1 X107.067 Y94.757
G1 X106.930 Y94.915
G1 X106.774 Y95.157
G1 X106.620 Y95.530
G1 X106.559 Y95.811
G1 X106.540 Y96.074
G1 X106.540 Y96.618
G1 X106.127 Y98.076
G1 X106.167 Y98.200
G1 X106.212 Y98.581
G1 X106.190 Y98.867
G1 X106.083 Y99.246
G1 X105.890 Y99.589
G1 X105.704 Y99.807
G1 X105.616 Y99.877
G1 X105.100 Y101.699
G92 E0.0000
G1 X105.100 Y106.656 E0.2790 F885
G1 X106.883 Y106.007 E0.3857
G1 X107.172 Y106.384 E0.4125
G1 X105.686 Y108.506 E0.5583
G1 X103.900 Y108.507 E0.6588
G1 X103.900 Y101.699 E1.0419
G1 X104.500 Y101.746 E1.0758
G1 X104.901 Y101.715 E1.0984
G1 X105.100 Y101.699 F885
G1 X104.904 Y100.992 F18000
G92 E0.0000
G1 X105.820 Y100.734 E0.0536 F885
G1 X105.820 Y105.628 E0.3290
G1 X108.783 Y104.549 E0.5064
G1 X109.072 Y104.926 E0.5331
G1 X106.334 Y108.836 E0.8017
G1 X106.205 Y108.989 E0.8130
G1 X106.078 Y109.094 E0.8222
G1 X106.025 Y109.126 E0.8258
G1 X105.856 Y109.195 E0.8360
G1 X105.779 Y109.214 E0.8405
G1 X105.680 Y109.226 E0.8461
G1 X103.180 Y109.228 E0.9868
G1 X103.180 Y100.734 E1.4648
G1 X104.096 Y100.992 E1.5183
G1 X104.500 Y101.024 E1.5411
G1 X104.705 Y101.008 E1.5527
G1 X104.904 Y100.992 F885
; feature outer perimeter
G1 X104.777 Y100.280 F18000
G92 E0.0000
G1 X105.147 Y100.176 E0.0216 F590
G1 X105.402 Y100.046 E0.0378
G1 X105.704 Y99.807 E0.0594
G1 X105.890 Y99.589 E0.0755
G1 X106.056 Y99.295 E0.0946
G1 X106.540 Y99.421 E0.1227
G1 X106.540 Y104.599 E0.4142
G1 X110.682 Y103.092 E0.6622
G1 X110.971 Y103.469 E0.6890
G1 X106.905 Y109.276 E1.0879
G1 X106.714 Y109.503 E1.1046
G1 X106.495 Y109.684 E1.1206
G1 X106.348 Y109.771 E1.1302
G1 X106.080 Y109.882 E1.1465
G1 X105.908 Y109.924 E1.1565
G1 X105.723 Y109.946 E1.1670
G1 X100.460 Y109.949 E1.4632
G1 X100.460 Y108.870 E1.5239
G1 X102.460 Y108.870 E1.6365
G1 X102.460 Y99.455 E2.1663
G1 X102.896 Y99.303 E2.1923
G1 X103.289 Y99.802 E2.2280
G1 X103.598 Y100.046 E2.2501
G1 X103.853 Y100.176 E2.2663
G1 X104.223 Y100.280 E2.2879
G1 X104.500 Y100.302 E2.3035
G1 X104.577 Y100.296 E2.3079
G1 X104.777 Y100.280 F590
G92 E0.0000
G1 X105.147 Y100.176 E-2.3460 F590
G1 X105.242 Y100.127 E-3.0000
G1 X105.402 Y100.046 F590
G1 X105.704 Y99.807
G1 X105.890 Y99.589
G1 X106.056 Y99.295
G1 X106.540 Y99.421
G1 X106.540 Y102.240
; feature external single extrusion
; tool H0.200 W0.240
G1 X104.447 Y100.298 F18000
G1 X104.223 Y100.280
G1 X103.853 Y100.176
G1 X103.598 Y100.046
G1 X103.289 Y99.802
G1 X103.045 Y99.493
G1 X103.293 Y99.226
G1 E0.0000 F3600
G92 E0.0000
G1 X103.125 Y98.896 E0.0095 F590
G1 X103.086 Y98.820 E0.0117
G1 X103.074 Y98.795 E0.0125
G1 X103.053 Y98.765 E0.0134
; tool H0.200 W0.251
G1 X103.019 Y98.730 E0.0147
; tool H0.200 W0.341
G1 X102.957 Y98.683 E0.0176
