; G-Code generated by Simplify3D(R) Version 4.1.2
; Nov 24, 2019 at 3:03:29 PM
; Settings Summary
;   processName,Process1
;   applyToModels,sear,wheel
;   profileName,HBot
;   profileVersion,2019-10-26 23:38:43
;   baseProfile,Default
;   printMaterial,PLA
;   printQuality,Medium
;   printExtruders,
;   extruderName,Extruder 1
;   extruderToolheadNumber,0
;   extruderDiameter,0.4
;   extruderAutoWidth,1
;   extruderWidth,0.48
;   extrusionMultiplier,0.94
;   extruderUseRetract,1
;   extruderRetractionDistance,3
;   extruderExtraRestartDistance,0
;   extruderRetractionZLift,0
;   extruderRetractionSpeed,3600
;   extruderUseCoasting,1
;   extruderCoastingDistance,0.2
;   extruderUseWipe,1
;   extruderWipeDistance,5
;   primaryExtruder,0
;   layerHeight,0.2
;   topSolidLayers,3
;   bottomSolidLayers,3
;   perimeterOutlines,3
;   printPerimetersInsideOut,1
;   startPointOption,2
;   startPointOriginX,0
;   startPointOriginY,0
;   sequentialIslands,0
;   spiralVaseMode,0
;   firstLayerHeightPercentage,100
;   firstLayerWidthPercentage,150
;   firstLayerUnderspeed,0.5
;   useRaft,0
;   raftExtruder,0
;   raftTopLayers,3
;   raftBaseLayers,2
;   raftOffset,3
;   raftSeparationDistance,0.18
;   raftTopInfill,100
;   aboveRaftSpeedMultiplier,0.3
;   useSkirt,1
;   skirtExtruder,0
;   skirtLayers,1
;   skirtOutlines,3
;   skirtOffset,4
;   usePrimePillar,0
;   primePillarExtruder,999
;   primePillarWidth,12
;   primePillarLocation,7
;   primePillarSpeedMultiplier,1
;   useOozeShield,0
;   oozeShieldExtruder,999
;   oozeShieldOffset,2
;   oozeShieldOutlines,1
;   oozeShieldSidewallShape,1
;   oozeShieldSidewallAngle,30
;   oozeShieldSpeedMultiplier,1
;   infillExtruder,0
;   internalInfillPattern,Rectilinear
;   externalInfillPattern,Rectilinear
;   infillPercentage,20
;   outlineOverlapPercentage,25
;   infillExtrusionWidthPercentage,150
;   minInfillLength,5
;   infillLayerInterval,1
;   internalInfillAngles,45,-45
;   overlapInternalInfillAngles,0
;   externalInfillAngles,45,-45
;   generateSupport,1
;   supportExtruder,0
;   supportInfillPercentage,30
;   supportExtraInflation,0
;   supportBaseLayers,1
;   denseSupportExtruder,0
;   denseSupportLayers,0
;   denseSupportInfillPercentage,70
;   supportLayerInterval,1
;   supportHorizontalPartOffset,0.3
;   supportUpperSeparationLayers,1
;   supportLowerSeparationLayers,1
;   supportType,0
;   supportGridSpacing,4
;   maxOverhangAngle,45
;   supportAngles,0
;   temperatureName,Extruder 1,Heated Bed
;   temperatureNumber,0,1
;   temperatureSetpointCount,2,1
;   temperatureSetpointLayers,1,2,1
;   temperatureSetpointTemperatures,217,210,55
;   temperatureStabilizeAtStartup,1,1
;   temperatureHeatedBed,0,1
;   fanLayers,1,3,5
;   fanSpeeds,0,15,20
;   blipFanToFullPower,1
;   adjustSpeedForCooling,1
;   minSpeedLayerTime,15
;   minCoolingSpeedSlowdown,20
;   increaseFanForCooling,0
;   minFanLayerTime,45
;   maxCoolingFanSpeed,40
;   increaseFanForBridging,0
;   bridgingFanSpeed,80
;   use5D,1
;   relativeEdistances,0
;   allowEaxisZeroing,1
;   independentExtruderAxes,0
;   includeM10123,0
;   stickySupport,1
;   applyToolheadOffsets,0
;   gcodeXoffset,0
;   gcodeYoffset,0
;   gcodeZoffset,0
;   overrideMachineDefinition,1
;   machineTypeOverride,0
;   strokeXoverride,200
;   strokeYoverride,200
;   strokeZoverride,150
;   originOffsetXoverride,0
;   originOffsetYoverride,0
;   originOffsetZoverride,0
;   homeXdirOverride,-1
;   homeYdirOverride,-1
;   homeZdirOverride,-1
;   flipXoverride,1
;   flipYoverride,-1
;   flipZoverride,1
;   toolheadOffsets,0,0|0,0|0,0|0,0|0,0|0,0
;   overrideFirmwareConfiguration,1
;   firmwareTypeOverride,RepRap (Marlin/Repetier/Sprinter)
;   GPXconfigOverride,r2
;   baudRateOverride,115200
;   overridePrinterModels,0
;   printerModelsOverride
;   startingGcode,G28 ; home all axes,G32 ; run bed.g -- probe bed and enable compensation
;   layerChangeGcode,
;   retractionGcode,
;   toolChangeGcode,
;   endingGcode,M0 ; call stop.g
;   exportFileFormat,gcode
;   celebration,0
;   celebrationSong,Random Song
;   postProcessing,
;   defaultSpeed,3600
;   outlineUnderspeed,0.5
;   solidInfillUnderspeed,0.8
;   supportUnderspeed,0.8
;   rapidXYspeed,18000
;   rapidZspeed,1200
;   minBridgingArea,50
;   bridgingExtraInflation,0
;   bridgingExtrusionMultiplier,0.96
;   bridgingSpeedMultiplier,1
;   useFixedBridgingAngle,0
;   fixedBridgingAngle,0
;   applyBridgingToPerimeters,0
;   filamentDiameters,1.75|1.75|1.75|1.75|1.75|1.75
;   filamentPricesPerKg,46|46|46|46|46|46
;   filamentDensities,1.25|1.25|1.25|1.25|1.25|1.25
;   useMinPrintHeight,0
;   minPrintHeight,0
;   useMaxPrintHeight,0
;   maxPrintHeight,0
;   useDiaphragm,1
;   diaphragmLayerInterval,20
;   robustSlicing,1
;   mergeAllIntoSolid,0
;   onlyRetractWhenCrossingOutline,1
;   retractBetweenLayers,0
;   useRetractionMinTravel,1
;   retractionMinTravel,3
;   retractWhileWiping,1
;   onlyWipeOutlines,1
;   avoidCrossingOutline,1
;   maxMovementDetourFactor,3
;   toolChangeRetractionDistance,12
;   toolChangeExtraRestartDistance,-0.5
;   toolChangeRetractionSpeed,600
;   externalThinWallType,1
;   internalThinWallType,1
;   thinWallAllowedOverlapPercentage,10
;   singleExtrusionMinLength,1
;   singleExtrusionMinPrintingWidthPercentage,50
;   singleExtrusionMaxPrintingWidthPercentage,200
;   singleExtrusionEndpointExtension,0.2
;   horizontalSizeCompensation,-0.1
G90
M82
M106 S0
M140 S55
M190 S55
M104 S217 T0
M109 S217 T0
G28 ; home all axes
G32 ; run bed.g -- probe bed and enable compensation
; process Process1
; layer 1, Z = 0.200
T0
G92 E0.0000
G1 E-3.0000 F3600
; feature skirt
; tool H0.200 W0.720
G1 Z0.200 F1200
G1 X76.363 Y79.930 F18000
G1 E0.0000 F3600
G92 E0.0000
G1 X85.141 Y74.862 E0.5704 F1800
G1 X91.290 Y79.580 E1.0066
G1 X90.684 Y81.844 E1.1385
G1 X90.894 Y81.826 E1.1504
G1 X91.105 Y81.816 E1.1623
G1 X92.226 Y81.803 E1.2254
G1 X92.440 Y81.808 E1.2375
G1 X93.579 Y81.879 E1.3016
G1 X93.794 Y81.901 E1.3138
G1 X94.426 Y81.988 E1.3497
G1 X96.860 Y77.771 E1.6237
G1 X101.502 Y76.528 E1.8941
G1 X110.280 Y81.596 E2.4646
G1 X109.268 Y89.281 E2.9007
G1 X107.003 Y89.888 E3.0327
G1 X107.159 Y90.113 E3.0481
G1 X107.274 Y90.292 E3.0601
G1 X107.843 Y91.260 E3.1233
G1 X107.944 Y91.447 E3.1353
G1 X108.441 Y92.454 E3.1985
G1 X108.528 Y92.648 E3.2104
G1 X108.752 Y93.200 E3.2439
G1 X111.520 Y93.200 E3.3997
G1 X110.921 Y89.800 E3.5940
G1 X114.414 Y87.981 E3.8157
G1 X114.309 Y87.844 E3.8254
G1 X114.067 Y87.477 E3.8502
G1 X113.642 Y86.708 E3.8996
G1 X113.459 Y86.308 E3.9244
G1 X113.155 Y85.484 E3.9738
G1 X113.034 Y85.061 E3.9985
G1 X112.858 Y84.200 E4.0480
G1 X112.802 Y83.764 E4.0728
G1 X112.758 Y82.886 E4.1222
G1 X112.769 Y82.447 E4.1469
G1 X112.854 Y81.607 E4.1944
G1 X112.914 Y81.246 E4.2150
G1 X113.062 Y80.606 E4.2520
G1 X113.167 Y80.255 E4.2726
G1 X113.447 Y79.497 E4.3181
G1 X113.595 Y79.162 E4.3387
G1 X113.898 Y78.580 E4.3756
G1 X114.088 Y78.266 E4.3963
G1 X114.568 Y77.573 E4.4437
G1 X114.845 Y77.231 E4.4685
G1 X115.449 Y76.593 E4.5179
G1 X115.775 Y76.297 E4.5427
G1 X117.038 Y75.315 E4.6327
G1 X118.868 Y74.686 E4.7417
G1 X128.763 Y74.686 E5.2985
G1 X132.160 Y78.084 E5.5689
G1 X132.160 Y95.817 E6.5668
G1 X134.160 Y97.817 E6.7260
G1 X134.160 Y104.421 E7.0977
G1 X130.763 Y107.819 E7.3681
G1 X120.474 Y107.819 E7.9471
G1 X120.298 Y107.814 E7.9570
G1 X119.759 Y107.781 E7.9874
G1 X119.323 Y107.721 E8.0122
G1 X118.465 Y107.536 E8.0616
G1 X117.879 Y107.342 E8.0963
G1 X116.939 Y106.917 E8.1544
G1 X116.786 Y106.830 E8.1643
G1 X109.857 Y109.700 E8.5864
G1 X108.199 Y108.042 E8.7183
G1 X108.082 Y108.290 E8.7337
G1 X107.983 Y108.479 E8.7457
G1 X107.430 Y109.455 E8.8089
G1 X107.318 Y109.637 E8.8209
G1 X106.695 Y110.570 E8.8841
G1 X106.570 Y110.743 E8.8960
G1 X106.204 Y111.212 E8.9295
G1 X108.638 Y115.429 E9.2035
G1 X107.395 Y120.070 E9.4739
G1 X98.616 Y125.138 E10.0444
G1 X92.467 Y120.420 E10.4805
G1 X93.074 Y118.156 E10.6124
G1 X92.864 Y118.174 E10.6243
G1 X92.652 Y118.184 E10.6362
G1 X91.531 Y118.197 E10.6993
G1 X91.317 Y118.192 E10.7114
G1 X90.179 Y118.121 E10.7756
G1 X89.963 Y118.099 E10.7877
G1 X89.331 Y118.012 E10.8236
G1 X86.897 Y122.229 E11.0976
G1 X82.256 Y123.472 E11.3680
G1 X73.477 Y118.404 E11.9385
G1 X74.489 Y110.719 E12.3747
G1 X76.754 Y110.112 E12.5066
G1 X76.598 Y109.887 E12.5220
G1 X76.484 Y109.708 E12.5340
G1 X75.914 Y108.740 E12.5972
G1 X75.813 Y108.553 E12.6092
G1 X75.316 Y107.546 E12.6724
G1 X75.229 Y107.352 E12.6843
G1 X75.006 Y106.800 E12.7178
G1 X70.137 Y106.800 E12.9918
G1 X66.740 Y103.402 E13.2622
G1 X66.740 Y93.266 E13.8327
G1 X73.901 Y90.300 E14.2689
G1 X75.559 Y91.958 E14.4008
G1 X75.676 Y91.710 E14.4162
G1 X75.774 Y91.521 E14.4282
G1 X76.327 Y90.545 E14.4914
G1 X76.439 Y90.363 E14.5034
G1 X77.063 Y89.430 E14.5666
G1 X77.187 Y89.257 E14.5785
G1 X77.553 Y88.788 E14.6120
G1 X75.119 Y84.571 E14.8860
G1 X76.363 Y79.930 E15.1564
G1 X76.981 Y80.405 F18000
G92 E0.0000
G1 X85.084 Y75.726 E0.5266 F1800
G1 X90.470 Y79.859 E0.9086
G1 X89.785 Y82.414 E1.0575
G1 X89.911 Y82.632 E1.0717
G1 X90.942 Y82.545 E1.1299
G1 X91.127 Y82.536 E1.1403
G1 X92.221 Y82.523 E1.2019
G1 X92.409 Y82.528 E1.2125
G1 X93.521 Y82.597 E1.2752
G1 X93.709 Y82.616 E1.2858
G1 X94.807 Y82.767 E1.3482
G1 X97.335 Y78.390 E1.6327
G1 X101.400 Y77.300 E1.8695
G1 X109.503 Y81.979 E2.3961
G1 X108.617 Y88.710 E2.7781
G1 X106.062 Y89.394 E2.9270
G1 X105.937 Y89.611 E2.9411
G1 X106.559 Y90.511 E3.0027
G1 X106.660 Y90.669 E3.0132
G1 X107.216 Y91.614 E3.0749
G1 X107.304 Y91.778 E3.0854
G1 X107.789 Y92.761 E3.1471
G1 X107.866 Y92.931 E3.1576
G1 X108.266 Y93.920 E3.2176
G1 X112.378 Y93.920 E3.4490
G1 X111.722 Y90.195 E3.6619
G1 X115.522 Y88.217 E3.9030
G1 X115.380 Y88.055 E3.9151
G1 X114.895 Y87.426 E3.9598
G1 X114.684 Y87.104 E3.9815
G1 X114.285 Y86.383 E4.0278
G1 X114.125 Y86.033 E4.0495
G1 X113.839 Y85.260 E4.0959
G1 X113.734 Y84.890 E4.1176
G1 X113.568 Y84.082 E4.1639
G1 X113.520 Y83.700 E4.1856
G1 X113.478 Y82.877 E4.2320
G1 X113.488 Y82.492 E4.2537
G1 X113.568 Y81.703 E4.2983
G1 X113.620 Y81.386 E4.3164
G1 X113.758 Y80.790 E4.3508
G1 X113.850 Y80.483 E4.3688
G1 X114.114 Y79.768 E4.4117
G1 X114.244 Y79.474 E4.4298
G1 X114.526 Y78.932 E4.4642
G1 X114.692 Y78.657 E4.4823
G1 X115.144 Y78.005 E4.5269
G1 X115.387 Y77.706 E4.5486
G1 X115.953 Y77.108 E4.5950
G1 X116.239 Y76.849 E4.6166
G1 X117.385 Y75.956 E4.6984
G1 X118.989 Y75.406 E4.7938
G1 X128.464 Y75.406 E5.3271
G1 X131.440 Y78.382 E5.5639
G1 X131.440 Y96.115 E6.5619
G1 X133.440 Y98.115 E6.7210
G1 X133.440 Y104.123 E7.0592
G1 X130.464 Y107.099 E7.2960
G1 X120.485 Y107.099 E7.8576
G1 X120.331 Y107.094 E7.8663
G1 X119.830 Y107.064 E7.8945
G1 X119.448 Y107.011 E7.9162
G1 X118.654 Y106.840 E7.9619
G1 X118.141 Y106.671 E7.9923
G1 X117.266 Y106.275 E8.0464
G1 X116.864 Y106.046 E8.0724
G1 X116.358 Y105.695 E8.1071
G1 X116.298 Y105.647 E8.1114
G1 X116.298 Y106.253 E8.1455
G1 X110.026 Y108.851 E8.5275
G1 X108.155 Y106.980 E8.6764
G1 X107.905 Y106.980 E8.6905
G1 X107.436 Y107.970 E8.7521
G1 X107.350 Y108.135 E8.7626
G1 X106.810 Y109.089 E8.8243
G1 X106.712 Y109.248 E8.8348
G1 X106.103 Y110.159 E8.8965
G1 X105.994 Y110.311 E8.9070
G1 X105.338 Y111.152 E8.9670
G1 X107.866 Y115.530 E9.2515
G1 X106.776 Y119.595 E9.4884
G1 X98.673 Y124.274 E10.0149
G1 X93.287 Y120.141 E10.3970
G1 X93.972 Y117.586 E10.5459
G1 X93.846 Y117.368 E10.5600
G1 X92.816 Y117.455 E10.6182
G1 X92.631 Y117.464 E10.6287
G1 X91.536 Y117.477 E10.6903
G1 X91.348 Y117.472 E10.7008
G1 X90.237 Y117.403 E10.7635
G1 X90.048 Y117.384 E10.7742
G1 X88.950 Y117.233 E10.8366
G1 X86.423 Y121.610 E11.1210
G1 X82.358 Y122.700 E11.3579
G1 X74.254 Y118.021 E11.8844
G1 X75.140 Y111.290 E12.2665
G1 X77.696 Y110.606 E12.4154
G1 X77.821 Y110.389 E12.4295
G1 X77.198 Y109.489 E12.4911
G1 X77.098 Y109.331 E12.5016
G1 X76.542 Y108.386 E12.5633
G1 X76.453 Y108.222 E12.5738
G1 X75.968 Y107.239 E12.6355
G1 X75.892 Y107.069 E12.6459
G1 X75.491 Y106.080 E12.7060
G1 X70.436 Y106.080 E12.9905
G1 X67.460 Y103.104 E13.2273
G1 X67.460 Y93.747 E13.7539
G1 X73.732 Y91.149 E14.1360
G1 X75.603 Y93.020 E14.2849
G1 X75.853 Y93.020 E14.2989
G1 X76.321 Y92.030 E14.3605
G1 X76.407 Y91.865 E14.3710
G1 X76.947 Y90.911 E14.4327
G1 X77.045 Y90.752 E14.4432
G1 X77.654 Y89.841 E14.5049
G1 X77.763 Y89.689 E14.5154
G1 X78.419 Y88.848 E14.5755
G1 X75.892 Y84.470 E14.8600
G1 X76.981 Y80.405 E15.0968
G1 X77.599 Y80.879 F18000
G92 E0.0000
G1 X85.028 Y76.590 E0.4827 F1800
G1 X89.650 Y80.137 E0.8106
G1 X89.013 Y82.516 E0.9492
G1 X89.531 Y83.413 E1.0075
G1 X89.738 Y83.378 E1.0193
G1 X89.921 Y83.354 E1.0297
G1 X90.989 Y83.263 E1.0901
G1 X91.148 Y83.256 E1.0990
G1 X92.216 Y83.243 E1.1591
G1 X92.377 Y83.247 E1.1682
G1 X93.462 Y83.315 E1.2294
G1 X93.624 Y83.331 E1.2385
G1 X94.702 Y83.479 E1.2997
G1 X94.844 Y83.504 E1.3079
G1 X95.281 Y83.387 E1.3333
G1 X97.809 Y79.008 E1.6179
G1 X101.298 Y78.073 E1.8212
G1 X108.727 Y82.362 E2.3039
G1 X107.966 Y88.139 E2.6318
G1 X105.587 Y88.776 E2.7704
G1 X105.070 Y89.672 E2.8286
G1 X105.255 Y89.902 E2.8452
G1 X105.351 Y90.030 E2.8542
G1 X105.960 Y90.910 E2.9144
G1 X106.046 Y91.045 E2.9235
G1 X106.588 Y91.967 E2.9837
G1 X106.664 Y92.108 E2.9927
G1 X107.138 Y93.068 E3.0529
G1 X107.203 Y93.214 E3.0619
G1 X107.605 Y94.205 E3.1221
G1 X107.647 Y94.320 E3.1290
G1 X107.967 Y94.640 E3.1544
G1 X113.024 Y94.640 E3.4390
G1 X113.282 Y94.898 E3.4596
G1 X112.522 Y90.590 E3.7058
G1 X116.735 Y88.397 E3.9731
G1 X116.723 Y88.388 E3.9739
G1 X116.517 Y88.205 E3.9894
G1 X116.118 Y87.804 E4.0212
G1 X115.936 Y87.597 E4.0367
G1 X115.482 Y87.008 E4.0786
G1 X115.301 Y86.732 E4.0972
G1 X114.928 Y86.059 E4.1405
G1 X114.791 Y85.758 E4.1591
G1 X114.524 Y85.036 E4.2024
G1 X114.434 Y84.718 E4.2210
G1 X114.279 Y83.964 E4.2643
G1 X114.238 Y83.636 E4.2829
G1 X114.199 Y82.868 E4.3262
G1 X114.207 Y82.537 E4.3448
G1 X114.282 Y81.798 E4.3866
G1 X114.327 Y81.526 E4.4021
G1 X114.455 Y80.975 E4.4340
G1 X114.533 Y80.711 E4.4495
G1 X114.782 Y80.038 E4.4898
G1 X114.893 Y79.787 E4.5053
G1 X115.154 Y79.285 E4.5372
G1 X115.297 Y79.049 E4.5527
G1 X115.720 Y78.438 E4.5945
G1 X115.929 Y78.182 E4.6131
G1 X116.458 Y77.622 E4.6564
G1 X116.702 Y77.400 E4.6750
G1 X117.732 Y76.598 E4.7485
G1 X119.109 Y76.126 E4.8304
G1 X128.166 Y76.126 E5.3401
G1 X130.720 Y78.680 E5.5434
G1 X130.720 Y96.413 E6.5413
G1 X132.720 Y98.413 E6.7005
G1 X132.720 Y103.825 E7.0050
G1 X130.166 Y106.379 E7.2083
G1 X120.496 Y106.379 E7.7525
G1 X120.364 Y106.375 E7.7600
G1 X119.901 Y106.347 E7.7861
G1 X119.573 Y106.302 E7.8047
G1 X118.844 Y106.144 E7.8467
G1 X118.403 Y105.999 E7.8728
G1 X117.593 Y105.632 E7.9228
G1 X117.248 Y105.436 E7.9452
G1 X116.787 Y105.116 E7.9768
G1 X116.579 Y104.952 E7.9917
G1 X116.186 Y104.602 E8.0213
G1 X115.956 Y104.363 E8.0399
G1 X115.578 Y103.905 E8.0734
G1 X115.578 Y105.772 E8.1784
G1 X110.195 Y108.002 E8.5063
G1 X108.453 Y106.260 E8.6449
G1 X107.416 Y106.260 E8.7033
G1 X107.328 Y106.498 E8.7176
G1 X107.255 Y106.670 E8.7281
G1 X106.791 Y107.650 E8.7891
G1 X106.718 Y107.792 E8.7981
G1 X106.190 Y108.723 E8.8583
G1 X106.106 Y108.859 E8.8673
G1 X105.512 Y109.749 E8.9275
G1 X105.418 Y109.878 E8.9365
G1 X104.760 Y110.722 E8.9967
G1 X104.682 Y110.816 E9.0036
G1 X104.565 Y111.253 E9.0291
G1 X107.093 Y115.632 E9.3136
G1 X106.158 Y119.121 E9.5169
G1 X98.730 Y123.410 E9.9996
G1 X94.107 Y119.863 E10.3275
G1 X94.745 Y117.484 E10.4661
G1 X94.227 Y116.587 E10.5244
G1 X94.019 Y116.622 E10.5363
G1 X93.836 Y116.646 E10.5466
G1 X92.768 Y116.737 E10.6070
G1 X92.609 Y116.744 E10.6159
G1 X91.541 Y116.757 E10.6760
G1 X91.380 Y116.753 E10.6851
G1 X90.295 Y116.685 E10.7463
G1 X90.133 Y116.669 E10.7554
G1 X89.055 Y116.521 E10.8167
G1 X88.913 Y116.496 E10.8248
G1 X88.477 Y116.613 E10.8502
G1 X85.948 Y120.992 E11.1348
G1 X82.459 Y121.927 E11.3381
G1 X75.031 Y117.638 E11.8208
G1 X75.791 Y111.861 E12.1487
G1 X78.170 Y111.224 E12.2873
G1 X78.687 Y110.328 E12.3455
G1 X78.502 Y110.098 E12.3622
G1 X78.406 Y109.970 E12.3712
G1 X77.798 Y109.090 E12.4314
G1 X77.711 Y108.955 E12.4404
G1 X77.169 Y108.033 E12.5006
G1 X77.093 Y107.892 E12.5096
G1 X76.619 Y106.932 E12.5698
G1 X76.554 Y106.786 E12.5788
G1 X76.152 Y105.795 E12.6390
