; G-Code generated by Simplify3D(R) Version 4.1.2
; May 2, 2020 at 7:55:01 PM
; Settings Summary
;   processName,Process1
;   applyToModels,Spool_Holder_-_Vertical_-_Ball_Bearing
;   profileName,HBot (modified)
;   profileVersion,2019-10-26 23:38:43
;   baseProfile,Default
;   printMaterial,PETG - SUNLU
;   printQuality,Medium
;   printExtruders,
;   extruderName,Extruder 1
;   extruderToolheadNumber,0
;   extruderDiameter,0.4
;   extruderAutoWidth,1
;   extruderWidth,0.48
;   extrusionMultiplier,0.98
;   extruderUseRetract,1
;   extruderRetractionDistance,3
;   extruderExtraRestartDistance,0
;   extruderRetractionZLift,0
;   extruderRetractionSpeed,3600
;   extruderUseCoasting,1
;   extruderCoastingDistance,0.2
;   extruderUseWipe,1
;   extruderWipeDistance,5
;   primaryExtruder,0
;   layerHeight,0.2
;   topSolidLayers,3
;   bottomSolidLayers,3
;   perimeterOutlines,3
;   printPerimetersInsideOut,1
;   startPointOption,3
;   startPointOriginX,200
;   startPointOriginY,100
;   sequentialIslands,0
;   spiralVaseMode,0
;   firstLayerHeightPercentage,100
;   firstLayerWidthPercentage,150
;   firstLayerUnderspeed,0.5
;   useRaft,0
;   raftExtruder,0
;   raftTopLayers,3
;   raftBaseLayers,2
;   raftOffset,3
;   raftSeparationDistance,0.18
;   raftTopInfill,100
;   aboveRaftSpeedMultiplier,0.3
;   useSkirt,1
;   skirtExtruder,0
;   skirtLayers,1
;   skirtOutlines,3
;   skirtOffset,10
;   usePrimePillar,0
;   primePillarExtruder,999
;   primePillarWidth,12
;   primePillarLocation,7
;   primePillarSpeedMultiplier,1
;   useOozeShield,0
;   oozeShieldExtruder,999
;   oozeShieldOffset,2
;   oozeShieldOutlines,1
;   oozeShieldSidewallShape,1
;   oozeShieldSidewallAngle,30
;   oozeShieldSpeedMultiplier,1
;   infillExtruder,0
;   internalInfillPattern,Rectilinear
;   externalInfillPattern,Rectilinear
;   infillPercentage,20
;   outlineOverlapPercentage,25
;   infillExtrusionWidthPercentage,150
;   minInfillLength,5
;   infillLayerInterval,1
;   internalInfillAngles,45,-45
;   overlapInternalInfillAngles,0
;   externalInfillAngles,45,-45
;   generateSupport,0
;   supportExtruder,0
;   supportInfillPercentage,30
;   supportExtraInflation,0
;   supportBaseLayers,1
;   denseSupportExtruder,0
;   denseSupportLayers,0
;   denseSupportInfillPercentage,70
;   supportLayerInterval,1
;   supportHorizontalPartOffset,0.3
;   supportUpperSeparationLayers,1
;   supportLowerSeparationLayers,1
;   supportType,0
;   supportGridSpacing,4
;   maxOverhangAngle,25
;   supportAngles,0
;   temperatureName,Extruder 1,Heated Bed
;   temperatureNumber,0,1
;   temperatureSetpointCount,1,1
;   temperatureSetpointLayers,1,1
;   temperatureSetpointTemperatures,225,75
;   temperatureStabilizeAtStartup,1,1
;   temperatureHeatedBed,0,1
;   fanLayers,1,2
;   fanSpeeds,0,20
;   blipFanToFullPower,1
;   adjustSpeedForCooling,1
;   minSpeedLayerTime,15
;   minCoolingSpeedSlowdown,20
;   increaseFanForCooling,1
;   minFanLayerTime,45
;   maxCoolingFanSpeed,35
;   increaseFanForBridging,1
;   bridgingFanSpeed,80
;   use5D,1
;   relativeEdistances,0
;   allowEaxisZeroing,1
;   independentExtruderAxes,0
;   includeM10123,0
;   stickySupport,1
;   applyToolheadOffsets,0
;   gcodeXoffset,0
;   gcodeYoffset,0
;   gcodeZoffset,0
;   overrideMachineDefinition,1
;   machineTypeOverride,0
;   strokeXoverride,200
;   strokeYoverride,200
;   strokeZoverride,150
;   originOffsetXoverride,0
;   originOffsetYoverride,0
;   originOffsetZoverride,0
;   homeXdirOverride,-1
;   homeYdirOverride,-1
;   homeZdirOverride,-1
;   flipXoverride,1
;   flipYoverride,-1
;   flipZoverride,1
;   toolheadOffsets,0,0|0,0|0,0|0,0|0,0|0,0
;   overrideFirmwareConfiguration,1
;   firmwareTypeOverride,RepRap (Marlin/Repetier/Sprinter)
;   GPXconfigOverride,r2
;   baudRateOverride,115200
;   overridePrinterModels,0
;   printerModelsOverride
;   startingGcode,G28 ; home all axes,G32 ; run bed.g -- probe bed and enable compensation
;   layerChangeGcode,
;   retractionGcode,
;   toolChangeGcode,
;   endingGcode,M0 ; call stop.g
;   exportFileFormat,gcode
;   celebration,0
;   celebrationSong,Random Song
;   postProcessing,
;   defaultSpeed,3600
;   outlineUnderspeed,0.5
;   solidInfillUnderspeed,0.8
;   supportUnderspeed,0.8
;   rapidXYspeed,18000
;   rapidZspeed,1200
;   minBridgingArea,50
;   bridgingExtraInflation,0
;   bridgingExtrusionMultiplier,0.96
;   bridgingSpeedMultiplier,1
;   useFixedBridgingAngle,0
;   fixedBridgingAngle,0
;   applyBridgingToPerimeters,0
;   filamentDiameters,1.75|1.75|1.75|1.75|1.75|1.75
;   filamentPricesPerKg,46|46|46|46|46|46
;   filamentDensities,1.25|1.25|1.25|1.25|1.25|1.25
;   useMinPrintHeight,0
;   minPrintHeight,0.2
;   useMaxPrintHeight,0
;   maxPrintHeight,0
;   useDiaphragm,0
;   diaphragmLayerInterval,20
;   robustSlicing,1
;   mergeAllIntoSolid,0
;   onlyRetractWhenCrossingOutline,1
;   retractBetweenLayers,0
;   useRetractionMinTravel,1
;   retractionMinTravel,3
;   retractWhileWiping,1
;   onlyWipeOutlines,1
;   avoidCrossingOutline,1
;   maxMovementDetourFactor,5
;   toolChangeRetractionDistance,12
;   toolChangeExtraRestartDistance,-0.5
;   toolChangeRetractionSpeed,600
;   externalThinWallType,0
;   internalThinWallType,2
;   thinWallAllowedOverlapPercentage,10
;   singleExtrusionMinLength,1
;   singleExtrusionMinPrintingWidthPercentage,50
;   singleExtrusionMaxPrintingWidthPercentage,150
;   singleExtrusionEndpointExtension,0.2
;   horizontalSizeCompensation,-0.1
G90
M82
M106 S0
M140 S75
M190 S75
M104 S225 T0
M109 S225 T0
G28 ; home all axes
G32 ; run bed.g -- probe bed and enable compensation
; process Process1
; layer 1, Z = 0.200
T0
G92 E0.0000
G1 E-3.0000 F3600
; feature skirt
; tool H0.200 W0.720
G1 Z0.200 F1200
G1 X153.700 Y135.038 F18000
G1 E0.0000 F3600
G92 E0.0000
G1 X146.788 Y141.950 E0.5735 F1800
G1 X135.732 Y141.950 E1.2222
G1 X135.187 Y141.925 E1.2542
G1 X133.876 Y141.803 E1.3314
G1 X132.535 Y141.519 E1.4119
G1 X130.612 Y140.872 E1.5309
G1 X129.147 Y140.141 E1.6270
G1 X127.482 Y138.998 E1.7455
G1 X126.458 Y138.105 E1.8252
G1 X125.301 Y136.836 E1.9259
G1 X124.501 Y135.723 E2.0063
G1 X123.584 Y134.074 E2.1171
G1 X123.065 Y132.819 E2.1967
G1 X122.634 Y131.304 E2.2892
G1 X122.433 Y130.231 E2.3532
G1 X122.325 Y129.062 E2.4221
G1 X122.300 Y128.518 E2.4540
G1 X122.300 Y116.375 E3.1665
G1 X71.695 Y116.382 E6.1355
G1 X71.589 Y116.681 E6.1542
G1 X71.155 Y117.628 E6.2153
G1 X70.531 Y118.722 E6.2892
G1 X70.050 Y119.438 E6.3397
G1 X69.254 Y120.456 E6.4155
G1 X68.524 Y121.232 E6.4781
G1 X67.368 Y122.258 E6.5688
G1 X66.376 Y122.971 E6.6404
G1 X65.014 Y123.749 E6.7324
G1 X63.913 Y124.237 E6.8031
G1 X62.419 Y124.724 E6.8953
G1 X61.214 Y124.982 E6.9676
G1 X59.932 Y125.119 E7.0433
G1 X59.294 Y125.153 E7.0808
G1 X57.566 Y125.150 E7.1822
G1 X56.842 Y125.104 E7.2247
G1 X55.638 Y124.953 E7.2959
G1 X54.558 Y124.714 E7.3608
G1 X52.969 Y124.202 E7.4587
G1 X51.579 Y123.544 E7.5489
G1 X49.899 Y122.463 E7.6662
G1 X48.842 Y121.594 E7.7465
G1 X47.693 Y120.402 E7.8436
G1 X46.911 Y119.392 E7.9185
G1 X45.874 Y117.705 E8.0347
G1 X45.255 Y116.329 E8.1233
G1 X44.704 Y114.519 E8.2343
G1 X44.492 Y113.523 E8.2940
G1 X44.354 Y112.407 E8.3600
G1 X44.309 Y111.687 E8.4023
G1 X44.300 Y100.143 E9.0796
G1 X44.304 Y99.907 E9.0935
G1 X44.343 Y98.936 E9.1505
G1 X44.379 Y98.473 E9.1777
G1 X44.506 Y97.397 E9.2413
G1 X44.579 Y96.939 E9.2685
G1 X44.790 Y95.877 E9.3320
G1 X44.898 Y95.426 E9.3592
G1 X45.193 Y94.383 E9.4228
G1 X45.336 Y93.942 E9.4500
G1 X45.711 Y92.925 E9.5136
G1 X45.888 Y92.497 E9.5408
G1 X46.342 Y91.513 E9.6044
G1 X46.552 Y91.100 E9.6316
G1 X47.082 Y90.154 E9.6951
G1 X47.324 Y89.759 E9.7223
G1 X47.926 Y88.858 E9.7859
G1 X48.199 Y88.483 E9.8131
G1 X48.870 Y87.632 E9.8767
G1 X49.170 Y87.280 E9.9039
G1 X49.906 Y86.484 E9.9675
G1 X50.234 Y86.156 E9.9947
G1 X51.030 Y85.420 E10.0583
G1 X51.382 Y85.120 E10.0854
G1 X52.233 Y84.449 E10.1490
G1 X52.608 Y84.176 E10.1762
G1 X53.509 Y83.574 E10.2398
G1 X53.904 Y83.332 E10.2670
G1 X54.850 Y82.802 E10.3306
G1 X55.263 Y82.592 E10.3578
G1 X56.247 Y82.138 E10.4213
G1 X56.675 Y81.961 E10.4485
G1 X57.692 Y81.586 E10.5121
G1 X58.133 Y81.443 E10.5393
G1 X59.172 Y81.150 E10.6026
G1 X59.620 Y81.042 E10.6297
G1 X60.686 Y80.829 E10.6935
G1 X61.146 Y80.757 E10.7208
G1 X62.223 Y80.629 E10.7844
G1 X62.686 Y80.593 E10.8117
G1 X63.655 Y80.555 E10.8685
G1 X63.886 Y80.550 E10.8821
G1 X122.296 Y80.550 E14.3091
G1 X122.300 Y71.478 E14.8413
G1 X122.325 Y70.937 E14.8732
G1 X122.433 Y69.769 E14.9419
G1 X122.634 Y68.696 E15.0060
G1 X123.065 Y67.180 E15.0985
G1 X123.586 Y65.923 E15.1783
G1 X124.572 Y64.150 E15.2973
G1 X125.563 Y62.838 E15.3938
G1 X126.998 Y61.404 E15.5128
G1 X128.065 Y60.560 E15.5927
G1 X129.519 Y59.659 E15.6930
G1 X130.748 Y59.082 E15.7727
G1 X132.537 Y58.480 E15.8834
G1 X133.878 Y58.197 E15.9638
G1 X135.187 Y58.075 E16.0410
G1 X135.732 Y58.050 E16.0730
G1 X146.788 Y58.050 E16.7216
G1 X153.700 Y64.962 E17.2951
G1 X153.700 Y135.038 E21.4065
G1 X152.980 Y134.739 F18000
G92 E0.0000
G1 X146.489 Y141.230 E0.5385 F1800
G1 X135.748 Y141.230 E1.1687
G1 X135.237 Y141.206 E1.1988
G1 X133.985 Y141.090 E1.2726
G1 X132.725 Y140.824 E1.3481
G1 X130.889 Y140.206 E1.4618
G1 X129.514 Y139.519 E1.5519
G1 X127.923 Y138.427 E1.6651
G1 X126.962 Y137.590 E1.7399
G1 X125.861 Y136.382 E1.8358
G1 X125.110 Y135.337 E1.9113
G1 X124.234 Y133.760 E2.0171
G1 X123.746 Y132.582 E2.0920
G1 X123.336 Y131.139 E2.1800
G1 X123.147 Y130.131 E2.2401
G1 X123.044 Y129.012 E2.3061
G1 X123.020 Y128.501 E2.3361
G1 X123.020 Y115.655 E3.0898
G1 X71.187 Y115.662 E6.1309
G1 X70.921 Y116.410 E6.1775
G1 X70.513 Y117.299 E6.2349
G1 X69.918 Y118.343 E6.3054
G1 X69.467 Y119.015 E6.3529
G1 X68.707 Y119.986 E6.4252
G1 X68.022 Y120.715 E6.4839
G1 X66.918 Y121.695 E6.5705
G1 X65.987 Y122.364 E6.6378
G1 X64.689 Y123.106 E6.7255
G1 X63.655 Y123.564 E6.7919
G1 X62.232 Y124.028 E6.8797
G1 X61.100 Y124.270 E6.9475
G1 X59.875 Y124.401 E7.0198
G1 X59.276 Y124.433 E7.0551
G1 X57.589 Y124.430 E7.1540
G1 X56.910 Y124.387 E7.1940
G1 X55.761 Y124.243 E7.2619
G1 X54.747 Y124.019 E7.3228
G1 X53.235 Y123.531 E7.4160
G1 X51.930 Y122.914 E7.5007
G1 X50.324 Y121.880 E7.6128
G1 X49.331 Y121.064 E7.6882
G1 X48.238 Y119.931 E7.7806
G1 X47.504 Y118.982 E7.8509
G1 X46.512 Y117.367 E7.9621
G1 X45.930 Y116.075 E8.0453
G1 X45.401 Y114.339 E8.1518
G1 X45.203 Y113.404 E8.2078
G1 X45.071 Y112.340 E8.2707
G1 X45.029 Y111.664 E8.3105
G1 X45.020 Y100.150 E8.9860
G1 X45.024 Y99.928 E8.9990
G1 X45.061 Y98.978 E9.0548
G1 X45.096 Y98.544 E9.0804
G1 X45.220 Y97.496 E9.1423
G1 X45.288 Y97.066 E9.1678
G1 X45.494 Y96.031 E9.2297
G1 X45.595 Y95.608 E9.2553
G1 X45.882 Y94.592 E9.3172
G1 X46.016 Y94.178 E9.3427
G1 X46.382 Y93.188 E9.4047
G1 X46.548 Y92.786 E9.4302
G1 X46.990 Y91.827 E9.4921
G1 X47.187 Y91.440 E9.5176
G1 X47.703 Y90.519 E9.5796
G1 X47.931 Y90.148 E9.6051
G1 X48.517 Y89.270 E9.6670
G1 X48.773 Y88.918 E9.6926
G1 X49.426 Y88.089 E9.7545
G1 X49.709 Y87.758 E9.7800
G1 X50.425 Y86.983 E9.8419
G1 X50.733 Y86.675 E9.8675
G1 X51.508 Y85.959 E9.9294
G1 X51.839 Y85.676 E9.9549
G1 X52.668 Y85.023 E10.0168
G1 X53.020 Y84.767 E10.0424
G1 X53.898 Y84.181 E10.1043
G1 X54.269 Y83.953 E10.1298
G1 X55.189 Y83.438 E10.1918
G1 X55.577 Y83.240 E10.2173
G1 X56.536 Y82.798 E10.2792
G1 X56.938 Y82.632 E10.3048
G1 X57.928 Y82.266 E10.3667
G1 X58.342 Y82.132 E10.3922
G1 X59.354 Y81.846 E10.4539
G1 X59.775 Y81.745 E10.4793
G1 X60.813 Y81.538 E10.5414
G1 X61.245 Y81.470 E10.5671
G1 X62.294 Y81.346 E10.6290
G1 X62.728 Y81.311 E10.6546
G1 X63.676 Y81.274 E10.7102
G1 X63.893 Y81.270 E10.7230
G1 X123.016 Y81.270 E14.1918
G1 X123.020 Y71.495 E14.7653
G1 X123.044 Y70.986 E14.7951
G1 X123.147 Y69.869 E14.8610
G1 X123.336 Y68.861 E14.9211
G1 X123.747 Y67.417 E15.0093
G1 X124.235 Y66.236 E15.0842
G1 X125.176 Y64.544 E15.1978
G1 X126.107 Y63.311 E15.2884
G1 X127.477 Y61.943 E15.4020
G1 X128.479 Y61.150 E15.4770
G1 X129.863 Y60.293 E15.5725
G1 X131.017 Y59.751 E15.6473
G1 X132.727 Y59.176 E15.7531
G1 X133.986 Y58.910 E15.8286
G1 X135.237 Y58.794 E15.9024
G1 X135.749 Y58.770 E15.9324
G1 X146.489 Y58.770 E16.5626
G1 X152.980 Y65.261 E17.1011
G1 X152.980 Y134.739 E21.1775
G1 X152.260 Y134.441 F18000
G92 E0.0000
G1 X146.191 Y140.510 E0.5035 F1800
G1 X135.765 Y140.510 E1.1153
G1 X135.286 Y140.488 E1.1434
G1 X134.093 Y140.377 E1.2137
G1 X132.915 Y140.128 E1.2843
G1 X131.166 Y139.539 E1.3926
G1 X129.880 Y138.897 E1.4769
G1 X128.365 Y137.857 E1.5847
G1 X127.466 Y137.074 E1.6547
G1 X126.421 Y135.928 E1.7457
G1 X125.719 Y134.951 E1.8163
G1 X124.883 Y133.447 E1.9172
G1 X124.427 Y132.345 E1.9872
G1 X124.037 Y130.974 E2.0709
G1 X123.861 Y130.032 E2.1271
G1 X123.762 Y128.963 E2.1901
G1 X123.740 Y128.485 E2.2181
G1 X123.740 Y114.934 E3.0131
G1 X70.679 Y114.942 E6.1263
G1 X70.253 Y116.139 E6.2008
G1 X69.872 Y116.970 E6.2545
G1 X69.306 Y117.964 E6.3216
G1 X68.884 Y118.592 E6.3660
G1 X68.160 Y119.517 E6.4349
G1 X67.519 Y120.199 E6.4898
G1 X66.468 Y121.132 E6.5722
G1 X65.597 Y121.757 E6.6352
G1 X64.364 Y122.462 E6.7185
G1 X63.396 Y122.891 E6.7806
G1 X62.044 Y123.332 E6.8640
G1 X60.986 Y123.558 E6.9275
G1 X59.818 Y123.683 E6.9964
G1 X59.257 Y123.713 E7.0294
G1 X57.612 Y123.710 E7.1259
G1 X56.977 Y123.670 E7.1632
G1 X55.883 Y123.533 E7.2279
G1 X54.936 Y123.323 E7.2848
G1 X53.500 Y122.860 E7.3733
G1 X52.280 Y122.283 E7.4525
G1 X50.749 Y121.297 E7.5594
G1 X49.821 Y120.535 E7.6299
G1 X48.784 Y119.459 E7.7175
G1 X48.097 Y118.572 E7.7833
G1 X47.149 Y117.030 E7.8895
G1 X46.606 Y115.822 E7.9673
G1 X46.099 Y114.159 E8.0693
G1 X45.914 Y113.285 E8.1217
G1 X45.789 Y112.274 E8.1814
G1 X45.749 Y111.641 E8.2186
G1 X45.740 Y100.157 E8.8924
G1 X45.744 Y99.949 E8.9046
G1 X45.780 Y99.020 E8.9591
G1 X45.812 Y98.615 E8.9830
G1 X45.933 Y97.594 E9.0433
G1 X45.997 Y97.193 E9.0672
G1 X46.197 Y96.185 E9.1274
G1 X46.292 Y95.790 E9.1513
G1 X46.571 Y94.801 E9.2116
G1 X46.697 Y94.414 E9.2355
G1 X47.052 Y93.450 E9.2957
G1 X47.208 Y93.074 E9.3196
G1 X47.638 Y92.141 E9.3798
G1 X47.823 Y91.779 E9.4037
G1 X48.324 Y90.883 E9.4640
G1 X48.537 Y90.536 E9.4879
G1 X49.108 Y89.682 E9.5481
G1 X49.347 Y89.352 E9.5720
G1 X49.983 Y88.546 E9.6323
G1 X50.247 Y88.237 E9.6561
G1 X50.944 Y87.482 E9.7164
G1 X51.232 Y87.194 E9.7403
G1 X51.986 Y86.497 E9.8005
G1 X52.296 Y86.233 E9.8244
G1 X53.102 Y85.597 E9.8847
G1 X53.432 Y85.358 E9.9085
G1 X54.286 Y84.787 E9.9688
G1 X54.633 Y84.575 E9.9927
G1 X55.529 Y84.073 E10.0530
G1 X55.891 Y83.888 E10.0768
G1 X56.824 Y83.458 E10.1371
G1 X57.200 Y83.302 E10.1610
G1 X58.164 Y82.947 E10.2212
G1 X58.551 Y82.821 E10.2451
G1 X59.536 Y82.543 E10.3051
G1 X59.929 Y82.449 E10.3289
G1 X60.939 Y82.247 E10.3893
G1 X61.343 Y82.183 E10.4133
G1 X62.365 Y82.062 E10.4737
G1 X62.770 Y82.030 E10.4975
G1 X63.697 Y81.994 E10.5519
G1 X63.900 Y81.990 E10.5639
G1 X123.735 Y81.990 E14.0744
G1 X123.740 Y71.512 E14.6892
G1 X123.762 Y71.036 E14.7171
G1 X123.861 Y69.968 E14.7801
G1 X124.037 Y69.026 E14.8363
G1 X124.428 Y67.654 E14.9200
G1 X124.885 Y66.550 E14.9901
G1 X125.781 Y64.938 E15.0983
G1 X126.652 Y63.785 E15.1831
G1 X127.957 Y62.482 E15.2913
G1 X128.894 Y61.740 E15.3614
G1 X130.207 Y60.927 E15.4520
G1 X131.286 Y60.420 E15.5220
G1 X132.916 Y59.872 E15.6229
G1 X134.094 Y59.623 E15.6935
G1 X135.287 Y59.512 E15.7638
G1 X135.765 Y59.490 E15.7919
G1 X146.191 Y59.490 E16.4036
G1 X152.260 Y65.559 E16.9071
G1 X152.260 Y134.441 E20.9485
G92 E0.0000
G1 E-3.0000 F3600
; feature inner perimeter
G1 X141.540 Y129.790 F18000
G1 X141.540 Y117.181
G1 X135.855 Y108.028
G1 E0.0000 F3600
G92 E0.0000
G1 X135.747 Y107.368 E0.0392 F1350
G1 X135.623 Y106.877 E0.0689
G1 X135.470 Y106.409 E0.0978
G1 X135.283 Y105.951 E0.1268
G1 X135.066 Y105.513 E0.1555
G1 X134.816 Y105.090 E0.1844
G1 X134.532 Y104.683 E0.2135
G1 X134.227 Y104.317 E0.2414
G1 X133.954 Y104.035 E0.2644
G1 X133.481 Y103.628 E0.3010
G1 X133.038 Y103.339 E0.3321
G1 X132.575 Y103.102 E0.3626
G1 X132.051 Y102.916 E0.3952
G1 X131.614 Y102.819 E0.4215
G1 X131.082 Y102.773 E0.4528
G1 X62.651 Y102.783 E4.4677
G1 X62.116 Y102.893 E4.4998
G1 X61.716 Y103.036 E4.5247
G1 X61.355 Y103.217 E4.5484
G1 X60.977 Y103.466 E4.5750
G1 X60.664 Y103.723 E4.5987
