; G-Code generated by Simplify3D(R) Version 4.1.2
; Nov 14, 2019 at 11:25:39 PM
; Settings Summary
;   processName,Process1
;   applyToModels,TEVO_202020_Cube
;   profileName,HBot
;   profileVersion,2019-10-26 23:38:43
;   baseProfile,Default
;   printMaterial,PLA
;   printQuality,Medium
;   printExtruders,
;   extruderName,Extruder 1
;   extruderToolheadNumber,0
;   extruderDiameter,0.4
;   extruderAutoWidth,1
;   extruderWidth,0.48
;   extrusionMultiplier,0.94
;   extruderUseRetract,1
;   extruderRetractionDistance,3
;   extruderExtraRestartDistance,0
;   extruderRetractionZLift,0
;   extruderRetractionSpeed,3600
;   extruderUseCoasting,1
;   extruderCoastingDistance,0.2
;   extruderUseWipe,1
;   extruderWipeDistance,5
;   primaryExtruder,0
;   layerHeight,0.2
;   topSolidLayers,3
;   bottomSolidLayers,3
;   perimeterOutlines,3
;   printPerimetersInsideOut,1
;   startPointOption,2
;   startPointOriginX,0
;   startPointOriginY,0
;   sequentialIslands,0
;   spiralVaseMode,0
;   firstLayerHeightPercentage,100
;   firstLayerWidthPercentage,150
;   firstLayerUnderspeed,0.5
;   useRaft,0
;   raftExtruder,0
;   raftTopLayers,3
;   raftBaseLayers,2
;   raftOffset,3
;   raftSeparationDistance,0.18
;   raftTopInfill,100
;   aboveRaftSpeedMultiplier,0.3
;   useSkirt,1
;   skirtExtruder,0
;   skirtLayers,1
;   skirtOutlines,3
;   skirtOffset,4
;   usePrimePillar,0
;   primePillarExtruder,999
;   primePillarWidth,12
;   primePillarLocation,7
;   primePillarSpeedMultiplier,1
;   useOozeShield,0
;   oozeShieldExtruder,999
;   oozeShieldOffset,2
;   oozeShieldOutlines,1
;   oozeShieldSidewallShape,1
;   oozeShieldSidewallAngle,30
;   oozeShieldSpeedMultiplier,1
;   infillExtruder,0
;   internalInfillPattern,Fast Honeycomb
;   externalInfillPattern,Rectilinear
;   infillPercentage,20
;   outlineOverlapPercentage,25
;   infillExtrusionWidthPercentage,150
;   minInfillLength,5
;   infillLayerInterval,1
;   internalInfillAngles,0
;   overlapInternalInfillAngles,0
;   externalInfillAngles,45,-45
;   generateSupport,0
;   supportExtruder,0
;   supportInfillPercentage,30
;   supportExtraInflation,0
;   supportBaseLayers,1
;   denseSupportExtruder,0
;   denseSupportLayers,0
;   denseSupportInfillPercentage,70
;   supportLayerInterval,1
;   supportHorizontalPartOffset,0.3
;   supportUpperSeparationLayers,1
;   supportLowerSeparationLayers,1
;   supportType,0
;   supportGridSpacing,4
;   maxOverhangAngle,45
;   supportAngles,0
;   temperatureName,Extruder 1
;   temperatureNumber,0
;   temperatureSetpointCount,2
;   temperatureSetpointLayers,1,2
;   temperatureSetpointTemperatures,220,210
;   temperatureStabilizeAtStartup,1
;   temperatureHeatedBed,0
;   fanLayers,1,3,5
;   fanSpeeds,0,15,20
;   blipFanToFullPower,1
;   adjustSpeedForCooling,1
;   minSpeedLayerTime,15
;   minCoolingSpeedSlowdown,20
;   increaseFanForCooling,0
;   minFanLayerTime,45
;   maxCoolingFanSpeed,40
;   increaseFanForBridging,0
;   bridgingFanSpeed,80
;   use5D,1
;   relativeEdistances,0
;   allowEaxisZeroing,1
;   independentExtruderAxes,0
;   includeM10123,0
;   stickySupport,1
;   applyToolheadOffsets,0
;   gcodeXoffset,0
;   gcodeYoffset,0
;   gcodeZoffset,0
;   overrideMachineDefinition,1
;   machineTypeOverride,0
;   strokeXoverride,200
;   strokeYoverride,200
;   strokeZoverride,150
;   originOffsetXoverride,0
;   originOffsetYoverride,0
;   originOffsetZoverride,0
;   homeXdirOverride,-1
;   homeYdirOverride,-1
;   homeZdirOverride,-1
;   flipXoverride,1
;   flipYoverride,-1
;   flipZoverride,1
;   toolheadOffsets,0,0|0,0|0,0|0,0|0,0|0,0
;   overrideFirmwareConfiguration,1
;   firmwareTypeOverride,RepRap (Marlin/Repetier/Sprinter)
;   GPXconfigOverride,r2
;   baudRateOverride,115200
;   overridePrinterModels,0
;   printerModelsOverride
;   startingGcode,G28 ; home all axes,G32 ; run bed.g -- probe bed and enable compensation
;   layerChangeGcode,
;   retractionGcode,
;   toolChangeGcode,
;   endingGcode,M0 ; call stop.g
;   exportFileFormat,gcode
;   celebration,0
;   celebrationSong,Random Song
;   postProcessing,
;   defaultSpeed,3600
;   outlineUnderspeed,0.5
;   solidInfillUnderspeed,0.8
;   supportUnderspeed,0.8
;   rapidXYspeed,18000
;   rapidZspeed,1200
;   minBridgingArea,50
;   bridgingExtraInflation,0
;   bridgingExtrusionMultiplier,0.96
;   bridgingSpeedMultiplier,1
;   useFixedBridgingAngle,0
;   fixedBridgingAngle,0
;   applyBridgingToPerimeters,0
;   filamentDiameters,1.75|1.75|1.75|1.75|1.75|1.75
;   filamentPricesPerKg,46|46|46|46|46|46
;   filamentDensities,1.25|1.25|1.25|1.25|1.25|1.25
;   useMinPrintHeight,0
;   minPrintHeight,0
;   useMaxPrintHeight,0
;   maxPrintHeight,0
;   useDiaphragm,1
;   diaphragmLayerInterval,20
;   robustSlicing,1
;   mergeAllIntoSolid,0
;   onlyRetractWhenCrossingOutline,1
;   retractBetweenLayers,0
;   useRetractionMinTravel,1
;   retractionMinTravel,3
;   retractWhileWiping,1
;   onlyWipeOutlines,0
;   avoidCrossingOutline,1
;   maxMovementDetourFactor,3
;   toolChangeRetractionDistance,12
;   toolChangeExtraRestartDistance,-0.5
;   toolChangeRetractionSpeed,600
;   externalThinWallType,1
;   internalThinWallType,1
;   thinWallAllowedOverlapPercentage,10
;   singleExtrusionMinLength,1
;   singleExtrusionMinPrintingWidthPercentage,50
;   singleExtrusionMaxPrintingWidthPercentage,200
;   singleExtrusionEndpointExtension,0.2
;   horizontalSizeCompensation,-0.1
G90
M82
M106 S0
M104 S220 T0
M109 S220 T0
G28 ; home all axes
G32 ; run bed.g -- probe bed and enable compensation
; process Process1
; layer 1, Z = 0.200
T0
G92 E0.0000
G1 E-3.0000 F3600
; feature skirt
; tool H0.200 W0.720
G1 Z0.200 F1200
G1 X84.300 Y77.698 F18000
G1 E0.0000 F3600
G92 E0.0000
G1 X87.698 Y74.300 E0.2704 F1800
G1 X112.302 Y74.300 E1.6551
G1 X115.700 Y77.698 E1.9255
G1 X115.700 Y102.302 E3.3101
G1 X112.302 Y105.700 E3.5805
G1 X87.698 Y105.700 E4.9652
G1 X84.300 Y102.302 E5.2356
G1 X84.300 Y77.698 E6.6203
G1 X85.020 Y77.996 F18000
G92 E0.0000
G1 X87.996 Y75.020 E0.2368 F1800
G1 X112.004 Y75.020 E1.5879
G1 X114.980 Y77.996 E1.8248
G1 X114.980 Y102.004 E3.1759
G1 X112.004 Y104.980 E3.4127
G1 X87.996 Y104.980 E4.7638
G1 X85.020 Y102.004 E5.0006
G1 X85.020 Y77.996 E6.3517
G1 X85.740 Y78.294 F18000
G92 E0.0000
G1 X88.294 Y75.740 E0.2033 F1800
G1 X111.706 Y75.740 E1.5208
G1 X114.260 Y78.294 E1.7241
G1 X114.260 Y101.706 E3.0416
G1 X111.706 Y104.260 E3.2449
G1 X88.294 Y104.260 E4.5624
G1 X85.740 Y101.706 E4.7657
G1 X85.740 Y78.294 E6.0832
G92 E0.0000
G1 E-3.0000 F3600
; feature inner perimeter
G1 X90.460 Y80.460 F18000
G1 X90.460 Y81.057
G1 X91.900 Y81.900
G1 E0.0000 F3600
G92 E0.0000
G1 X108.100 Y81.900 E0.9117 F1350
G1 X108.100 Y98.100 E1.8233
G1 X91.900 Y98.100 E2.7350
G1 X91.900 Y82.100 E3.6354
G1 X91.900 Y81.900 F1350
G1 X96.900 Y81.900 F1350
G1 X91.180 Y81.180 F18000
G92 E0.0000
G1 X108.820 Y81.180 E0.9927 F1350
G1 X108.820 Y98.820 E1.9854
G1 X91.180 Y98.820 E2.9781
G1 X91.180 Y81.380 E3.9596
G1 X91.180 Y81.180 F1350
G1 X96.180 Y81.180 F1350
; feature outer perimeter
G1 X90.460 Y80.460 F18000
G92 E0.0000
G1 X109.540 Y80.460 E1.0737 F900
G1 X109.540 Y99.540 E2.1475
G1 X90.460 Y99.540 E3.2212
G1 X90.460 Y80.660 E4.2837
G1 X90.460 Y80.460 F900
G1 X95.460 Y80.460 F900
; feature solid layer
G1 X106.695 Y82.440 F18000
G92 E0.0000
G1 X107.560 Y83.305 E0.0688 F1440
G1 X107.560 Y84.323 E0.1261
G1 X105.677 Y82.440 E0.2760
G1 X104.659 Y82.440 E0.3333
G1 X107.560 Y85.341 E0.5642
G1 X107.560 Y86.359 E0.6215
G1 X103.641 Y82.440 E0.9334
G1 X102.622 Y82.440 E0.9907
G1 X107.560 Y87.378 E1.3837
G1 X107.560 Y88.396 E1.4410
G1 X101.604 Y82.440 E1.9150
G1 X100.586 Y82.440 E1.9723
G1 X107.560 Y89.414 E2.5273
G1 X107.560 Y90.432 E2.5846
G1 X99.568 Y82.440 E3.2207
G1 X98.549 Y82.440 E3.2780
G1 X107.560 Y91.451 E3.9952
G1 X107.560 Y92.469 E4.0525
G1 X97.531 Y82.440 E4.8506
G1 X96.513 Y82.440 E4.9079
G1 X107.560 Y93.487 E5.7871
G1 X107.560 Y94.505 E5.8444
G1 X95.495 Y82.440 E6.8046
G1 X94.476 Y82.440 E6.8619
G1 X107.560 Y95.524 E7.9032
G1 X107.560 Y96.542 E7.9605
G1 X93.458 Y82.440 E9.0828
G1 X92.440 Y82.440 E9.1401
G1 X107.560 Y97.560 E10.3435
G1 X106.542 Y97.560 E10.4008
G1 X92.440 Y83.458 E11.5231
G1 X92.440 Y84.476 E11.5804
G1 X105.524 Y97.560 E12.6217
G1 X104.505 Y97.560 E12.6790
G1 X92.440 Y85.495 E13.6392
G1 X92.440 Y86.513 E13.6965
G1 X103.487 Y97.560 E14.5757
G1 X102.469 Y97.560 E14.6330
G1 X92.440 Y87.531 E15.4312
G1 X92.440 Y88.549 E15.4885
G1 X101.451 Y97.560 E16.2056
G1 X100.432 Y97.560 E16.2629
G1 X92.440 Y89.568 E16.8990
G1 X92.440 Y90.586 E16.9563
G1 X99.414 Y97.560 E17.5113
G1 X98.396 Y97.560 E17.5686
G1 X92.440 Y91.604 E18.0426
G1 X92.440 Y92.622 E18.0999
G1 X97.378 Y97.560 E18.4929
G1 X96.359 Y97.560 E18.5502
G1 X92.440 Y93.641 E18.8622
G1 X92.440 Y94.659 E18.9195
G1 X95.341 Y97.560 E19.1504
G1 X94.323 Y97.560 E19.2077
G1 X92.440 Y95.677 E19.3575
G1 X92.440 Y96.695 E19.4148
G1 X93.163 Y97.419 E19.4724
G1 X93.305 Y97.560 F1440
G1 X92.440 Y96.695 F1440
G1 X92.440 Y95.677
G1 X94.323 Y97.560
G1 X94.419 Y97.560
; layer 2, Z = 0.400
M104 S210 T0
; feature inner perimeter
; tool H0.200 W0.480
G1 Z0.400 F1200
G1 X91.300 Y98.700 F18000
G92 E0.0000
G1 X91.300 Y81.300 E0.6528 F2700
G1 X108.700 Y81.300 E1.3056
G1 X108.700 Y98.700 E1.9584
G1 X91.500 Y98.700 E2.6037
G1 X91.300 Y98.700 F2700
G1 X91.300 Y93.700 F2700
G1 X90.820 Y99.180 F18000
G92 E0.0000
G1 X90.820 Y80.820 E0.6888 F2700
G1 X109.180 Y80.820 E1.3776
G1 X109.180 Y99.180 E2.0665
G1 X91.020 Y99.180 E2.7478
G1 X90.820 Y99.180 F2700
G1 X90.820 Y94.180 F2700
; feature outer perimeter
G1 X90.340 Y99.660 F18000
G92 E0.0000
G1 X90.340 Y80.340 E0.7248 F1800
G1 X109.660 Y80.340 E1.4497
G1 X109.660 Y99.660 E2.1745
G1 X90.540 Y99.660 E2.8918
G1 X90.340 Y99.660 F1800
G1 X90.340 Y94.660 F1800
; feature solid layer
G1 X91.660 Y82.048 F18000
G92 E0.0000
G1 X92.048 Y81.660 E0.0206 F2880
G1 X92.727 Y81.660 E0.0461
G1 X91.660 Y82.727 E0.1027
G1 X91.660 Y83.406 E0.1282
G1 X93.406 Y81.660 E0.2208
G1 X94.085 Y81.660 E0.2463
G1 X91.660 Y84.085 E0.3749
G1 X91.660 Y84.764 E0.4004
G1 X94.764 Y81.660 E0.5650
G1 X95.442 Y81.660 E0.5905
G1 X91.660 Y85.442 E0.7912
G1 X91.660 Y86.121 E0.8167
G1 X96.121 Y81.660 E1.0534
G1 X96.800 Y81.660 E1.0788
G1 X91.660 Y86.800 E1.3516
G1 X91.660 Y87.479 E1.3770
G1 X97.479 Y81.660 E1.6858
G1 X98.158 Y81.660 E1.7112
G1 X91.660 Y88.158 E2.0560
G1 X91.660 Y88.837 E2.0814
G1 X98.837 Y81.660 E2.4622
G1 X99.515 Y81.660 E2.4877
G1 X91.660 Y89.515 E2.9045
G1 X91.660 Y90.194 E2.9299
G1 X100.194 Y81.660 E3.3827
G1 X100.873 Y81.660 E3.4082
G1 X91.660 Y90.873 E3.8970
G1 X91.660 Y91.552 E3.9225
G1 X101.552 Y81.660 E4.4473
G1 X102.231 Y81.660 E4.4728
G1 X91.660 Y92.231 E5.0337
G1 X91.660 Y92.909 E5.0591
G1 X102.909 Y81.660 E5.6560
G1 X103.588 Y81.660 E5.6815
G1 X91.660 Y93.588 E6.3143
G1 X91.660 Y94.267 E6.3398
G1 X104.267 Y81.660 E7.0087
G1 X104.946 Y81.660 E7.0342
G1 X91.660 Y94.946 E7.7391
G1 X91.660 Y95.625 E7.7646
G1 X105.625 Y81.660 E8.5055
G1 X106.304 Y81.660 E8.5310
G1 X91.660 Y96.304 E9.3079
G1 X91.660 Y96.982 E9.3334
G1 X106.982 Y81.660 E10.1464
G1 X107.661 Y81.660 E10.1718
G1 X91.660 Y97.661 E11.0208
G1 X91.660 Y98.340 E11.0463
G1 X108.340 Y81.660 E11.9313
G1 X108.340 Y82.339 E11.9568
G1 X92.339 Y98.340 E12.8057
G1 X93.018 Y98.340 E12.8312
G1 X108.340 Y83.018 E13.6442
G1 X108.340 Y83.697 E13.6696
G1 X93.697 Y98.340 E14.4466
G1 X94.375 Y98.340 E14.4721
G1 X108.340 Y84.375 E15.2130
G1 X108.340 Y85.054 E15.2385
G1 X95.054 Y98.340 E15.9434
G1 X95.733 Y98.340 E15.9688
G1 X108.340 Y85.733 E16.6377
G1 X108.340 Y86.412 E16.6632
G1 X96.412 Y98.340 E17.2961
G1 X97.091 Y98.340 E17.3216
G1 X108.340 Y87.091 E17.9184
G1 X108.340 Y87.769 E17.9439
G1 X97.769 Y98.340 E18.5047
G1 X98.448 Y98.340 E18.5302
G1 X108.340 Y88.448 E19.0550
G1 X108.340 Y89.127 E19.0805
G1 X99.127 Y98.340 E19.5693
G1 X99.806 Y98.340 E19.5948
G1 X108.340 Y89.806 E20.0476
G1 X108.340 Y90.485 E20.0731
G1 X100.485 Y98.340 E20.4898
G1 X101.164 Y98.340 E20.5153
G1 X108.340 Y91.164 E20.8961
G1 X108.340 Y91.842 E20.9215
G1 X101.842 Y98.340 E21.2663
G1 X102.521 Y98.340 E21.2918
G1 X108.340 Y92.521 E21.6005
G1 X108.340 Y93.200 E21.6260
G1 X103.200 Y98.340 E21.8987
G1 X103.879 Y98.340 E21.9241
G1 X108.340 Y93.879 E22.1608
G1 X108.340 Y94.558 E22.1863
G1 X104.558 Y98.340 E22.3870
G1 X105.236 Y98.340 E22.4125
G1 X108.340 Y95.236 E22.5771
G1 X108.340 Y95.915 E22.6026
G1 X105.915 Y98.340 E22.7312
G1 X106.594 Y98.340 E22.7567
G1 X108.340 Y96.594 E22.8493
G1 X108.340 Y97.273 E22.8748
G1 X107.273 Y98.340 E22.9314
G1 X107.952 Y98.340 E22.9569
G1 X108.199 Y98.093 E22.9700
G1 X108.340 Y97.952 F2880
G1 X107.952 Y98.340 F2880
G1 X107.273 Y98.340
G1 X108.340 Y97.273
G1 X108.340 Y96.594
G1 X107.220 Y97.714
; layer 3, Z = 0.600
M106 S255
G4 P500
M106 S38
; feature inner perimeter
G1 Z0.600 F1200
G1 X108.700 Y98.700 F18000
G92 E0.0000
G1 X91.300 Y98.700 E0.6528 F2700
G1 X91.300 Y81.300 E1.3056
G1 X108.700 Y81.300 E1.9584
G1 X108.700 Y98.500 E2.6037
G1 X108.700 Y98.700 F2700
G1 X103.700 Y98.700 F2700
G1 X109.180 Y99.180 F18000
G92 E0.0000
G1 X90.820 Y99.180 E0.6888 F2700
G1 X90.820 Y80.820 E1.3776
G1 X109.180 Y80.820 E2.0665
G1 X109.180 Y98.980 E2.7478
G1 X109.180 Y99.180 F2700
G1 X104.180 Y99.180 F2700
; feature outer perimeter
G1 X109.660 Y99.660 F18000
G92 E0.0000
G1 X90.340 Y99.660 E0.7248 F1800
G1 X90.340 Y80.340 E1.4497
G1 X109.660 Y80.340 E2.1745
G1 X109.660 Y99.460 E2.8918
G1 X109.660 Y99.660 F1800
G1 X104.660 Y99.660 F1800
; feature solid layer
G1 X92.048 Y98.340 F18000
G92 E0.0000
G1 X91.660 Y97.952 E0.0206 F2880
G1 X91.660 Y97.273 E0.0461
G1 X92.727 Y98.340 E0.1027
G1 X93.406 Y98.340 E0.1282
G1 X91.660 Y96.594 E0.2208
G1 X91.660 Y95.915 E0.2463
G1 X94.085 Y98.340 E0.3749
G1 X94.764 Y98.340 E0.4004
G1 X91.660 Y95.236 E0.5650
G1 X91.660 Y94.558 E0.5905
G1 X95.442 Y98.340 E0.7912
G1 X96.121 Y98.340 E0.8167
G1 X91.660 Y93.879 E1.0534
G1 X91.660 Y93.200 E1.0788
G1 X96.800 Y98.340 E1.3515
G1 X97.479 Y98.340 E1.3770
G1 X91.660 Y92.521 E1.6858
G1 X91.660 Y91.842 E1.7112
G1 X98.158 Y98.340 E2.0560
G1 X98.836 Y98.340 E2.0814
G1 X91.660 Y91.164 E2.4622
G1 X91.660 Y90.485 E2.4877
G1 X99.515 Y98.340 E2.9045
G1 X100.194 Y98.340 E2.9299
G1 X91.660 Y89.806 E3.3827
G1 X91.660 Y89.127 E3.4082
G1 X100.873 Y98.340 E3.8970
G1 X101.552 Y98.340 E3.9225
G1 X91.660 Y88.448 E4.4473
G1 X91.660 Y87.769 E4.4728
G1 X102.231 Y98.340 E5.0336
G1 X102.909 Y98.340 E5.0591
G1 X91.660 Y87.091 E5.6560
G1 X91.660 Y86.412 E5.6814
G1 X103.588 Y98.340 E6.3143
G1 X104.267 Y98.340 E6.3398
G1 X91.660 Y85.733 E7.0087
G1 X91.660 Y85.054 E7.0342
G1 X104.946 Y98.340 E7.7391
G1 X105.625 Y98.340 E7.7645
G1 X91.660 Y84.375 E8.5055
G1 X91.660 Y83.696 E8.5310
G1 X106.304 Y98.340 E9.3079
G1 X106.982 Y98.340 E9.3334
G1 X91.660 Y83.018 E10.1463
G1 X91.660 Y82.339 E10.1718
G1 X107.661 Y98.340 E11.0208
G1 X108.340 Y98.340 E11.0463
G1 X91.660 Y81.660 E11.9313
G1 X92.339 Y81.660 E11.9567
G1 X108.340 Y97.661 E12.8057
G1 X108.340 Y96.982 E12.8312
G1 X93.018 Y81.660 E13.6442
G1 X93.696 Y81.660 E13.6696
G1 X108.340 Y96.304 E14.4466
G1 X108.340 Y95.625 E14.4720
G1 X94.375 Y81.660 E15.2130
G1 X95.054 Y81.660 E15.2384
G1 X108.340 Y94.946 E15.9434
G1 X108.340 Y94.267 E15.9688
G1 X95.733 Y81.660 E16.6377
G1 X96.412 Y81.660 E16.6632
G1 X108.340 Y93.588 E17.2961
G1 X108.340 Y92.909 E17.3215
G1 X97.091 Y81.660 E17.9184
G1 X97.769 Y81.660 E17.9439
G1 X108.340 Y92.231 E18.5047
G1 X108.340 Y91.552 E18.5302
G1 X98.448 Y81.660 E19.0550
G1 X99.127 Y81.660 E19.0805
G1 X108.340 Y90.873 E19.5693
G1 X108.340 Y90.194 E19.5948
G1 X99.806 Y81.660 E20.0476
G1 X100.485 Y81.660 E20.0731
G1 X108.340 Y89.515 E20.4898
G1 X108.340 Y88.836 E20.5153
G1 X101.164 Y81.660 E20.8961
G1 X101.842 Y81.660 E20.9215
G1 X108.340 Y88.158 E21.2663
G1 X108.340 Y87.479 E21.2918
G1 X102.521 Y81.660 E21.6005
G1 X103.200 Y81.660 E21.6260
G1 X108.340 Y86.800 E21.8987
G1 X108.340 Y86.121 E21.9241
G1 X103.879 Y81.660 E22.1608
G1 X104.558 Y81.660 E22.1863
G1 X108.340 Y85.442 E22.3870
G1 X108.340 Y84.764 E22.4125
G1 X105.236 Y81.660 E22.5771
G1 X105.915 Y81.660 E22.6026
G1 X108.340 Y84.085 E22.7312
G1 X108.340 Y83.406 E22.7567
