; G-Code generated by Simplify3D(R) Version 4.1.2
; Apr 4, 2021 at 10:30:59 PM
; Settings Summary
;   processName,V6
;   applyToModels,Visor
;   profileName,HBot (modified)
;   profileVersion,2021-04-01 14:49:35
;   baseProfile,Default
;   printMaterial,PLA - ERYONE
;   printQuality,High
;   printExtruders,
;   extruderName,Extruder 1,Extruder 2 - support
;   extruderToolheadNumber,0,1
;   extruderDiameter,0.4,0.4
;   extruderAutoWidth,1,1
;   extruderWidth,0.48,0.48
;   extrusionMultiplier,1,1
;   extruderUseRetract,1,1
;   extruderRetractionDistance,3,1
;   extruderExtraRestartDistance,0,0
;   extruderRetractionZLift,0,0
;   extruderRetractionSpeed,5400,1800
;   extruderUseCoasting,1,1
;   extruderCoastingDistance,0.2,0.2
;   extruderUseWipe,1,1
;   extruderWipeDistance,2,5
;   primaryExtruder,0
;   layerHeight,0.1
;   topSolidLayers,5
;   bottomSolidLayers,5
;   perimeterOutlines,4
;   printPerimetersInsideOut,1
;   startPointOption,3
;   startPointOriginX,110
;   startPointOriginY,300
;   sequentialIslands,0
;   spiralVaseMode,0
;   firstLayerHeightPercentage,100
;   firstLayerWidthPercentage,100
;   firstLayerUnderspeed,0.5
;   useRaft,0
;   raftExtruder,0
;   raftTopLayers,3
;   raftBaseLayers,2
;   raftOffset,3
;   raftSeparationDistance,0.18
;   raftTopInfill,100
;   aboveRaftSpeedMultiplier,0.3
;   useSkirt,1
;   skirtExtruder,0
;   skirtLayers,1
;   skirtOutlines,3
;   skirtOffset,10
;   usePrimePillar,0
;   primePillarExtruder,999
;   primePillarWidth,12
;   primePillarLocation,7
;   primePillarSpeedMultiplier,1
;   useOozeShield,0
;   oozeShieldExtruder,0
;   oozeShieldOffset,0.9
;   oozeShieldOutlines,2
;   oozeShieldSidewallShape,0
;   oozeShieldSidewallAngle,30
;   oozeShieldSpeedMultiplier,1.5
;   infillExtruder,0
;   internalInfillPattern,Fast Honeycomb
;   externalInfillPattern,Rectilinear
;   infillPercentage,30
;   outlineOverlapPercentage,25
;   infillExtrusionWidthPercentage,100
;   minInfillLength,5
;   infillLayerInterval,1
;   internalInfillAngles,0
;   overlapInternalInfillAngles,0
;   externalInfillAngles,45,-45
;   generateSupport,0
;   supportExtruder,0
;   supportInfillPercentage,40
;   supportExtraInflation,0
;   supportBaseLayers,1
;   denseSupportExtruder,1
;   denseSupportLayers,10
;   denseSupportInfillPercentage,100
;   supportLayerInterval,1
;   supportHorizontalPartOffset,0
;   supportUpperSeparationLayers,0
;   supportLowerSeparationLayers,0
;   supportType,0
;   supportGridSpacing,2
;   maxOverhangAngle,25
;   supportAngles,0
;   temperatureName,Extruder 1,Heated Bed,Extruder 2 - support
;   temperatureNumber,0,1,1
;   temperatureSetpointCount,2,1,1
;   temperatureSetpointLayers,1,2,1,1
;   temperatureSetpointTemperatures,215,215,65,0
;   temperatureStabilizeAtStartup,1,1,1
;   temperatureHeatedBed,0,1,0
;   fanLayers,1,3,10
;   fanSpeeds,0,65,75
;   blipFanToFullPower,1
;   adjustSpeedForCooling,0
;   minSpeedLayerTime,15
;   minCoolingSpeedSlowdown,20
;   increaseFanForCooling,1
;   minFanLayerTime,15
;   maxCoolingFanSpeed,100
;   increaseFanForBridging,1
;   bridgingFanSpeed,100
;   use5D,1
;   relativeEdistances,0
;   allowEaxisZeroing,1
;   independentExtruderAxes,0
;   includeM10123,0
;   stickySupport,1
;   applyToolheadOffsets,0
;   gcodeXoffset,0
;   gcodeYoffset,0
;   gcodeZoffset,0
;   overrideMachineDefinition,1
;   machineTypeOverride,0
;   strokeXoverride,210
;   strokeYoverride,210
;   strokeZoverride,150
;   originOffsetXoverride,0
;   originOffsetYoverride,0
;   originOffsetZoverride,0
;   homeXdirOverride,1
;   homeYdirOverride,-1
;   homeZdirOverride,-1
;   flipXoverride,1
;   flipYoverride,-1
;   flipZoverride,1
;   toolheadOffsets,0,0|0,0|0,0|0,0|0,0|0,0
;   overrideFirmwareConfiguration,0
;   firmwareTypeOverride,RepRap (Marlin/Repetier/Sprinter)
;   GPXconfigOverride,r2
;   baudRateOverride,115200
;   overridePrinterModels,0
;   printerModelsOverride
;   startingGcode,;G28 is now included in bed.g G28 ; home all axes,G32 ; run bed.g -- probe bed and enable compensation
;   layerChangeGcode,
;   retractionGcode,
;   toolChangeGcode,
;   endingGcode,M0 ; call stop.g
;   exportFileFormat,gcode
;   celebration,0
;   celebrationSong,Random Song
;   postProcessing,
;   defaultSpeed,3600
;   outlineUnderspeed,0.5
;   solidInfillUnderspeed,0.8
;   supportUnderspeed,0.8
;   rapidXYspeed,18000
;   rapidZspeed,1200
;   minBridgingArea,50
;   bridgingExtraInflation,0
;   bridgingExtrusionMultiplier,0.96
;   bridgingSpeedMultiplier,1
;   useFixedBridgingAngle,0
;   fixedBridgingAngle,0
;   applyBridgingToPerimeters,0
;   filamentDiameters,1.75|1.75|1.75|1.75|1.75|1.75
;   filamentPricesPerKg,46|46|46|46|46|46
;   filamentDensities,1.25|1.25|1.25|1.25|1.25|1.25
;   useMinPrintHeight,0
;   minPrintHeight,0
;   useMaxPrintHeight,0
;   maxPrintHeight,11.59
;   useDiaphragm,0
;   diaphragmLayerInterval,20
;   robustSlicing,1
;   mergeAllIntoSolid,0
;   onlyRetractWhenCrossingOutline,1
;   retractBetweenLayers,0
;   useRetractionMinTravel,1
;   retractionMinTravel,3
;   retractWhileWiping,1
;   onlyWipeOutlines,1
;   avoidCrossingOutline,1
;   maxMovementDetourFactor,5
;   toolChangeRetractionDistance,7.5
;   toolChangeExtraRestartDistance,0
;   toolChangeRetractionSpeed,600
;   externalThinWallType,1
;   internalThinWallType,1
;   thinWallAllowedOverlapPercentage,10
;   singleExtrusionMinLength,1
;   singleExtrusionMinPrintingWidthPercentage,50
;   singleExtrusionMaxPrintingWidthPercentage,150
;   singleExtrusionEndpointExtension,0.2
;   horizontalSizeCompensation,0
G90
M82
M106 S0
M140 S65
M190 S65
G10 P0 S215 R{215-50}
G10 P1 S0 R{0-50}
M116 P0
;G28 is now included in bed.g G28 ; home all axes
G32 ; run bed.g -- probe bed and enable compensation
; process V6
; layer 1, Z = 0.100
T0
G92 E0.0000
G1 E-3.0000 F5400
; feature skirt
; tool H0.100 W0.480
G1 Z0.100 F1200
G1 X104.613 Y127.536 F18000
G1 E0.0000 F5400
G92 E0.0000
G1 X103.603 Y127.499 E0.0202 F1800
G1 X102.860 Y127.422 E0.0351
G1 X101.376 Y127.168 E0.0651
G1 X100.594 Y126.976 E0.0812
G1 X99.268 Y126.546 E0.1090
G1 X98.287 Y126.121 E0.1303
G1 X96.752 Y125.274 E0.1653
G1 X95.791 Y124.604 E0.1887
G1 X94.653 Y123.619 E0.2187
G1 X94.070 Y123.034 E0.2352
G1 X93.131 Y121.942 E0.2640
G1 X92.530 Y121.096 E0.2847
G1 X91.836 Y119.898 E0.3123
G1 X91.511 Y119.240 E0.3270
G1 X91.043 Y118.114 E0.3513
G1 X90.845 Y117.557 E0.3631
G1 X90.433 Y116.168 E0.3920
G1 X90.320 Y115.721 E0.4012
G1 X90.097 Y114.651 E0.4230
G1 X90.035 Y114.300 E0.4301
G1 X89.754 Y112.342 E0.4696
G1 X89.718 Y112.019 E0.4761
G1 X89.476 Y109.166 E0.5332
G1 X89.459 Y108.872 E0.5391
G1 X89.379 Y106.375 E0.5890
G1 X89.377 Y106.158 E0.5933
G1 X89.402 Y102.499 E0.6663
G1 X89.410 Y102.233 E0.6716
G1 X89.545 Y99.761 E0.7210
G1 X89.570 Y99.456 E0.7271
G1 X89.857 Y96.825 E0.7799
G1 X89.895 Y96.546 E0.7856
G1 X90.073 Y95.442 E0.8079
G1 X90.158 Y95.019 E0.8165
G1 X90.589 Y93.228 E0.8533
G1 X90.771 Y92.625 E0.8658
G1 X91.177 Y91.509 E0.8895
G1 X91.404 Y90.973 E0.9011
G1 X91.959 Y89.832 E0.9265
G1 X92.426 Y89.043 E0.9448
G1 X93.247 Y87.884 E0.9731
G1 X93.852 Y87.166 E0.9918
G1 X94.843 Y86.171 E1.0199
G1 X95.465 Y85.632 E1.0363
G1 X96.667 Y84.737 E1.0662
G1 X97.735 Y84.112 E1.0909
G1 X99.366 Y83.385 E1.1265
G1 X100.379 Y83.045 E1.1479
G1 X102.128 Y82.638 E1.1837
G1 X103.200 Y82.496 E1.2053
G1 X105.038 Y82.430 E1.2420
G1 X106.205 Y82.511 E1.2653
G1 X107.905 Y82.808 E1.2998
G1 X108.664 Y82.997 E1.3154
G1 X109.646 Y83.314 E1.3359
G1 X110.356 Y83.599 E1.3512
G1 X111.648 Y84.222 E1.3798
G1 X112.468 Y84.707 E1.3989
G1 X113.793 Y85.652 E1.4313
G1 X114.478 Y86.228 E1.4492
G1 X115.623 Y87.359 E1.4813
G1 X116.175 Y87.993 E1.4981
G1 X116.807 Y88.839 E1.5192
G1 X117.111 Y89.290 E1.5300
G1 X117.617 Y90.126 E1.5495
G1 X117.925 Y90.710 E1.5627
G1 X118.498 Y91.971 E1.5903
G1 X118.685 Y92.437 E1.6004
G1 X118.977 Y93.273 E1.6180
G1 X119.096 Y93.655 E1.6260
G1 X119.450 Y94.959 E1.6530
G1 X119.543 Y95.358 E1.6612
G1 X119.819 Y96.783 E1.6901
G1 X119.873 Y97.112 E1.6968
G1 X120.149 Y99.184 E1.7385
G1 X120.180 Y99.479 E1.7444
G1 X120.337 Y101.449 E1.7838
G1 X120.352 Y101.707 E1.7890
G1 X120.414 Y103.590 E1.8266
G1 X120.417 Y103.776 E1.8303
G1 X120.417 Y106.197 E1.8786
G1 X120.414 Y106.383 E1.8823
G1 X120.351 Y108.266 E1.9199
G1 X120.337 Y108.523 E1.9251
G1 X120.182 Y110.467 E1.9640
G1 X120.158 Y110.707 E1.9688
G1 X119.979 Y112.163 E1.9981
G1 X119.932 Y112.471 E2.0043
G1 X119.576 Y114.450 E2.0444
G1 X119.497 Y114.816 E2.0519
G1 X119.288 Y115.650 E2.0691
G1 X119.186 Y116.009 E2.0765
G1 X118.788 Y117.245 E2.1024
G1 X118.630 Y117.672 E2.1115
G1 X118.269 Y118.543 E2.1303
G1 X118.006 Y119.092 E2.1424
G1 X117.306 Y120.369 E2.1715
G1 X116.885 Y121.023 E2.1870
G1 X116.258 Y121.865 E2.2080
G1 X115.878 Y122.322 E2.2199
G1 X115.186 Y123.070 E2.2402
G1 X114.677 Y123.555 E2.2542
G1 X113.590 Y124.468 E2.2825
G1 X113.053 Y124.867 E2.2959
G1 X112.181 Y125.437 E2.3167
G1 X111.549 Y125.794 E2.3312
G1 X110.264 Y126.414 E2.3596
G1 X109.349 Y126.761 E2.3792
G1 X107.935 Y127.159 E2.4085
G1 X107.005 Y127.339 E2.4274
G1 X105.408 Y127.508 E2.4594
G1 X104.613 Y127.536 E2.4753
G1 X104.613 Y127.056 F18000
G92 E0.0000
G1 X103.637 Y127.020 E0.0195 F1800
G1 X102.925 Y126.947 E0.0338
G1 X101.474 Y126.698 E0.0631
G1 X100.726 Y126.514 E0.0785
G1 X99.437 Y126.096 E0.1056
G1 X98.499 Y125.690 E0.1260
G1 X97.006 Y124.866 E0.1600
G1 X96.086 Y124.225 E0.1824
G1 X94.980 Y123.268 E0.2116
G1 X94.422 Y122.708 E0.2273
G1 X93.509 Y121.646 E0.2553
G1 X92.934 Y120.836 E0.2751
G1 X92.259 Y119.671 E0.3020
G1 X91.948 Y119.041 E0.3160
G1 X91.491 Y117.941 E0.3398
G1 X91.302 Y117.408 E0.3510
G1 X90.896 Y116.041 E0.3795
G1 X90.788 Y115.613 E0.3883
G1 X90.568 Y114.560 E0.4098
G1 X90.509 Y114.224 E0.4166
G1 X90.230 Y112.281 E0.4558
G1 X90.195 Y111.972 E0.4620
G1 X89.955 Y109.132 E0.5189
G1 X89.938 Y108.850 E0.5245
G1 X89.859 Y106.364 E0.5741
G1 X89.857 Y106.157 E0.5783
G1 X89.882 Y102.508 E0.6511
G1 X89.890 Y102.254 E0.6562
G1 X90.024 Y99.793 E0.7053
G1 X90.047 Y99.501 E0.7112
G1 X90.334 Y96.884 E0.7637
G1 X90.370 Y96.616 E0.7691
G1 X90.545 Y95.527 E0.7911
G1 X90.626 Y95.122 E0.7994
G1 X91.053 Y93.353 E0.8357
G1 X91.226 Y92.777 E0.8477
G1 X91.624 Y91.685 E0.8709
G1 X91.841 Y91.172 E0.8820
G1 X92.382 Y90.059 E0.9067
G1 X92.829 Y89.304 E0.9242
G1 X93.627 Y88.178 E0.9517
G1 X94.206 Y87.490 E0.9697
G1 X95.171 Y86.522 E0.9969
G1 X95.766 Y86.007 E1.0127
G1 X96.933 Y85.138 E1.0417
G1 X97.954 Y84.540 E1.0653
G1 X99.540 Y83.833 E1.1000
G1 X100.510 Y83.507 E1.1204
G1 X102.214 Y83.111 E1.1553
G1 X103.240 Y82.975 E1.1760
G1 X105.030 Y82.911 E1.2117
G1 X106.147 Y82.988 E1.2340
G1 X107.806 Y83.278 E1.2677
G1 X108.533 Y83.458 E1.2826
G1 X109.483 Y83.766 E1.3025
G1 X110.162 Y84.038 E1.3171
G1 X111.421 Y84.645 E1.3450
G1 X112.206 Y85.110 E1.3632
G1 X113.498 Y86.031 E1.3949
G1 X114.155 Y86.583 E1.4120
G1 X115.273 Y87.688 E1.4434
G1 X115.801 Y88.294 E1.4594
G1 X116.415 Y89.117 E1.4799
G1 X116.706 Y89.548 E1.4903
G1 X117.199 Y90.362 E1.5093
G1 X117.494 Y90.922 E1.5219
G1 X118.056 Y92.159 E1.5490
G1 X118.235 Y92.606 E1.5586
G1 X118.521 Y93.423 E1.5759
G1 X118.635 Y93.790 E1.5836
G1 X118.984 Y95.076 E1.6102
G1 X119.073 Y95.459 E1.6180
G1 X119.347 Y96.868 E1.6467
G1 X119.398 Y97.182 E1.6530
G1 X119.672 Y99.241 E1.6945
G1 X119.702 Y99.523 E1.7001
G1 X119.858 Y101.481 E1.7393
G1 X119.872 Y101.728 E1.7443
G1 X119.934 Y103.602 E1.7817
G1 X119.937 Y103.780 E1.7852
G1 X119.937 Y106.193 E1.8334
G1 X119.934 Y106.371 E1.8369
G1 X119.872 Y108.244 E1.8743
G1 X119.858 Y108.491 E1.8793
G1 X119.704 Y110.424 E1.9180
G1 X119.681 Y110.653 E1.9226
G1 X119.503 Y112.098 E1.9516
G1 X119.458 Y112.393 E1.9576
G1 X119.105 Y114.357 E1.9974
G1 X119.029 Y114.707 E2.0045
G1 X118.824 Y115.526 E2.0214
G1 X118.726 Y115.869 E2.0285
G1 X118.334 Y117.088 E2.0541
G1 X118.183 Y117.497 E2.0628
G1 X117.831 Y118.347 E2.0811
G1 X117.579 Y118.872 E2.0927
G1 X116.893 Y120.123 E2.1212
G1 X116.491 Y120.749 E2.1361
G1 X115.881 Y121.568 E2.1564
G1 X115.517 Y122.005 E2.1678
G1 X114.844 Y122.733 E2.1876
G1 X114.356 Y123.197 E2.2010
G1 X113.292 Y124.091 E2.2287
G1 X112.778 Y124.473 E2.2415
G1 X111.932 Y125.027 E2.2617
G1 X111.327 Y125.368 E2.2756
G1 X110.075 Y125.972 E2.3033
G1 X109.199 Y126.304 E2.3220
G1 X107.824 Y126.692 E2.3505
G1 X106.934 Y126.863 E2.3686
G1 X105.375 Y127.029 E2.3999
G1 X104.613 Y127.056 E2.4151
G1 X104.614 Y126.575 F18000
G92 E0.0000
G1 X103.670 Y126.541 E0.0188 F1800
G1 X102.990 Y126.471 E0.0325
G1 X101.572 Y126.228 E0.0612
G1 X100.857 Y126.052 E0.0759
G1 X99.607 Y125.647 E0.1021
G1 X98.711 Y125.258 E0.1216
G1 X97.260 Y124.458 E0.1547
G1 X96.381 Y123.845 E0.1761
G1 X95.308 Y122.917 E0.2044
G1 X94.775 Y122.382 E0.2194
G1 X93.888 Y121.350 E0.2466
G1 X93.338 Y120.576 E0.2655
G1 X92.683 Y119.444 E0.2916
G1 X92.385 Y118.842 E0.3050
G1 X91.939 Y117.769 E0.3282
G1 X91.758 Y117.260 E0.3390
G1 X91.359 Y115.914 E0.3670
G1 X91.256 Y115.505 E0.3754
G1 X91.040 Y114.469 E0.3966
G1 X90.983 Y114.149 E0.4031
G1 X90.707 Y112.220 E0.4419
G1 X90.673 Y111.925 E0.4479
G1 X90.434 Y109.098 E0.5045
G1 X90.418 Y108.829 E0.5099
G1 X90.339 Y106.354 E0.5593
G1 X90.337 Y106.155 E0.5632
G1 X90.362 Y102.517 E0.6359
G1 X90.369 Y102.274 E0.6407
G1 X90.503 Y99.826 E0.6896
G1 X90.525 Y99.547 E0.6952
G1 X90.810 Y96.942 E0.7475
G1 X90.845 Y96.686 E0.7527
G1 X91.018 Y95.613 E0.7744
G1 X91.095 Y95.226 E0.7822
G1 X91.516 Y93.479 E0.8181
G1 X91.682 Y92.928 E0.8296
G1 X92.070 Y91.860 E0.8522
G1 X92.278 Y91.370 E0.8629
G1 X92.805 Y90.287 E0.8869
G1 X93.232 Y89.566 E0.9036
G1 X94.007 Y88.472 E0.9304
G1 X94.560 Y87.815 E0.9475
G1 X95.498 Y86.874 E0.9740
G1 X96.067 Y86.381 E0.9891
G1 X97.198 Y85.539 E1.0172
G1 X98.174 Y84.968 E1.0398
G1 X99.715 Y84.281 E1.0734
G1 X100.642 Y83.969 E1.0929
G1 X102.300 Y83.584 E1.1269
G1 X103.280 Y83.453 E1.1467
G1 X105.022 Y83.392 E1.1814
G1 X106.089 Y83.465 E1.2028
G1 X107.707 Y83.748 E1.2356
G1 X108.401 Y83.920 E1.2498
G1 X109.319 Y84.217 E1.2691
G1 X109.968 Y84.478 E1.2830
G1 X111.194 Y85.069 E1.3102
G1 X111.944 Y85.512 E1.3276
G1 X113.204 Y86.411 E1.3585
G1 X113.831 Y86.938 E1.3748
G1 X114.923 Y88.017 E1.4054
G1 X115.427 Y88.596 E1.4208
G1 X116.024 Y89.395 E1.4407
G1 X116.301 Y89.807 E1.4506
G1 X116.781 Y90.599 E1.4691
G1 X117.063 Y91.133 E1.4811
G1 X117.615 Y92.348 E1.5078
G1 X117.786 Y92.775 E1.5169
G1 X118.066 Y93.574 E1.5338
G1 X118.174 Y93.924 E1.5411
G1 X118.519 Y95.193 E1.5674
G1 X118.604 Y95.559 E1.5749
G1 X118.874 Y96.952 E1.6032
G1 X118.924 Y97.253 E1.6093
G1 X119.196 Y99.298 E1.6505
G1 X119.224 Y99.567 E1.6559
G1 X119.379 Y101.514 E1.6948
G1 X119.393 Y101.750 E1.6995
G1 X119.455 Y103.613 E1.7368
G1 X119.457 Y103.784 E1.7402
G1 X119.457 Y106.189 E1.7881
G1 X119.454 Y106.359 E1.7915
G1 X119.392 Y108.223 E1.8288
G1 X119.379 Y108.458 E1.8335
G1 X119.226 Y110.380 E1.8719
G1 X119.204 Y110.600 E1.8763
G1 X119.028 Y112.032 E1.9051
G1 X118.985 Y112.314 E1.9108
G1 X118.634 Y114.264 E1.9504
G1 X118.562 Y114.599 E1.9572
G1 X118.361 Y115.402 E1.9737
G1 X118.267 Y115.730 E1.9805
G1 X117.880 Y116.932 E2.0057
G1 X117.736 Y117.322 E2.0140
G1 X117.393 Y118.151 E2.0319
G1 X117.152 Y118.653 E2.0430
G1 X116.480 Y119.878 E2.0709
G1 X116.096 Y120.476 E2.0851
G1 X115.503 Y121.271 E2.1049
G1 X115.156 Y121.689 E2.1157
G1 X114.502 Y122.396 E2.1350
G1 X114.036 Y122.839 E2.1478
G1 X112.995 Y123.714 E2.1749
G1 X112.503 Y124.079 E2.1872
G1 X111.682 Y124.616 E2.2067
G1 X111.104 Y124.943 E2.2200
G1 X109.885 Y125.531 E2.2470
G1 X109.048 Y125.848 E2.2649
G1 X107.713 Y126.224 E2.2925
G1 X106.863 Y126.388 E2.3098
G1 X105.341 Y126.550 E2.3404
G1 X104.614 Y126.575 E2.3549
G92 E0.0000
G1 E-3.0000 F5400
; feature inner perimeter
G1 X104.617 Y116.089 F18000
G1 X104.595 Y116.088
G1 X104.593 Y114.647
G1 E0.0000 F5400
G92 E0.0000
G1 X104.530 Y114.644 E0.0013 F1350
G1 X104.210 Y114.600 E0.0077
G1 X104.117 Y114.578 E0.0096
G1 X103.862 Y114.495 E0.0150
G1 X103.701 Y114.416 E0.0185
G1 X103.461 Y114.208 E0.0249
G1 X103.392 Y114.135 E0.0269
G1 X103.334 Y114.061 E0.0288
G1 X103.286 Y113.986 E0.0305
G1 X103.235 Y113.888 E0.0327
G1 X103.072 Y113.496 E0.0412
G1 X103.009 Y113.313 E0.0451
G1 X102.870 Y112.808 E0.0555
