; G-Code generated by Simplify3D(R) Version 4.1.2
; Apr 10, 2021 at 12:44:26 AM
; Settings Summary
;   processName,V6
;   applyToModels,x-schlitten-verbindungsstueck
;   profileName,HBot
;   profileVersion,2021-04-01 14:49:35
;   baseProfile,Default
;   printMaterial,PETG - SUNLU
;   printQuality,Fast
;   printExtruders,
;   extruderName,Extruder 1,Extruder 2 - support
;   extruderToolheadNumber,0,1
;   extruderDiameter,0.4,0.4
;   extruderAutoWidth,1,1
;   extruderWidth,0.48,0.48
;   extrusionMultiplier,1.02,1
;   extruderUseRetract,1,1
;   extruderRetractionDistance,3,1
;   extruderExtraRestartDistance,0,0
;   extruderRetractionZLift,0,0
;   extruderRetractionSpeed,5400,1800
;   extruderUseCoasting,1,1
;   extruderCoastingDistance,0.2,0.2
;   extruderUseWipe,1,1
;   extruderWipeDistance,0.4,0.4
;   primaryExtruder,0
;   layerHeight,0.28
;   topSolidLayers,4
;   bottomSolidLayers,3
;   perimeterOutlines,3
;   printPerimetersInsideOut,1
;   startPointOption,3
;   startPointOriginX,0
;   startPointOriginY,110
;   sequentialIslands,0
;   spiralVaseMode,0
;   firstLayerHeightPercentage,100
;   firstLayerWidthPercentage,100
;   firstLayerUnderspeed,0.5
;   useRaft,0
;   raftExtruder,0
;   raftTopLayers,3
;   raftBaseLayers,2
;   raftOffset,3
;   raftSeparationDistance,0.18
;   raftTopInfill,100
;   aboveRaftSpeedMultiplier,0.3
;   useSkirt,1
;   skirtExtruder,0
;   skirtLayers,1
;   skirtOutlines,3
;   skirtOffset,10
;   usePrimePillar,0
;   primePillarExtruder,999
;   primePillarWidth,12
;   primePillarLocation,7
;   primePillarSpeedMultiplier,1
;   useOozeShield,1
;   oozeShieldExtruder,999
;   oozeShieldOffset,1.4
;   oozeShieldOutlines,1
;   oozeShieldSidewallShape,0
;   oozeShieldSidewallAngle,30
;   oozeShieldSpeedMultiplier,1.5
;   infillExtruder,0
;   internalInfillPattern,Fast Honeycomb
;   externalInfillPattern,Rectilinear
;   infillPercentage,15
;   outlineOverlapPercentage,25
;   infillExtrusionWidthPercentage,100
;   minInfillLength,5
;   infillLayerInterval,1
;   internalInfillAngles,0
;   overlapInternalInfillAngles,0
;   externalInfillAngles,45,-45
;   generateSupport,1
;   supportExtruder,0
;   supportInfillPercentage,20
;   supportExtraInflation,0
;   supportBaseLayers,0
;   denseSupportExtruder,1
;   denseSupportLayers,4
;   denseSupportInfillPercentage,100
;   supportLayerInterval,1
;   supportHorizontalPartOffset,0.4
;   supportUpperSeparationLayers,0
;   supportLowerSeparationLayers,0
;   supportType,0
;   supportGridSpacing,2.5
;   maxOverhangAngle,45
;   supportAngles,0
;   temperatureName,Extruder 1,Heated Bed,Extruder 2 - support
;   temperatureNumber,0,1,1
;   temperatureSetpointCount,2,1,1
;   temperatureSetpointLayers,1,2,1,1
;   temperatureSetpointTemperatures,215,215,85,205
;   temperatureStabilizeAtStartup,1,1,1
;   temperatureHeatedBed,0,1,0
;   fanLayers,1,5,10
;   fanSpeeds,0,5,20
;   blipFanToFullPower,1
;   adjustSpeedForCooling,1
;   minSpeedLayerTime,15
;   minCoolingSpeedSlowdown,20
;   increaseFanForCooling,1
;   minFanLayerTime,15
;   maxCoolingFanSpeed,100
;   increaseFanForBridging,1
;   bridgingFanSpeed,100
;   use5D,1
;   relativeEdistances,0
;   allowEaxisZeroing,1
;   independentExtruderAxes,0
;   includeM10123,0
;   stickySupport,1
;   applyToolheadOffsets,0
;   gcodeXoffset,0
;   gcodeYoffset,0
;   gcodeZoffset,0
;   overrideMachineDefinition,1
;   machineTypeOverride,0
;   strokeXoverride,210
;   strokeYoverride,210
;   strokeZoverride,150
;   originOffsetXoverride,0
;   originOffsetYoverride,0
;   originOffsetZoverride,0
;   homeXdirOverride,1
;   homeYdirOverride,-1
;   homeZdirOverride,-1
;   flipXoverride,1
;   flipYoverride,-1
;   flipZoverride,1
;   toolheadOffsets,0,0|0,0|0,0|0,0|0,0|0,0
;   overrideFirmwareConfiguration,0
;   firmwareTypeOverride,RepRap (Marlin/Repetier/Sprinter)
;   GPXconfigOverride,r2
;   baudRateOverride,115200
;   overridePrinterModels,0
;   printerModelsOverride
;   startingGcode,;G28 is now included in bed.g G28 ; home all axes,G32 ; run bed.g -- probe bed and enable compensation
;   layerChangeGcode,
;   retractionGcode,
;   toolChangeGcode,
;   endingGcode,M0 ; call stop.g
;   exportFileFormat,gcode
;   celebration,0
;   celebrationSong,Random Song
;   postProcessing,
;   defaultSpeed,3600
;   outlineUnderspeed,0.5
;   solidInfillUnderspeed,0.8
;   supportUnderspeed,0.8
;   rapidXYspeed,18000
;   rapidZspeed,1200
;   minBridgingArea,50
;   bridgingExtraInflation,0
;   bridgingExtrusionMultiplier,0.96
;   bridgingSpeedMultiplier,1
;   useFixedBridgingAngle,0
;   fixedBridgingAngle,0
;   applyBridgingToPerimeters,0
;   filamentDiameters,1.75|1.75|1.75|1.75|1.75|1.75
;   filamentPricesPerKg,46|46|46|46|46|46
;   filamentDensities,1.25|1.25|1.25|1.25|1.25|1.25
;   useMinPrintHeight,0
;   minPrintHeight,0
;   useMaxPrintHeight,0
;   maxPrintHeight,12.79
;   useDiaphragm,0
;   diaphragmLayerInterval,20
;   robustSlicing,1
;   mergeAllIntoSolid,0
;   onlyRetractWhenCrossingOutline,1
;   retractBetweenLayers,0
;   useRetractionMinTravel,1
;   retractionMinTravel,3
;   retractWhileWiping,1
;   onlyWipeOutlines,1
;   avoidCrossingOutline,1
;   maxMovementDetourFactor,5
;   toolChangeRetractionDistance,7.5
;   toolChangeExtraRestartDistance,0
;   toolChangeRetractionSpeed,600
;   externalThinWallType,1
;   internalThinWallType,1
;   thinWallAllowedOverlapPercentage,10
;   singleExtrusionMinLength,1
;   singleExtrusionMinPrintingWidthPercentage,50
;   singleExtrusionMaxPrintingWidthPercentage,150
;   singleExtrusionEndpointExtension,0.2
;   horizontalSizeCompensation,0
G90
M82
M106 S0
M140 S85
M190 S85
G10 P0 S215 R{215-50}
G10 P1 S205 R{205-50}
M116 P0
M116 P1
;G28 is now included in bed.g G28 ; home all axes
G32 ; run bed.g -- probe bed and enable compensation
; process V6
; layer 1, Z = 0.280
T0
G92 E0.0000
G1 E-3.0000 F5400
; feature skirt
; tool H0.280 W0.480
G1 Z0.280 F1200
G1 X65.690 Y122.205 F18000
G1 E0.0000 F5400
G92 E0.0000
G1 X65.690 Y87.795 E1.9612 F1800
G1 X66.615 Y85.562 E2.0990
G1 X66.621 Y79.783 E2.4284
G1 X68.328 Y75.670 E2.6821
G1 X72.861 Y71.143 E3.0472
G1 X76.975 Y69.440 E3.3010
G1 X133.027 Y69.440 E6.4957
G1 X137.144 Y71.145 E6.7497
G1 X141.677 Y75.677 E7.1150
G1 X143.382 Y79.793 E7.3689
G1 X143.383 Y85.556 E7.6973
G1 X144.310 Y87.795 E7.8355
G1 X144.310 Y97.200 E8.3715
G1 X142.610 Y101.311 E8.6251
G1 X138.930 Y105.000 E8.9220
G1 X142.610 Y108.689 E9.2190
G1 X144.310 Y112.800 E9.4726
G1 X144.310 Y122.205 E10.0086
G1 X143.382 Y124.445 E10.1468
G1 X143.382 Y130.205 E10.4751
G1 X141.677 Y134.322 E10.7290
G1 X137.144 Y138.855 E11.0944
G1 X133.028 Y140.560 E11.3484
G1 X76.972 Y140.560 E14.5432
G1 X72.856 Y138.855 E14.7972
G1 X68.323 Y134.322 E15.1625
G1 X66.618 Y130.205 E15.4165
G1 X66.618 Y124.445 E15.7448
G1 X65.690 Y122.205 E15.8830
G1 X66.170 Y122.110 F18000
G92 E0.0000
G1 X66.170 Y87.890 E1.9503 F1800
G1 X67.095 Y85.657 E2.0881
G1 X67.101 Y79.878 E2.4174
G1 X68.735 Y75.942 E2.6603
G1 X73.132 Y71.550 E3.0146
G1 X77.070 Y69.920 E3.2575
G1 X132.932 Y69.920 E6.4413
G1 X136.872 Y71.552 E6.6844
G1 X141.270 Y75.949 E7.0388
G1 X142.902 Y79.889 E7.2819
G1 X142.903 Y85.651 E7.6103
G1 X143.830 Y87.890 E7.7484
G1 X143.830 Y97.105 E8.2736
G1 X142.203 Y101.039 E8.5163
G1 X138.252 Y105.000 E8.8351
G1 X142.203 Y108.961 E9.1539
G1 X143.830 Y112.895 E9.3966
G1 X143.830 Y122.110 E9.9218
G1 X142.902 Y124.350 E10.0600
G1 X142.902 Y130.110 E10.3883
G1 X141.270 Y134.050 E10.6313
G1 X136.872 Y138.448 E10.9858
G1 X132.932 Y140.080 E11.2289
G1 X77.068 Y140.080 E14.4128
G1 X73.128 Y138.448 E14.6559
G1 X68.730 Y134.050 E15.0104
G1 X67.098 Y130.110 E15.2535
G1 X67.098 Y124.350 E15.5818
G1 X66.170 Y122.110 E15.7199
G1 X66.650 Y122.014 F18000
G92 E0.0000
G1 X66.650 Y87.986 E1.9395 F1800
G1 X67.575 Y85.753 E2.0772
G1 X67.581 Y79.974 E2.4065
G1 X69.142 Y76.215 E2.6386
G1 X73.404 Y71.957 E2.9819
G1 X77.165 Y70.400 E3.2139
G1 X132.836 Y70.400 E6.3869
G1 X136.600 Y71.959 E6.6191
G1 X140.863 Y76.221 E6.9626
G1 X142.422 Y79.984 E7.1948
G1 X142.423 Y85.747 E7.5232
G1 X143.350 Y87.986 E7.6613
G1 X143.350 Y97.009 E8.1756
G1 X141.796 Y100.768 E8.4074
G1 X137.574 Y105.000 E8.7481
G1 X141.796 Y109.232 E9.0888
G1 X143.350 Y112.991 E9.3206
G1 X143.350 Y122.014 E9.8350
G1 X142.422 Y124.254 E9.9731
G1 X142.422 Y130.014 E10.3014
G1 X140.863 Y133.778 E10.5336
G1 X136.600 Y138.041 E10.8772
G1 X132.837 Y139.600 E11.1094
G1 X77.163 Y139.600 E14.2825
G1 X73.400 Y138.041 E14.5147
G1 X69.137 Y133.778 E14.8583
G1 X67.578 Y130.014 E15.0904
G1 X67.578 Y124.254 E15.4188
G1 X66.650 Y122.014 E15.5569
G92 E0.0000
G1 E-3.0000 F5400
; feature ooze shield
G1 X77.130 Y119.878 F18000
G1 E0.0000 F5400
G92 E0.0000
G1 X77.130 Y90.122 E1.6959 F2700
G1 X78.051 Y89.201 E1.7702
G1 X78.059 Y82.120 E2.1737
G1 X79.300 Y80.880 E2.2738
G1 X130.700 Y80.880 E5.2033
G1 X131.942 Y82.122 E5.3034
G1 X131.943 Y89.195 E5.7065
G1 X132.870 Y90.122 E5.7812
G1 X132.870 Y94.877 E6.0522
G1 X131.632 Y96.118 E6.1521
G1 X124.882 Y96.135 E6.5368
G1 X124.889 Y113.866 E7.5474
G1 X131.632 Y113.882 E7.9317
G1 X132.870 Y115.123 E8.0316
G1 X132.870 Y119.878 E8.3026
G1 X131.942 Y120.806 E8.3774
G1 X131.942 Y127.878 E8.7805
G1 X130.700 Y129.120 E8.8806
G1 X79.300 Y129.120 E11.8102
G1 X78.058 Y127.878 E11.9103
G1 X78.058 Y120.806 E12.3133
G1 X77.130 Y119.878 E12.3881
G1 X77.610 Y119.679 F18000
G92 E0.0000
G1 X77.610 Y90.321 E1.6733 F2700
G1 X78.531 Y89.400 E1.7475
G1 X78.538 Y82.319 E2.1510
G1 X79.499 Y81.360 E2.2284
G1 X130.502 Y81.360 E5.1353
G1 X131.462 Y82.321 E5.2127
G1 X131.463 Y89.394 E5.6159
G1 X132.390 Y90.321 E5.6906
G1 X132.390 Y94.678 E5.9389
G1 X131.432 Y95.638 E6.0162
G1 X124.402 Y95.656 E6.4169
G1 X124.409 Y114.344 E7.4821
G1 X131.432 Y114.362 E7.8823
G1 X132.390 Y115.322 E7.9596
G1 X132.390 Y119.679 E8.2080
G1 X131.462 Y120.607 E8.2828
G1 X131.462 Y127.679 E8.6858
G1 X130.502 Y128.640 E8.7633
G1 X79.498 Y128.640 E11.6702
G1 X78.538 Y127.679 E11.7476
G1 X78.538 Y120.607 E12.1507
G1 X77.610 Y119.679 E12.2255
G92 E0.0000
G1 E-3.0000 F5400
; feature inner perimeter
G1 X80.150 Y118.760 F18000
G1 X80.150 Y118.315
G1 X81.110 Y117.800
G1 E0.0000 F5400
G92 E0.0000
G1 X81.110 Y92.200 E1.4591 F1350
G1 X128.890 Y92.200 E4.1823
G1 X128.890 Y92.800 E4.2165
G1 X123.132 Y92.800 E4.5446
G1 X122.590 Y92.908 E4.5761
G1 X122.031 Y93.281 E4.6144
G1 X121.691 Y93.790 E4.6493
G1 X121.576 Y94.170 E4.6719
G1 X121.550 Y94.450 E4.6880
G1 X121.550 Y117.200 E5.9846
G1 X128.890 Y117.200 E6.4029
G1 X128.890 Y117.800 E6.4371
G1 X81.310 Y117.800 E9.1489
G1 X81.110 Y117.800 F1350
G1 X80.630 Y118.280 F18000
G92 E0.0000
G1 X80.630 Y91.720 E1.5138 F1350
G1 X129.370 Y91.720 E4.2917
G1 X129.370 Y93.280 E4.3806
G1 X123.179 Y93.280 E4.7334
G1 X122.778 Y93.360 E4.7568
G1 X122.377 Y93.627 E4.7842
G1 X122.130 Y93.997 E4.8096
G1 X122.049 Y94.263 E4.8254
G1 X122.030 Y94.472 E4.8374
G1 X122.030 Y116.720 E6.1054
G1 X129.370 Y116.720 E6.5237
G1 X129.370 Y118.280 E6.6126
G1 X80.830 Y118.280 E9.3791
G1 X80.630 Y118.280 F1350
; feature outer perimeter
G1 X80.150 Y118.760 F18000
G92 E0.0000
G1 X80.150 Y91.240 E1.5685 F900
G1 X129.850 Y91.240 E4.4011
G1 X129.850 Y93.760 E4.5447
G1 X123.226 Y93.760 E4.9223
G1 X122.965 Y93.812 E4.9374
G1 X122.723 Y93.973 E4.9540
G1 X122.569 Y94.205 E4.9699
G1 X122.523 Y94.356 E4.9789
G1 X122.510 Y94.494 E4.9868
G1 X122.510 Y116.240 E6.2262
G1 X129.850 Y116.240 E6.6445
G1 X129.850 Y118.760 E6.7881
G1 X80.350 Y118.760 E9.6094
G1 X80.150 Y118.760 F900
G1 X80.150 Y118.360 F900
; feature inner perimeter
G1 X84.146 Y116.100 F18000
G92 E0.0000
G1 X84.360 Y116.500 E0.0259 F1350
G1 X84.750 Y116.890 E0.0573
G1 X85.150 Y117.104 E0.0832
G1 X85.632 Y117.200 E0.1112
G1 X115.309 Y117.200 E1.8026
G1 X115.642 Y117.167 E1.8217
G1 X116.207 Y116.933 E1.8566
G1 X116.640 Y116.500 E1.8914
G1 X116.854 Y116.100 E1.9173
G1 X116.950 Y115.618 E1.9453
G1 X116.950 Y97.200 E2.9950
G1 X119.950 Y97.200 E3.1660
G1 X119.950 Y92.800 E3.4168
G1 X85.632 Y92.800 E5.3728
G1 X85.090 Y92.908 E5.4042
G1 X84.531 Y93.281 E5.4425
G1 X84.191 Y93.790 E5.4774
G1 X84.060 Y94.225 E5.5033
G1 X84.050 Y115.618 E6.7226
G1 X84.107 Y115.904 E6.7392
G1 X84.146 Y116.100 F1350
G1 X84.603 Y115.937 F18000
G92 E0.0000
G1 X84.750 Y116.211 E0.0178 F1350
G1 X85.039 Y116.500 E0.0411
G1 X85.313 Y116.647 E0.0588
G1 X85.679 Y116.720 E0.0801
G1 X115.285 Y116.720 E1.7675
G1 X115.524 Y116.696 E1.7812
G1 X115.936 Y116.526 E1.8065
G1 X116.250 Y116.211 E1.8319
G1 X116.397 Y115.937 E1.8496
G1 X116.470 Y115.571 E1.8709
G1 X116.470 Y96.720 E2.9453
G1 X119.470 Y96.720 E3.1163
G1 X119.470 Y93.280 E3.3123
G1 X85.679 Y93.280 E5.2382
G1 X85.278 Y93.360 E5.2616
G1 X84.877 Y93.627 E5.2890
G1 X84.630 Y93.998 E5.3144
G1 X84.540 Y94.296 E5.3322
G1 X84.530 Y115.571 E6.5447
G1 X84.564 Y115.740 E6.5546
G1 X84.603 Y115.937 F1350
; feature outer perimeter
G1 X85.060 Y115.773 F18000
G92 E0.0000
G1 X85.139 Y115.922 E0.0096 F900
G1 X85.328 Y116.111 E0.0248
G1 X85.477 Y116.190 E0.0345
G1 X85.726 Y116.240 E0.0490
G1 X115.262 Y116.240 E1.7323
G1 X115.407 Y116.226 E1.7406
G1 X115.664 Y116.119 E1.7565
G1 X115.861 Y115.922 E1.7723
G1 X115.940 Y115.773 E1.7820
G1 X115.990 Y115.524 E1.7965
G1 X115.990 Y96.240 E2.8955
G1 X118.990 Y96.240 E3.0665
G1 X118.990 Y93.760 E3.2079
G1 X85.726 Y93.760 E5.1037
G1 X85.465 Y93.812 E5.1189
G1 X85.223 Y93.973 E5.1355
G1 X85.069 Y94.205 E5.1513
G1 X85.020 Y94.367 E5.1610
G1 X85.010 Y115.524 E6.3668
G1 X85.021 Y115.577 E6.3699
G1 X85.060 Y115.773 F900
G1 X85.139 Y115.922 F900
G1 X85.303 Y116.085
; feature solid layer
G1 X82.141 Y117.440 F18000
G92 E0.0000
G1 X81.470 Y116.769 E0.0541 F1440
G1 X81.470 Y116.090 E0.0928
G1 X82.820 Y117.440 E0.2016
G1 X83.499 Y117.440 E0.2403
G1 X81.470 Y115.411 E0.4038
G1 X81.470 Y114.732 E0.4425
G1 X84.178 Y117.440 E0.6608
G1 X84.857 Y117.440 E0.6995
G1 X84.675 Y117.259 E0.7141
G1 X84.533 Y117.183 E0.7233
G1 X84.068 Y116.717 E0.7608
G1 X83.992 Y116.575 E0.7700
G1 X81.470 Y114.053 E0.9732
G1 X81.470 Y113.375 E1.0119
G1 X83.690 Y115.595 E1.1908
G1 X83.690 Y114.916 E1.2295
G1 X81.470 Y112.696 E1.4085
G1 X81.470 Y112.017 E1.4472
G1 X83.691 Y114.238 E1.6261
G1 X83.691 Y113.559 E1.6648
G1 X81.470 Y111.338 E1.8438
G1 X81.470 Y110.659 E1.8825
G1 X83.691 Y112.881 E2.0615
G1 X83.691 Y112.202 E2.1002
G1 X81.470 Y109.981 E2.2793
G1 X81.470 Y109.302 E2.3180
G1 X83.692 Y111.524 E2.4970
G1 X83.692 Y110.845 E2.5357
G1 X81.470 Y108.623 E2.7148
G1 X81.470 Y107.944 E2.7535
G1 X83.692 Y110.166 E2.9326
G1 X83.693 Y109.488 E2.9713
G1 X81.470 Y107.265 E3.1505
G1 X81.470 Y106.586 E3.1892
G1 X83.693 Y108.809 E3.3683
G1 X83.693 Y108.131 E3.4070
G1 X81.470 Y105.908 E3.5862
G1 X81.470 Y105.229 E3.6249
G1 X83.694 Y107.452 E3.8041
G1 X83.694 Y106.774 E3.8428
G1 X81.470 Y104.550 E4.0221
G1 X81.470 Y103.871 E4.0608
G1 X83.694 Y106.095 E4.2400
G1 X83.695 Y105.417 E4.2787
G1 X81.470 Y103.192 E4.4580
G1 X81.470 Y102.513 E4.4967
G1 X83.695 Y104.738 E4.6760
G1 X83.695 Y104.060 E4.7147
G1 X81.470 Y101.835 E4.8941
G1 X81.470 Y101.156 E4.9328
G1 X83.695 Y103.381 E5.1121
G1 X83.696 Y102.703 E5.1508
G1 X81.470 Y100.477 E5.3302
G1 X81.470 Y99.798 E5.3689
G1 X83.696 Y102.024 E5.5483
G1 X83.696 Y101.346 E5.5870
G1 X81.470 Y99.119 E5.7665
G1 X81.470 Y98.441 E5.8052
G1 X83.697 Y100.667 E5.9846
G1 X83.697 Y99.989 E6.0233
G1 X81.470 Y97.762 E6.2028
G1 X81.470 Y97.083 E6.2415
G1 X83.697 Y99.310 E6.4210
G1 X83.698 Y98.632 E6.4597
G1 X81.470 Y96.404 E6.6393
G1 X81.470 Y95.725 E6.6779
G1 X83.698 Y97.953 E6.8575
G1 X83.698 Y97.275 E6.8962
G1 X81.470 Y95.046 E7.0758
G1 X81.470 Y94.368 E7.1145
G1 X83.699 Y96.596 E7.2941
G1 X83.699 Y95.918 E7.3328
G1 X81.470 Y93.689 E7.5124
G1 X81.470 Y93.010 E7.5511
G1 X83.699 Y95.239 E7.7308
G1 X83.700 Y94.561 E7.7695
G1 X81.699 Y92.560 E7.9307
G1 X82.378 Y92.560 E7.9694
G1 X83.767 Y93.949 E8.0814
G1 X83.862 Y93.635 E8.1001
G1 X83.970 Y93.473 E8.1112
G1 X83.056 Y92.560 E8.1848
G1 X83.735 Y92.560 E8.2235
G1 X84.242 Y93.067 E8.2643
G1 X84.272 Y93.022 E8.2674
G1 X84.634 Y92.780 E8.2922
G1 X84.556 Y92.701 E8.2985
G1 X84.414 Y92.560 F1440
G1 X122.428 Y92.560 F18000
G92 E0.0000
G1 X122.442 Y92.574 E0.0011 F1440
G1 X122.035 Y92.846 E0.0290
G1 X121.749 Y92.560 E0.0520
