; G-Code generated by Simplify3D(R) Version 4.1.2
; Nov 4, 2019 at 11:11:03 PM
; Settings Summary
;   processName,Process1
;   applyToModels,xyzCalibration_cube
;   profileName,HBot
;   profileVersion,2019-10-26 23:38:43
;   baseProfile,Default
;   printMaterial,PLA
;   printQuality,Medium
;   printExtruders,
;   extruderName,Extruder 1
;   extruderToolheadNumber,0
;   extruderDiameter,0.4
;   extruderAutoWidth,0
;   extruderWidth,0.4
;   extrusionMultiplier,0.94
;   extruderUseRetract,1
;   extruderRetractionDistance,3
;   extruderExtraRestartDistance,0
;   extruderRetractionZLift,0
;   extruderRetractionSpeed,3600
;   extruderUseCoasting,1
;   extruderCoastingDistance,0.2
;   extruderUseWipe,1
;   extruderWipeDistance,5
;   primaryExtruder,0
;   layerHeight,0.2
;   topSolidLayers,3
;   bottomSolidLayers,3
;   perimeterOutlines,3
;   printPerimetersInsideOut,1
;   startPointOption,2
;   startPointOriginX,0
;   startPointOriginY,0
;   sequentialIslands,0
;   spiralVaseMode,0
;   firstLayerHeightPercentage,150
;   firstLayerWidthPercentage,200
;   firstLayerUnderspeed,0.3
;   useRaft,0
;   raftExtruder,0
;   raftTopLayers,3
;   raftBaseLayers,2
;   raftOffset,3
;   raftSeparationDistance,0.18
;   raftTopInfill,100
;   aboveRaftSpeedMultiplier,0.3
;   useSkirt,1
;   skirtExtruder,0
;   skirtLayers,1
;   skirtOutlines,3
;   skirtOffset,4
;   usePrimePillar,0
;   primePillarExtruder,999
;   primePillarWidth,12
;   primePillarLocation,7
;   primePillarSpeedMultiplier,1
;   useOozeShield,0
;   oozeShieldExtruder,999
;   oozeShieldOffset,2
;   oozeShieldOutlines,1
;   oozeShieldSidewallShape,1
;   oozeShieldSidewallAngle,30
;   oozeShieldSpeedMultiplier,1
;   infillExtruder,0
;   internalInfillPattern,Fast Honeycomb
;   externalInfillPattern,Rectilinear
;   infillPercentage,20
;   outlineOverlapPercentage,15
;   infillExtrusionWidthPercentage,150
;   minInfillLength,5
;   infillLayerInterval,1
;   internalInfillAngles,0
;   overlapInternalInfillAngles,0
;   externalInfillAngles,45,-45
;   generateSupport,0
;   supportExtruder,0
;   supportInfillPercentage,30
;   supportExtraInflation,0
;   supportBaseLayers,2
;   denseSupportExtruder,0
;   denseSupportLayers,0
;   denseSupportInfillPercentage,70
;   supportLayerInterval,1
;   supportHorizontalPartOffset,0.3
;   supportUpperSeparationLayers,1
;   supportLowerSeparationLayers,1
;   supportType,0
;   supportGridSpacing,4
;   maxOverhangAngle,45
;   supportAngles,0
;   temperatureName,Extruder 1
;   temperatureNumber,0
;   temperatureSetpointCount,1
;   temperatureSetpointLayers,1
;   temperatureSetpointTemperatures,215
;   temperatureStabilizeAtStartup,1
;   temperatureHeatedBed,0
;   fanLayers,1,2,3
;   fanSpeeds,0,15,25
;   blipFanToFullPower,1
;   adjustSpeedForCooling,1
;   minSpeedLayerTime,15
;   minCoolingSpeedSlowdown,20
;   increaseFanForCooling,0
;   minFanLayerTime,45
;   maxCoolingFanSpeed,40
;   increaseFanForBridging,0
;   bridgingFanSpeed,80
;   use5D,1
;   relativeEdistances,0
;   allowEaxisZeroing,1
;   independentExtruderAxes,0
;   includeM10123,0
;   stickySupport,1
;   applyToolheadOffsets,0
;   gcodeXoffset,0
;   gcodeYoffset,0
;   gcodeZoffset,0
;   overrideMachineDefinition,1
;   machineTypeOverride,0
;   strokeXoverride,200
;   strokeYoverride,200
;   strokeZoverride,150
;   originOffsetXoverride,0
;   originOffsetYoverride,0
;   originOffsetZoverride,0
;   homeXdirOverride,-1
;   homeYdirOverride,-1
;   homeZdirOverride,-1
;   flipXoverride,1
;   flipYoverride,-1
;   flipZoverride,1
;   toolheadOffsets,0,0|0,0|0,0|0,0|0,0|0,0
;   overrideFirmwareConfiguration,1
;   firmwareTypeOverride,RepRap (Marlin/Repetier/Sprinter)
;   GPXconfigOverride,r2
;   baudRateOverride,115200
;   overridePrinterModels,0
;   printerModelsOverride
;   startingGcode,G28 ; home all axes,G32 ; run bed.g -- probe bed and enable compensation
;   layerChangeGcode,
;   retractionGcode,
;   toolChangeGcode,
;   endingGcode,M0 ; call stop.g
;   exportFileFormat,gcode
;   celebration,0
;   celebrationSong,Random Song
;   postProcessing,
;   defaultSpeed,6000
;   outlineUnderspeed,0.5
;   solidInfillUnderspeed,0.8
;   supportUnderspeed,0.8
;   rapidXYspeed,18000
;   rapidZspeed,1200
;   minBridgingArea,50
;   bridgingExtraInflation,0
;   bridgingExtrusionMultiplier,0.96
;   bridgingSpeedMultiplier,1
;   useFixedBridgingAngle,0
;   fixedBridgingAngle,0
;   applyBridgingToPerimeters,0
;   filamentDiameters,1.75|1.75|1.75|1.75|1.75|1.75
;   filamentPricesPerKg,46|46|46|46|46|46
;   filamentDensities,1.25|1.25|1.25|1.25|1.25|1.25
;   useMinPrintHeight,0
;   minPrintHeight,0
;   useMaxPrintHeight,0
;   maxPrintHeight,0
;   useDiaphragm,1
;   diaphragmLayerInterval,20
;   robustSlicing,1
;   mergeAllIntoSolid,0
;   onlyRetractWhenCrossingOutline,1
;   retractBetweenLayers,0
;   useRetractionMinTravel,1
;   retractionMinTravel,3
;   retractWhileWiping,1
;   onlyWipeOutlines,0
;   avoidCrossingOutline,1
;   maxMovementDetourFactor,3
;   toolChangeRetractionDistance,12
;   toolChangeExtraRestartDistance,-0.5
;   toolChangeRetractionSpeed,600
;   externalThinWallType,1
;   internalThinWallType,1
;   thinWallAllowedOverlapPercentage,10
;   singleExtrusionMinLength,1
;   singleExtrusionMinPrintingWidthPercentage,50
;   singleExtrusionMaxPrintingWidthPercentage,200
;   singleExtrusionEndpointExtension,0.2
;   horizontalSizeCompensation,-0.1
G90
M82
M106 S0
M104 S215 T0
M109 S215 T0
G28 ; home all axes
G32 ; run bed.g -- probe bed and enable compensation
; process Process1
; layer 1, Z = 0.300
T0
G92 E0.0000
G1 E-3.0000 F3600
; feature skirt
; tool H0.300 W0.800
G1 Z0.300 F1200
G1 X84.100 Y87.615 F18000
G1 E0.0000 F3600
G92 E0.0000
G1 X87.615 Y84.100 E0.4662 F1800
G1 X112.385 Y84.100 E2.7895
G1 X115.900 Y87.615 E3.2557
G1 X115.900 Y112.385 E5.5791
G1 X112.385 Y115.900 E6.0453
G1 X87.615 Y115.900 E8.3686
G1 X84.100 Y112.385 E8.8348
G1 X84.100 Y87.615 E11.1581
G1 X84.900 Y87.946 F18000
G92 E0.0000
G1 X87.946 Y84.900 E0.4040 F1800
G1 X112.054 Y84.900 E2.6652
G1 X115.100 Y87.946 E3.0693
G1 X115.100 Y112.054 E5.3304
G1 X112.054 Y115.100 E5.7345
G1 X87.946 Y115.100 E7.9956
G1 X84.900 Y112.054 E8.3997
G1 X84.900 Y87.946 E10.6608
G1 X85.700 Y88.277 F18000
G92 E0.0000
G1 X88.277 Y85.700 E0.3419 F1800
G1 X111.723 Y85.700 E2.5409
G1 X114.300 Y88.277 E2.8828
G1 X114.300 Y111.723 E5.0818
G1 X111.723 Y114.300 E5.4237
G1 X88.277 Y114.300 E7.6226
G1 X85.700 Y111.723 E7.9645
G1 X85.700 Y88.277 E10.1635
G92 E0.0000
G1 E-3.0000 F3600
; feature inner perimeter
G1 X90.500 Y90.500 F18000
G1 X90.500 Y91.144
G1 X92.100 Y92.100
G1 E0.0000 F3600
G92 E0.0000
G1 X107.900 Y92.100 E1.4819 F1350
G1 X107.900 Y107.900 E2.9639
G1 X92.100 Y107.900 E4.4458
G1 X92.100 Y92.300 E5.9090
G1 X92.100 Y92.100 F1350
G1 X97.100 Y92.100 F1350
G1 X91.300 Y91.300 F18000
G92 E0.0000
G1 X108.700 Y91.300 E1.6320 F1350
G1 X108.700 Y108.700 E3.2640
G1 X91.300 Y108.700 E4.8960
G1 X91.300 Y91.500 E6.5093
G1 X91.300 Y91.300 F1350
G1 X96.300 Y91.300 F1350
; feature outer perimeter
G1 X90.500 Y90.500 F18000
G92 E0.0000
G1 X109.500 Y90.500 E1.7821 F900
G1 X109.500 Y109.500 E3.5642
G1 X90.500 Y109.500 E5.3462
G1 X90.500 Y90.700 E7.1096
G1 X90.500 Y90.500 F900
G1 X95.500 Y90.500 F900
; feature solid layer
G1 X106.356 Y92.780 F18000
G92 E0.0000
G1 X107.220 Y93.644 E0.1145 F1440
G1 X107.220 Y94.775 E0.2207
G1 X105.225 Y92.780 E0.4853
G1 X104.094 Y92.780 E0.5914
G1 X107.220 Y95.906 E1.0061
G1 X107.220 Y97.038 E1.1122
G1 X102.962 Y92.780 E1.6769
G1 X101.831 Y92.780 E1.7831
G1 X107.220 Y98.169 E2.4979
G1 X107.220 Y99.300 E2.6040
G1 X100.700 Y92.780 E3.4689
G1 X99.568 Y92.780 E3.5750
G1 X107.220 Y100.432 E4.5900
G1 X107.220 Y101.563 E4.6961
G1 X98.437 Y92.780 E5.8611
G1 X97.305 Y92.780 E5.9672
G1 X107.220 Y102.695 E7.2823
G1 X107.220 Y103.826 E7.3884
G1 X96.174 Y92.780 E8.8536
G1 X95.043 Y92.780 E8.9597
G1 X107.220 Y104.957 E10.5750
G1 X107.220 Y106.089 E10.6811
G1 X93.911 Y92.780 E12.4464
G1 X92.780 Y92.780 E12.5525
G1 X107.220 Y107.220 E14.4679
G1 X106.089 Y107.220 E14.5740
G1 X92.780 Y93.911 E16.3393
G1 X92.780 Y95.043 E16.4454
G1 X104.957 Y107.220 E18.0607
G1 X103.826 Y107.220 E18.1668
G1 X92.780 Y96.174 E19.6320
G1 X92.780 Y97.305 E19.7381
G1 X102.695 Y107.220 E21.0532
G1 X101.563 Y107.220 E21.1593
G1 X92.780 Y98.437 E22.3243
G1 X92.780 Y99.568 E22.4304
G1 X100.432 Y107.220 E23.4454
G1 X99.300 Y107.220 E23.5515
G1 X92.780 Y100.700 E24.4164
G1 X92.780 Y101.831 E24.5225
G1 X98.169 Y107.220 E25.2374
G1 X97.038 Y107.220 E25.3435
G1 X92.780 Y102.962 E25.9082
G1 X92.780 Y104.094 E26.0143
G1 X95.906 Y107.220 E26.4290
G1 X94.775 Y107.220 E26.5352
G1 X92.780 Y105.225 E26.7998
G1 X92.780 Y106.356 E26.9059
G1 X93.502 Y107.079 E27.0017
G1 X93.644 Y107.220 F1440
G1 X92.780 Y106.356 F1440
G1 X92.780 Y105.225
G1 X94.652 Y107.097
; layer 2, Z = 0.500
M106 S255
G4 P500
M106 S38
; feature inner perimeter
; tool H0.200 W0.400
G1 Z0.500 F1200
G1 X91.100 Y108.900 F18000
G92 E0.0000
G1 X91.100 Y91.100 E0.5565 F3924
G1 X108.900 Y91.100 E1.1130
G1 X108.900 Y108.900 E1.6695
G1 X91.300 Y108.900 E2.2198
G1 X91.100 Y108.900 F3924
G1 X91.100 Y103.900 F3924
G1 X90.700 Y109.300 F18000
G92 E0.0000
G1 X90.700 Y90.700 E0.5815 F3924
G1 X109.300 Y90.700 E1.1630
G1 X109.300 Y109.300 E1.7446
G1 X90.900 Y109.300 E2.3198
G1 X90.700 Y109.300 F3924
G1 X90.700 Y104.300 F3924
; feature outer perimeter
G1 X90.300 Y109.700 F18000
G92 E0.0000
G1 X90.300 Y90.300 E0.6065 F2616
G1 X109.700 Y90.300 E1.2131
G1 X109.700 Y109.700 E1.8196
G1 X90.500 Y109.700 E2.4199
G1 X90.300 Y109.700 F2616
G1 X90.300 Y104.700 F2616
; feature solid layer
G1 X91.440 Y91.589 F18000
G92 E0.0000
G1 X91.589 Y91.440 E0.0066 F4185
G1 X92.155 Y91.440 E0.0243
G1 X91.440 Y92.155 E0.0559
G1 X91.440 Y92.721 E0.0736
G1 X92.721 Y91.440 E0.1302
G1 X93.287 Y91.440 E0.1479
G1 X91.440 Y93.287 E0.2296
G1 X91.440 Y93.852 E0.2472
G1 X93.852 Y91.440 E0.3539
G1 X94.418 Y91.440 E0.3716
G1 X91.440 Y94.418 E0.5033
G1 X91.440 Y94.984 E0.5209
G1 X94.984 Y91.440 E0.6776
G1 X95.549 Y91.440 E0.6953
G1 X91.440 Y95.549 E0.8770
G1 X91.440 Y96.115 E0.8947
G1 X96.115 Y91.440 E1.1014
G1 X96.681 Y91.440 E1.1191
G1 X91.440 Y96.681 E1.3508
G1 X91.440 Y97.246 E1.3685
G1 X97.246 Y91.440 E1.6252
G1 X97.812 Y91.440 E1.6429
G1 X91.440 Y97.812 E1.9246
G1 X91.440 Y98.378 E1.9423
G1 X98.378 Y91.440 E2.2491
G1 X98.943 Y91.440 E2.2667
G1 X91.440 Y98.943 E2.5985
G1 X91.440 Y99.509 E2.6162
G1 X99.509 Y91.440 E2.9730
G1 X100.075 Y91.440 E2.9906
G1 X91.440 Y100.075 E3.3724
G1 X91.440 Y100.640 E3.3901
G1 X100.640 Y91.440 E3.7969
G1 X101.206 Y91.440 E3.8146
G1 X91.440 Y101.206 E4.2464
G1 X91.440 Y101.772 E4.2641
G1 X101.772 Y91.440 E4.7209
G1 X102.337 Y91.440 E4.7386
G1 X91.440 Y102.337 E5.2204
G1 X91.440 Y102.903 E5.2381
G1 X102.903 Y91.440 E5.7449
G1 X103.469 Y91.440 E5.7626
G1 X91.440 Y103.469 E6.2945
G1 X91.440 Y104.035 E6.3122
G1 X104.035 Y91.440 E6.8690
G1 X104.600 Y91.440 E6.8867
G1 X91.440 Y104.600 E7.4686
G1 X91.440 Y105.166 E7.4863
G1 X105.166 Y91.440 E8.0932
G1 X105.732 Y91.440 E8.1109
G1 X91.440 Y105.732 E8.7428
G1 X91.440 Y106.297 E8.7604
G1 X106.297 Y91.440 E9.4174
G1 X106.863 Y91.440 E9.4350
G1 X91.440 Y106.863 E10.1170
G1 X91.440 Y107.429 E10.1346
G1 X107.429 Y91.440 E10.8416
G1 X107.994 Y91.440 E10.8593
G1 X91.440 Y107.994 E11.5912
G1 X91.440 Y108.560 E11.6089
G1 X108.560 Y91.440 E12.3659
G1 X108.560 Y92.006 E12.3835
G1 X92.006 Y108.560 E13.1155
G1 X92.571 Y108.560 E13.1332
G1 X108.560 Y92.571 E13.8401
G1 X108.560 Y93.137 E13.8578
G1 X93.137 Y108.560 E14.5397
G1 X93.703 Y108.560 E14.5574
G1 X108.560 Y93.703 E15.2143
G1 X108.560 Y94.268 E15.2320
G1 X94.268 Y108.560 E15.8639
G1 X94.834 Y108.560 E15.8816
G1 X108.560 Y94.834 E16.4884
G1 X108.560 Y95.400 E16.5061
G1 X95.400 Y108.560 E17.0880
G1 X95.966 Y108.560 E17.1057
G1 X108.560 Y95.966 E17.6626
G1 X108.560 Y96.531 E17.6802
G1 X96.531 Y108.560 E18.2121
G1 X97.097 Y108.560 E18.2298
G1 X108.560 Y97.097 E18.7366
G1 X108.560 Y97.663 E18.7543
G1 X97.663 Y108.560 E19.2361
G1 X98.228 Y108.560 E19.2538
G1 X108.560 Y98.228 E19.7106
G1 X108.560 Y98.794 E19.7283
G1 X98.794 Y108.560 E20.1601
G1 X99.360 Y108.560 E20.1778
G1 X108.560 Y99.360 E20.5846
G1 X108.560 Y99.925 E20.6023
G1 X99.925 Y108.560 E20.9841
G1 X100.491 Y108.560 E21.0017
G1 X108.560 Y100.491 E21.3585
G1 X108.560 Y101.057 E21.3762
G1 X101.057 Y108.560 E21.7080
G1 X101.622 Y108.560 E21.7256
G1 X108.560 Y101.622 E22.0324
G1 X108.560 Y102.188 E22.0501
G1 X102.188 Y108.560 E22.3318
G1 X102.754 Y108.560 E22.3495
G1 X108.560 Y102.754 E22.6062
G1 X108.560 Y103.319 E22.6239
G1 X103.319 Y108.560 E22.8556
G1 X103.885 Y108.560 E22.8733
G1 X108.560 Y103.885 E23.0800
G1 X108.560 Y104.451 E23.0977
G1 X104.451 Y108.560 E23.2794
G1 X105.016 Y108.560 E23.2971
G1 X108.560 Y105.016 E23.4537
G1 X108.560 Y105.582 E23.4714
G1 X105.582 Y108.560 E23.6031
G1 X106.148 Y108.560 E23.6208
G1 X108.560 Y106.148 E23.7274
G1 X108.560 Y106.714 E23.7451
G1 X106.714 Y108.560 E23.8267
G1 X107.279 Y108.560 E23.8444
G1 X108.560 Y107.279 E23.9011
G1 X108.560 Y107.845 E23.9187
G1 X107.845 Y108.560 E23.9504
G1 X108.411 Y108.560 E23.9681
G1 X108.419 Y108.552 E23.9684
G1 X108.560 Y108.411 F4185
G1 X108.411 Y108.560 F4185
G1 X107.845 Y108.560
G1 X108.560 Y107.845
G1 X108.560 Y107.279
G1 X107.279 Y108.560
G1 X106.714 Y108.560
G1 X106.904 Y108.370
; layer 3, Z = 0.700
M106 S255
G4 P500
M106 S64
; feature inner perimeter
G1 Z0.700 F1200
G1 X108.900 Y108.900 F18000
G92 E0.0000
G1 X91.100 Y108.900 E0.5565 F3924
G1 X91.100 Y91.100 E1.1130
G1 X108.900 Y91.100 E1.6695
G1 X108.900 Y108.700 E2.2198
G1 X108.900 Y108.900 F3924
G1 X103.900 Y108.900 F3924
G1 X109.300 Y109.300 F18000
G92 E0.0000
G1 X90.700 Y109.300 E0.5815 F3924
G1 X90.700 Y90.700 E1.1630
G1 X109.300 Y90.700 E1.7446
G1 X109.300 Y109.100 E2.3198
G1 X109.300 Y109.300 F3924
G1 X104.300 Y109.300 F3924
; feature outer perimeter
G1 X109.700 Y109.700 F18000
G92 E0.0000
G1 X90.300 Y109.700 E0.6065 F2616
G1 X90.300 Y90.300 E1.2131
G1 X109.700 Y90.300 E1.8196
G1 X109.700 Y109.500 E2.4199
G1 X109.700 Y109.700 F2616
G1 X104.700 Y109.700 F2616
; feature solid layer
G1 X91.589 Y108.560 F18000
G92 E0.0000
G1 X91.440 Y108.411 E0.0066 F4185
G1 X91.440 Y107.845 E0.0243
G1 X92.155 Y108.560 E0.0559
G1 X92.721 Y108.560 E0.0736
G1 X91.440 Y107.279 E0.1302
G1 X91.440 Y106.713 E0.1479
G1 X93.287 Y108.560 E0.2296
G1 X93.852 Y108.560 E0.2472
G1 X91.440 Y106.148 E0.3539
G1 X91.440 Y105.582 E0.3716
G1 X94.418 Y108.560 E0.5033
G1 X94.984 Y108.560 E0.5209
G1 X91.440 Y105.016 E0.6776
G1 X91.440 Y104.451 E0.6953
G1 X95.549 Y108.560 E0.8770
G1 X96.115 Y108.560 E0.8947
G1 X91.440 Y103.885 E1.1014
G1 X91.440 Y103.319 E1.1191
G1 X96.681 Y108.560 E1.3508
G1 X97.246 Y108.560 E1.3685
G1 X91.440 Y102.754 E1.6252
G1 X91.440 Y102.188 E1.6429
G1 X97.812 Y108.560 E1.9246
G1 X98.378 Y108.560 E1.9423
G1 X91.440 Y101.622 E2.2490
G1 X91.440 Y101.057 E2.2667
G1 X98.943 Y108.560 E2.5985
G1 X99.509 Y108.560 E2.6162
G1 X91.440 Y100.491 E2.9729
G1 X91.440 Y99.925 E2.9906
G1 X100.075 Y108.560 E3.3724
G1 X100.640 Y108.560 E3.3901
G1 X91.440 Y99.360 E3.7969
G1 X91.440 Y98.794 E3.8146
G1 X101.206 Y108.560 E4.2464
G1 X101.772 Y108.560 E4.2641
G1 X91.440 Y98.228 E4.7209
G1 X91.440 Y97.663 E4.7386
G1 X102.337 Y108.560 E5.2204
G1 X102.903 Y108.560 E5.2381
G1 X91.440 Y97.097 E5.7449
G1 X91.440 Y96.531 E5.7626
G1 X103.469 Y108.560 E6.2945
G1 X104.035 Y108.560 E6.3121
G1 X91.440 Y95.965 E6.8690
G1 X91.440 Y95.400 E6.8867
G1 X104.600 Y108.560 E7.4686
G1 X105.166 Y108.560 E7.4863
G1 X91.440 Y94.834 E8.0931
G1 X91.440 Y94.268 E8.1108
G1 X105.732 Y108.560 E8.7427
G1 X106.297 Y108.560 E8.7604
G1 X91.440 Y93.703 E9.4173
G1 X91.440 Y93.137 E9.4350
G1 X106.863 Y108.560 E10.1169
G1 X107.429 Y108.560 E10.1346
G1 X91.440 Y92.571 E10.8416
G1 X91.440 Y92.006 E10.8592
G1 X107.994 Y108.560 E11.5912
G1 X108.560 Y108.560 E11.6089
G1 X91.440 Y91.440 E12.3658
G1 X92.006 Y91.440 E12.3835
G1 X108.560 Y107.994 E13.1155
G1 X108.560 Y107.429 E13.1331
G1 X92.571 Y91.440 E13.8401
G1 X93.137 Y91.440 E13.8578
G1 X108.560 Y106.863 E14.5397
G1 X108.560 Y106.297 E14.5574
G1 X93.703 Y91.440 E15.2143
G1 X94.268 Y91.440 E15.2320
