; G-Code generated by Simplify3D(R) Version 4.1.2
; Apr 7, 2021 at 3:37:11 PM
; Settings Summary
;   processName,V6
;   applyToModels,z-achse-lagerhalterung-oben
;   profileName,HBot (modified)
;   profileVersion,2021-04-01 14:49:35
;   baseProfile,Default
;   printMaterial,PETG - ERYONE
;   printQuality,Fast
;   printExtruders,
;   extruderName,Extruder 1,Extruder 2 - support
;   extruderToolheadNumber,0,1
;   extruderDiameter,0.4,0.4
;   extruderAutoWidth,1,1
;   extruderWidth,0.48,0.48
;   extrusionMultiplier,1,1
;   extruderUseRetract,1,1
;   extruderRetractionDistance,3,1
;   extruderExtraRestartDistance,0,0
;   extruderRetractionZLift,0,0
;   extruderRetractionSpeed,5400,1800
;   extruderUseCoasting,1,1
;   extruderCoastingDistance,0.2,0.2
;   extruderUseWipe,1,1
;   extruderWipeDistance,2,5
;   primaryExtruder,0
;   layerHeight,0.2
;   topSolidLayers,4
;   bottomSolidLayers,3
;   perimeterOutlines,4
;   printPerimetersInsideOut,1
;   startPointOption,3
;   startPointOriginX,110
;   startPointOriginY,300
;   sequentialIslands,0
;   spiralVaseMode,0
;   firstLayerHeightPercentage,100
;   firstLayerWidthPercentage,100
;   firstLayerUnderspeed,0.5
;   useRaft,0
;   raftExtruder,0
;   raftTopLayers,3
;   raftBaseLayers,2
;   raftOffset,3
;   raftSeparationDistance,0.18
;   raftTopInfill,100
;   aboveRaftSpeedMultiplier,0.3
;   useSkirt,1
;   skirtExtruder,0
;   skirtLayers,1
;   skirtOutlines,3
;   skirtOffset,10
;   usePrimePillar,0
;   primePillarExtruder,999
;   primePillarWidth,12
;   primePillarLocation,7
;   primePillarSpeedMultiplier,1
;   useOozeShield,1
;   oozeShieldExtruder,999
;   oozeShieldOffset,1.4
;   oozeShieldOutlines,1
;   oozeShieldSidewallShape,0
;   oozeShieldSidewallAngle,30
;   oozeShieldSpeedMultiplier,1.5
;   infillExtruder,0
;   internalInfillPattern,Fast Honeycomb
;   externalInfillPattern,Rectilinear
;   infillPercentage,15
;   outlineOverlapPercentage,25
;   infillExtrusionWidthPercentage,100
;   minInfillLength,5
;   infillLayerInterval,1
;   internalInfillAngles,0
;   overlapInternalInfillAngles,0
;   externalInfillAngles,45,-45
;   generateSupport,1
;   supportExtruder,0
;   supportInfillPercentage,20
;   supportExtraInflation,0
;   supportBaseLayers,0
;   denseSupportExtruder,1
;   denseSupportLayers,6
;   denseSupportInfillPercentage,100
;   supportLayerInterval,1
;   supportHorizontalPartOffset,0
;   supportUpperSeparationLayers,0
;   supportLowerSeparationLayers,0
;   supportType,0
;   supportGridSpacing,2
;   maxOverhangAngle,25
;   supportAngles,0
;   temperatureName,Extruder 1,Heated Bed,Extruder 2 - support
;   temperatureNumber,0,1,1
;   temperatureSetpointCount,2,1,1
;   temperatureSetpointLayers,1,2,1,1
;   temperatureSetpointTemperatures,215,215,85,205
;   temperatureStabilizeAtStartup,1,1,1
;   temperatureHeatedBed,0,1,0
;   fanLayers,1,10
;   fanSpeeds,0,75
;   blipFanToFullPower,1
;   adjustSpeedForCooling,0
;   minSpeedLayerTime,15
;   minCoolingSpeedSlowdown,20
;   increaseFanForCooling,1
;   minFanLayerTime,15
;   maxCoolingFanSpeed,100
;   increaseFanForBridging,1
;   bridgingFanSpeed,100
;   use5D,1
;   relativeEdistances,0
;   allowEaxisZeroing,1
;   independentExtruderAxes,0
;   includeM10123,0
;   stickySupport,1
;   applyToolheadOffsets,0
;   gcodeXoffset,0
;   gcodeYoffset,0
;   gcodeZoffset,0
;   overrideMachineDefinition,1
;   machineTypeOverride,0
;   strokeXoverride,210
;   strokeYoverride,210
;   strokeZoverride,150
;   originOffsetXoverride,0
;   originOffsetYoverride,0
;   originOffsetZoverride,0
;   homeXdirOverride,1
;   homeYdirOverride,-1
;   homeZdirOverride,-1
;   flipXoverride,1
;   flipYoverride,-1
;   flipZoverride,1
;   toolheadOffsets,0,0|0,0|0,0|0,0|0,0|0,0
;   overrideFirmwareConfiguration,0
;   firmwareTypeOverride,RepRap (Marlin/Repetier/Sprinter)
;   GPXconfigOverride,r2
;   baudRateOverride,115200
;   overridePrinterModels,0
;   printerModelsOverride
;   startingGcode,;G28 is now included in bed.g G28 ; home all axes,G32 ; run bed.g -- probe bed and enable compensation
;   layerChangeGcode,
;   retractionGcode,
;   toolChangeGcode,
;   endingGcode,M0 ; call stop.g
;   exportFileFormat,gcode
;   celebration,0
;   celebrationSong,Random Song
;   postProcessing,
;   defaultSpeed,3600
;   outlineUnderspeed,0.5
;   solidInfillUnderspeed,0.8
;   supportUnderspeed,0.8
;   rapidXYspeed,18000
;   rapidZspeed,1200
;   minBridgingArea,50
;   bridgingExtraInflation,0
;   bridgingExtrusionMultiplier,0.96
;   bridgingSpeedMultiplier,1
;   useFixedBridgingAngle,0
;   fixedBridgingAngle,0
;   applyBridgingToPerimeters,0
;   filamentDiameters,1.75|1.75|1.75|1.75|1.75|1.75
;   filamentPricesPerKg,46|46|46|46|46|46
;   filamentDensities,1.25|1.25|1.25|1.25|1.25|1.25
;   useMinPrintHeight,0
;   minPrintHeight,0
;   useMaxPrintHeight,1
;   maxPrintHeight,12
;   useDiaphragm,0
;   diaphragmLayerInterval,20
;   robustSlicing,1
;   mergeAllIntoSolid,0
;   onlyRetractWhenCrossingOutline,1
;   retractBetweenLayers,0
;   useRetractionMinTravel,1
;   retractionMinTravel,3
;   retractWhileWiping,1
;   onlyWipeOutlines,1
;   avoidCrossingOutline,1
;   maxMovementDetourFactor,5
;   toolChangeRetractionDistance,7.5
;   toolChangeExtraRestartDistance,0
;   toolChangeRetractionSpeed,600
;   externalThinWallType,1
;   internalThinWallType,1
;   thinWallAllowedOverlapPercentage,10
;   singleExtrusionMinLength,1
;   singleExtrusionMinPrintingWidthPercentage,50
;   singleExtrusionMaxPrintingWidthPercentage,150
;   singleExtrusionEndpointExtension,0.2
;   horizontalSizeCompensation,0
G90
M82
M106 S0
M140 S85
M190 S85
G10 P0 S215 R{215-50}
G10 P1 S205 R{205-50}
M116 P0
M116 P1
;G28 is now included in bed.g G28 ; home all axes
G32 ; run bed.g -- probe bed and enable compensation
; process V6
; layer 1, Z = 0.200
T0
G92 E0.0000
G1 E-3.0000 F5400
; feature skirt
; tool H0.200 W0.480
G1 Z0.200 F1200
G1 X111.895 Y150.860 F18000
G1 E0.0000 F5400
G92 E0.0000
G1 X107.778 Y149.155 E0.1778 F1800
G1 X105.000 Y146.377 E0.3346
G1 X102.222 Y149.155 E0.4915
G1 X98.105 Y150.860 E0.6693
G1 X85.695 Y150.860 E1.1646
G1 X81.578 Y149.155 E1.3425
G1 X77.045 Y144.622 E1.5983
G1 X75.340 Y140.505 E1.7762
G1 X75.340 Y88.709 E3.8435
G1 X75.341 Y88.593 E3.8481
G1 X75.360 Y87.686 E3.8843
G1 X75.375 Y87.381 E3.8965
G1 X75.503 Y85.690 E3.9642
G1 X75.548 Y85.284 E3.9805
G1 X75.808 Y83.548 E4.0505
G1 X75.882 Y83.152 E4.0666
G1 X76.248 Y81.518 E4.1335
G1 X76.325 Y81.214 E4.1460
G1 X76.604 Y80.232 E4.1867
G1 X76.691 Y79.953 E4.1984
G1 X77.206 Y78.442 E4.2621
G1 X77.348 Y78.072 E4.2779
G1 X78.029 Y76.459 E4.3478
G1 X78.201 Y76.088 E4.3641
G1 X79.003 Y74.520 E4.4344
G1 X79.207 Y74.156 E4.4511
G1 X80.129 Y72.641 E4.5219
G1 X80.307 Y72.367 E4.5349
G1 X80.891 Y71.523 E4.5759
G1 X81.064 Y71.286 E4.5876
G1 X82.039 Y70.023 E4.6513
G1 X82.292 Y69.718 E4.6671
G1 X83.458 Y68.411 E4.7370
G1 X83.741 Y68.116 E4.7533
G1 X85.008 Y66.889 E4.8237
G1 X85.323 Y66.606 E4.8406
G1 X86.750 Y65.419 E4.9147
G1 X87.084 Y65.161 E4.9315
G1 X88.516 Y64.142 E5.0017
G1 X88.847 Y63.924 E5.0175
G1 X90.209 Y63.092 E5.0812
G1 X90.463 Y62.946 E5.0929
G1 X91.367 Y62.458 E5.1339
G1 X91.658 Y62.311 E5.1469
G1 X93.265 Y61.560 E5.2177
G1 X93.649 Y61.397 E5.2343
G1 X95.295 Y60.772 E5.3046
G1 X95.683 Y60.641 E5.3209
G1 X97.361 Y60.140 E5.3908
G1 X97.744 Y60.040 E5.4066
G1 X99.363 Y59.680 E5.4728
G1 X99.752 Y59.607 E5.4886
G1 X101.484 Y59.348 E5.5585
G1 X101.891 Y59.303 E5.5749
G1 X103.643 Y59.170 E5.6450
G1 X104.052 Y59.154 E5.6613
G1 X105.816 Y59.150 E5.7317
G1 X106.238 Y59.165 E5.7486
G1 X108.090 Y59.301 E5.8227
G1 X108.510 Y59.347 E5.8396
G1 X110.254 Y59.608 E5.9100
G1 X110.657 Y59.684 E5.9263
G1 X112.365 Y60.068 E5.9962
G1 X112.748 Y60.169 E6.0120
G1 X114.276 Y60.629 E6.0757
G1 X114.555 Y60.721 E6.0874
G1 X115.521 Y61.067 E6.1284
G1 X115.825 Y61.186 E6.1414
G1 X117.457 Y61.882 E6.2122
G1 X117.834 Y62.059 E6.2288
G1 X119.398 Y62.868 E6.2991
G1 X119.755 Y63.069 E6.3155
G1 X121.247 Y63.985 E6.3854
G1 X121.577 Y64.204 E6.4012
G1 X122.875 Y65.133 E6.4649
G1 X123.109 Y65.309 E6.4766
G1 X123.910 Y65.948 E6.5174
G1 X124.155 Y66.155 E6.5302
G1 X125.414 Y67.283 E6.5977
G1 X125.646 Y67.504 E6.6105
G1 X126.369 Y68.230 E6.6514
G1 X126.570 Y68.443 E6.6631
G1 X127.635 Y69.632 E6.7268
G1 X127.889 Y69.936 E6.7426
G1 X128.965 Y71.323 E6.8126
G1 X129.208 Y71.661 E6.8293
G1 X130.188 Y73.139 E6.9001
G1 X130.360 Y73.416 E6.9131
G1 X130.877 Y74.304 E6.9541
G1 X131.018 Y74.561 E6.9658
G1 X131.747 Y75.980 E7.0295
G1 X131.916 Y76.339 E7.0453
G1 X132.605 Y77.949 E7.1152
G1 X132.752 Y78.331 E7.1315
G1 X133.323 Y79.993 E7.2016
G1 X133.442 Y80.384 E7.2180
G1 X133.876 Y82.030 E7.2859
G1 X133.949 Y82.342 E7.2987
G1 X134.168 Y83.415 E7.3424
G1 X134.221 Y83.718 E7.3547
G1 X134.454 Y85.303 E7.4186
G1 X134.498 Y85.697 E7.4344
G1 X134.625 Y87.382 E7.5019
G1 X134.640 Y87.689 E7.5142
G1 X134.659 Y88.617 E7.5512
G1 X134.660 Y88.732 E7.5558
G1 X134.660 Y140.505 E9.6222
G1 X132.955 Y144.622 E9.8000
G1 X128.422 Y149.155 E10.0559
G1 X124.305 Y150.860 E10.2337
G1 X111.895 Y150.860 E10.7291
G1 X111.990 Y150.380 F18000
G92 E0.0000
G1 X108.050 Y148.748 E0.1702 F1800
G1 X105.000 Y145.698 E0.3424
G1 X101.950 Y148.748 E0.5145
G1 X98.010 Y150.380 E0.6847
G1 X85.790 Y150.380 E1.1725
G1 X81.850 Y148.748 E1.3427
G1 X77.452 Y144.350 E1.5909
G1 X75.820 Y140.410 E1.7611
G1 X75.820 Y88.712 E3.8245
G1 X75.821 Y88.600 E3.8290
G1 X75.840 Y87.703 E3.8648
G1 X75.854 Y87.410 E3.8765
G1 X75.981 Y85.735 E3.9435
G1 X76.024 Y85.346 E3.9592
G1 X76.281 Y83.628 E4.0285
G1 X76.352 Y83.248 E4.0439
G1 X76.715 Y81.629 E4.1101
G1 X76.789 Y81.339 E4.1221
G1 X77.064 Y80.369 E4.1623
G1 X77.147 Y80.102 E4.1735
G1 X77.658 Y78.605 E4.2366
G1 X77.793 Y78.251 E4.2517
G1 X78.467 Y76.654 E4.3209
G1 X78.633 Y76.299 E4.3366
G1 X79.426 Y74.746 E4.4062
G1 X79.621 Y74.398 E4.4221
G1 X80.535 Y72.896 E4.4923
G1 X80.706 Y72.634 E4.5047
G1 X81.282 Y71.801 E4.5452
G1 X81.448 Y71.575 E4.5564
G1 X82.414 Y70.323 E4.6195
G1 X82.656 Y70.031 E4.6346
G1 X83.810 Y68.737 E4.7038
G1 X84.082 Y68.455 E4.7194
G1 X85.336 Y67.240 E4.7891
G1 X85.637 Y66.970 E4.8053
G1 X87.050 Y65.793 E4.8787
G1 X87.370 Y65.547 E4.8948
G1 X88.788 Y64.538 E4.9642
G1 X89.104 Y64.329 E4.9794
G1 X90.454 Y63.505 E5.0425
G1 X90.697 Y63.365 E5.0537
G1 X91.589 Y62.883 E5.0941
G1 X91.868 Y62.743 E5.1066
G1 X93.460 Y61.998 E5.1768
G1 X93.827 Y61.843 E5.1927
G1 X95.457 Y61.224 E5.2623
G1 X95.828 Y61.098 E5.2779
G1 X97.490 Y60.602 E5.3471
G1 X97.857 Y60.507 E5.3622
G1 X99.459 Y60.150 E5.4277
G1 X99.832 Y60.081 E5.4429
G1 X101.546 Y59.824 E5.5121
G1 X101.935 Y59.781 E5.5277
G1 X103.671 Y59.650 E5.5972
G1 X104.062 Y59.634 E5.6128
G1 X105.808 Y59.630 E5.6825
G1 X106.212 Y59.645 E5.6986
G1 X108.046 Y59.779 E5.7720
G1 X108.448 Y59.823 E5.7881
G1 X110.175 Y60.082 E5.8578
G1 X110.560 Y60.154 E5.8735
G1 X112.251 Y60.535 E5.9427
G1 X112.618 Y60.631 E5.9578
G1 X114.132 Y61.087 E6.0209
G1 X114.398 Y61.174 E6.0321
G1 X115.352 Y61.517 E6.0726
G1 X115.643 Y61.631 E6.0850
G1 X117.260 Y62.320 E6.1552
G1 X117.621 Y62.490 E6.1711
G1 X119.170 Y63.291 E6.2407
G1 X119.511 Y63.483 E6.2563
G1 X120.989 Y64.390 E6.3255
G1 X121.305 Y64.599 E6.3407
G1 X122.591 Y65.520 E6.4038
G1 X122.815 Y65.689 E6.4150
G1 X123.605 Y66.319 E6.4553
G1 X123.840 Y66.517 E6.4676
G1 X125.088 Y67.636 E6.5345
G1 X125.311 Y67.848 E6.5467
G1 X126.024 Y68.564 E6.5871
G1 X126.217 Y68.768 E6.5983
G1 X127.272 Y69.946 E6.6614
G1 X127.515 Y70.237 E6.6766
G1 X128.580 Y71.610 E6.7459
G1 X128.813 Y71.934 E6.7618
G1 X129.784 Y73.399 E6.8320
G1 X129.949 Y73.664 E6.8444
G1 X130.459 Y74.540 E6.8849
G1 X130.594 Y74.786 E6.8961
G1 X131.317 Y76.192 E6.9592
G1 X131.478 Y76.536 E6.9743
G1 X132.160 Y78.130 E7.0435
G1 X132.301 Y78.495 E7.0592
G1 X132.866 Y80.140 E7.1286
G1 X132.980 Y80.515 E7.1442
G1 X133.410 Y82.146 E7.2116
G1 X133.480 Y82.444 E7.2238
G1 X133.696 Y83.505 E7.2670
G1 X133.747 Y83.794 E7.2787
G1 X133.978 Y85.365 E7.3421
G1 X134.020 Y85.742 E7.3572
G1 X134.146 Y87.411 E7.4240
G1 X134.160 Y87.705 E7.4358
G1 X134.179 Y88.625 E7.4725
G1 X134.180 Y88.734 E7.4769
G1 X134.180 Y140.410 E9.5393
G1 X132.548 Y144.350 E9.7095
G1 X128.150 Y148.748 E9.9578
G1 X124.210 Y150.380 E10.1280
G1 X111.990 Y150.380 E10.6157
G1 X112.086 Y149.900 F18000
G92 E0.0000
G1 X108.322 Y148.341 E0.1626 F1800
G1 X105.000 Y145.019 E0.3501
G1 X101.678 Y148.341 E0.5376
G1 X97.914 Y149.900 E0.7002
G1 X85.886 Y149.900 E1.1803
G1 X82.122 Y148.341 E1.3429
G1 X77.859 Y144.078 E1.5835
G1 X76.300 Y140.314 E1.7461
G1 X76.300 Y88.714 E3.8056
G1 X76.301 Y88.608 E3.8098
G1 X76.320 Y87.719 E3.8453
G1 X76.333 Y87.440 E3.8565
G1 X76.459 Y85.780 E3.9229
G1 X76.500 Y85.409 E3.9378
G1 X76.755 Y83.708 E4.0065
G1 X76.823 Y83.345 E4.0212
G1 X77.182 Y81.741 E4.0868
G1 X77.252 Y81.463 E4.0982
G1 X77.524 Y80.506 E4.1379
G1 X77.604 Y80.251 E4.1486
G1 X78.110 Y78.768 E4.2111
G1 X78.239 Y78.430 E4.2256
G1 X78.906 Y76.848 E4.2941
G1 X79.064 Y76.509 E4.3090
G1 X79.850 Y74.972 E4.3779
G1 X80.036 Y74.640 E4.3931
G1 X80.942 Y73.152 E4.4626
G1 X81.104 Y72.902 E4.4746
G1 X81.673 Y72.079 E4.5145
G1 X81.832 Y71.863 E4.5252
G1 X82.789 Y70.623 E4.5877
G1 X83.020 Y70.344 E4.6021
G1 X84.163 Y69.063 E4.6707
G1 X84.422 Y68.793 E4.6856
G1 X85.663 Y67.591 E4.7546
G1 X85.951 Y67.333 E4.7700
G1 X87.350 Y66.168 E4.8426
G1 X87.656 Y65.933 E4.8581
G1 X89.059 Y64.934 E4.9268
G1 X89.361 Y64.734 E4.9413
G1 X90.698 Y63.918 E5.0038
G1 X90.931 Y63.785 E5.0145
G1 X91.811 Y63.309 E5.0544
G1 X92.077 Y63.175 E5.0663
G1 X93.655 Y62.437 E5.1358
G1 X94.006 Y62.288 E5.1510
G1 X95.620 Y61.676 E5.2199
G1 X95.974 Y61.556 E5.2349
G1 X97.619 Y61.065 E5.3034
G1 X97.969 Y60.974 E5.3178
G1 X99.555 Y60.620 E5.3827
G1 X99.911 Y60.554 E5.3971
G1 X101.609 Y60.300 E5.4656
G1 X101.980 Y60.259 E5.4806
G1 X103.698 Y60.129 E5.5493
G1 X104.072 Y60.114 E5.5642
G1 X105.800 Y60.110 E5.6332
G1 X106.186 Y60.124 E5.6486
G1 X108.002 Y60.257 E5.7213
G1 X108.386 Y60.300 E5.7367
G1 X110.095 Y60.555 E5.8057
G1 X110.463 Y60.624 E5.8206
G1 X112.137 Y61.001 E5.8891
G1 X112.488 Y61.093 E5.9036
G1 X113.988 Y61.544 E5.9661
G1 X114.242 Y61.628 E5.9768
G1 X115.184 Y61.966 E6.0167
G1 X115.461 Y62.075 E6.0286
G1 X117.064 Y62.758 E6.0982
G1 X117.409 Y62.920 E6.1134
G1 X118.942 Y63.713 E6.1823
G1 X119.268 Y63.897 E6.1972
G1 X120.731 Y64.795 E6.2657
G1 X121.033 Y64.995 E6.2802
G1 X122.307 Y65.906 E6.3427
G1 X122.520 Y66.068 E6.3534
G1 X123.300 Y66.690 E6.3932
G1 X123.524 Y66.879 E6.4049
G1 X124.763 Y67.989 E6.4713
G1 X124.976 Y68.191 E6.4830
G1 X125.680 Y68.898 E6.5228
G1 X125.864 Y69.093 E6.5335
G1 X126.909 Y70.260 E6.5960
G1 X127.141 Y70.538 E6.6105
G1 X128.195 Y71.897 E6.6791
G1 X128.418 Y72.207 E6.6943
G1 X129.380 Y73.658 E6.7639
G1 X129.538 Y73.912 E6.7758
G1 X130.041 Y74.776 E6.8157
G1 X130.170 Y75.011 E6.8264
G1 X130.886 Y76.404 E6.8889
G1 X131.040 Y76.732 E6.9034
G1 X131.715 Y78.310 E6.9719
G1 X131.850 Y78.659 E6.9868
G1 X132.409 Y80.288 E7.0556
G1 X132.518 Y80.646 E7.0705
G1 X132.945 Y82.262 E7.1372
G1 X133.011 Y82.547 E7.1489
G1 X133.224 Y83.594 E7.1915
G1 X133.273 Y83.870 E7.2027
G1 X133.502 Y85.426 E7.2655
G1 X133.542 Y85.786 E7.2799
G1 X133.667 Y87.441 E7.3462
G1 X133.680 Y87.722 E7.3574
G1 X133.699 Y88.632 E7.3937
G1 X133.700 Y88.737 E7.3979
G1 X133.700 Y140.314 E9.4565
G1 X132.141 Y144.078 E9.6191
G1 X127.878 Y148.341 E9.8597
G1 X124.114 Y149.900 E10.0223
G1 X112.086 Y149.900 E10.5024
G92 E0.0000
G1 E-3.0000 F5400
; feature ooze shield
G1 X114.222 Y139.420 F18000
G1 E0.0000 F5400
G92 E0.0000
G1 X112.980 Y138.178 E0.0701 F2700
G1 X112.980 Y119.420 E0.8188
G1 X97.020 Y119.420 E1.4558
G1 X97.020 Y138.178 E2.2044
G1 X95.778 Y139.420 E2.2745
G1 X88.022 Y139.420 E2.5841
G1 X86.780 Y138.178 E2.6542
G1 X86.780 Y88.790 E4.6254
G1 X86.780 Y88.771 E4.6262
G1 X86.792 Y88.144 E4.6512
G1 X86.794 Y88.086 E4.6535
G1 X86.885 Y86.846 E4.7031
G1 X86.894 Y86.769 E4.7062
G1 X87.076 Y85.529 E4.7563
G1 X87.090 Y85.453 E4.7593
G1 X87.361 Y84.238 E4.8090
G1 X87.375 Y84.182 E4.8113
G1 X87.550 Y83.560 E4.8371
G1 X87.567 Y83.505 E4.8394
G1 X87.968 Y82.327 E4.8891
G1 X87.996 Y82.255 E4.8921
G1 X88.486 Y81.101 E4.9422
G1 X88.519 Y81.031 E4.9453
G1 X89.092 Y79.917 E4.9953
