; G-Code generated by Simplify3D(R) Version 4.1.2
; Apr 26, 2020 at 12:12:52 AM
; Settings Summary
;   processName,First Layer
;   applyToModels,face-mask-band_rev1,face-mask-band_rev1(2),face-mask-band_rev1(3),face-mask-band_rev1(4)
;   profileName,HBot - First Layer (modified)
;   profileVersion,2019-10-26 23:38:43
;   baseProfile,Default
;   printMaterial,PETG - ERYONE
;   printQuality,Fast
;   printExtruders,
;   extruderName,Extruder 1
;   extruderToolheadNumber,0
;   extruderDiameter,0.4
;   extruderAutoWidth,1
;   extruderWidth,0.48
;   extrusionMultiplier,0.98
;   extruderUseRetract,1
;   extruderRetractionDistance,3
;   extruderExtraRestartDistance,0
;   extruderRetractionZLift,0
;   extruderRetractionSpeed,1500
;   extruderUseCoasting,0
;   extruderCoastingDistance,0.2
;   extruderUseWipe,0
;   extruderWipeDistance,5
;   primaryExtruder,0
;   layerHeight,0.3
;   topSolidLayers,5
;   bottomSolidLayers,5
;   perimeterOutlines,3
;   printPerimetersInsideOut,1
;   startPointOption,3
;   startPointOriginX,200
;   startPointOriginY,100
;   sequentialIslands,0
;   spiralVaseMode,0
;   firstLayerHeightPercentage,100
;   firstLayerWidthPercentage,150
;   firstLayerUnderspeed,1
;   useRaft,0
;   raftExtruder,0
;   raftTopLayers,3
;   raftBaseLayers,2
;   raftOffset,3
;   raftSeparationDistance,0.18
;   raftTopInfill,100
;   aboveRaftSpeedMultiplier,0.3
;   useSkirt,1
;   skirtExtruder,0
;   skirtLayers,1
;   skirtOutlines,3
;   skirtOffset,10
;   usePrimePillar,0
;   primePillarExtruder,999
;   primePillarWidth,12
;   primePillarLocation,7
;   primePillarSpeedMultiplier,1
;   useOozeShield,0
;   oozeShieldExtruder,999
;   oozeShieldOffset,2
;   oozeShieldOutlines,1
;   oozeShieldSidewallShape,1
;   oozeShieldSidewallAngle,30
;   oozeShieldSpeedMultiplier,1
;   infillExtruder,0
;   internalInfillPattern,Rectilinear
;   externalInfillPattern,Rectilinear
;   infillPercentage,10
;   outlineOverlapPercentage,25
;   infillExtrusionWidthPercentage,150
;   minInfillLength,5
;   infillLayerInterval,1
;   internalInfillAngles,45,-45
;   overlapInternalInfillAngles,0
;   externalInfillAngles,45,-45
;   generateSupport,0
;   supportExtruder,0
;   supportInfillPercentage,25
;   supportExtraInflation,0
;   supportBaseLayers,1
;   denseSupportExtruder,0
;   denseSupportLayers,0
;   denseSupportInfillPercentage,70
;   supportLayerInterval,1
;   supportHorizontalPartOffset,0.3
;   supportUpperSeparationLayers,1
;   supportLowerSeparationLayers,1
;   supportType,0
;   supportGridSpacing,4
;   maxOverhangAngle,25
;   supportAngles,0
;   temperatureName,Extruder 1,Heated Bed
;   temperatureNumber,0,1
;   temperatureSetpointCount,1,1
;   temperatureSetpointLayers,1,1
;   temperatureSetpointTemperatures,230,75
;   temperatureStabilizeAtStartup,1,1
;   temperatureHeatedBed,0,1
;   fanLayers,1
;   fanSpeeds,0
;   blipFanToFullPower,1
;   adjustSpeedForCooling,1
;   minSpeedLayerTime,15
;   minCoolingSpeedSlowdown,20
;   increaseFanForCooling,1
;   minFanLayerTime,45
;   maxCoolingFanSpeed,35
;   increaseFanForBridging,1
;   bridgingFanSpeed,80
;   use5D,1
;   relativeEdistances,0
;   allowEaxisZeroing,1
;   independentExtruderAxes,0
;   includeM10123,0
;   stickySupport,1
;   applyToolheadOffsets,0
;   gcodeXoffset,0
;   gcodeYoffset,0
;   gcodeZoffset,0
;   overrideMachineDefinition,1
;   machineTypeOverride,0
;   strokeXoverride,200
;   strokeYoverride,200
;   strokeZoverride,150
;   originOffsetXoverride,0
;   originOffsetYoverride,0
;   originOffsetZoverride,0
;   homeXdirOverride,-1
;   homeYdirOverride,-1
;   homeZdirOverride,-1
;   flipXoverride,1
;   flipYoverride,-1
;   flipZoverride,1
;   toolheadOffsets,0,0|0,0|0,0|0,0|0,0|0,0
;   overrideFirmwareConfiguration,1
;   firmwareTypeOverride,RepRap (Marlin/Repetier/Sprinter)
;   GPXconfigOverride,r2
;   baudRateOverride,115200
;   overridePrinterModels,0
;   printerModelsOverride
;   startingGcode,G28 ; home all axes,G32 ; run bed.g -- probe bed and enable compensation
;   layerChangeGcode,
;   retractionGcode,
;   toolChangeGcode,
;   endingGcode,M0 ; call stop.g
;   exportFileFormat,gcode
;   celebration,0
;   celebrationSong,Random Song
;   postProcessing,
;   defaultSpeed,4800
;   outlineUnderspeed,0.5
;   solidInfillUnderspeed,0.8
;   supportUnderspeed,0.8
;   rapidXYspeed,18000
;   rapidZspeed,1200
;   minBridgingArea,50
;   bridgingExtraInflation,0
;   bridgingExtrusionMultiplier,0.96
;   bridgingSpeedMultiplier,1
;   useFixedBridgingAngle,0
;   fixedBridgingAngle,0
;   applyBridgingToPerimeters,0
;   filamentDiameters,1.75|1.75|1.75|1.75|1.75|1.75
;   filamentPricesPerKg,46|46|46|46|46|46
;   filamentDensities,1.25|1.25|1.25|1.25|1.25|1.25
;   useMinPrintHeight,0
;   minPrintHeight,0
;   useMaxPrintHeight,1
;   maxPrintHeight,0.3
;   useDiaphragm,0
;   diaphragmLayerInterval,20
;   robustSlicing,1
;   mergeAllIntoSolid,0
;   onlyRetractWhenCrossingOutline,1
;   retractBetweenLayers,0
;   useRetractionMinTravel,1
;   retractionMinTravel,3
;   retractWhileWiping,1
;   onlyWipeOutlines,1
;   avoidCrossingOutline,1
;   maxMovementDetourFactor,5
;   toolChangeRetractionDistance,12
;   toolChangeExtraRestartDistance,-0.5
;   toolChangeRetractionSpeed,600
;   externalThinWallType,0
;   internalThinWallType,2
;   thinWallAllowedOverlapPercentage,10
;   singleExtrusionMinLength,1
;   singleExtrusionMinPrintingWidthPercentage,50
;   singleExtrusionMaxPrintingWidthPercentage,200
;   singleExtrusionEndpointExtension,0.2
;   horizontalSizeCompensation,-0.1
G90
M82
M106 S0
M140 S75
M190 S75
M104 S230 T0
M109 S230 T0
G28 ; home all axes
G32 ; run bed.g -- probe bed and enable compensation
; process First Layer
; layer 1, Z = 0.300
T0
G92 E0.0000
G1 E-3.0000 F1500
; feature skirt
; tool H0.300 W0.720
G1 Z0.300 F1200
G1 X194.050 Y109.354 F18000
G1 E0.0000 F1500
G92 E0.0000
G1 X188.864 Y138.763 E2.6281 F4800
G1 X194.050 Y146.158 E3.4230
G1 X188.460 Y177.859 E6.2559
G1 X180.442 Y183.466 E7.1170
G1 X171.046 Y181.797 E7.9568
G1 X169.902 Y181.472 E8.0615
G1 X168.552 Y180.938 E8.1893
G1 X168.466 Y180.892 E8.1978
G1 X167.946 Y181.256 E8.2537
G1 X158.723 Y179.630 E9.0778
G1 X157.723 Y179.362 E9.1690
G1 X156.008 Y178.736 E9.3297
G1 X155.940 Y178.697 E9.3366
G1 X155.427 Y179.055 E9.3916
G1 X146.032 Y177.386 E10.2314
G1 X144.888 Y177.062 E10.3360
G1 X143.538 Y176.527 E10.4639
G1 X143.450 Y176.480 E10.4727
G1 X142.920 Y176.850 E10.5295
G1 X133.524 Y175.181 E11.3693
G1 X132.381 Y174.857 E11.4740
G1 X131.900 Y174.666 E11.5195
G1 X131.245 Y174.777 E11.5779
G1 X130.258 Y174.854 E11.6651
G1 X129.798 Y174.872 E11.7056
G1 X69.665 Y174.864 E16.9977
G1 X68.447 Y174.737 E17.1054
G1 X68.103 Y174.665 E17.1363
G1 X67.619 Y174.856 E17.1822
G1 X66.476 Y175.181 E17.2868
G1 X57.080 Y176.850 E18.1267
G1 X56.541 Y176.474 E18.1844
G1 X55.325 Y176.992 E18.3008
G1 X54.041 Y177.373 E18.4187
G1 X44.572 Y179.055 E19.2650
G1 X44.060 Y178.697 E19.3200
G1 X43.992 Y178.736 E19.3269
G1 X42.277 Y179.362 E19.4876
G1 X41.277 Y179.630 E19.5788
G1 X32.054 Y181.256 E20.4029
G1 X31.524 Y180.885 E20.4598
G1 X30.311 Y181.402 E20.5759
G1 X29.027 Y181.784 E20.6938
G1 X19.558 Y183.466 E21.5401
G1 X11.540 Y177.859 E22.4012
G1 X5.950 Y146.158 E25.2341
G1 X11.136 Y138.763 E26.0290
G1 X5.950 Y109.354 E28.6571
G1 X11.136 Y101.959 E29.4520
G1 X5.950 Y72.550 E32.0801
G1 X11.136 Y65.154 E32.8750
G1 X5.950 Y35.746 E35.5031
G1 X11.568 Y27.734 E36.3642
G1 X21.066 Y26.073 E37.2128
G1 X22.448 Y25.995 E37.3346
G1 X23.695 Y26.071 E37.4445
G1 X24.075 Y25.529 E37.5028
G1 X33.574 Y23.867 E38.3514
G1 X34.956 Y23.790 E38.4732
G1 X36.202 Y23.866 E38.5831
G1 X36.582 Y23.324 E38.6414
G1 X46.080 Y21.662 E39.4900
G1 X47.462 Y21.584 E39.6118
G1 X48.709 Y21.661 E39.7217
G1 X49.089 Y21.118 E39.7800
G1 X58.587 Y19.457 E40.6286
G1 X59.969 Y19.379 E40.7504
G1 X61.595 Y19.478 E40.8938
G1 X62.965 Y19.726 E41.0163
G1 X64.476 Y20.188 E41.1554
G1 X65.750 Y20.749 E41.2779
G1 X67.158 Y21.578 E41.4217
G1 X67.761 Y22.037 E41.4884
G1 X67.868 Y21.890 E41.5043
G1 X68.904 Y20.792 E41.6372
G1 X70.350 Y19.606 E41.8018
G1 X71.626 Y18.808 E41.9342
G1 X73.387 Y17.996 E42.1049
G1 X74.971 Y17.519 E42.2505
G1 X76.665 Y17.260 E42.4013
G1 X77.561 Y17.192 E42.4803
G1 X122.823 Y17.200 E46.4637
G1 X124.171 Y17.356 E46.5831
G1 X125.836 Y17.745 E46.7336
G1 X127.106 Y18.200 E46.8523
G1 X128.577 Y18.926 E46.9967
G1 X129.711 Y19.657 E47.1154
G1 X131.092 Y20.788 E47.2725
G1 X132.123 Y21.880 E47.4047
G1 X132.244 Y22.046 E47.4228
G1 X132.841 Y21.580 E47.4893
G1 X134.028 Y20.861 E47.6115
G1 X135.423 Y20.225 E47.7464
G1 X136.748 Y19.801 E47.8689
G1 X138.395 Y19.481 E48.0166
G1 X139.783 Y19.378 E48.1390
G1 X141.008 Y19.431 E48.2469
G1 X141.774 Y19.515 E48.3147
G1 X150.918 Y21.124 E49.1318
G1 X151.294 Y21.660 E49.1894
G1 X152.538 Y21.584 E49.2992
G1 X153.919 Y21.662 E49.4209
G1 X163.418 Y23.324 E50.2695
G1 X163.798 Y23.866 E50.3278
G1 X165.044 Y23.790 E50.4377
G1 X166.426 Y23.867 E50.5595
G1 X175.925 Y25.529 E51.4082
G1 X176.292 Y26.053 E51.4645
G1 X177.783 Y26.001 E51.5957
G1 X179.009 Y26.086 E51.7039
G1 X188.432 Y27.734 E52.5458
G1 X194.049 Y35.746 E53.4069
G1 X188.864 Y65.155 E56.0350
G1 X194.049 Y72.550 E56.8299
G1 X188.864 Y101.959 E59.4580
G1 X194.050 Y109.354 E60.2528
G1 X193.289 Y109.523 F18000
G92 E0.0000
G1 X188.103 Y138.932 E2.6281 F4800
G1 X193.289 Y146.327 E3.4230
G1 X187.803 Y177.440 E6.2034
G1 X180.274 Y182.705 E7.0119
G1 X171.207 Y181.094 E7.8223
G1 X170.133 Y180.790 E7.9205
G1 X168.855 Y180.283 E8.0415
G1 X168.416 Y180.048 E8.0854
G1 X167.777 Y180.496 E8.1540
G1 X158.880 Y178.927 E8.9491
G1 X157.940 Y178.674 E9.0347
G1 X156.311 Y178.080 E9.1873
G1 X155.899 Y177.847 E9.2290
G1 X155.259 Y178.294 E9.2977
G1 X146.193 Y176.684 E10.1081
G1 X145.120 Y176.379 E10.2063
G1 X143.841 Y175.873 E10.3273
G1 X143.399 Y175.636 E10.3714
G1 X142.752 Y176.089 E10.4409
G1 X133.686 Y174.478 E11.2512
G1 X132.612 Y174.174 E11.3495
G1 X131.977 Y173.922 E11.4096
G1 X131.157 Y174.062 E11.4828
G1 X130.216 Y174.136 E11.5659
G1 X129.784 Y174.152 E11.6039
G1 X69.703 Y174.144 E16.8915
G1 X68.559 Y174.025 E16.9927
G1 X68.040 Y173.916 E17.0394
G1 X67.388 Y174.174 E17.1011
G1 X66.314 Y174.478 E17.1993
G1 X57.248 Y176.089 E18.0097
G1 X56.608 Y175.641 E18.0784
G1 X56.456 Y175.728 E18.0938
G1 X55.080 Y176.313 E18.2254
G1 X53.875 Y176.672 E18.3360
G1 X44.740 Y178.294 E19.1525
G1 X44.100 Y177.847 E19.2212
G1 X43.689 Y178.080 E19.2628
G1 X42.060 Y178.674 E19.4155
G1 X41.120 Y178.927 E19.5011
G1 X32.223 Y180.496 E20.2962
G1 X31.597 Y180.057 E20.3634
G1 X31.505 Y180.111 E20.3728
G1 X30.066 Y180.724 E20.5104
G1 X28.861 Y181.082 E20.6211
G1 X19.726 Y182.705 E21.4376
G1 X12.197 Y177.440 E22.2461
G1 X6.711 Y146.327 E25.0265
G1 X11.897 Y138.932 E25.8214
G1 X6.711 Y109.523 E28.4495
G1 X11.897 Y102.128 E29.2444
G1 X6.711 Y72.719 E31.8725
G1 X11.897 Y65.323 E32.6673
G1 X6.711 Y35.915 E35.2954
G1 X11.986 Y28.392 E36.1040
G1 X21.149 Y26.789 E36.9226
G1 X22.446 Y26.716 E37.0370
G1 X23.988 Y26.811 E37.1729
G1 X24.048 Y26.821 E37.1783
G1 X24.493 Y26.187 E37.2465
G1 X33.656 Y24.584 E38.0652
G1 X34.954 Y24.511 E38.1795
G1 X36.495 Y24.605 E38.3155
G1 X36.555 Y24.616 E38.3208
G1 X37.000 Y23.981 E38.3891
G1 X46.163 Y22.378 E39.2077
G1 X47.460 Y22.306 E39.3220
G1 X49.002 Y22.400 E39.4580
G1 X49.062 Y22.411 E39.4634
G1 X49.507 Y21.776 E39.5316
G1 X58.670 Y20.173 E40.3502
G1 X59.967 Y20.100 E40.4645
G1 X61.509 Y20.195 E40.6005
G1 X62.795 Y20.427 E40.7155
G1 X64.225 Y20.864 E40.8471
G1 X65.422 Y21.391 E40.9621
G1 X66.756 Y22.177 E41.0984
G1 X67.797 Y22.968 E41.2135
G1 X67.901 Y23.069 E41.2263
G1 X68.423 Y22.350 E41.3044
G1 X69.396 Y21.319 E41.4292
G1 X70.771 Y20.192 E41.5857
G1 X71.969 Y19.442 E41.7100
G1 X73.643 Y18.671 E41.8722
G1 X75.130 Y18.224 E42.0089
G1 X76.747 Y17.976 E42.1529
G1 X77.588 Y17.912 E42.2271
G1 X122.782 Y17.920 E46.2044
G1 X124.047 Y18.066 E46.3165
G1 X125.632 Y18.437 E46.4598
G1 X126.824 Y18.864 E46.5712
G1 X128.222 Y19.553 E46.7084
G1 X129.287 Y20.240 E46.8199
G1 X130.600 Y21.316 E46.9693
G1 X131.568 Y22.341 E47.0934
G1 X132.101 Y23.071 E47.1729
G1 X133.250 Y22.174 E47.3012
G1 X134.365 Y21.499 E47.4159
G1 X135.683 Y20.898 E47.5434
G1 X136.927 Y20.500 E47.6584
G1 X138.491 Y20.196 E47.7986
G1 X139.794 Y20.099 E47.9136
G1 X140.953 Y20.150 E48.0157
G1 X141.672 Y20.228 E48.0793
G1 X150.500 Y21.782 E48.8681
G1 X150.940 Y22.410 E48.9357
G1 X150.998 Y22.400 E48.9409
G1 X152.540 Y22.306 E49.0768
G1 X153.837 Y22.378 E49.1912
G1 X163.000 Y23.981 E50.0098
G1 X163.445 Y24.616 E50.0780
G1 X163.505 Y24.605 E50.0834
G1 X165.046 Y24.511 E50.2193
G1 X166.344 Y24.584 E50.3337
G1 X175.507 Y26.187 E51.1523
G1 X175.959 Y26.831 E51.2216
G1 X176.351 Y26.771 E51.2565
G1 X177.770 Y26.722 E51.3815
G1 X178.921 Y26.801 E51.4831
G1 X188.014 Y28.392 E52.2954
G1 X193.289 Y35.915 E53.1040
G1 X188.103 Y65.323 E55.7321
G1 X193.289 Y72.719 E56.5269
G1 X188.103 Y102.128 E59.1550
G1 X193.289 Y109.523 E59.9499
G1 X192.528 Y109.692 F18000
G92 E0.0000
G1 X187.288 Y139.408 E2.6556 F4800
G1 X187.596 Y139.462 E2.6831
G1 X192.528 Y146.496 E3.4391
G1 X187.145 Y177.021 E6.1670
G1 X180.106 Y181.944 E6.9229
G1 X171.369 Y180.392 E7.7039
G1 X170.365 Y180.107 E7.7958
G1 X169.158 Y179.629 E7.9099
G1 X168.365 Y179.205 E7.9891
G1 X167.609 Y179.735 E8.0704
G1 X159.036 Y178.223 E8.8365
G1 X158.157 Y177.987 E8.9165
G1 X156.614 Y177.424 E9.0611
G1 X155.859 Y176.996 E9.1375
G1 X155.091 Y177.533 E9.2199
G1 X146.355 Y175.981 E10.0008
G1 X145.351 Y175.696 E10.0927
G1 X144.145 Y175.219 E10.2069
G1 X143.349 Y174.793 E10.2863
G1 X142.584 Y175.328 E10.3684
G1 X133.848 Y173.776 E11.1493
G1 X132.844 Y173.491 E11.2411
G1 X132.047 Y173.175 E11.3166
G1 X131.996 Y173.189 E11.3212
G1 X131.068 Y173.347 E11.4040
G1 X130.174 Y173.417 E11.4829
G1 X129.770 Y173.432 E11.5185
G1 X69.740 Y173.424 E16.8015
G1 X68.671 Y173.313 E16.8962
G1 X67.976 Y173.166 E16.9586
G1 X67.156 Y173.491 E17.0362
G1 X66.152 Y173.776 E17.1281
G1 X57.416 Y175.328 E17.9090
G1 X56.647 Y174.791 E17.9915
G1 X56.136 Y175.081 E18.0433
G1 X54.836 Y175.635 E18.1676
G1 X53.709 Y175.970 E18.2711
G1 X44.908 Y177.533 E19.0577
G1 X44.141 Y176.996 E19.1402
G1 X43.386 Y177.424 E19.2165
G1 X41.843 Y177.987 E19.3611
G1 X40.964 Y178.223 E19.4411
G1 X32.391 Y179.735 E20.2072
G1 X31.632 Y179.203 E20.2888
G1 X31.181 Y179.466 E20.3348
G1 X29.822 Y180.045 E20.4648
G1 X28.695 Y180.381 E20.5683
G1 X19.894 Y181.944 E21.3549
G1 X12.855 Y177.021 E22.1109
G1 X7.472 Y146.496 E24.8387
G1 X12.404 Y139.462 E25.5948
G1 X12.712 Y139.408 E25.6223
G1 X7.472 Y109.692 E28.2779
G1 X12.404 Y102.658 E29.0339
G1 X12.712 Y102.604 E29.0614
G1 X7.472 Y72.888 E31.7170
G1 X12.404 Y65.854 E32.4730
G1 X12.712 Y65.800 E32.5005
G1 X7.472 Y36.084 E35.1561
G1 X12.404 Y29.050 E35.9121
G1 X21.231 Y27.506 E36.7007
G1 X22.445 Y27.437 E36.8077
G1 X23.902 Y27.527 E36.9361
G1 X24.373 Y27.612 E36.9783
G1 X24.911 Y26.844 E37.0608
G1 X33.739 Y25.300 E37.8495
G1 X34.952 Y25.232 E37.9564
G1 X36.409 Y25.321 E38.0849
G1 X36.880 Y25.407 E38.1270
G1 X37.418 Y24.639 E38.2095
G1 X46.245 Y23.095 E38.9981
G1 X47.458 Y23.027 E39.1051
G1 X48.916 Y23.116 E39.2335
G1 X49.387 Y23.201 E39.2757
G1 X49.925 Y22.434 E39.3582
G1 X58.752 Y20.890 E40.1469
G1 X59.965 Y20.821 E40.2538
G1 X61.423 Y20.911 E40.3823
G1 X62.625 Y21.128 E40.4898
G1 X63.974 Y21.540 E40.6139
G1 X65.093 Y22.033 E40.7215
G1 X66.354 Y22.775 E40.8503
G1 X67.327 Y23.515 E40.9579
G1 X67.996 Y24.162 E41.0398
G1 X68.978 Y22.811 E41.1868
G1 X69.888 Y21.847 E41.3035
G1 X71.192 Y20.778 E41.4519
G1 X72.312 Y20.077 E41.5681
G1 X73.898 Y19.346 E41.7218
G1 X75.289 Y18.928 E41.8497
G1 X76.829 Y18.692 E41.9867
G1 X77.616 Y18.632 E42.0562
G1 X122.740 Y18.640 E46.0274
G1 X123.923 Y18.777 E46.1323
G1 X125.428 Y19.129 E46.2682
G1 X126.542 Y19.528 E46.3724
G1 X127.866 Y20.181 E46.5023
G1 X128.862 Y20.822 E46.6066
G1 X130.108 Y21.843 E46.7483
G1 X131.014 Y22.802 E46.8644
G1 X132.001 Y24.157 E47.0120
G1 X132.365 Y23.778 E47.0582
G1 X133.660 Y22.768 E47.2027
G1 X134.702 Y22.136 E47.3100
G1 X135.943 Y21.571 E47.4300
G1 X137.106 Y21.198 E47.5375
G1 X138.587 Y20.911 E47.6702
G1 X139.805 Y20.820 E47.7777
G1 X140.898 Y20.868 E47.8740
