; G-Code generated by Simplify3D(R) Version 4.1.2
; May 13, 2020 at 11:06:32 PM
; Settings Summary
;   processName,Process1
;   applyToModels,connector-prototype-v1,connector-prototype-v1(2)
;   profileName,HBot (modified)
;   profileVersion,2019-10-26 23:38:43
;   baseProfile,Default
;   printMaterial,PETG - SUNLU
;   printQuality,Medium
;   printExtruders,
;   extruderName,Extruder 1
;   extruderToolheadNumber,0
;   extruderDiameter,0.4
;   extruderAutoWidth,1
;   extruderWidth,0.48
;   extrusionMultiplier,1
;   extruderUseRetract,1
;   extruderRetractionDistance,4
;   extruderExtraRestartDistance,0
;   extruderRetractionZLift,0
;   extruderRetractionSpeed,3600
;   extruderUseCoasting,1
;   extruderCoastingDistance,0.2
;   extruderUseWipe,1
;   extruderWipeDistance,5
;   primaryExtruder,0
;   layerHeight,0.2
;   topSolidLayers,3
;   bottomSolidLayers,3
;   perimeterOutlines,3
;   printPerimetersInsideOut,1
;   startPointOption,3
;   startPointOriginX,200
;   startPointOriginY,100
;   sequentialIslands,0
;   spiralVaseMode,0
;   firstLayerHeightPercentage,100
;   firstLayerWidthPercentage,100
;   firstLayerUnderspeed,0.5
;   useRaft,0
;   raftExtruder,0
;   raftTopLayers,3
;   raftBaseLayers,2
;   raftOffset,3
;   raftSeparationDistance,0.18
;   raftTopInfill,100
;   aboveRaftSpeedMultiplier,0.3
;   useSkirt,1
;   skirtExtruder,0
;   skirtLayers,1
;   skirtOutlines,5
;   skirtOffset,10
;   usePrimePillar,0
;   primePillarExtruder,999
;   primePillarWidth,12
;   primePillarLocation,7
;   primePillarSpeedMultiplier,1
;   useOozeShield,0
;   oozeShieldExtruder,999
;   oozeShieldOffset,2
;   oozeShieldOutlines,1
;   oozeShieldSidewallShape,1
;   oozeShieldSidewallAngle,30
;   oozeShieldSpeedMultiplier,1
;   infillExtruder,0
;   internalInfillPattern,Rectilinear
;   externalInfillPattern,Rectilinear
;   infillPercentage,20
;   outlineOverlapPercentage,25
;   infillExtrusionWidthPercentage,100
;   minInfillLength,5
;   infillLayerInterval,1
;   internalInfillAngles,45,-45
;   overlapInternalInfillAngles,0
;   externalInfillAngles,45,-45
;   generateSupport,0
;   supportExtruder,0
;   supportInfillPercentage,30
;   supportExtraInflation,0
;   supportBaseLayers,1
;   denseSupportExtruder,0
;   denseSupportLayers,0
;   denseSupportInfillPercentage,70
;   supportLayerInterval,1
;   supportHorizontalPartOffset,0.3
;   supportUpperSeparationLayers,1
;   supportLowerSeparationLayers,1
;   supportType,0
;   supportGridSpacing,4
;   maxOverhangAngle,25
;   supportAngles,0
;   temperatureName,Extruder 1,Heated Bed
;   temperatureNumber,0,1
;   temperatureSetpointCount,2,1
;   temperatureSetpointLayers,1,2,1
;   temperatureSetpointTemperatures,235,225,75
;   temperatureStabilizeAtStartup,1,1
;   temperatureHeatedBed,0,1
;   fanLayers,1,10
;   fanSpeeds,0,5
;   blipFanToFullPower,1
;   adjustSpeedForCooling,1
;   minSpeedLayerTime,15
;   minCoolingSpeedSlowdown,20
;   increaseFanForCooling,1
;   minFanLayerTime,45
;   maxCoolingFanSpeed,35
;   increaseFanForBridging,1
;   bridgingFanSpeed,80
;   use5D,1
;   relativeEdistances,0
;   allowEaxisZeroing,1
;   independentExtruderAxes,0
;   includeM10123,0
;   stickySupport,1
;   applyToolheadOffsets,0
;   gcodeXoffset,0
;   gcodeYoffset,0
;   gcodeZoffset,0
;   overrideMachineDefinition,1
;   machineTypeOverride,0
;   strokeXoverride,200
;   strokeYoverride,200
;   strokeZoverride,150
;   originOffsetXoverride,0
;   originOffsetYoverride,0
;   originOffsetZoverride,0
;   homeXdirOverride,-1
;   homeYdirOverride,-1
;   homeZdirOverride,-1
;   flipXoverride,1
;   flipYoverride,-1
;   flipZoverride,1
;   toolheadOffsets,0,0|0,0|0,0|0,0|0,0|0,0
;   overrideFirmwareConfiguration,1
;   firmwareTypeOverride,RepRap (Marlin/Repetier/Sprinter)
;   GPXconfigOverride,r2
;   baudRateOverride,115200
;   overridePrinterModels,0
;   printerModelsOverride
;   startingGcode,G28 ; home all axes,G32 ; run bed.g -- probe bed and enable compensation
;   layerChangeGcode,
;   retractionGcode,
;   toolChangeGcode,
;   endingGcode,M0 ; call stop.g
;   exportFileFormat,gcode
;   celebration,0
;   celebrationSong,Random Song
;   postProcessing,
;   defaultSpeed,3600
;   outlineUnderspeed,0.5
;   solidInfillUnderspeed,0.8
;   supportUnderspeed,0.8
;   rapidXYspeed,18000
;   rapidZspeed,1200
;   minBridgingArea,50
;   bridgingExtraInflation,0
;   bridgingExtrusionMultiplier,0.96
;   bridgingSpeedMultiplier,1
;   useFixedBridgingAngle,0
;   fixedBridgingAngle,0
;   applyBridgingToPerimeters,0
;   filamentDiameters,1.75|1.75|1.75|1.75|1.75|1.75
;   filamentPricesPerKg,46|46|46|46|46|46
;   filamentDensities,1.25|1.25|1.25|1.25|1.25|1.25
;   useMinPrintHeight,0
;   minPrintHeight,0.2
;   useMaxPrintHeight,0
;   maxPrintHeight,0
;   useDiaphragm,0
;   diaphragmLayerInterval,20
;   robustSlicing,1
;   mergeAllIntoSolid,0
;   onlyRetractWhenCrossingOutline,1
;   retractBetweenLayers,0
;   useRetractionMinTravel,1
;   retractionMinTravel,3
;   retractWhileWiping,1
;   onlyWipeOutlines,1
;   avoidCrossingOutline,1
;   maxMovementDetourFactor,5
;   toolChangeRetractionDistance,12
;   toolChangeExtraRestartDistance,-0.5
;   toolChangeRetractionSpeed,600
;   externalThinWallType,0
;   internalThinWallType,2
;   thinWallAllowedOverlapPercentage,10
;   singleExtrusionMinLength,1
;   singleExtrusionMinPrintingWidthPercentage,50
;   singleExtrusionMaxPrintingWidthPercentage,150
;   singleExtrusionEndpointExtension,0.2
;   horizontalSizeCompensation,-0.1
G90
M82
M106 S255
G4 P500
M106 S62
M140 S75
M190 S75
M104 S235 T0
M109 S235 T0
G28 ; home all axes
G32 ; run bed.g -- probe bed and enable compensation
; process Process1
; layer 1, Z = 0.200
T0
G92 E0.0000
G1 E-4.0000 F3600
; feature skirt
; tool H0.200 W0.480
G1 Z0.200 F1200
G1 X138.900 Y96.630 F18000
G1 E0.0000 F3600
G92 E0.0000
G1 X138.692 Y98.210 E0.0636 F1800
G1 X138.208 Y100.018 E0.1383
G1 X138.523 Y100.987 E0.1790
G1 X138.813 Y102.554 E0.2426
G1 X138.934 Y104.852 E0.3344
G1 X138.734 Y106.756 E0.4108
G1 X138.138 Y108.979 E0.5027
G1 X137.528 Y110.451 E0.5663
G1 X136.628 Y112.010 E0.6382
G1 X135.879 Y113.041 E0.6890
G1 X134.781 Y114.261 E0.7545
G1 X133.834 Y115.114 E0.8054
G1 X132.506 Y116.078 E0.8709
G1 X131.403 Y116.715 E0.9217
G1 X129.755 Y117.449 E0.9937
G1 X128.220 Y117.902 E1.0576
G1 X126.414 Y118.186 E1.1306
G1 X125.469 Y118.260 E1.1684
G1 X74.526 Y118.260 E3.2016
G1 X73.577 Y118.186 E3.2396
G1 X71.774 Y117.901 E3.3125
G1 X70.243 Y117.448 E3.3762
G1 X68.597 Y116.715 E3.4481
G1 X67.493 Y116.078 E3.4990
G1 X66.166 Y115.114 E3.5645
G1 X65.219 Y114.261 E3.6153
G1 X64.122 Y113.042 E3.6808
G1 X63.372 Y112.011 E3.7317
G1 X62.552 Y110.590 E3.7971
G1 X62.033 Y109.425 E3.8480
G1 X61.527 Y107.865 E3.9135
G1 X61.262 Y106.619 E3.9644
G1 X61.090 Y104.987 E4.0298
G1 X61.090 Y103.713 E4.0807
G1 X61.262 Y102.081 E4.1462
G1 X61.527 Y100.835 E4.1970
G1 X61.798 Y100.000 E4.2321
G1 X61.527 Y99.165 E4.2671
G1 X61.262 Y97.919 E4.3180
G1 X61.090 Y96.287 E4.3834
G1 X61.090 Y95.013 E4.4343
G1 X61.262 Y93.381 E4.4998
G1 X61.527 Y92.135 E4.5506
G1 X62.033 Y90.575 E4.6161
G1 X62.552 Y89.410 E4.6670
G1 X63.372 Y87.989 E4.7325
G1 X64.122 Y86.958 E4.7834
G1 X65.219 Y85.739 E4.8488
G1 X66.166 Y84.886 E4.8997
G1 X67.493 Y83.922 E4.9652
G1 X68.597 Y83.285 E5.0160
G1 X70.243 Y82.552 E5.0879
G1 X71.774 Y82.099 E5.1517
G1 X73.577 Y81.814 E5.2245
G1 X74.528 Y81.740 E5.2626
G1 X125.982 Y81.750 E7.3162
G1 X127.561 Y81.958 E7.3798
G1 X129.629 Y82.512 E7.4652
G1 X131.102 Y83.122 E7.5289
G1 X132.661 Y84.022 E7.6007
G1 X133.692 Y84.771 E7.6516
G1 X134.911 Y85.869 E7.7170
G1 X135.764 Y86.816 E7.7679
G1 X136.728 Y88.143 E7.8334
G1 X137.365 Y89.247 E7.8843
G1 X138.032 Y90.746 E7.9497
G1 X138.426 Y91.958 E8.0006
G1 X138.767 Y93.563 E8.0661
G1 X138.900 Y94.830 E8.1169
G1 X138.900 Y96.630 E8.1888
G1 X138.420 Y96.598 F18000
G92 E0.0000
G1 X138.220 Y98.116 E0.0611 F1800
G1 X137.708 Y100.031 E0.1402
G1 X138.057 Y101.105 E0.1853
G1 X138.335 Y102.610 E0.2464
G1 X138.452 Y104.839 E0.3355
G1 X138.260 Y106.668 E0.4089
G1 X137.682 Y108.824 E0.4980
G1 X137.097 Y110.239 E0.5591
G1 X136.225 Y111.749 E0.6287
G1 X135.505 Y112.739 E0.6775
G1 X134.441 Y113.921 E0.7410
G1 X133.531 Y114.740 E0.7899
G1 X132.245 Y115.675 E0.8533
G1 X131.185 Y116.287 E0.9022
G1 X129.589 Y116.997 E0.9719
G1 X128.114 Y117.433 E1.0333
G1 X126.358 Y117.709 E1.1042
G1 X125.450 Y117.780 E1.1406
G1 X74.545 Y117.780 E3.1723
G1 X73.633 Y117.708 E3.2088
G1 X71.880 Y117.432 E3.2796
G1 X70.410 Y116.997 E3.3409
G1 X68.816 Y116.287 E3.4105
G1 X67.755 Y115.675 E3.4594
G1 X66.469 Y114.740 E3.5228
G1 X65.559 Y113.921 E3.5717
G1 X64.495 Y112.740 E3.6351
G1 X63.776 Y111.749 E3.6840
G1 X62.980 Y110.372 E3.7475
G1 X62.482 Y109.253 E3.7964
G1 X61.991 Y107.741 E3.8598
G1 X61.736 Y106.543 E3.9087
G1 X61.570 Y104.962 E3.9721
G1 X61.570 Y103.738 E4.0210
G1 X61.736 Y102.156 E4.0845
G1 X61.991 Y100.959 E4.1333
G1 X62.302 Y100.000 E4.1736
G1 X61.991 Y99.041 E4.2138
G1 X61.736 Y97.844 E4.2627
G1 X61.570 Y96.262 E4.3261
G1 X61.570 Y95.038 E4.3750
G1 X61.736 Y93.456 E4.4385
G1 X61.991 Y92.259 E4.4873
G1 X62.482 Y90.747 E4.5508
G1 X62.980 Y89.628 E4.5997
G1 X63.775 Y88.251 E4.6631
G1 X64.495 Y87.261 E4.7120
G1 X65.559 Y86.079 E4.7755
G1 X66.469 Y85.260 E4.8243
G1 X67.755 Y84.325 E4.8878
G1 X68.815 Y83.713 E4.9366
G1 X70.410 Y83.003 E5.0063
G1 X71.880 Y82.568 E5.0675
G1 X73.634 Y82.291 E5.1384
G1 X74.547 Y82.220 E5.1749
G1 X125.950 Y82.230 E7.2265
G1 X127.467 Y82.430 E7.2876
G1 X129.474 Y82.968 E7.3705
G1 X130.889 Y83.554 E7.4317
G1 X132.399 Y84.425 E7.5012
G1 X133.389 Y85.145 E7.5501
G1 X134.571 Y86.209 E7.6136
G1 X135.390 Y87.119 E7.6624
G1 X136.325 Y88.405 E7.7259
G1 X136.937 Y89.465 E7.7747
G1 X137.583 Y90.918 E7.8382
G1 X137.962 Y92.082 E7.8871
G1 X138.292 Y93.638 E7.9505
G1 X138.420 Y94.855 E7.9994
G1 X138.420 Y96.598 E8.0690
G1 X137.940 Y96.567 F18000
G92 E0.0000
G1 X137.749 Y98.022 E0.0586 F1800
G1 X137.227 Y99.969 E0.1390
G1 X137.202 Y100.029 E0.1416
G1 X137.590 Y101.223 E0.1917
G1 X137.858 Y102.667 E0.2503
G1 X137.971 Y104.827 E0.3367
G1 X137.787 Y106.580 E0.4070
G1 X137.227 Y108.669 E0.4934
G1 X136.665 Y110.026 E0.5520
G1 X135.822 Y111.487 E0.6193
G1 X135.132 Y112.436 E0.6661
G1 X134.101 Y113.581 E0.7276
G1 X133.229 Y114.367 E0.7745
G1 X131.983 Y115.272 E0.8359
G1 X130.966 Y115.858 E0.8828
G1 X129.423 Y116.546 E0.9502
G1 X128.008 Y116.964 E1.0091
G1 X126.302 Y117.232 E1.0780
G1 X125.431 Y117.300 E1.1129
G1 X74.564 Y117.300 E3.1431
G1 X73.689 Y117.231 E3.1781
G1 X71.986 Y116.963 E3.2469
G1 X70.576 Y116.545 E3.3056
G1 X69.034 Y115.859 E3.3730
G1 X68.017 Y115.272 E3.4199
G1 X66.771 Y114.367 E3.4813
G1 X65.899 Y113.581 E3.5282
G1 X64.869 Y112.437 E3.5896
G1 X64.179 Y111.487 E3.6365
G1 X63.409 Y110.154 E3.6979
G1 X62.931 Y109.081 E3.7448
G1 X62.455 Y107.616 E3.8063
G1 X62.211 Y106.468 E3.8531
G1 X62.050 Y104.937 E3.9146
G1 X62.050 Y103.763 E3.9614
G1 X62.211 Y102.232 E4.0229
G1 X62.455 Y101.084 E4.0697
G1 X62.807 Y100.000 E4.1152
G1 X62.455 Y98.916 E4.1607
G1 X62.211 Y97.768 E4.2075
G1 X62.050 Y96.237 E4.2690
G1 X62.050 Y95.063 E4.3158
G1 X62.211 Y93.532 E4.3773
G1 X62.455 Y92.384 E4.4241
G1 X62.931 Y90.919 E4.4856
G1 X63.408 Y89.847 E4.5325
G1 X64.179 Y88.513 E4.5939
G1 X64.869 Y87.563 E4.6408
G1 X65.899 Y86.419 E4.7022
G1 X66.771 Y85.633 E4.7491
G1 X68.017 Y84.728 E4.8105
G1 X69.034 Y84.141 E4.8574
G1 X70.576 Y83.455 E4.9248
G1 X71.986 Y83.037 E4.9835
G1 X73.690 Y82.769 E5.0523
G1 X74.566 Y82.700 E5.0874
G1 X125.919 Y82.710 E7.1370
G1 X127.373 Y82.901 E7.1955
G1 X129.320 Y83.423 E7.2760
G1 X130.676 Y83.985 E7.3346
G1 X132.137 Y84.828 E7.4019
G1 X133.087 Y85.518 E7.4487
G1 X134.231 Y86.549 E7.5102
G1 X135.016 Y87.421 E7.5571
G1 X135.922 Y88.667 E7.6185
G1 X136.508 Y89.683 E7.6654
G1 X137.135 Y91.090 E7.7268
G1 X137.498 Y92.207 E7.7737
G1 X137.818 Y93.713 E7.8351
G1 X137.940 Y94.880 E7.8820
G1 X137.940 Y96.567 E7.9493
G1 X137.460 Y96.535 F18000
G92 E0.0000
G1 X137.277 Y97.928 E0.0561 F1800
G1 X136.772 Y99.815 E0.1340
G1 X136.691 Y100.009 E0.1424
G1 X137.124 Y101.342 E0.1983
G1 X137.380 Y102.723 E0.2544
G1 X137.490 Y104.814 E0.3380
G1 X137.313 Y106.492 E0.4053
G1 X136.771 Y108.515 E0.4889
G1 X136.234 Y109.813 E0.5450
G1 X135.419 Y111.225 E0.6101
G1 X134.758 Y112.134 E0.6549
G1 X133.762 Y113.241 E0.7144
G1 X132.926 Y113.993 E0.7592
G1 X131.721 Y114.868 E0.8187
G1 X130.748 Y115.430 E0.8635
G1 X129.256 Y116.094 E0.9287
G1 X127.902 Y116.495 E0.9850
G1 X126.246 Y116.755 E1.0519
G1 X125.413 Y116.820 E1.0853
G1 X74.583 Y116.820 E3.1140
G1 X73.746 Y116.754 E3.1476
G1 X72.092 Y116.493 E3.2144
G1 X70.742 Y116.094 E3.2705
G1 X69.252 Y115.430 E3.3357
G1 X68.279 Y114.868 E3.3805
G1 X67.074 Y113.993 E3.4400
G1 X66.239 Y113.241 E3.4848
G1 X65.242 Y112.135 E3.5443
G1 X64.582 Y111.226 E3.5891
G1 X63.837 Y109.935 E3.6486
G1 X63.380 Y108.908 E3.6934
G1 X62.919 Y107.492 E3.7529
G1 X62.686 Y106.393 E3.7977
G1 X62.530 Y104.912 E3.8571
G1 X62.530 Y103.788 E3.9020
G1 X62.686 Y102.307 E3.9614
G1 X62.919 Y101.208 E4.0063
G1 X63.312 Y100.000 E4.0570
G1 X62.919 Y98.792 E4.1077
G1 X62.686 Y97.693 E4.1525
G1 X62.530 Y96.212 E4.2120
G1 X62.530 Y95.088 E4.2568
G1 X62.686 Y93.607 E4.3163
G1 X62.919 Y92.508 E4.3611
G1 X63.380 Y91.092 E4.4205
G1 X63.837 Y90.065 E4.4654
G1 X64.582 Y88.775 E4.5249
G1 X65.242 Y87.866 E4.5697
G1 X66.239 Y86.759 E4.6291
G1 X67.074 Y86.007 E4.6740
G1 X68.279 Y85.132 E4.7334
G1 X69.252 Y84.570 E4.7783
G1 X70.742 Y83.906 E4.8434
G1 X72.092 Y83.507 E4.8996
G1 X73.746 Y83.246 E4.9664
G1 X74.584 Y83.180 E5.0000
G1 X125.887 Y83.190 E7.0476
G1 X127.279 Y83.373 E7.1036
G1 X129.165 Y83.879 E7.1815
G1 X130.463 Y84.416 E7.2376
G1 X131.875 Y85.232 E7.3027
G1 X132.784 Y85.892 E7.3475
G1 X133.891 Y86.889 E7.4070
G1 X134.643 Y87.724 E7.4518
G1 X135.518 Y88.929 E7.5113
G1 X136.080 Y89.902 E7.5561
G1 X136.686 Y91.262 E7.6156
G1 X137.033 Y92.331 E7.6604
G1 X137.343 Y93.788 E7.7199
G1 X137.460 Y94.905 E7.7647
G1 X137.460 Y96.535 E7.8298
G1 X136.980 Y96.504 F18000
G92 E0.0000
G1 X136.805 Y97.835 E0.0536 F1800
G1 X136.316 Y99.660 E0.1290
G1 X136.180 Y99.989 E0.1432
G1 X136.658 Y101.460 E0.2049
G1 X136.902 Y102.780 E0.2585
G1 X137.008 Y104.802 E0.3393
G1 X136.840 Y106.405 E0.4036
G1 X136.316 Y108.360 E0.4845
G1 X135.802 Y109.600 E0.5380
G1 X135.016 Y110.963 E0.6008
G1 X134.385 Y111.832 E0.6437
G1 X133.422 Y112.901 E0.7011
G1 X132.624 Y113.619 E0.7440
G1 X131.459 Y114.465 E0.8014
G1 X130.530 Y115.002 E0.8442
G1 X129.090 Y115.643 E0.9072
G1 X127.797 Y116.025 E0.9610
G1 X126.190 Y116.278 E1.0259
G1 X125.394 Y116.340 E1.0578
G1 X74.602 Y116.340 E3.0850
G1 X73.802 Y116.277 E3.1170
G1 X72.198 Y116.024 E3.1818
G1 X70.909 Y115.643 E3.2355
G1 X69.470 Y115.002 E3.2983
G1 X68.541 Y114.465 E3.3412
G1 X67.376 Y113.619 E3.3986
G1 X66.579 Y112.901 E3.4415
G1 X65.616 Y111.832 E3.4989
G1 X64.985 Y110.964 E3.5417
G1 X64.265 Y109.717 E3.5992
G1 X63.828 Y108.736 E3.6420
G1 X63.384 Y107.367 E3.6995
G1 X63.161 Y106.318 E3.7423
G1 X63.010 Y104.887 E3.7997
G1 X63.010 Y103.813 E3.8426
G1 X63.161 Y102.382 E3.9000
G1 X63.384 Y101.333 E3.9428
G1 X63.817 Y100.000 E3.9988
G1 X63.384 Y98.667 E4.0547
G1 X63.161 Y97.618 E4.0975
G1 X63.010 Y96.187 E4.1549
G1 X63.010 Y95.113 E4.1978
G1 X63.161 Y93.682 E4.2552
G1 X63.384 Y92.633 E4.2980
G1 X63.828 Y91.264 E4.3555
G1 X64.265 Y90.283 E4.3983
G1 X64.985 Y89.036 E4.4558
G1 X65.616 Y88.168 E4.4986
G1 X66.579 Y87.099 E4.5561
G1 X67.376 Y86.381 E4.5989
G1 X68.540 Y85.535 E4.6563
G1 X69.470 Y84.998 E4.6992
G1 X70.909 Y84.357 E4.7620
G1 X72.198 Y83.976 E4.8157
G1 X73.802 Y83.723 E4.8805
G1 X74.603 Y83.660 E4.9126
G1 X125.856 Y83.670 E6.9582
G1 X127.185 Y83.845 E7.0117
G1 X129.010 Y84.334 E7.0871
G1 X130.251 Y84.848 E7.1407
G1 X131.613 Y85.635 E7.2035
G1 X132.482 Y86.265 E7.2463
G1 X133.551 Y87.228 E7.3038
G1 X134.269 Y88.026 E7.3466
G1 X135.115 Y89.190 E7.4041
G1 X135.652 Y90.120 E7.4469
G1 X136.237 Y91.435 E7.5043
G1 X136.569 Y92.456 E7.5472
G1 X136.868 Y93.863 E7.6046
G1 X136.980 Y94.931 E7.6474
G1 X136.980 Y96.504 E7.7102
G92 E0.0000
G1 E-4.0000 F3600
; feature inner perimeter
G1 X126.501 Y95.808 F18000
G1 X126.477 Y95.964
G1 X126.436 Y96.116
G1 X126.379 Y96.264
