; G-Code generated by Simplify3D(R) Version 4.1.2
; May 2, 2020 at 4:13:27 PM
; Settings Summary
;   processName,Process1
;   applyToModels,shell-v2
;   profileName,HBot
;   profileVersion,2019-10-26 23:38:43
;   baseProfile,Default
;   printMaterial,PETG - SUNLU
;   printQuality,Medium
;   printExtruders,
;   extruderName,Extruder 1
;   extruderToolheadNumber,0
;   extruderDiameter,0.4
;   extruderAutoWidth,1
;   extruderWidth,0.48
;   extrusionMultiplier,0.98
;   extruderUseRetract,1
;   extruderRetractionDistance,3
;   extruderExtraRestartDistance,0
;   extruderRetractionZLift,0
;   extruderRetractionSpeed,3600
;   extruderUseCoasting,1
;   extruderCoastingDistance,0.2
;   extruderUseWipe,1
;   extruderWipeDistance,5
;   primaryExtruder,0
;   layerHeight,0.2
;   topSolidLayers,3
;   bottomSolidLayers,3
;   perimeterOutlines,3
;   printPerimetersInsideOut,1
;   startPointOption,3
;   startPointOriginX,200
;   startPointOriginY,100
;   sequentialIslands,0
;   spiralVaseMode,0
;   firstLayerHeightPercentage,100
;   firstLayerWidthPercentage,150
;   firstLayerUnderspeed,0.5
;   useRaft,0
;   raftExtruder,0
;   raftTopLayers,3
;   raftBaseLayers,2
;   raftOffset,3
;   raftSeparationDistance,0.18
;   raftTopInfill,100
;   aboveRaftSpeedMultiplier,0.3
;   useSkirt,1
;   skirtExtruder,0
;   skirtLayers,1
;   skirtOutlines,3
;   skirtOffset,10
;   usePrimePillar,0
;   primePillarExtruder,999
;   primePillarWidth,12
;   primePillarLocation,7
;   primePillarSpeedMultiplier,1
;   useOozeShield,0
;   oozeShieldExtruder,999
;   oozeShieldOffset,2
;   oozeShieldOutlines,1
;   oozeShieldSidewallShape,1
;   oozeShieldSidewallAngle,30
;   oozeShieldSpeedMultiplier,1
;   infillExtruder,0
;   internalInfillPattern,Rectilinear
;   externalInfillPattern,Rectilinear
;   infillPercentage,20
;   outlineOverlapPercentage,25
;   infillExtrusionWidthPercentage,150
;   minInfillLength,5
;   infillLayerInterval,1
;   internalInfillAngles,45,-45
;   overlapInternalInfillAngles,0
;   externalInfillAngles,45,-45
;   generateSupport,1
;   supportExtruder,0
;   supportInfillPercentage,30
;   supportExtraInflation,0
;   supportBaseLayers,1
;   denseSupportExtruder,0
;   denseSupportLayers,0
;   denseSupportInfillPercentage,70
;   supportLayerInterval,1
;   supportHorizontalPartOffset,0.3
;   supportUpperSeparationLayers,1
;   supportLowerSeparationLayers,1
;   supportType,0
;   supportGridSpacing,4
;   maxOverhangAngle,25
;   supportAngles,0
;   temperatureName,Extruder 1,Heated Bed
;   temperatureNumber,0,1
;   temperatureSetpointCount,1,1
;   temperatureSetpointLayers,1,1
;   temperatureSetpointTemperatures,225,75
;   temperatureStabilizeAtStartup,1,1
;   temperatureHeatedBed,0,1
;   fanLayers,1,2
;   fanSpeeds,0,20
;   blipFanToFullPower,1
;   adjustSpeedForCooling,1
;   minSpeedLayerTime,15
;   minCoolingSpeedSlowdown,20
;   increaseFanForCooling,1
;   minFanLayerTime,45
;   maxCoolingFanSpeed,35
;   increaseFanForBridging,1
;   bridgingFanSpeed,80
;   use5D,1
;   relativeEdistances,0
;   allowEaxisZeroing,1
;   independentExtruderAxes,0
;   includeM10123,0
;   stickySupport,1
;   applyToolheadOffsets,0
;   gcodeXoffset,0
;   gcodeYoffset,0
;   gcodeZoffset,0
;   overrideMachineDefinition,1
;   machineTypeOverride,0
;   strokeXoverride,200
;   strokeYoverride,200
;   strokeZoverride,150
;   originOffsetXoverride,0
;   originOffsetYoverride,0
;   originOffsetZoverride,0
;   homeXdirOverride,-1
;   homeYdirOverride,-1
;   homeZdirOverride,-1
;   flipXoverride,1
;   flipYoverride,-1
;   flipZoverride,1
;   toolheadOffsets,0,0|0,0|0,0|0,0|0,0|0,0
;   overrideFirmwareConfiguration,1
;   firmwareTypeOverride,RepRap (Marlin/Repetier/Sprinter)
;   GPXconfigOverride,r2
;   baudRateOverride,115200
;   overridePrinterModels,0
;   printerModelsOverride
;   startingGcode,G28 ; home all axes,G32 ; run bed.g -- probe bed and enable compensation
;   layerChangeGcode,
;   retractionGcode,
;   toolChangeGcode,
;   endingGcode,M0 ; call stop.g
;   exportFileFormat,gcode
;   celebration,0
;   celebrationSong,Random Song
;   postProcessing,
;   defaultSpeed,3600
;   outlineUnderspeed,0.5
;   solidInfillUnderspeed,0.8
;   supportUnderspeed,0.8
;   rapidXYspeed,18000
;   rapidZspeed,1200
;   minBridgingArea,50
;   bridgingExtraInflation,0
;   bridgingExtrusionMultiplier,0.96
;   bridgingSpeedMultiplier,1
;   useFixedBridgingAngle,0
;   fixedBridgingAngle,0
;   applyBridgingToPerimeters,0
;   filamentDiameters,1.75|1.75|1.75|1.75|1.75|1.75
;   filamentPricesPerKg,46|46|46|46|46|46
;   filamentDensities,1.25|1.25|1.25|1.25|1.25|1.25
;   useMinPrintHeight,0
;   minPrintHeight,0.2
;   useMaxPrintHeight,0
;   maxPrintHeight,0
;   useDiaphragm,0
;   diaphragmLayerInterval,20
;   robustSlicing,1
;   mergeAllIntoSolid,0
;   onlyRetractWhenCrossingOutline,1
;   retractBetweenLayers,0
;   useRetractionMinTravel,1
;   retractionMinTravel,3
;   retractWhileWiping,1
;   onlyWipeOutlines,1
;   avoidCrossingOutline,1
;   maxMovementDetourFactor,5
;   toolChangeRetractionDistance,12
;   toolChangeExtraRestartDistance,-0.5
;   toolChangeRetractionSpeed,600
;   externalThinWallType,0
;   internalThinWallType,2
;   thinWallAllowedOverlapPercentage,10
;   singleExtrusionMinLength,1
;   singleExtrusionMinPrintingWidthPercentage,50
;   singleExtrusionMaxPrintingWidthPercentage,150
;   singleExtrusionEndpointExtension,0.2
;   horizontalSizeCompensation,-0.1
G90
M82
M106 S0
M140 S75
M190 S75
M104 S225 T0
M109 S225 T0
G28 ; home all axes
G32 ; run bed.g -- probe bed and enable compensation
; process Process1
; layer 1, Z = 0.200
T0
G92 E0.0000
G1 E-3.0000 F3600
; feature skirt
; tool H0.200 W0.720
G1 Z0.200 F1200
G1 X66.328 Y111.246 F18000
G1 E0.0000 F3600
G92 E0.0000
G1 X66.299 Y111.824 E0.0340 F1800
G1 X66.177 Y113.065 E0.1071
G1 X65.951 Y114.202 E0.1752
G1 X65.506 Y115.668 E0.2650
G1 X65.063 Y116.739 E0.3330
G1 X64.341 Y118.090 E0.4229
G1 X63.696 Y119.054 E0.4909
G1 X62.725 Y120.238 E0.5808
G1 X61.905 Y121.058 E0.6488
G1 X60.721 Y122.030 E0.7387
G1 X59.757 Y122.674 E0.8067
G1 X58.406 Y123.396 E0.8966
G1 X57.335 Y123.840 E0.9646
G1 X55.869 Y124.284 E1.0545
G1 X54.732 Y124.510 E1.1225
G1 X53.491 Y124.633 E1.1957
G1 X52.913 Y124.661 E1.2296
G1 X26.343 Y124.661 E2.7885
G1 X25.764 Y124.633 E2.8225
G1 X24.524 Y124.510 E2.8956
G1 X23.387 Y124.284 E2.9637
G1 X21.921 Y123.840 E3.0535
G1 X20.850 Y123.396 E3.1215
G1 X19.499 Y122.674 E3.2114
G1 X18.535 Y122.030 E3.2795
G1 X17.351 Y121.058 E3.3693
G1 X16.531 Y120.238 E3.4373
G1 X15.559 Y119.054 E3.5272
G1 X14.915 Y118.090 E3.5952
G1 X14.193 Y116.739 E3.6851
G1 X13.749 Y115.668 E3.7531
G1 X13.305 Y114.202 E3.8430
G1 X13.078 Y113.065 E3.9110
G1 X12.956 Y111.823 E3.9842
G1 X12.928 Y111.243 E4.0183
G1 X12.938 Y84.192 E5.6054
G1 X13.051 Y83.040 E5.6733
G1 X13.350 Y81.539 E5.7631
G1 X13.687 Y80.429 E5.8312
G1 X14.273 Y79.014 E5.9210
G1 X14.819 Y77.992 E5.9890
G1 X15.670 Y76.718 E6.0789
G1 X16.406 Y75.822 E6.1469
G1 X17.596 Y74.632 E6.2457
G1 X18.744 Y73.737 E6.3311
G1 X20.465 Y72.708 E6.4487
G1 X21.785 Y72.124 E6.5334
G1 X23.387 Y71.638 E6.6316
G1 X24.524 Y71.412 E6.6997
G1 X25.765 Y71.289 E6.7728
G1 X26.343 Y71.261 E6.8068
G1 X52.913 Y71.261 E8.3656
G1 X53.491 Y71.289 E8.3996
G1 X54.732 Y71.412 E8.4728
G1 X55.869 Y71.638 E8.5408
G1 X57.335 Y72.082 E8.6307
G1 X58.406 Y72.526 E8.6987
G1 X59.757 Y73.248 E8.7886
G1 X60.721 Y73.892 E8.8566
G1 X61.905 Y74.864 E8.9465
G1 X62.725 Y75.684 E9.0145
G1 X63.696 Y76.868 E9.1043
G1 X64.341 Y77.832 E9.1724
G1 X65.063 Y79.183 E9.2623
G1 X65.506 Y80.254 E9.3303
G1 X65.951 Y81.720 E9.4201
G1 X66.177 Y82.857 E9.4882
G1 X66.299 Y84.098 E9.5613
G1 X66.328 Y84.676 E9.5953
G1 X66.328 Y111.246 E11.1541
G1 X65.608 Y111.228 F18000
G92 E0.0000
G1 X65.581 Y111.771 E0.0319 F1800
G1 X65.464 Y112.959 E0.1020
G1 X65.252 Y114.027 E0.1658
G1 X64.828 Y115.425 E0.2515
G1 X64.411 Y116.431 E0.3154
G1 X63.722 Y117.719 E0.4011
G1 X63.117 Y118.625 E0.4650
G1 X62.191 Y119.754 E0.5507
G1 X61.421 Y120.524 E0.6146
G1 X60.292 Y121.451 E0.7003
G1 X59.386 Y122.055 E0.7642
G1 X58.098 Y122.744 E0.8499
G1 X57.092 Y123.161 E0.9138
G1 X55.694 Y123.585 E0.9995
G1 X54.626 Y123.797 E1.0634
G1 X53.438 Y123.914 E1.1334
G1 X52.895 Y123.941 E1.1653
G1 X26.361 Y123.941 E2.7221
G1 X25.817 Y123.914 E2.7540
G1 X24.629 Y123.797 E2.8241
G1 X23.562 Y123.585 E2.8879
G1 X22.164 Y123.161 E2.9736
G1 X21.158 Y122.744 E3.0375
G1 X19.869 Y122.055 E3.1232
G1 X18.964 Y121.451 E3.1871
G1 X17.835 Y120.524 E3.2728
G1 X17.065 Y119.754 E3.3367
G1 X16.138 Y118.625 E3.4224
G1 X15.533 Y117.719 E3.4863
G1 X14.845 Y116.431 E3.5720
G1 X14.428 Y115.425 E3.6359
G1 X14.004 Y114.027 E3.7216
G1 X13.792 Y112.959 E3.7855
G1 X13.674 Y111.770 E3.8556
G1 X13.648 Y111.225 E3.8876
G1 X13.658 Y84.227 E5.4716
G1 X13.764 Y83.146 E5.5353
G1 X14.049 Y81.714 E5.6210
G1 X14.365 Y80.672 E5.6849
G1 X14.924 Y79.323 E5.7706
G1 X15.437 Y78.363 E5.8344
G1 X16.249 Y77.148 E5.9202
G1 X16.940 Y76.306 E5.9840
G1 X18.073 Y75.173 E6.0781
G1 X19.152 Y74.332 E6.1583
G1 X20.797 Y73.349 E6.2707
G1 X22.036 Y72.800 E6.3503
G1 X23.562 Y72.337 E6.4438
G1 X24.630 Y72.125 E6.5077
G1 X25.818 Y72.008 E6.5777
G1 X26.361 Y71.981 E6.6096
G1 X52.895 Y71.981 E8.1664
G1 X53.438 Y72.008 E8.1983
G1 X54.626 Y72.125 E8.2684
G1 X55.694 Y72.337 E8.3322
G1 X57.092 Y72.761 E8.4180
G1 X58.098 Y73.178 E8.4818
G1 X59.386 Y73.867 E8.5676
G1 X60.292 Y74.471 E8.6314
G1 X61.421 Y75.398 E8.7172
G1 X62.191 Y76.168 E8.7810
G1 X63.117 Y77.297 E8.8667
G1 X63.722 Y78.203 E8.9306
G1 X64.411 Y79.491 E9.0163
G1 X64.828 Y80.497 E9.0802
G1 X65.252 Y81.895 E9.1659
G1 X65.464 Y82.963 E9.2298
G1 X65.581 Y84.150 E9.2998
G1 X65.608 Y84.694 E9.3317
G1 X65.608 Y111.228 E10.8885
G1 X64.888 Y111.210 F18000
G92 E0.0000
G1 X64.863 Y111.718 E0.0298 F1800
G1 X64.751 Y112.854 E0.0968
G1 X64.552 Y113.852 E0.1565
G1 X64.149 Y115.182 E0.2380
G1 X63.759 Y116.123 E0.2978
G1 X63.104 Y117.349 E0.3793
G1 X62.538 Y118.195 E0.4391
G1 X61.656 Y119.270 E0.5206
G1 X60.937 Y119.990 E0.5803
G1 X59.862 Y120.872 E0.6619
G1 X59.016 Y121.437 E0.7216
G1 X57.789 Y122.093 E0.8032
G1 X56.849 Y122.482 E0.8629
G1 X55.519 Y122.886 E0.9445
G1 X54.520 Y123.084 E1.0042
G1 X53.385 Y123.196 E1.0711
G1 X52.877 Y123.221 E1.1010
G1 X26.378 Y123.221 E2.6557
G1 X25.870 Y123.196 E2.6855
G1 X24.735 Y123.084 E2.7525
G1 X23.737 Y122.886 E2.8122
G1 X22.407 Y122.482 E2.8937
G1 X21.466 Y122.093 E2.9535
G1 X20.240 Y121.437 E3.0350
G1 X19.394 Y120.872 E3.0948
G1 X18.319 Y119.990 E3.1763
G1 X17.599 Y119.270 E3.2360
G1 X16.717 Y118.195 E3.3176
G1 X16.152 Y117.349 E3.3773
G1 X15.496 Y116.123 E3.4589
G1 X15.107 Y115.182 E3.5186
G1 X14.703 Y113.852 E3.6002
G1 X14.505 Y112.854 E3.6599
G1 X14.393 Y111.718 E3.7269
G1 X14.368 Y111.208 E3.7569
G1 X14.378 Y84.263 E5.3377
G1 X14.477 Y83.252 E5.3973
G1 X14.748 Y81.889 E5.4788
G1 X15.044 Y80.915 E5.5386
G1 X15.576 Y79.631 E5.6201
G1 X16.056 Y78.733 E5.6798
G1 X16.828 Y77.577 E5.7614
G1 X17.474 Y76.790 E5.8211
G1 X18.551 Y75.713 E5.9105
G1 X19.559 Y74.927 E5.9855
G1 X21.128 Y73.989 E6.0928
G1 X22.287 Y73.476 E6.1671
G1 X23.737 Y73.036 E6.2560
G1 X24.735 Y72.838 E6.3157
G1 X25.871 Y72.726 E6.3827
G1 X26.378 Y72.701 E6.4125
G1 X52.877 Y72.701 E7.9672
G1 X53.385 Y72.726 E7.9970
G1 X54.520 Y72.838 E8.0640
G1 X55.519 Y73.036 E8.1237
G1 X56.849 Y73.440 E8.2052
G1 X57.790 Y73.829 E8.2650
G1 X59.016 Y74.485 E8.3466
G1 X59.862 Y75.050 E8.4063
G1 X60.937 Y75.932 E8.4878
G1 X61.656 Y76.652 E8.5475
G1 X62.538 Y77.727 E8.6291
G1 X63.104 Y78.573 E8.6888
G1 X63.759 Y79.799 E8.7704
G1 X64.149 Y80.740 E8.8301
G1 X64.552 Y82.070 E8.9117
G1 X64.751 Y83.068 E8.9714
G1 X64.863 Y84.203 E9.0383
G1 X64.888 Y84.712 E9.0682
G1 X64.888 Y111.210 E10.6229
G92 E0.0000
G1 E-3.0000 F3600
; feature inner perimeter
G1 X54.168 Y110.938 F18000
G1 X54.154 Y111.078
G1 X52.728 Y111.061
G1 E0.0000 F3600
G92 E0.0000
G1 X26.528 Y111.061 E1.5372 F1350
G1 X26.537 Y84.861 E3.0744
G1 X52.728 Y84.861 E4.6110
G1 X52.728 Y110.861 E6.1364
G1 X52.728 Y111.061 F1350
G1 X53.204 Y111.537 F18000
G92 E0.0000
G1 X53.080 Y111.638 E0.0094 F1350
G1 X52.939 Y111.713 E0.0187
G1 X52.787 Y111.760 E0.0281
G1 X52.570 Y111.781 E0.0409
G1 X26.686 Y111.781 E1.5595
G1 X26.469 Y111.760 E1.5723
G1 X26.316 Y111.713 E1.5817
G1 X26.175 Y111.638 E1.5910
G1 X26.052 Y111.537 E1.6004
G1 X25.951 Y111.413 E1.6098
G1 X25.875 Y111.273 E1.6191
G1 X25.829 Y111.120 E1.6285
G1 X25.808 Y110.903 E1.6413
G1 X25.817 Y84.881 E3.1680
G1 X25.849 Y84.725 E3.1774
G1 X25.910 Y84.577 E3.1867
G1 X25.998 Y84.444 E3.1961
G1 X26.140 Y84.303 E3.2078
G1 X26.316 Y84.209 E3.2196
G1 X26.469 Y84.162 E3.2289
G1 X26.686 Y84.141 E3.2417
G1 X52.570 Y84.141 E4.7604
G1 X52.787 Y84.162 E4.7731
G1 X52.939 Y84.209 E4.7825
G1 X53.080 Y84.284 E4.7919
G1 X53.204 Y84.385 E4.8012
G1 X53.305 Y84.509 E4.8106
G1 X53.380 Y84.649 E4.8200
G1 X53.426 Y84.802 E4.8293
G1 X53.448 Y85.019 E4.8421
G1 X53.448 Y110.903 E6.3608
G1 X53.426 Y111.120 E6.3735
G1 X53.380 Y111.273 E6.3829
G1 X53.324 Y111.378 E6.3899
G1 X53.305 Y111.413 F1350
G1 X53.204 Y111.537
; feature outer perimeter
G1 X53.715 Y112.048 F18000
G92 E0.0000
G1 X53.482 Y112.240 E0.0177 F900
G1 X53.216 Y112.382 E0.0354
G1 X52.928 Y112.469 E0.0531
G1 X52.605 Y112.501 E0.0721
G1 X26.650 Y112.501 E1.5949
G1 X26.328 Y112.469 E1.6139
G1 X26.039 Y112.382 E1.6316
G1 X25.774 Y112.240 E1.6493
G1 X25.540 Y112.048 E1.6669
G1 X25.349 Y111.815 E1.6846
G1 X25.207 Y111.549 E1.7023
G1 X25.120 Y111.261 E1.7200
G1 X25.088 Y110.938 E1.7390
G1 X25.097 Y84.810 E3.2720
G1 X25.156 Y84.515 E3.2897
G1 X25.272 Y84.236 E3.3074
G1 X25.439 Y83.985 E3.3251
G1 X25.660 Y83.764 E3.3434
G1 X25.763 Y83.688 E3.3509
G1 X26.039 Y83.540 E3.3693
G1 X26.328 Y83.453 E3.3870
G1 X26.650 Y83.421 E3.4060
G1 X52.605 Y83.421 E4.9288
G1 X52.928 Y83.453 E4.9478
G1 X53.216 Y83.540 E4.9655
G1 X53.482 Y83.682 E4.9832
G1 X53.715 Y83.874 E5.0009
G1 X53.906 Y84.107 E5.0186
G1 X54.049 Y84.372 E5.0362
G1 X54.136 Y84.661 E5.0539
G1 X54.168 Y84.984 E5.0730
G1 X54.168 Y110.938 E6.5957
G1 X54.136 Y111.261 E6.6148
G1 X54.049 Y111.549 E6.6324
G1 X53.906 Y111.815 E6.6501
G1 X53.842 Y111.894 E6.6561
G1 X53.715 Y112.048 F900
G1 X53.482 Y112.240 F900
G1 X53.216 Y112.382
G1 X52.928 Y112.469
G1 X52.605 Y112.501
G1 X48.834 Y112.501
; feature solid layer
G1 X27.750 Y110.521 F18000
G92 E0.0000
G1 X27.068 Y109.839 E0.0566 F1440
G1 X27.069 Y108.821 E0.1163
G1 X28.768 Y110.521 E0.2573
G1 X29.787 Y110.521 E0.3171
G1 X27.069 Y107.803 E0.5426
G1 X27.069 Y106.785 E0.6023
G1 X30.805 Y110.521 E0.9123
G1 X31.823 Y110.521 E0.9720
G1 X27.070 Y105.768 E1.3664
G1 X27.070 Y104.750 E1.4261
G1 X32.841 Y110.521 E1.9050
G1 X33.860 Y110.521 E1.9647
G1 X27.070 Y103.732 E2.5280
G1 X27.071 Y102.714 E2.5878
G1 X34.878 Y110.521 E3.2355
G1 X35.896 Y110.521 E3.2953
G1 X27.071 Y101.696 E4.0275
G1 X27.072 Y100.678 E4.0872
G1 X36.914 Y110.521 E4.9039
G1 X37.933 Y110.521 E4.9636
G1 X27.072 Y99.660 E5.8648
G1 X27.072 Y98.643 E5.9245
G1 X38.951 Y110.521 E6.9101
G1 X39.969 Y110.521 E6.9698
G1 X27.073 Y97.625 E8.0399
G1 X27.073 Y96.607 E8.0996
G1 X40.987 Y110.521 E9.2541
G1 X42.006 Y110.521 E9.3138
G1 X27.073 Y95.589 E10.5528
G1 X27.074 Y94.571 E10.6125
G1 X43.024 Y110.521 E11.9359
G1 X44.042 Y110.521 E11.9957
G1 X27.074 Y93.553 E13.4035
G1 X27.075 Y92.535 E13.4633
G1 X45.060 Y110.521 E14.9556
G1 X46.078 Y110.521 E15.0153
G1 X27.075 Y91.518 E16.5921
G1 X27.075 Y90.500 E16.6518
G1 X47.097 Y110.521 E18.3130
G1 X48.115 Y110.521 E18.3728
G1 X27.076 Y89.482 E20.1185
G1 X27.076 Y88.464 E20.1782
G1 X49.133 Y110.521 E22.0083
G1 X50.151 Y110.521 E22.0681
G1 X27.076 Y87.446 E23.9827
G1 X27.077 Y86.428 E24.0424
G1 X51.170 Y110.521 E26.0414
G1 X52.188 Y110.521 E26.1012
G1 X27.077 Y85.410 E28.1847
G1 X27.077 Y85.401 E28.1852
G1 X28.086 Y85.401 E28.2444
G1 X52.188 Y109.503 E30.2442
G1 X52.188 Y108.484 E30.3040
G1 X29.104 Y85.401 E32.2193
G1 X30.123 Y85.401 E32.2790
G1 X52.188 Y107.466 E34.1098
G1 X52.188 Y106.448 E34.1696
G1 X31.141 Y85.401 E35.9159
G1 X32.159 Y85.401 E35.9757
G1 X52.188 Y105.430 E37.6375
G1 X52.188 Y104.412 E37.6973
G1 X33.177 Y85.401 E39.2746
G1 X34.195 Y85.401 E39.3344
G1 X52.188 Y103.393 E40.8273
G1 X52.188 Y102.375 E40.8870
