; G-Code generated by Simplify3D(R) Version 4.1.2
; May 13, 2020 at 11:59:49 PM
; Settings Summary
;   processName,Process1
;   applyToModels,shell-v1,shell-v1(2),shell-v1(3),shell-v1(4)
;   profileName,HBot (modified)
;   profileVersion,2019-10-26 23:38:43
;   baseProfile,Default
;   printMaterial,PLA
;   printQuality,Medium
;   printExtruders,
;   extruderName,Extruder 1
;   extruderToolheadNumber,0
;   extruderDiameter,0.4
;   extruderAutoWidth,1
;   extruderWidth,0.48
;   extrusionMultiplier,0.93
;   extruderUseRetract,1
;   extruderRetractionDistance,4
;   extruderExtraRestartDistance,0
;   extruderRetractionZLift,0
;   extruderRetractionSpeed,3600
;   extruderUseCoasting,1
;   extruderCoastingDistance,0.2
;   extruderUseWipe,1
;   extruderWipeDistance,5
;   primaryExtruder,0
;   layerHeight,0.2
;   topSolidLayers,3
;   bottomSolidLayers,3
;   perimeterOutlines,4
;   printPerimetersInsideOut,1
;   startPointOption,3
;   startPointOriginX,200
;   startPointOriginY,100
;   sequentialIslands,0
;   spiralVaseMode,0
;   firstLayerHeightPercentage,100
;   firstLayerWidthPercentage,100
;   firstLayerUnderspeed,0.5
;   useRaft,0
;   raftExtruder,0
;   raftTopLayers,3
;   raftBaseLayers,2
;   raftOffset,3
;   raftSeparationDistance,0.18
;   raftTopInfill,100
;   aboveRaftSpeedMultiplier,0.3
;   useSkirt,1
;   skirtExtruder,0
;   skirtLayers,1
;   skirtOutlines,5
;   skirtOffset,10
;   usePrimePillar,0
;   primePillarExtruder,999
;   primePillarWidth,12
;   primePillarLocation,7
;   primePillarSpeedMultiplier,1
;   useOozeShield,0
;   oozeShieldExtruder,999
;   oozeShieldOffset,2
;   oozeShieldOutlines,1
;   oozeShieldSidewallShape,1
;   oozeShieldSidewallAngle,30
;   oozeShieldSpeedMultiplier,1
;   infillExtruder,0
;   internalInfillPattern,Rectilinear
;   externalInfillPattern,Rectilinear
;   infillPercentage,20
;   outlineOverlapPercentage,25
;   infillExtrusionWidthPercentage,100
;   minInfillLength,5
;   infillLayerInterval,1
;   internalInfillAngles,45,-45
;   overlapInternalInfillAngles,0
;   externalInfillAngles,45,-45
;   generateSupport,0
;   supportExtruder,0
;   supportInfillPercentage,30
;   supportExtraInflation,0
;   supportBaseLayers,1
;   denseSupportExtruder,0
;   denseSupportLayers,0
;   denseSupportInfillPercentage,70
;   supportLayerInterval,1
;   supportHorizontalPartOffset,0.3
;   supportUpperSeparationLayers,1
;   supportLowerSeparationLayers,1
;   supportType,0
;   supportGridSpacing,4
;   maxOverhangAngle,25
;   supportAngles,0
;   temperatureName,Extruder 1,Heated Bed
;   temperatureNumber,0,1
;   temperatureSetpointCount,2,1
;   temperatureSetpointLayers,1,2,1
;   temperatureSetpointTemperatures,217,208,65
;   temperatureStabilizeAtStartup,1,1
;   temperatureHeatedBed,0,1
;   fanLayers,1,4,10
;   fanSpeeds,0,6,20
;   blipFanToFullPower,1
;   adjustSpeedForCooling,1
;   minSpeedLayerTime,15
;   minCoolingSpeedSlowdown,20
;   increaseFanForCooling,1
;   minFanLayerTime,45
;   maxCoolingFanSpeed,35
;   increaseFanForBridging,1
;   bridgingFanSpeed,80
;   use5D,1
;   relativeEdistances,0
;   allowEaxisZeroing,1
;   independentExtruderAxes,0
;   includeM10123,0
;   stickySupport,1
;   applyToolheadOffsets,0
;   gcodeXoffset,0
;   gcodeYoffset,0
;   gcodeZoffset,0
;   overrideMachineDefinition,1
;   machineTypeOverride,0
;   strokeXoverride,200
;   strokeYoverride,200
;   strokeZoverride,150
;   originOffsetXoverride,0
;   originOffsetYoverride,0
;   originOffsetZoverride,0
;   homeXdirOverride,-1
;   homeYdirOverride,-1
;   homeZdirOverride,-1
;   flipXoverride,1
;   flipYoverride,-1
;   flipZoverride,1
;   toolheadOffsets,0,0|0,0|0,0|0,0|0,0|0,0
;   overrideFirmwareConfiguration,1
;   firmwareTypeOverride,RepRap (Marlin/Repetier/Sprinter)
;   GPXconfigOverride,r2
;   baudRateOverride,115200
;   overridePrinterModels,0
;   printerModelsOverride
;   startingGcode,G28 ; home all axes,G32 ; run bed.g -- probe bed and enable compensation
;   layerChangeGcode,
;   retractionGcode,
;   toolChangeGcode,
;   endingGcode,M0 ; call stop.g
;   exportFileFormat,gcode
;   celebration,0
;   celebrationSong,Random Song
;   postProcessing,
;   defaultSpeed,3600
;   outlineUnderspeed,0.5
;   solidInfillUnderspeed,0.8
;   supportUnderspeed,0.8
;   rapidXYspeed,18000
;   rapidZspeed,1200
;   minBridgingArea,50
;   bridgingExtraInflation,0
;   bridgingExtrusionMultiplier,0.96
;   bridgingSpeedMultiplier,1
;   useFixedBridgingAngle,0
;   fixedBridgingAngle,0
;   applyBridgingToPerimeters,0
;   filamentDiameters,1.75|1.75|1.75|1.75|1.75|1.75
;   filamentPricesPerKg,46|46|46|46|46|46
;   filamentDensities,1.25|1.25|1.25|1.25|1.25|1.25
;   useMinPrintHeight,0
;   minPrintHeight,0.2
;   useMaxPrintHeight,0
;   maxPrintHeight,0
;   useDiaphragm,0
;   diaphragmLayerInterval,20
;   robustSlicing,1
;   mergeAllIntoSolid,0
;   onlyRetractWhenCrossingOutline,1
;   retractBetweenLayers,0
;   useRetractionMinTravel,1
;   retractionMinTravel,3
;   retractWhileWiping,1
;   onlyWipeOutlines,1
;   avoidCrossingOutline,1
;   maxMovementDetourFactor,5
;   toolChangeRetractionDistance,12
;   toolChangeExtraRestartDistance,-0.5
;   toolChangeRetractionSpeed,600
;   externalThinWallType,0
;   internalThinWallType,2
;   thinWallAllowedOverlapPercentage,10
;   singleExtrusionMinLength,1
;   singleExtrusionMinPrintingWidthPercentage,50
;   singleExtrusionMaxPrintingWidthPercentage,150
;   singleExtrusionEndpointExtension,0.2
;   horizontalSizeCompensation,-0.1
G90
M82
M106 S0
M140 S65
M190 S65
M104 S217 T0
M109 S217 T0
G28 ; home all axes
G32 ; run bed.g -- probe bed and enable compensation
; process Process1
; layer 1, Z = 0.200
T0
G92 E0.0000
G1 E-4.0000 F3600
; feature skirt
; tool H0.200 W0.480
G1 Z0.200 F1200
G1 X144.531 Y96.390 F18000
G1 E0.0000 F3600
G92 E0.0000
G1 X144.406 Y97.657 E0.0473 F1800
G1 X144.173 Y98.829 E0.0916
G1 X143.818 Y100.000 E0.1370
G1 X144.173 Y101.171 E0.1825
G1 X144.406 Y102.343 E0.2268
G1 X144.531 Y103.610 E0.2741
G1 X144.560 Y104.206 E0.2962
G1 X144.560 Y130.794 E1.2831
G1 X144.531 Y131.390 E1.3053
G1 X144.406 Y132.657 E1.3525
G1 X144.173 Y133.829 E1.3969
G1 X143.718 Y135.328 E1.4550
G1 X143.261 Y136.433 E1.4994
G1 X142.522 Y137.815 E1.5576
G1 X141.858 Y138.808 E1.6019
G1 X140.864 Y140.019 E1.6601
G1 X140.019 Y140.864 E1.7044
G1 X138.808 Y141.858 E1.7626
G1 X137.815 Y142.522 E1.8069
G1 X136.433 Y143.261 E1.8651
G1 X135.328 Y143.718 E1.9095
G1 X133.829 Y144.173 E1.9676
G1 X132.657 Y144.406 E2.0120
G1 X131.390 Y144.531 E2.0592
G1 X130.794 Y144.560 E2.0814
G1 X104.206 Y144.560 E3.0683
G1 X103.610 Y144.531 E3.0904
G1 X102.343 Y144.406 E3.1377
G1 X101.171 Y144.173 E3.1820
G1 X100.000 Y143.818 E3.2275
G1 X98.829 Y144.173 E3.2729
G1 X97.657 Y144.406 E3.3172
G1 X96.390 Y144.531 E3.3645
G1 X95.794 Y144.560 E3.3867
G1 X69.206 Y144.560 E4.3735
G1 X68.610 Y144.531 E4.3957
G1 X67.343 Y144.406 E4.4430
G1 X66.171 Y144.173 E4.4873
G1 X64.672 Y143.718 E4.5455
G1 X63.567 Y143.260 E4.5898
G1 X62.185 Y142.522 E4.6480
G1 X61.192 Y141.858 E4.6923
G1 X59.981 Y140.864 E4.7505
G1 X59.136 Y140.019 E4.7948
G1 X58.142 Y138.808 E4.8530
G1 X57.478 Y137.815 E4.8974
G1 X56.739 Y136.432 E4.9555
G1 X56.282 Y135.328 E4.9999
G1 X55.827 Y133.828 E5.0581
G1 X55.594 Y132.657 E5.1024
G1 X55.469 Y131.389 E5.1497
G1 X55.440 Y130.790 E5.1719
G1 X55.450 Y103.713 E6.1770
G1 X55.567 Y102.526 E6.2213
G1 X55.872 Y100.990 E6.2794
G1 X56.178 Y99.984 E6.3184
G1 X55.827 Y98.829 E6.3632
G1 X55.594 Y97.657 E6.4076
G1 X55.469 Y96.389 E6.4549
G1 X55.440 Y95.790 E6.4771
G1 X55.450 Y68.713 E7.4822
G1 X55.567 Y67.526 E7.5265
G1 X55.872 Y65.990 E7.5846
G1 X56.219 Y64.847 E7.6289
G1 X56.819 Y63.399 E7.6871
G1 X57.382 Y62.346 E7.7314
G1 X58.253 Y61.043 E7.7896
G1 X59.011 Y60.119 E7.8340
G1 X60.229 Y58.901 E7.8979
G1 X61.412 Y57.978 E7.9536
G1 X63.171 Y56.927 E8.0297
G1 X64.532 Y56.325 E8.0849
G1 X66.171 Y55.827 E8.1485
G1 X67.343 Y55.594 E8.1928
G1 X68.610 Y55.469 E8.2401
G1 X69.206 Y55.440 E8.2623
G1 X95.794 Y55.440 E9.2491
G1 X96.390 Y55.469 E9.2713
G1 X97.657 Y55.594 E9.3185
G1 X98.829 Y55.827 E9.3629
G1 X100.000 Y56.182 E9.4083
G1 X101.171 Y55.827 E9.4538
G1 X102.343 Y55.594 E9.4981
G1 X103.610 Y55.469 E9.5454
G1 X104.206 Y55.440 E9.5675
G1 X130.794 Y55.440 E10.5544
G1 X131.390 Y55.469 E10.5765
G1 X132.657 Y55.594 E10.6238
G1 X133.828 Y55.827 E10.6681
G1 X135.328 Y56.282 E10.7263
G1 X136.432 Y56.739 E10.7707
G1 X137.815 Y57.478 E10.8289
G1 X138.808 Y58.142 E10.8732
G1 X140.019 Y59.136 E10.9314
G1 X140.864 Y59.981 E10.9757
G1 X141.858 Y61.192 E11.0339
G1 X142.522 Y62.185 E11.0782
G1 X143.260 Y63.567 E11.1364
G1 X143.718 Y64.672 E11.1807
G1 X144.173 Y66.171 E11.2389
G1 X144.406 Y67.343 E11.2833
G1 X144.531 Y68.610 E11.3305
G1 X144.560 Y69.206 E11.3527
G1 X144.560 Y95.794 E12.3396
G1 X144.531 Y96.390 E12.3617
G1 X144.052 Y96.355 F18000
G92 E0.0000
G1 X143.931 Y97.587 E0.0459 F1800
G1 X143.707 Y98.712 E0.0885
G1 X143.316 Y100.000 E0.1385
G1 X143.707 Y101.288 E0.1885
G1 X143.931 Y102.413 E0.2311
G1 X144.052 Y103.645 E0.2770
G1 X144.080 Y104.218 E0.2983
G1 X144.080 Y130.782 E1.2843
G1 X144.052 Y131.355 E1.3056
G1 X143.931 Y132.586 E1.3515
G1 X143.707 Y133.712 E1.3941
G1 X143.265 Y135.166 E1.4505
G1 X142.826 Y136.227 E1.4931
G1 X142.109 Y137.568 E1.5496
G1 X141.472 Y138.521 E1.5921
G1 X140.508 Y139.696 E1.6486
G1 X139.696 Y140.508 E1.6912
G1 X138.521 Y141.472 E1.7476
G1 X137.568 Y142.109 E1.7902
G1 X136.227 Y142.826 E1.8466
G1 X135.166 Y143.265 E1.8892
G1 X133.712 Y143.707 E1.9456
G1 X132.586 Y143.931 E1.9882
G1 X131.355 Y144.052 E2.0342
G1 X130.782 Y144.080 E2.0554
G1 X104.218 Y144.080 E3.0414
G1 X103.645 Y144.052 E3.0627
G1 X102.413 Y143.931 E3.1087
G1 X101.288 Y143.707 E3.1513
G1 X100.000 Y143.316 E3.2012
G1 X98.712 Y143.707 E3.2512
G1 X97.587 Y143.931 E3.2938
G1 X96.355 Y144.052 E3.3397
G1 X95.782 Y144.080 E3.3610
G1 X69.218 Y144.080 E4.3470
G1 X68.645 Y144.052 E4.3683
G1 X67.413 Y143.931 E4.4142
G1 X66.288 Y143.707 E4.4568
G1 X64.833 Y143.265 E4.5133
G1 X63.773 Y142.826 E4.5559
G1 X62.432 Y142.109 E4.6123
G1 X61.479 Y141.472 E4.6549
G1 X60.304 Y140.508 E4.7113
G1 X59.492 Y139.697 E4.7539
G1 X58.528 Y138.522 E4.8103
G1 X57.890 Y137.568 E4.8529
G1 X57.174 Y136.227 E4.9093
G1 X56.734 Y135.166 E4.9519
G1 X56.293 Y133.712 E5.0084
G1 X56.069 Y132.586 E5.0509
G1 X55.948 Y131.353 E5.0969
G1 X55.920 Y130.779 E5.1183
G1 X55.930 Y103.737 E6.1220
G1 X56.042 Y102.597 E6.1646
G1 X56.339 Y101.107 E6.2209
G1 X56.672 Y100.009 E6.2635
G1 X56.680 Y99.988 E6.2644
G1 X56.293 Y98.712 E6.3139
G1 X56.069 Y97.586 E6.3565
G1 X55.948 Y96.353 E6.4025
G1 X55.920 Y95.779 E6.4238
G1 X55.930 Y68.737 E7.4276
G1 X56.042 Y67.597 E7.4701
G1 X56.339 Y66.107 E7.5265
G1 X56.672 Y65.009 E7.5691
G1 X57.253 Y63.605 E7.6255
G1 X57.794 Y62.593 E7.6681
G1 X58.639 Y61.329 E7.7245
G1 X59.367 Y60.442 E7.7671
G1 X60.547 Y59.261 E7.8290
G1 X61.684 Y58.375 E7.8825
G1 X63.392 Y57.354 E7.9564
G1 X64.699 Y56.775 E8.0095
G1 X66.288 Y56.293 E8.0711
G1 X67.414 Y56.069 E8.1137
G1 X68.646 Y55.948 E8.1597
G1 X69.218 Y55.920 E8.1809
G1 X95.782 Y55.920 E9.1669
G1 X96.354 Y55.948 E9.1882
G1 X97.586 Y56.069 E9.2342
G1 X98.712 Y56.293 E9.2768
G1 X100.000 Y56.684 E9.3267
G1 X101.288 Y56.293 E9.3767
G1 X102.414 Y56.069 E9.4193
G1 X103.646 Y55.948 E9.4652
G1 X104.218 Y55.920 E9.4865
G1 X130.782 Y55.920 E10.4725
G1 X131.354 Y55.948 E10.4938
G1 X132.586 Y56.069 E10.5397
G1 X133.712 Y56.293 E10.5823
G1 X135.166 Y56.734 E10.6387
G1 X136.227 Y57.174 E10.6814
G1 X137.568 Y57.890 E10.7378
G1 X138.522 Y58.528 E10.7804
G1 X139.697 Y59.492 E10.8368
G1 X140.508 Y60.304 E10.8794
G1 X141.472 Y61.479 E10.9358
G1 X142.109 Y62.432 E10.9784
G1 X142.826 Y63.773 E11.0348
G1 X143.265 Y64.833 E11.0774
G1 X143.707 Y66.288 E11.1338
G1 X143.931 Y67.413 E11.1764
G1 X144.052 Y68.645 E11.2224
G1 X144.080 Y69.218 E11.2437
G1 X144.080 Y95.782 E12.2297
G1 X144.052 Y96.355 E12.2509
G1 X143.573 Y96.319 F18000
G92 E0.0000
G1 X143.455 Y97.516 E0.0446 F1800
G1 X143.240 Y98.595 E0.0855
G1 X142.814 Y100.000 E0.1400
G1 X143.240 Y101.405 E0.1945
G1 X143.455 Y102.484 E0.2353
G1 X143.573 Y103.681 E0.2799
G1 X143.600 Y104.230 E0.3003
G1 X143.600 Y130.770 E1.2855
G1 X143.573 Y131.319 E1.3059
G1 X143.455 Y132.516 E1.3505
G1 X143.241 Y133.595 E1.3914
G1 X142.813 Y135.005 E1.4460
G1 X142.392 Y136.022 E1.4869
G1 X141.697 Y137.321 E1.5416
G1 X141.086 Y138.235 E1.5824
G1 X140.152 Y139.374 E1.6371
G1 X139.374 Y140.152 E1.6779
G1 X138.235 Y141.086 E1.7326
G1 X137.321 Y141.697 E1.7734
G1 X136.022 Y142.392 E1.8281
G1 X135.005 Y142.813 E1.8689
G1 X133.595 Y143.241 E1.9236
G1 X132.516 Y143.455 E1.9644
G1 X131.319 Y143.573 E2.0091
G1 X130.770 Y143.600 E2.0295
G1 X104.230 Y143.600 E3.0146
G1 X103.681 Y143.573 E3.0350
G1 X102.484 Y143.455 E3.0797
G1 X101.405 Y143.240 E3.1205
G1 X100.000 Y142.814 E3.1750
G1 X98.595 Y143.240 E3.2295
G1 X97.516 Y143.455 E3.2703
G1 X96.319 Y143.573 E3.3150
G1 X95.770 Y143.600 E3.3354
G1 X69.230 Y143.600 E4.3205
G1 X68.681 Y143.573 E4.3409
G1 X67.484 Y143.455 E4.3855
G1 X66.405 Y143.240 E4.4264
G1 X64.995 Y142.813 E4.4811
G1 X63.978 Y142.392 E4.5219
G1 X62.679 Y141.697 E4.5766
G1 X61.765 Y141.086 E4.6174
G1 X60.627 Y140.152 E4.6721
G1 X59.848 Y139.374 E4.7129
G1 X58.914 Y138.235 E4.7676
G1 X58.303 Y137.320 E4.8084
G1 X57.608 Y136.021 E4.8631
G1 X57.187 Y135.004 E4.9040
G1 X56.759 Y133.595 E4.9586
G1 X56.545 Y132.516 E4.9995
G1 X56.427 Y131.318 E5.0442
G1 X56.400 Y130.767 E5.0646
G1 X56.410 Y103.761 E6.0671
G1 X56.518 Y102.667 E6.1078
G1 X56.805 Y101.224 E6.1625
G1 X57.124 Y100.171 E6.2033
G1 X57.190 Y100.012 E6.2097
G1 X57.187 Y100.005 E6.2100
G1 X56.759 Y98.595 E6.2647
G1 X56.545 Y97.516 E6.3055
G1 X56.427 Y96.318 E6.3502
G1 X56.400 Y95.767 E6.3707
G1 X56.410 Y68.761 E7.3731
G1 X56.518 Y67.667 E7.4139
G1 X56.805 Y66.224 E7.4685
G1 X57.124 Y65.171 E7.5093
G1 X57.688 Y63.810 E7.5640
G1 X58.206 Y62.840 E7.6049
G1 X59.025 Y61.615 E7.6595
G1 X59.723 Y60.764 E7.7004
G1 X60.866 Y59.622 E7.7604
G1 X61.956 Y58.772 E7.8117
G1 X63.613 Y57.781 E7.8834
G1 X64.866 Y57.226 E7.9342
G1 X66.405 Y56.759 E7.9939
G1 X67.484 Y56.545 E8.0347
G1 X68.681 Y56.427 E8.0794
G1 X69.230 Y56.400 E8.0998
G1 X95.770 Y56.400 E9.0849
G1 X96.319 Y56.427 E9.1053
G1 X97.516 Y56.545 E9.1499
G1 X98.595 Y56.759 E9.1908
G1 X100.000 Y57.186 E9.2453
G1 X101.405 Y56.759 E9.2998
G1 X102.484 Y56.545 E9.3406
G1 X103.681 Y56.427 E9.3853
G1 X104.230 Y56.400 E9.4057
G1 X130.770 Y56.400 E10.3908
G1 X131.319 Y56.427 E10.4112
G1 X132.516 Y56.545 E10.4558
G1 X133.595 Y56.759 E10.4967
G1 X135.004 Y57.187 E10.5513
G1 X136.021 Y57.608 E10.5922
G1 X137.320 Y58.303 E10.6469
G1 X138.235 Y58.914 E10.6877
G1 X139.374 Y59.848 E10.7424
G1 X140.152 Y60.627 E10.7832
G1 X141.086 Y61.765 E10.8379
G1 X141.697 Y62.679 E10.8787
G1 X142.392 Y63.978 E10.9334
G1 X142.813 Y64.995 E10.9742
G1 X143.240 Y66.405 E11.0289
G1 X143.455 Y67.484 E11.0698
G1 X143.573 Y68.681 E11.1144
G1 X143.600 Y69.230 E11.1348
G1 X143.600 Y95.770 E12.1199
G1 X143.573 Y96.319 E12.1403
G1 X143.094 Y96.284 F18000
G92 E0.0000
G1 X142.980 Y97.445 E0.0433 F1800
G1 X142.774 Y98.478 E0.0824
G1 X142.360 Y99.843 E0.1353
G1 X142.295 Y100.000 E0.1417
G1 X142.360 Y100.157 E0.1480
G1 X142.774 Y101.522 E0.2009
G1 X142.980 Y102.555 E0.2400
G1 X143.094 Y103.716 E0.2833
G1 X143.120 Y104.242 E0.3028
G1 X143.120 Y130.758 E1.2871
G1 X143.094 Y131.284 E1.3066
G1 X142.980 Y132.445 E1.3499
G1 X142.774 Y133.478 E1.3890
G1 X142.361 Y134.843 E1.4420
G1 X141.957 Y135.816 E1.4811
G1 X141.285 Y137.073 E1.5340
G1 X140.700 Y137.949 E1.5731
G1 X139.796 Y139.051 E1.6260
G1 X139.051 Y139.796 E1.6651
G1 X137.949 Y140.700 E1.7180
G1 X137.073 Y141.285 E1.7571
G1 X135.816 Y141.957 E1.8100
G1 X134.843 Y142.361 E1.8491
G1 X133.478 Y142.774 E1.9020
G1 X132.445 Y142.980 E1.9411
G1 X131.284 Y143.094 E1.9844
G1 X130.758 Y143.120 E2.0040
G1 X104.242 Y143.120 E2.9882
G1 X103.716 Y143.094 E3.0078
G1 X102.555 Y142.980 E3.0511
G1 X101.522 Y142.774 E3.0902
G1 X100.157 Y142.360 E3.1431
G1 X100.000 Y142.295 E3.1494
G1 X99.843 Y142.360 E3.1557
G1 X98.478 Y142.774 E3.2087
G1 X97.445 Y142.980 E3.2477
G1 X96.284 Y143.094 E3.2911
G1 X95.758 Y143.120 E3.3106
G1 X69.242 Y143.120 E4.2949
