; G-Code generated by Simplify3D(R) Version 4.1.2
; May 2, 2020 at 1:52:42 AM
; Settings Summary
;   processName,Process1
;   applyToModels,test,test(2)
;   profileName,HBot (modified)
;   profileVersion,2019-10-26 23:38:43
;   baseProfile,Default
;   printMaterial,PETG - SUNLU
;   printQuality,Medium
;   printExtruders,
;   extruderName,Extruder 1
;   extruderToolheadNumber,0
;   extruderDiameter,0.4
;   extruderAutoWidth,1
;   extruderWidth,0.48
;   extrusionMultiplier,0.98
;   extruderUseRetract,1
;   extruderRetractionDistance,3
;   extruderExtraRestartDistance,0
;   extruderRetractionZLift,0
;   extruderRetractionSpeed,3600
;   extruderUseCoasting,1
;   extruderCoastingDistance,0.2
;   extruderUseWipe,1
;   extruderWipeDistance,5
;   primaryExtruder,0
;   layerHeight,0.2
;   topSolidLayers,3
;   bottomSolidLayers,3
;   perimeterOutlines,3
;   printPerimetersInsideOut,1
;   startPointOption,3
;   startPointOriginX,200
;   startPointOriginY,100
;   sequentialIslands,0
;   spiralVaseMode,0
;   firstLayerHeightPercentage,100
;   firstLayerWidthPercentage,150
;   firstLayerUnderspeed,0.5
;   useRaft,0
;   raftExtruder,0
;   raftTopLayers,3
;   raftBaseLayers,2
;   raftOffset,3
;   raftSeparationDistance,0.18
;   raftTopInfill,100
;   aboveRaftSpeedMultiplier,0.3
;   useSkirt,1
;   skirtExtruder,0
;   skirtLayers,1
;   skirtOutlines,3
;   skirtOffset,10
;   usePrimePillar,0
;   primePillarExtruder,999
;   primePillarWidth,12
;   primePillarLocation,7
;   primePillarSpeedMultiplier,1
;   useOozeShield,0
;   oozeShieldExtruder,999
;   oozeShieldOffset,2
;   oozeShieldOutlines,1
;   oozeShieldSidewallShape,1
;   oozeShieldSidewallAngle,30
;   oozeShieldSpeedMultiplier,1
;   infillExtruder,0
;   internalInfillPattern,Rectilinear
;   externalInfillPattern,Rectilinear
;   infillPercentage,20
;   outlineOverlapPercentage,25
;   infillExtrusionWidthPercentage,150
;   minInfillLength,5
;   infillLayerInterval,1
;   internalInfillAngles,45,-45
;   overlapInternalInfillAngles,0
;   externalInfillAngles,45,-45
;   generateSupport,1
;   supportExtruder,0
;   supportInfillPercentage,30
;   supportExtraInflation,0
;   supportBaseLayers,1
;   denseSupportExtruder,0
;   denseSupportLayers,0
;   denseSupportInfillPercentage,70
;   supportLayerInterval,1
;   supportHorizontalPartOffset,0.3
;   supportUpperSeparationLayers,1
;   supportLowerSeparationLayers,1
;   supportType,0
;   supportGridSpacing,4
;   maxOverhangAngle,25
;   supportAngles,0
;   temperatureName,Extruder 1,Heated Bed
;   temperatureNumber,0,1
;   temperatureSetpointCount,1,1
;   temperatureSetpointLayers,1,1
;   temperatureSetpointTemperatures,225,75
;   temperatureStabilizeAtStartup,1,1
;   temperatureHeatedBed,0,1
;   fanLayers,1,2
;   fanSpeeds,0,20
;   blipFanToFullPower,1
;   adjustSpeedForCooling,1
;   minSpeedLayerTime,15
;   minCoolingSpeedSlowdown,20
;   increaseFanForCooling,1
;   minFanLayerTime,45
;   maxCoolingFanSpeed,35
;   increaseFanForBridging,1
;   bridgingFanSpeed,80
;   use5D,1
;   relativeEdistances,0
;   allowEaxisZeroing,1
;   independentExtruderAxes,0
;   includeM10123,0
;   stickySupport,1
;   applyToolheadOffsets,0
;   gcodeXoffset,0
;   gcodeYoffset,0
;   gcodeZoffset,0
;   overrideMachineDefinition,1
;   machineTypeOverride,0
;   strokeXoverride,200
;   strokeYoverride,200
;   strokeZoverride,150
;   originOffsetXoverride,0
;   originOffsetYoverride,0
;   originOffsetZoverride,0
;   homeXdirOverride,-1
;   homeYdirOverride,-1
;   homeZdirOverride,-1
;   flipXoverride,1
;   flipYoverride,-1
;   flipZoverride,1
;   toolheadOffsets,0,0|0,0|0,0|0,0|0,0|0,0
;   overrideFirmwareConfiguration,1
;   firmwareTypeOverride,RepRap (Marlin/Repetier/Sprinter)
;   GPXconfigOverride,r2
;   baudRateOverride,115200
;   overridePrinterModels,0
;   printerModelsOverride
;   startingGcode,G28 ; home all axes,G32 ; run bed.g -- probe bed and enable compensation
;   layerChangeGcode,
;   retractionGcode,
;   toolChangeGcode,
;   endingGcode,M0 ; call stop.g
;   exportFileFormat,gcode
;   celebration,0
;   celebrationSong,Random Song
;   postProcessing,
;   defaultSpeed,3600
;   outlineUnderspeed,0.5
;   solidInfillUnderspeed,0.8
;   supportUnderspeed,0.8
;   rapidXYspeed,18000
;   rapidZspeed,1200
;   minBridgingArea,50
;   bridgingExtraInflation,0
;   bridgingExtrusionMultiplier,0.96
;   bridgingSpeedMultiplier,1
;   useFixedBridgingAngle,0
;   fixedBridgingAngle,0
;   applyBridgingToPerimeters,0
;   filamentDiameters,1.75|1.75|1.75|1.75|1.75|1.75
;   filamentPricesPerKg,46|46|46|46|46|46
;   filamentDensities,1.25|1.25|1.25|1.25|1.25|1.25
;   useMinPrintHeight,0
;   minPrintHeight,0.2
;   useMaxPrintHeight,0
;   maxPrintHeight,0
;   useDiaphragm,0
;   diaphragmLayerInterval,20
;   robustSlicing,1
;   mergeAllIntoSolid,0
;   onlyRetractWhenCrossingOutline,1
;   retractBetweenLayers,0
;   useRetractionMinTravel,1
;   retractionMinTravel,3
;   retractWhileWiping,1
;   onlyWipeOutlines,1
;   avoidCrossingOutline,1
;   maxMovementDetourFactor,5
;   toolChangeRetractionDistance,12
;   toolChangeExtraRestartDistance,-0.5
;   toolChangeRetractionSpeed,600
;   externalThinWallType,0
;   internalThinWallType,2
;   thinWallAllowedOverlapPercentage,10
;   singleExtrusionMinLength,1
;   singleExtrusionMinPrintingWidthPercentage,50
;   singleExtrusionMaxPrintingWidthPercentage,150
;   singleExtrusionEndpointExtension,0.2
;   horizontalSizeCompensation,-0.1
G90
M82
M106 S0
M140 S75
M190 S75
M104 S225 T0
M109 S225 T0
G28 ; home all axes
G32 ; run bed.g -- probe bed and enable compensation
; process Process1
; layer 1, Z = 0.200
T0
G92 E0.0000
G1 E-3.0000 F3600
; feature skirt
; tool H0.200 W0.720
G1 Z0.200 F1200
G1 X126.672 Y96.363 F18000
G1 E0.0000 F3600
G92 E0.0000
G1 X126.549 Y97.604 E0.0731 F1800
G1 X126.323 Y98.741 E0.1412
G1 X125.941 Y100.000 E0.2183
G1 X126.323 Y101.259 E0.2955
G1 X126.549 Y102.396 E0.3635
G1 X126.672 Y103.637 E0.4367
G1 X126.700 Y104.215 E0.4707
G1 X126.700 Y130.785 E2.0295
G1 X126.672 Y131.363 E2.0635
G1 X126.549 Y132.604 E2.1367
G1 X126.323 Y133.741 E2.2047
G1 X125.879 Y135.207 E2.2946
G1 X125.435 Y136.278 E2.3626
G1 X124.713 Y137.629 E2.4525
G1 X124.069 Y138.593 E2.5205
G1 X123.097 Y139.777 E2.6103
G1 X122.277 Y140.597 E2.6784
G1 X121.093 Y141.569 E2.7682
G1 X120.129 Y142.213 E2.8362
G1 X118.779 Y142.935 E2.9261
G1 X117.707 Y143.379 E2.9942
G1 X116.241 Y143.823 E3.0840
G1 X115.104 Y144.049 E3.1520
G1 X113.863 Y144.172 E3.2252
G1 X113.285 Y144.200 E3.2592
G1 X86.715 Y144.200 E4.8180
G1 X86.137 Y144.172 E4.8520
G1 X84.896 Y144.049 E4.9252
G1 X83.759 Y143.823 E4.9932
G1 X82.293 Y143.379 E5.0831
G1 X81.221 Y142.935 E5.1511
G1 X79.871 Y142.213 E5.2410
G1 X78.907 Y141.569 E5.3090
G1 X77.723 Y140.597 E5.3988
G1 X76.903 Y139.777 E5.4668
G1 X75.931 Y138.593 E5.5567
G1 X75.287 Y137.629 E5.6248
G1 X74.565 Y136.278 E5.7146
G1 X74.121 Y135.207 E5.7827
G1 X73.677 Y133.741 E5.8725
G1 X73.451 Y132.604 E5.9406
G1 X73.328 Y131.362 E6.0138
G1 X73.300 Y130.781 E6.0479
G1 X73.310 Y103.731 E7.6350
G1 X73.423 Y102.579 E7.7029
G1 X73.722 Y101.078 E7.7927
G1 X74.054 Y99.984 E7.8597
G1 X73.677 Y98.741 E7.9359
G1 X73.451 Y97.604 E8.0040
G1 X73.328 Y96.362 E8.0772
G1 X73.300 Y95.781 E8.1113
G1 X73.310 Y68.731 E9.6984
G1 X73.423 Y67.579 E9.7663
G1 X73.722 Y66.078 E9.8561
G1 X74.059 Y64.968 E9.9241
G1 X74.645 Y63.553 E10.0139
G1 X75.191 Y62.531 E10.0820
G1 X76.042 Y61.258 E10.1718
G1 X76.778 Y60.361 E10.2399
G1 X77.968 Y59.171 E10.3386
G1 X79.116 Y58.276 E10.4240
G1 X80.837 Y57.247 E10.5417
G1 X82.157 Y56.663 E10.6264
G1 X83.759 Y56.177 E10.7246
G1 X84.896 Y55.951 E10.7926
G1 X86.137 Y55.828 E10.8657
G1 X86.715 Y55.800 E10.8997
G1 X113.285 Y55.800 E12.4586
G1 X113.863 Y55.828 E12.4926
G1 X115.104 Y55.951 E12.5657
G1 X116.241 Y56.177 E12.6337
G1 X117.707 Y56.621 E12.7236
G1 X118.778 Y57.065 E12.7916
G1 X120.129 Y57.787 E12.8815
G1 X121.093 Y58.432 E12.9495
G1 X122.277 Y59.403 E13.0394
G1 X123.097 Y60.223 E13.1074
G1 X124.068 Y61.407 E13.1973
G1 X124.713 Y62.371 E13.2653
G1 X125.435 Y63.722 E13.3552
G1 X125.879 Y64.793 E13.4232
G1 X126.323 Y66.259 E13.5131
G1 X126.549 Y67.396 E13.5811
G1 X126.672 Y68.637 E13.6542
G1 X126.700 Y69.215 E13.6882
G1 X126.700 Y95.785 E15.2471
G1 X126.672 Y96.363 E15.2811
G1 X125.953 Y96.310 F18000
G92 E0.0000
G1 X125.836 Y97.498 E0.0700 F1800
G1 X125.624 Y98.566 E0.1339
G1 X125.200 Y99.964 E0.2196
G1 X125.185 Y100.000 E0.2219
G1 X125.200 Y100.036 E0.2242
G1 X125.624 Y101.434 E0.3099
G1 X125.836 Y102.502 E0.3738
G1 X125.953 Y103.690 E0.4438
G1 X125.980 Y104.233 E0.4757
G1 X125.980 Y130.767 E2.0325
G1 X125.953 Y131.311 E2.0644
G1 X125.836 Y132.498 E2.1344
G1 X125.624 Y133.566 E2.1983
G1 X125.200 Y134.964 E2.2840
G1 X124.783 Y135.970 E2.3479
G1 X124.094 Y137.259 E2.4336
G1 X123.490 Y138.164 E2.4975
G1 X122.563 Y139.293 E2.5832
G1 X121.793 Y140.063 E2.6471
G1 X120.664 Y140.990 E2.7328
G1 X119.759 Y141.594 E2.7967
G1 X118.470 Y142.283 E2.8824
G1 X117.464 Y142.700 E2.9463
G1 X116.066 Y143.124 E3.0320
G1 X114.998 Y143.336 E3.0959
G1 X113.810 Y143.453 E3.1659
G1 X113.267 Y143.480 E3.1978
G1 X86.733 Y143.480 E4.7546
G1 X86.190 Y143.453 E4.7865
G1 X85.002 Y143.336 E4.8565
G1 X83.934 Y143.124 E4.9204
G1 X82.536 Y142.700 E5.0061
G1 X81.530 Y142.283 E5.0700
G1 X80.241 Y141.594 E5.1558
G1 X79.336 Y140.990 E5.2196
G1 X78.207 Y140.063 E5.3053
G1 X77.437 Y139.293 E5.3692
G1 X76.510 Y138.164 E5.4549
G1 X75.906 Y137.259 E5.5188
G1 X75.217 Y135.970 E5.6045
G1 X74.800 Y134.964 E5.6684
G1 X74.376 Y133.566 E5.7541
G1 X74.164 Y132.498 E5.8180
G1 X74.047 Y131.309 E5.8881
G1 X74.020 Y130.764 E5.9201
G1 X74.030 Y103.766 E7.5041
G1 X74.137 Y102.685 E7.5678
G1 X74.421 Y101.253 E7.6535
G1 X74.737 Y100.211 E7.7174
G1 X74.820 Y100.012 E7.7300
G1 X74.800 Y99.964 E7.7331
G1 X74.376 Y98.566 E7.8188
G1 X74.164 Y97.498 E7.8826
G1 X74.047 Y96.309 E7.9527
G1 X74.020 Y95.764 E7.9848
G1 X74.030 Y68.766 E9.5687
G1 X74.137 Y67.685 E9.6325
G1 X74.421 Y66.253 E9.7182
G1 X74.737 Y65.211 E9.7820
G1 X75.296 Y63.862 E9.8677
G1 X75.809 Y62.902 E9.9316
G1 X76.621 Y61.687 E10.0173
G1 X77.312 Y60.845 E10.0812
G1 X78.445 Y59.712 E10.1752
G1 X79.524 Y58.871 E10.2555
G1 X81.169 Y57.888 E10.3679
G1 X82.408 Y57.339 E10.4474
G1 X83.934 Y56.876 E10.5410
G1 X85.002 Y56.664 E10.6049
G1 X86.190 Y56.547 E10.6749
G1 X86.733 Y56.520 E10.7068
G1 X113.267 Y56.520 E12.2636
G1 X113.810 Y56.547 E12.2955
G1 X114.998 Y56.664 E12.3655
G1 X116.066 Y56.876 E12.4294
G1 X117.464 Y57.300 E12.5151
G1 X118.470 Y57.717 E12.5790
G1 X119.759 Y58.406 E12.6647
G1 X120.664 Y59.011 E12.7286
G1 X121.793 Y59.937 E12.8143
G1 X122.563 Y60.707 E12.8782
G1 X123.489 Y61.836 E12.9639
G1 X124.094 Y62.741 E13.0278
G1 X124.783 Y64.030 E13.1135
G1 X125.200 Y65.036 E13.1774
G1 X125.624 Y66.434 E13.2631
G1 X125.836 Y67.502 E13.3270
G1 X125.953 Y68.690 E13.3970
G1 X125.980 Y69.233 E13.4289
G1 X125.980 Y95.767 E14.9857
G1 X125.953 Y96.310 E15.0176
G1 X125.235 Y96.257 F18000
G92 E0.0000
G1 X125.123 Y97.393 E0.0669 F1800
G1 X124.925 Y98.391 E0.1266
G1 X124.521 Y99.721 E0.2082
G1 X124.406 Y100.000 E0.2259
G1 X124.521 Y100.279 E0.2436
G1 X124.925 Y101.609 E0.3252
G1 X125.123 Y102.607 E0.3849
G1 X125.235 Y103.743 E0.4518
G1 X125.260 Y104.251 E0.4817
G1 X125.260 Y130.749 E2.0364
G1 X125.235 Y131.258 E2.0662
G1 X125.123 Y132.393 E2.1331
G1 X124.925 Y133.391 E2.1928
G1 X124.521 Y134.721 E2.2744
G1 X124.132 Y135.662 E2.3341
G1 X123.476 Y136.888 E2.4157
G1 X122.911 Y137.734 E2.4754
G1 X122.029 Y138.809 E2.5570
G1 X121.309 Y139.529 E2.6167
G1 X120.234 Y140.411 E2.6983
G1 X119.388 Y140.976 E2.7580
G1 X118.162 Y141.631 E2.8396
G1 X117.221 Y142.021 E2.8993
G1 X115.891 Y142.425 E2.9809
G1 X114.893 Y142.623 E3.0406
G1 X113.757 Y142.735 E3.1075
G1 X113.249 Y142.760 E3.1374
G1 X86.751 Y142.760 E4.6921
G1 X86.243 Y142.735 E4.7219
G1 X85.107 Y142.623 E4.7888
G1 X84.109 Y142.425 E4.8485
G1 X82.779 Y142.021 E4.9301
G1 X81.838 Y141.631 E4.9899
G1 X80.612 Y140.976 E5.0714
G1 X79.766 Y140.411 E5.1311
G1 X78.691 Y139.529 E5.2127
G1 X77.972 Y138.809 E5.2724
G1 X77.090 Y137.734 E5.3540
G1 X76.524 Y136.888 E5.4137
G1 X75.868 Y135.662 E5.4953
G1 X75.479 Y134.721 E5.5550
G1 X75.075 Y133.391 E5.6366
G1 X74.877 Y132.392 E5.6963
G1 X74.765 Y131.256 E5.7633
G1 X74.740 Y130.747 E5.7932
G1 X74.750 Y103.802 E7.3741
G1 X74.850 Y102.791 E7.4337
G1 X75.121 Y101.428 E7.5152
G1 X75.416 Y100.454 E7.5749
G1 X75.599 Y100.012 E7.6030
G1 X75.479 Y99.721 E7.6215
G1 X75.075 Y98.391 E7.7030
G1 X74.877 Y97.392 E7.7628
G1 X74.765 Y96.256 E7.8297
G1 X74.740 Y95.747 E7.8597
G1 X74.750 Y68.802 E9.4405
G1 X74.850 Y67.791 E9.5002
G1 X75.121 Y66.428 E9.5817
G1 X75.416 Y65.454 E9.6414
G1 X75.948 Y64.170 E9.7230
G1 X76.428 Y63.272 E9.7827
G1 X77.200 Y62.116 E9.8642
G1 X77.846 Y61.329 E9.9240
G1 X78.923 Y60.252 E10.0133
G1 X79.931 Y59.466 E10.0883
G1 X81.500 Y58.528 E10.1956
G1 X82.659 Y58.015 E10.2700
G1 X84.109 Y57.575 E10.3588
G1 X85.108 Y57.377 E10.4186
G1 X86.243 Y57.265 E10.4855
G1 X86.751 Y57.240 E10.5153
G1 X113.249 Y57.240 E12.0700
G1 X113.757 Y57.265 E12.0999
G1 X114.892 Y57.377 E12.1668
G1 X115.891 Y57.575 E12.2265
G1 X117.221 Y57.979 E12.3081
G1 X118.162 Y58.368 E12.3678
G1 X119.388 Y59.024 E12.4494
G1 X120.234 Y59.590 E12.5091
G1 X121.309 Y60.471 E12.5907
G1 X122.028 Y61.191 E12.6504
G1 X122.910 Y62.265 E12.7319
G1 X123.476 Y63.112 E12.7917
G1 X124.132 Y64.338 E12.8732
G1 X124.521 Y65.279 E12.9330
G1 X124.925 Y66.609 E13.0145
G1 X125.123 Y67.607 E13.0743
G1 X125.235 Y68.743 E13.1412
G1 X125.260 Y69.251 E13.1710
G1 X125.260 Y95.749 E14.7257
G1 X125.235 Y96.257 E14.7556
G92 E0.0000
G1 E-3.0000 F3600
; feature inner perimeter
G1 X114.540 Y95.477 F18000
G1 X114.520 Y95.677
G1 X113.100 Y95.600
G1 E0.0000 F3600
G92 E0.0000
G1 X86.900 Y95.600 E1.5372 F1350
G1 X86.910 Y69.400 E3.0744
G1 X113.100 Y69.400 E4.6110
G1 X113.100 Y95.400 E6.1364
G1 X113.100 Y95.600 F1350
G1 X113.576 Y96.076 F18000
G92 E0.0000
G1 X113.452 Y96.177 E0.0094 F1350
G1 X113.312 Y96.252 E0.0187
G1 X113.159 Y96.299 E0.0281
G1 X112.942 Y96.320 E0.0409
G1 X87.058 Y96.320 E1.5595
G1 X86.841 Y96.299 E1.5723
G1 X86.688 Y96.252 E1.5817
G1 X86.548 Y96.177 E1.5910
G1 X86.424 Y96.076 E1.6004
G1 X86.323 Y95.952 E1.6098
G1 X86.248 Y95.812 E1.6191
G1 X86.201 Y95.659 E1.6285
G1 X86.180 Y95.442 E1.6413
G1 X86.190 Y69.420 E3.1680
G1 X86.221 Y69.264 E3.1774
G1 X86.282 Y69.116 E3.1867
G1 X86.371 Y68.983 E3.1961
G1 X86.512 Y68.842 E3.2078
G1 X86.688 Y68.748 E3.2196
G1 X86.841 Y68.701 E3.2289
G1 X87.058 Y68.680 E3.2417
G1 X112.942 Y68.680 E4.7604
G1 X113.159 Y68.701 E4.7731
G1 X113.312 Y68.748 E4.7825
G1 X113.452 Y68.823 E4.7919
G1 X113.576 Y68.924 E4.8012
G1 X113.677 Y69.048 E4.8106
G1 X113.752 Y69.188 E4.8200
G1 X113.799 Y69.341 E4.8293
G1 X113.820 Y69.558 E4.8421
G1 X113.820 Y95.442 E6.3608
G1 X113.799 Y95.659 E6.3735
G1 X113.752 Y95.812 E6.3829
G1 X113.696 Y95.917 E6.3899
G1 X113.677 Y95.952 F1350
G1 X113.576 Y96.076
; feature outer perimeter
G1 X114.087 Y96.587 F18000
G92 E0.0000
G1 X113.854 Y96.779 E0.0177 F900
G1 X113.588 Y96.921 E0.0354
G1 X113.300 Y97.008 E0.0531
G1 X112.977 Y97.040 E0.0721
G1 X87.023 Y97.040 E1.5949
G1 X86.700 Y97.008 E1.6139
G1 X86.411 Y96.921 E1.6316
G1 X86.146 Y96.779 E1.6493
G1 X85.913 Y96.587 E1.6669
G1 X85.721 Y96.354 E1.6846
G1 X85.579 Y96.088 E1.7023
G1 X85.492 Y95.800 E1.7200
G1 X85.460 Y95.477 E1.7390
G1 X85.470 Y69.349 E3.2720
G1 X85.528 Y69.054 E3.2897
G1 X85.644 Y68.775 E3.3074
G1 X85.811 Y68.524 E3.3250
G1 X86.032 Y68.303 E3.3434
G1 X86.136 Y68.227 E3.3509
G1 X86.412 Y68.079 E3.3693
G1 X86.700 Y67.992 E3.3870
G1 X87.023 Y67.960 E3.4060
G1 X112.977 Y67.960 E4.9288
G1 X113.300 Y67.992 E4.9478
G1 X113.588 Y68.079 E4.9655
G1 X113.854 Y68.221 E4.9832
G1 X114.087 Y68.413 E5.0009
G1 X114.279 Y68.646 E5.0186
G1 X114.421 Y68.911 E5.0362
G1 X114.508 Y69.200 E5.0539
G1 X114.540 Y69.523 E5.0730
G1 X114.540 Y95.477 E6.5957
G1 X114.508 Y95.800 E6.6148
G1 X114.421 Y96.088 E6.6324
G1 X114.279 Y96.354 E6.6501
G1 X114.214 Y96.433 E6.6561
G1 X114.087 Y96.587 F900
G1 X113.854 Y96.779 F900
G1 X113.588 Y96.921
G1 X113.300 Y97.008
G1 X112.977 Y97.040
G1 X109.206 Y97.040
; feature solid layer
G1 X87.932 Y95.060 F18000
