; G-Code generated by Simplify3D(R) Version 4.1.2
; Apr 12, 2020 at 9:28:05 PM
; Settings Summary
;   processName,Process1
;   applyToModels,Base_C-Clamp_40_Body_v5
;   profileName,HBot (modified)
;   profileVersion,2019-10-26 23:38:43
;   baseProfile,Default
;   printMaterial,PLA
;   printQuality,Medium
;   printExtruders,
;   extruderName,Extruder 1
;   extruderToolheadNumber,0
;   extruderDiameter,0.4
;   extruderAutoWidth,1
;   extruderWidth,0.48
;   extrusionMultiplier,0.94
;   extruderUseRetract,1
;   extruderRetractionDistance,3
;   extruderExtraRestartDistance,0
;   extruderRetractionZLift,0
;   extruderRetractionSpeed,3600
;   extruderUseCoasting,1
;   extruderCoastingDistance,0.2
;   extruderUseWipe,1
;   extruderWipeDistance,5
;   primaryExtruder,0
;   layerHeight,0.2
;   topSolidLayers,3
;   bottomSolidLayers,3
;   perimeterOutlines,3
;   printPerimetersInsideOut,1
;   startPointOption,3
;   startPointOriginX,200
;   startPointOriginY,100
;   sequentialIslands,0
;   spiralVaseMode,0
;   firstLayerHeightPercentage,100
;   firstLayerWidthPercentage,150
;   firstLayerUnderspeed,0.5
;   useRaft,0
;   raftExtruder,0
;   raftTopLayers,3
;   raftBaseLayers,2
;   raftOffset,3
;   raftSeparationDistance,0.18
;   raftTopInfill,100
;   aboveRaftSpeedMultiplier,0.3
;   useSkirt,1
;   skirtExtruder,0
;   skirtLayers,1
;   skirtOutlines,5
;   skirtOffset,0
;   usePrimePillar,0
;   primePillarExtruder,999
;   primePillarWidth,12
;   primePillarLocation,7
;   primePillarSpeedMultiplier,1
;   useOozeShield,0
;   oozeShieldExtruder,999
;   oozeShieldOffset,2
;   oozeShieldOutlines,1
;   oozeShieldSidewallShape,1
;   oozeShieldSidewallAngle,30
;   oozeShieldSpeedMultiplier,1
;   infillExtruder,0
;   internalInfillPattern,Rectilinear
;   externalInfillPattern,Rectilinear
;   infillPercentage,20
;   outlineOverlapPercentage,25
;   infillExtrusionWidthPercentage,150
;   minInfillLength,5
;   infillLayerInterval,1
;   internalInfillAngles,45,-45
;   overlapInternalInfillAngles,0
;   externalInfillAngles,45,-45
;   generateSupport,0
;   supportExtruder,0
;   supportInfillPercentage,30
;   supportExtraInflation,0
;   supportBaseLayers,1
;   denseSupportExtruder,0
;   denseSupportLayers,0
;   denseSupportInfillPercentage,70
;   supportLayerInterval,1
;   supportHorizontalPartOffset,0.3
;   supportUpperSeparationLayers,1
;   supportLowerSeparationLayers,1
;   supportType,0
;   supportGridSpacing,4
;   maxOverhangAngle,25
;   supportAngles,0
;   temperatureName,Extruder 1,Heated Bed
;   temperatureNumber,0,1
;   temperatureSetpointCount,2,1
;   temperatureSetpointLayers,1,2,1
;   temperatureSetpointTemperatures,217,208,65
;   temperatureStabilizeAtStartup,1,1
;   temperatureHeatedBed,0,1
;   fanLayers,1,2,4
;   fanSpeeds,0,20,30
;   blipFanToFullPower,1
;   adjustSpeedForCooling,1
;   minSpeedLayerTime,15
;   minCoolingSpeedSlowdown,20
;   increaseFanForCooling,0
;   minFanLayerTime,45
;   maxCoolingFanSpeed,40
;   increaseFanForBridging,1
;   bridgingFanSpeed,80
;   use5D,1
;   relativeEdistances,0
;   allowEaxisZeroing,1
;   independentExtruderAxes,0
;   includeM10123,0
;   stickySupport,1
;   applyToolheadOffsets,0
;   gcodeXoffset,0
;   gcodeYoffset,0
;   gcodeZoffset,0
;   overrideMachineDefinition,1
;   machineTypeOverride,0
;   strokeXoverride,200
;   strokeYoverride,200
;   strokeZoverride,150
;   originOffsetXoverride,0
;   originOffsetYoverride,0
;   originOffsetZoverride,0
;   homeXdirOverride,-1
;   homeYdirOverride,-1
;   homeZdirOverride,-1
;   flipXoverride,1
;   flipYoverride,-1
;   flipZoverride,1
;   toolheadOffsets,0,0|0,0|0,0|0,0|0,0|0,0
;   overrideFirmwareConfiguration,1
;   firmwareTypeOverride,RepRap (Marlin/Repetier/Sprinter)
;   GPXconfigOverride,r2
;   baudRateOverride,115200
;   overridePrinterModels,0
;   printerModelsOverride
;   startingGcode,G28 ; home all axes,G32 ; run bed.g -- probe bed and enable compensation
;   layerChangeGcode,
;   retractionGcode,
;   toolChangeGcode,
;   endingGcode,M0 ; call stop.g
;   exportFileFormat,gcode
;   celebration,0
;   celebrationSong,Random Song
;   postProcessing,
;   defaultSpeed,3600
;   outlineUnderspeed,0.5
;   solidInfillUnderspeed,0.8
;   supportUnderspeed,0.8
;   rapidXYspeed,18000
;   rapidZspeed,1200
;   minBridgingArea,50
;   bridgingExtraInflation,0
;   bridgingExtrusionMultiplier,0.96
;   bridgingSpeedMultiplier,1
;   useFixedBridgingAngle,0
;   fixedBridgingAngle,0
;   applyBridgingToPerimeters,0
;   filamentDiameters,1.75|1.75|1.75|1.75|1.75|1.75
;   filamentPricesPerKg,46|46|46|46|46|46
;   filamentDensities,1.25|1.25|1.25|1.25|1.25|1.25
;   useMinPrintHeight,0
;   minPrintHeight,0
;   useMaxPrintHeight,0
;   maxPrintHeight,0
;   useDiaphragm,0
;   diaphragmLayerInterval,20
;   robustSlicing,1
;   mergeAllIntoSolid,0
;   onlyRetractWhenCrossingOutline,1
;   retractBetweenLayers,0
;   useRetractionMinTravel,1
;   retractionMinTravel,3
;   retractWhileWiping,1
;   onlyWipeOutlines,1
;   avoidCrossingOutline,1
;   maxMovementDetourFactor,30
;   toolChangeRetractionDistance,12
;   toolChangeExtraRestartDistance,-0.5
;   toolChangeRetractionSpeed,600
;   externalThinWallType,1
;   internalThinWallType,1
;   thinWallAllowedOverlapPercentage,10
;   singleExtrusionMinLength,1
;   singleExtrusionMinPrintingWidthPercentage,50
;   singleExtrusionMaxPrintingWidthPercentage,200
;   singleExtrusionEndpointExtension,0.2
;   horizontalSizeCompensation,-0.1
G90
M82
M106 S0
M140 S65
M190 S65
M104 S217 T0
M109 S217 T0
G28 ; home all axes
G32 ; run bed.g -- probe bed and enable compensation
; process Process1
; layer 1, Z = 0.200
T0
G92 E0.0000
G1 E-3.0000 F3600
; feature skirt
; tool H0.200 W0.720
G1 Z0.200 F1200
G1 X121.981 Y125.048 F18000
G1 E0.0000 F3600
G92 E0.0000
G1 X121.981 Y134.661 E0.5409 F1800
G1 X121.655 Y135.650 E0.5996
G1 X120.914 Y136.649 E0.6696
G1 X120.040 Y137.256 E0.7295
G1 X117.600 Y137.962 E0.8724
G1 X117.566 Y137.972 E0.8744
G1 X115.572 Y138.502 E0.9905
G1 X115.538 Y138.511 E0.9925
G1 X113.537 Y138.996 E1.1083
G1 X113.503 Y139.004 E1.1103
G1 X111.492 Y139.447 E1.2262
G1 X111.458 Y139.454 E1.2282
G1 X109.438 Y139.852 E1.3440
G1 X109.403 Y139.859 E1.3460
G1 X107.372 Y140.214 E1.4621
G1 X107.337 Y140.219 E1.4641
G1 X105.301 Y140.530 E1.5799
G1 X105.267 Y140.535 E1.5819
G1 X103.226 Y140.801 E1.6977
G1 X103.191 Y140.805 E1.6997
G1 X101.140 Y141.027 E1.8158
G1 X101.105 Y141.031 E1.8178
G1 X99.051 Y141.208 E1.9338
G1 X99.016 Y141.211 E1.9358
G1 X96.966 Y141.343 E2.0514
G1 X96.931 Y141.345 E2.0534
G1 X94.867 Y141.433 E2.1696
G1 X94.832 Y141.434 E2.1716
G1 X92.770 Y141.478 E2.2877
G1 X92.735 Y141.478 E2.2896
G1 X90.676 Y141.477 E2.4055
G1 X90.641 Y141.476 E2.4075
G1 X88.571 Y141.430 E2.5240
G1 X88.506 Y141.427 E2.5276
G1 X87.660 Y141.374 E2.5754
G1 X87.567 Y141.366 E2.5806
G1 X86.713 Y141.263 E2.6290
G1 X86.620 Y141.249 E2.6343
G1 X85.772 Y141.096 E2.6828
G1 X85.680 Y141.077 E2.6881
G1 X84.844 Y140.876 E2.7365
G1 X84.753 Y140.851 E2.7418
G1 X83.928 Y140.601 E2.7903
G1 X83.839 Y140.572 E2.7956
G1 X83.032 Y140.275 E2.8440
G1 X82.945 Y140.240 E2.8493
G1 X82.155 Y139.897 E2.8977
G1 X82.070 Y139.857 E2.9030
G1 X81.302 Y139.469 E2.9514
G1 X81.219 Y139.425 E2.9567
G1 X80.473 Y138.992 E3.0052
G1 X80.394 Y138.942 E3.0105
G1 X79.676 Y138.469 E3.0589
G1 X79.600 Y138.415 E3.0642
G1 X78.909 Y137.899 E3.1127
G1 X78.836 Y137.841 E3.1179
G1 X78.179 Y137.288 E3.1663
G1 X78.109 Y137.225 E3.1716
G1 X77.483 Y136.634 E3.2200
G1 X77.416 Y136.567 E3.2253
G1 X76.825 Y135.940 E3.2738
G1 X76.763 Y135.870 E3.2791
G1 X76.211 Y135.211 E3.3275
G1 X76.152 Y135.137 E3.3328
G1 X75.637 Y134.444 E3.3813
G1 X75.584 Y134.367 E3.3866
G1 X75.111 Y133.649 E3.4350
G1 X75.062 Y133.569 E3.4403
G1 X74.633 Y132.826 E3.4886
G1 X74.588 Y132.744 E3.4939
G1 X74.201 Y131.973 E3.5424
G1 X74.161 Y131.888 E3.5477
G1 X73.819 Y131.097 E3.5962
G1 X73.784 Y131.010 E3.6015
G1 X73.489 Y130.201 E3.6499
G1 X73.460 Y130.112 E3.6552
G1 X73.212 Y129.286 E3.7037
G1 X73.187 Y129.195 E3.7090
G1 X72.988 Y128.362 E3.7572
G1 X72.969 Y128.270 E3.7625
G1 X72.893 Y127.841 E3.7870
G1 X59.469 Y127.841 E4.5424
G1 X59.405 Y127.840 E4.5460
G1 X58.727 Y127.813 E4.5842
G1 X58.594 Y127.803 E4.5917
G1 X56.775 Y127.579 E4.6949
G1 X55.148 Y125.741 E4.8330
G1 X55.148 Y121.455 E5.0742
G1 X55.953 Y120.550 E5.1424
G1 X55.148 Y119.641 E5.2107
G1 X55.148 Y115.355 E5.4519
G1 X55.953 Y114.450 E5.5200
G1 X55.148 Y113.541 E5.5884
G1 X55.148 Y108.861 E5.8517
G1 X56.778 Y107.021 E5.9900
G1 X58.612 Y106.799 E6.0940
G1 X58.743 Y106.789 E6.1014
G1 X59.429 Y106.762 E6.1400
G1 X59.557 Y106.762 E6.1472
G1 X60.295 Y106.791 E6.1888
G1 X60.456 Y106.805 E6.1979
G1 X61.515 Y106.953 E6.2581
G1 X61.696 Y106.989 E6.2684
G1 X62.363 Y107.161 E6.3072
G1 X71.607 Y107.161 E6.8275
G1 X71.595 Y106.737 E6.8514
G1 X71.594 Y106.709 E6.8529
G1 X71.524 Y100.669 E7.1929
G1 X71.524 Y100.641 E7.1944
G1 X71.550 Y95.675 E7.4739
G1 X71.551 Y95.650 E7.4753
G1 X71.627 Y91.981 E7.6819
G1 X71.628 Y91.961 E7.6830
G1 X71.749 Y88.305 E7.8888
G1 X71.750 Y88.277 E7.8904
G1 X72.056 Y82.242 E8.2305
G1 X72.058 Y82.214 E8.2320
G1 X72.391 Y77.270 E8.5109
G1 X72.393 Y77.245 E8.5123
G1 X72.699 Y73.568 E8.7199
G1 X72.705 Y73.512 E8.7231
G1 X72.804 Y72.675 E8.7705
G1 X72.818 Y72.583 E8.7758
G1 X72.969 Y71.733 E8.8244
G1 X72.988 Y71.641 E8.8297
G1 X73.188 Y70.806 E8.8780
G1 X73.212 Y70.715 E8.8833
G1 X73.460 Y69.891 E8.9317
G1 X73.489 Y69.802 E8.9370
G1 X73.785 Y68.993 E8.9855
G1 X73.819 Y68.906 E8.9907
G1 X74.161 Y68.116 E9.0392
G1 X74.200 Y68.031 E9.0444
G1 X74.587 Y67.262 E9.0929
G1 X74.631 Y67.179 E9.0981
G1 X75.062 Y66.434 E9.1466
G1 X75.111 Y66.354 E9.1519
G1 X75.585 Y65.634 E9.2004
G1 X75.638 Y65.557 E9.2057
G1 X76.152 Y64.866 E9.2541
G1 X76.210 Y64.792 E9.2594
G1 X76.763 Y64.133 E9.3078
G1 X76.825 Y64.063 E9.3131
G1 X77.416 Y63.436 E9.3616
G1 X77.483 Y63.369 E9.3669
G1 X78.107 Y62.779 E9.4152
G1 X78.177 Y62.716 E9.4205
G1 X78.835 Y62.163 E9.4689
G1 X78.908 Y62.104 E9.4742
G1 X79.600 Y61.587 E9.5228
G1 X79.677 Y61.534 E9.5281
G1 X80.394 Y61.060 E9.5764
G1 X80.474 Y61.011 E9.5817
G1 X81.219 Y60.579 E9.6301
G1 X81.301 Y60.534 E9.6354
G1 X82.069 Y60.146 E9.6839
G1 X82.154 Y60.106 E9.6892
G1 X82.961 Y59.755 E9.7387
G1 X83.083 Y59.708 E9.7460
G1 X84.391 Y59.261 E9.8238
G1 X84.512 Y59.225 E9.8309
G1 X85.643 Y58.934 E9.8966
G1 X85.759 Y58.909 E9.9033
G1 X86.619 Y58.754 E9.9525
G1 X86.712 Y58.740 E9.9578
G1 X87.567 Y58.637 E10.0062
G1 X87.660 Y58.629 E10.0115
G1 X88.504 Y58.576 E10.0591
G1 X88.568 Y58.573 E10.0627
G1 X90.584 Y58.527 E10.1762
G1 X90.619 Y58.527 E10.1781
G1 X92.622 Y58.524 E10.2909
G1 X92.656 Y58.524 E10.2928
G1 X94.667 Y58.563 E10.4059
G1 X94.709 Y58.565 E10.4083
G1 X97.402 Y58.687 E10.5600
G1 X97.449 Y58.690 E10.5627
G1 X100.745 Y58.938 E10.7487
G1 X100.799 Y58.943 E10.7517
G1 X103.487 Y59.236 E10.9039
G1 X103.536 Y59.242 E10.9067
G1 X106.809 Y59.699 E11.0927
G1 X106.861 Y59.707 E11.0957
G1 X109.019 Y60.081 E11.2189
G1 X109.019 Y55.048 E11.5021
G1 X110.208 Y53.367 E11.6180
G1 X111.655 Y52.855 E11.7044
G1 X112.199 Y52.761 E11.7355
G1 X118.801 Y52.761 E12.1070
G1 X119.345 Y52.855 E12.1380
G1 X120.792 Y53.367 E12.2244
G1 X121.981 Y55.048 E12.3403
G1 X121.981 Y75.343 E13.4825
G1 X120.083 Y77.241 E13.6335
G1 X96.083 Y77.241 E14.9842
G1 X95.921 Y77.250 E14.9933
G1 X95.842 Y77.263 E14.9978
G1 X95.758 Y77.286 E15.0027
G1 X95.702 Y77.307 E15.0061
G1 X95.634 Y77.342 E15.0104
G1 X95.539 Y77.404 E15.0168
G1 X95.496 Y77.438 E15.0199
G1 X95.438 Y77.496 E15.0245
G1 X95.388 Y77.558 E15.0289
G1 X95.345 Y77.625 E15.0334
G1 X95.306 Y77.703 E15.0384
G1 X95.288 Y77.750 E15.0412
G1 X95.257 Y77.865 E15.0479
G1 X95.249 Y77.919 E15.0509
G1 X95.240 Y78.085 E15.0603
G1 X95.240 Y121.918 E17.5271
G1 X95.249 Y122.081 E17.5362
G1 X95.261 Y122.159 E17.5407
G1 X95.282 Y122.236 E17.5452
G1 X95.315 Y122.319 E17.5502
G1 X95.342 Y122.373 E17.5536
G1 X95.388 Y122.445 E17.5584
G1 X95.438 Y122.507 E17.5629
G1 X95.495 Y122.563 E17.5674
G1 X95.556 Y122.613 E17.5718
G1 X95.623 Y122.656 E17.5763
G1 X95.702 Y122.696 E17.5813
G1 X95.758 Y122.717 E17.5847
G1 X95.842 Y122.740 E17.5896
G1 X95.921 Y122.753 E17.5940
G1 X96.083 Y122.761 E17.6032
G1 X118.801 Y122.761 E18.8817
G1 X119.345 Y122.855 E18.9127
G1 X120.792 Y123.367 E18.9991
G1 X121.981 Y125.048 E19.1150
G1 X121.261 Y125.277 F18000
G92 E0.0000
G1 X121.261 Y134.545 E0.5215 F1800
G1 X121.007 Y135.315 E0.5672
G1 X120.406 Y136.125 E0.6240
G1 X119.726 Y136.598 E0.6706
G1 X117.403 Y137.270 E0.8067
G1 X117.377 Y137.277 E0.8082
G1 X115.391 Y137.805 E0.9238
G1 X115.365 Y137.812 E0.9254
G1 X113.371 Y138.296 E1.0408
G1 X113.345 Y138.302 E1.0423
G1 X111.341 Y138.743 E1.1578
G1 X111.314 Y138.748 E1.1593
G1 X109.302 Y139.145 E1.2748
G1 X109.275 Y139.150 E1.2763
G1 X107.251 Y139.504 E1.3919
G1 X107.224 Y139.508 E1.3934
G1 X105.197 Y139.818 E1.5089
G1 X105.169 Y139.821 E1.5104
G1 X103.136 Y140.086 E1.6258
G1 X103.109 Y140.090 E1.6274
G1 X101.067 Y140.311 E1.7430
G1 X101.040 Y140.314 E1.7445
G1 X98.993 Y140.490 E1.8601
G1 X98.966 Y140.492 E1.8616
G1 X96.922 Y140.624 E1.9769
G1 X96.895 Y140.626 E1.9784
G1 X94.841 Y140.714 E2.0941
G1 X94.813 Y140.715 E2.0957
G1 X92.760 Y140.758 E2.2113
G1 X92.732 Y140.758 E2.2128
G1 X90.681 Y140.757 E2.3282
G1 X90.654 Y140.756 E2.3298
G1 X88.594 Y140.710 E2.4457
G1 X88.544 Y140.708 E2.4485
G1 X87.715 Y140.656 E2.4953
G1 X87.643 Y140.650 E2.4994
G1 X86.810 Y140.549 E2.5466
G1 X86.737 Y140.538 E2.5507
G1 X85.910 Y140.389 E2.5980
G1 X85.838 Y140.374 E2.6021
G1 X85.022 Y140.178 E2.6494
G1 X84.951 Y140.159 E2.6535
G1 X84.147 Y139.915 E2.7008
G1 X84.078 Y139.892 E2.7049
G1 X83.290 Y139.603 E2.7522
G1 X83.222 Y139.576 E2.7563
G1 X82.451 Y139.241 E2.8035
G1 X82.385 Y139.210 E2.8077
G1 X81.636 Y138.831 E2.8549
G1 X81.572 Y138.797 E2.8590
G1 X80.844 Y138.375 E2.9063
G1 X80.782 Y138.336 E2.9104
G1 X80.082 Y137.874 E2.9577
G1 X80.022 Y137.832 E2.9618
G1 X79.349 Y137.329 E3.0091
G1 X79.291 Y137.283 E3.0132
G1 X78.650 Y136.743 E3.0604
G1 X78.595 Y136.695 E3.0645
G1 X77.985 Y136.118 E3.1118
G1 X77.933 Y136.066 E3.1159
G1 X77.357 Y135.454 E3.1632
G1 X77.308 Y135.399 E3.1673
G1 X76.769 Y134.756 E3.2145
G1 X76.724 Y134.699 E3.2186
G1 X76.221 Y134.023 E3.2660
G1 X76.180 Y133.964 E3.2701
G1 X75.718 Y133.262 E3.3174
G1 X75.680 Y133.200 E3.3215
G1 X75.261 Y132.475 E3.3686
G1 X75.226 Y132.410 E3.3727
G1 X74.849 Y131.659 E3.4201
G1 X74.818 Y131.593 E3.4242
G1 X74.484 Y130.821 E3.4715
G1 X74.457 Y130.753 E3.4756
G1 X74.169 Y129.964 E3.5228
G1 X74.146 Y129.895 E3.5270
G1 X73.904 Y129.089 E3.5743
G1 X73.885 Y129.019 E3.5784
G1 X73.691 Y128.204 E3.6255
G1 X73.676 Y128.133 E3.6296
G1 X73.529 Y127.305 E3.6770
G1 X73.518 Y127.233 E3.6811
G1 X73.505 Y127.121 E3.6874
G1 X59.476 Y127.121 E4.4768
G1 X59.427 Y127.120 E4.4797
G1 X58.771 Y127.094 E4.5166
G1 X58.667 Y127.086 E4.5224
G1 X57.133 Y126.898 E4.6094
G1 X55.868 Y125.468 E4.7169
G1 X55.868 Y121.729 E4.9272
G1 X56.915 Y120.551 E5.0159
G1 X55.868 Y119.368 E5.1049
G1 X55.868 Y115.629 E5.3153
G1 X56.915 Y114.451 E5.4040
G1 X55.868 Y113.268 E5.4929
G1 X55.868 Y109.134 E5.7255
G1 X57.136 Y107.703 E5.8331
G1 X58.684 Y107.516 E5.9209
G1 X58.786 Y107.507 E5.9266
G1 X59.443 Y107.482 E5.9636
G1 X59.543 Y107.482 E5.9692
G1 X60.249 Y107.509 E6.0090
G1 X60.373 Y107.521 E6.0160
G1 X61.395 Y107.663 E6.0741
G1 X61.536 Y107.691 E6.0822
G1 X62.271 Y107.881 E6.1249
G1 X72.349 Y107.881 E6.6920
G1 X72.315 Y106.718 E6.7575
G1 X72.314 Y106.696 E6.7587
G1 X72.244 Y100.663 E7.0983
G1 X72.244 Y100.642 E7.0995
G1 X72.270 Y95.684 E7.3785
G1 X72.270 Y95.664 E7.3796
G1 X72.347 Y92.000 E7.5859
G1 X72.347 Y91.984 E7.5867
G1 X72.469 Y88.331 E7.7925
G1 X72.470 Y88.309 E7.7937
G1 X72.775 Y82.281 E8.1334
G1 X72.776 Y82.260 E8.1345
G1 X73.109 Y77.322 E8.4131
G1 X73.111 Y77.302 E8.4142
G1 X73.416 Y73.635 E8.6213
G1 X73.421 Y73.591 E8.6238
G1 X73.518 Y72.771 E8.6703
G1 X73.529 Y72.698 E8.6744
G1 X73.676 Y71.870 E8.7217
G1 X73.691 Y71.798 E8.7258
G1 X73.886 Y70.983 E8.7730
G1 X73.905 Y70.912 E8.7771
G1 X74.146 Y70.108 E8.8244
G1 X74.169 Y70.039 E8.8285
G1 X74.457 Y69.249 E8.8758
G1 X74.484 Y69.182 E8.8799
G1 X74.817 Y68.411 E8.9271
