; G-Code generated by Simplify3D(R) Version 4.1.2
; Jun 12, 2022 at 9:18:20 PM
; Settings Summary
;   processName,Process1
;   applyToModels,tc-receiver-lgx
;   profileName,HSBot
;   profileVersion,2019-11-09 11:59:44
;   baseProfile,Default
;   printMaterial,PETG - Eryone
;   printQuality,Medium
;   printExtruders,
;   extruderName,Extruder 1,Extruder - Lite
;   extruderToolheadNumber,0,1
;   extruderDiameter,0.4,0.4
;   extruderAutoWidth,1,1
;   extruderWidth,0.48,0.48
;   extrusionMultiplier,1.03,0.93
;   extruderUseRetract,0,0
;   extruderRetractionDistance,4,1
;   extruderExtraRestartDistance,0,0
;   extruderRetractionZLift,0,0
;   extruderRetractionSpeed,3600,1800
;   extruderUseCoasting,0,0
;   extruderCoastingDistance,0.2,0.2
;   extruderUseWipe,0,0
;   extruderWipeDistance,1,5
;   primaryExtruder,0
;   layerHeight,0.2
;   topSolidLayers,3
;   bottomSolidLayers,3
;   perimeterOutlines,3
;   printPerimetersInsideOut,1
;   startPointOption,2
;   startPointOriginX,0
;   startPointOriginY,0
;   sequentialIslands,0
;   spiralVaseMode,0
;   firstLayerHeightPercentage,100
;   firstLayerWidthPercentage,150
;   firstLayerUnderspeed,0.25
;   useRaft,0
;   raftExtruder,0
;   raftTopLayers,3
;   raftBaseLayers,2
;   raftOffset,3
;   raftSeparationDistance,0.18
;   raftTopInfill,100
;   aboveRaftSpeedMultiplier,0.3
;   useSkirt,1
;   skirtExtruder,0
;   skirtLayers,1
;   skirtOutlines,10
;   skirtOffset,0
;   usePrimePillar,0
;   primePillarExtruder,999
;   primePillarWidth,12
;   primePillarLocation,7
;   primePillarSpeedMultiplier,1
;   useOozeShield,0
;   oozeShieldExtruder,999
;   oozeShieldOffset,2
;   oozeShieldOutlines,1
;   oozeShieldSidewallShape,1
;   oozeShieldSidewallAngle,30
;   oozeShieldSpeedMultiplier,1
;   infillExtruder,0
;   internalInfillPattern,Full Honeycomb
;   externalInfillPattern,Rectilinear
;   infillPercentage,30
;   outlineOverlapPercentage,20
;   infillExtrusionWidthPercentage,100
;   minInfillLength,3
;   infillLayerInterval,1
;   internalInfillAngles,0,120,-120
;   overlapInternalInfillAngles,0
;   externalInfillAngles,45,-45
;   generateSupport,0
;   supportExtruder,0
;   supportInfillPercentage,30
;   supportExtraInflation,0
;   supportBaseLayers,1
;   denseSupportExtruder,0
;   denseSupportLayers,0
;   denseSupportInfillPercentage,70
;   supportLayerInterval,1
;   supportHorizontalPartOffset,0.3
;   supportUpperSeparationLayers,1
;   supportLowerSeparationLayers,1
;   supportType,0
;   supportGridSpacing,2
;   maxOverhangAngle,45
;   supportAngles,0
;   temperatureName,Extruder 1,Bed
;   temperatureNumber,0,0
;   temperatureSetpointCount,1,1
;   temperatureSetpointLayers,1,1
;   temperatureSetpointTemperatures,225,85
;   temperatureStabilizeAtStartup,1,1
;   temperatureHeatedBed,0,1
;   fanLayers,1,2,3
;   fanSpeeds,0,15,15
;   blipFanToFullPower,1
;   adjustSpeedForCooling,1
;   minSpeedLayerTime,15
;   minCoolingSpeedSlowdown,50
;   increaseFanForCooling,1
;   minFanLayerTime,45
;   maxCoolingFanSpeed,70
;   increaseFanForBridging,1
;   bridgingFanSpeed,80
;   use5D,1
;   relativeEdistances,0
;   allowEaxisZeroing,1
;   independentExtruderAxes,0
;   includeM10123,0
;   stickySupport,1
;   applyToolheadOffsets,0
;   gcodeXoffset,0
;   gcodeYoffset,0
;   gcodeZoffset,0
;   overrideMachineDefinition,1
;   machineTypeOverride,0
;   strokeXoverride,220
;   strokeYoverride,220
;   strokeZoverride,150
;   originOffsetXoverride,0
;   originOffsetYoverride,0
;   originOffsetZoverride,0
;   homeXdirOverride,-1
;   homeYdirOverride,-1
;   homeZdirOverride,-1
;   flipXoverride,1
;   flipYoverride,-1
;   flipZoverride,1
;   toolheadOffsets,0,0|0,0|0,0|0,0|0,0|0,0
;   overrideFirmwareConfiguration,0
;   firmwareTypeOverride,RepRap (Marlin/Repetier/Sprinter)
;   GPXconfigOverride,r2
;   baudRateOverride,115200
;   overridePrinterModels,0
;   printerModelsOverride
;   startingGcode,G28 ; home all axes,G32 ; run bed.g -- probe bed and enable compensation
;   layerChangeGcode,
;   retractionGcode,
;   toolChangeGcode,
;   endingGcode,M0 ; call stop.g
;   exportFileFormat,gcode
;   celebration,0
;   celebrationSong,Random Song
;   postProcessing,|; 0.2mm layer, 8 bands 5mm each, total height 40mm|{REPLACE "; layer 25" "M572 D0 S0.69\n; layer 10"}|{REPLACE "; layer 50" "M572 D0 S0.70\n; layer 50"}|{REPLACE "; layer 75" "M572 D0 S0.71\n; layer 75"}|{REPLACE "; layer 100" "M572 D0 S0.72\n; layer 100"}|{REPLACE "; layer 125" "M572 D0 S0.73\n; layer 125"}|{REPLACE "; layer 150" "M572 D0 S0.74\n; layer 150"}|{REPLACE "; layer 175" "M572 D0 S0.75\n; layer 175"}|{REPLACE "; layer 200" "M572 D0 S0.76\n; layer 200"}
;   defaultSpeed,7200
;   outlineUnderspeed,0.8
;   solidInfillUnderspeed,0.75
;   supportUnderspeed,0.8
;   rapidXYspeed,18000
;   rapidZspeed,1200
;   minBridgingArea,50
;   bridgingExtraInflation,0
;   bridgingExtrusionMultiplier,0.96
;   bridgingSpeedMultiplier,1
;   useFixedBridgingAngle,0
;   fixedBridgingAngle,0
;   applyBridgingToPerimeters,0
;   filamentDiameters,1.75|1.75|1.75|1.75|1.75|1.75
;   filamentPricesPerKg,25|46|46|46|46|46
;   filamentDensities,1.29|1.25|1.25|1.25|1.25|1.25
;   useMinPrintHeight,0
;   minPrintHeight,0.3
;   useMaxPrintHeight,0
;   maxPrintHeight,5
;   useDiaphragm,0
;   diaphragmLayerInterval,20
;   robustSlicing,1
;   mergeAllIntoSolid,0
;   onlyRetractWhenCrossingOutline,1
;   retractBetweenLayers,0
;   useRetractionMinTravel,1
;   retractionMinTravel,5
;   retractWhileWiping,1
;   onlyWipeOutlines,1
;   avoidCrossingOutline,1
;   maxMovementDetourFactor,2
;   toolChangeRetractionDistance,12
;   toolChangeExtraRestartDistance,0
;   toolChangeRetractionSpeed,600
;   externalThinWallType,0
;   internalThinWallType,2
;   thinWallAllowedOverlapPercentage,10
;   singleExtrusionMinLength,0.1
;   singleExtrusionMinPrintingWidthPercentage,50
;   singleExtrusionMaxPrintingWidthPercentage,200
;   singleExtrusionEndpointExtension,0.2
;   horizontalSizeCompensation,-0.1
G90
M82
M106 S0
M140 S85
M190 S85
G10 S225 R{225-50} P0
M116 P0
G28 ; home all axes
G32 ; run bed.g -- probe bed and enable compensation
; process Process1
; layer 1, Z = 0.200
T0
; feature skirt
; tool H0.200 W0.720
G1 Z0.200 F1200
G1 X81.017 Y78.460 F18000
G92 E0.0000
G1 X138.283 Y78.460 E3.5313 F1800
G1 X142.290 Y82.467 E3.8807
G1 X142.290 Y98.233 E4.8529
G1 X139.990 Y100.533 E5.0535
G1 X139.990 Y108.467 E5.5427
G1 X142.290 Y110.767 E5.7433
G1 X142.290 Y127.233 E6.7587
G1 X138.283 Y131.240 E7.1081
G1 X131.290 Y131.240 E7.5393
G1 X131.290 Y132.645 E7.6260
G1 X131.277 Y132.945 E7.6445
G1 X131.204 Y133.776 E7.6959
G1 X131.099 Y134.366 E7.7329
G1 X130.854 Y135.279 E7.7912
G1 X130.677 Y135.778 E7.8238
G1 X130.326 Y136.571 E7.8774
G1 X130.064 Y137.053 E7.9112
G1 X129.524 Y137.881 E7.9721
G1 X129.075 Y138.435 E8.0161
G1 X128.214 Y139.295 E8.0911
G1 X127.749 Y139.683 E8.1285
G1 X127.110 Y140.128 E8.1765
G1 X126.634 Y140.405 E8.2104
G1 X125.592 Y140.904 E8.2817
G1 X124.936 Y141.140 E8.3246
G1 X123.981 Y141.377 E8.3853
G1 X123.434 Y141.466 E8.4195
G1 X122.662 Y141.529 E8.4673
G1 X122.384 Y141.540 E8.4844
G1 X102.105 Y141.540 E9.7349
G1 X101.805 Y141.527 E9.7534
G1 X100.972 Y141.454 E9.8050
G1 X100.382 Y141.349 E9.8419
G1 X99.471 Y141.104 E9.9001
G1 X98.972 Y140.927 E9.9327
G1 X98.179 Y140.576 E9.9863
G1 X97.697 Y140.314 E10.0201
G1 X96.929 Y139.814 E10.0766
G1 X96.477 Y139.462 E10.1119
G1 X95.766 Y138.805 E10.1716
G1 X95.362 Y138.362 E10.2086
G1 X94.781 Y137.597 E10.2678
G1 X94.478 Y137.124 E10.3024
G1 X94.020 Y136.256 E10.3630
G1 X93.760 Y135.616 E10.4056
G1 X93.416 Y134.441 E10.4811
G1 X93.290 Y133.756 E10.5240
G1 X93.221 Y132.911 E10.5763
G1 X93.210 Y132.634 E10.5934
G1 X93.210 Y130.540 E10.7225
G1 X81.017 Y130.540 E11.4744
G1 X77.010 Y126.533 E11.8238
G1 X77.010 Y82.467 E14.5411
G1 X81.017 Y78.460 E14.8906
G1 X81.315 Y79.180 F18000
G92 E0.0000
G1 X137.985 Y79.180 E3.4945 F1800
G1 X141.570 Y82.765 E3.8072
G1 X141.570 Y97.935 E4.7426
G1 X139.270 Y100.235 E4.9432
G1 X139.270 Y108.765 E5.4692
G1 X141.570 Y111.065 E5.6697
G1 X141.570 Y126.935 E6.6484
G1 X137.985 Y130.520 E6.9610
G1 X130.570 Y130.520 E7.4182
G1 X130.570 Y132.630 E7.5483
G1 X130.558 Y132.897 E7.5648
G1 X130.489 Y133.682 E7.6134
G1 X130.396 Y134.210 E7.6465
G1 X130.166 Y135.065 E7.7011
G1 X130.008 Y135.511 E7.7303
G1 X129.679 Y136.253 E7.7803
G1 X129.445 Y136.684 E7.8106
G1 X128.942 Y137.456 E7.8674
G1 X128.539 Y137.952 E7.9068
G1 X127.728 Y138.763 E7.9775
G1 X127.312 Y139.110 E8.0109
G1 X126.722 Y139.520 E8.0552
G1 X126.297 Y139.768 E8.0856
G1 X125.314 Y140.239 E8.1528
G1 X124.727 Y140.450 E8.1912
G1 X123.836 Y140.671 E8.2478
G1 X123.346 Y140.751 E8.2784
G1 X122.618 Y140.810 E8.3235
G1 X122.370 Y140.820 E8.3388
G1 X102.120 Y140.820 E9.5875
G1 X101.853 Y140.808 E9.6040
G1 X101.067 Y140.739 E9.6526
G1 X100.539 Y140.646 E9.6857
G1 X99.685 Y140.416 E9.7402
G1 X99.239 Y140.258 E9.7694
G1 X98.497 Y139.929 E9.8194
G1 X98.066 Y139.695 E9.8497
G1 X97.348 Y139.227 E9.9026
G1 X96.943 Y138.912 E9.9342
G1 X96.277 Y138.298 E9.9900
G1 X95.916 Y137.901 E10.0231
G1 X95.372 Y137.185 E10.0786
G1 X95.101 Y136.761 E10.1096
G1 X94.673 Y135.952 E10.1661
G1 X94.441 Y135.379 E10.2042
G1 X94.118 Y134.274 E10.2752
G1 X94.005 Y133.662 E10.3136
G1 X93.940 Y132.868 E10.3627
G1 X93.930 Y132.620 E10.3780
G1 X93.930 Y129.820 E10.5506
G1 X81.315 Y129.820 E11.3285
G1 X77.730 Y126.235 E11.6412
G1 X77.730 Y82.765 E14.3217
G1 X81.315 Y79.180 E14.6343
G1 X81.613 Y79.900 F18000
G92 E0.0000
G1 X137.687 Y79.900 E3.4577 F1800
G1 X140.850 Y83.063 E3.7336
G1 X140.850 Y97.637 E4.6323
G1 X138.550 Y99.937 E4.8328
G1 X138.550 Y109.063 E5.3956
G1 X140.850 Y111.363 E5.5962
G1 X140.850 Y126.637 E6.5380
G1 X137.687 Y129.800 E6.8139
G1 X129.850 Y129.800 E7.2971
G1 X129.850 Y132.614 E7.4706
G1 X129.840 Y132.850 E7.4852
G1 X129.775 Y133.587 E7.5308
G1 X129.692 Y134.053 E7.5600
G1 X129.478 Y134.851 E7.6110
G1 X129.338 Y135.245 E7.6367
G1 X129.033 Y135.935 E7.6833
G1 X128.826 Y136.315 E7.7100
G1 X128.359 Y137.032 E7.7627
G1 X128.004 Y137.469 E7.7974
G1 X127.241 Y138.231 E7.8639
G1 X126.874 Y138.538 E7.8934
G1 X126.335 Y138.912 E7.9339
G1 X125.960 Y139.131 E7.9607
G1 X125.036 Y139.574 E8.0238
G1 X124.518 Y139.760 E8.0578
G1 X123.691 Y139.965 E8.1103
G1 X123.259 Y140.035 E8.1373
G1 X122.574 Y140.091 E8.1797
G1 X122.355 Y140.100 E8.1932
G1 X102.136 Y140.100 E9.4400
G1 X101.900 Y140.090 E9.4546
G1 X101.162 Y140.025 E9.5003
G1 X100.696 Y139.942 E9.5295
G1 X99.899 Y139.728 E9.5804
G1 X99.505 Y139.588 E9.6061
G1 X98.815 Y139.283 E9.6526
G1 X98.435 Y139.076 E9.6793
G1 X97.766 Y138.640 E9.7285
G1 X97.409 Y138.362 E9.7564
G1 X96.789 Y137.790 E9.8085
G1 X96.470 Y137.440 E9.8377
G1 X95.962 Y136.772 E9.8894
G1 X95.724 Y136.399 E9.9167
G1 X95.327 Y135.647 E9.9691
G1 X95.122 Y135.142 E10.0028
G1 X94.819 Y134.107 E10.0692
G1 X94.719 Y133.567 E10.1031
G1 X94.659 Y132.824 E10.1491
G1 X94.650 Y132.605 E10.1626
G1 X94.650 Y129.100 E10.3787
G1 X81.613 Y129.100 E11.1827
G1 X78.450 Y125.937 E11.4585
G1 X78.450 Y83.063 E14.1023
G1 X81.613 Y79.900 E14.3781
G1 X81.911 Y80.620 F18000
G92 E0.0000
G1 X137.388 Y80.620 E3.4210 F1800
G1 X140.130 Y83.362 E3.6600
G1 X140.130 Y97.338 E4.5219
G1 X137.830 Y99.639 E4.7225
G1 X137.830 Y109.361 E5.3220
G1 X140.130 Y111.662 E5.5226
G1 X140.130 Y126.338 E6.4277
G1 X137.388 Y129.080 E6.6667
G1 X129.130 Y129.080 E7.1760
G1 X129.130 Y132.598 E7.3929
G1 X129.121 Y132.803 E7.4056
G1 X129.060 Y133.493 E7.4483
G1 X128.989 Y133.897 E7.4736
G1 X128.790 Y134.638 E7.5209
G1 X128.669 Y134.979 E7.5432
G1 X128.386 Y135.617 E7.5862
G1 X128.207 Y135.946 E7.6094
G1 X127.776 Y136.607 E7.6580
G1 X127.469 Y136.986 E7.6881
G1 X126.755 Y137.699 E7.7503
G1 X126.437 Y137.965 E7.7759
G1 X125.948 Y138.305 E7.8126
G1 X125.622 Y138.494 E7.8358
G1 X124.758 Y138.908 E7.8949
G1 X124.309 Y139.070 E7.9243
G1 X123.546 Y139.259 E7.9728
G1 X123.172 Y139.320 E7.9962
G1 X122.530 Y139.372 E8.0359
G1 X122.341 Y139.380 E8.0476
G1 X102.152 Y139.380 E9.2925
G1 X101.947 Y139.371 E9.3052
G1 X101.256 Y139.310 E9.3479
G1 X100.852 Y139.239 E9.3732
G1 X100.112 Y139.040 E9.4205
G1 X99.771 Y138.919 E9.4428
G1 X99.134 Y138.636 E9.4858
G1 X98.804 Y138.457 E9.5090
G1 X98.185 Y138.054 E9.5545
G1 X97.875 Y137.813 E9.5787
G1 X97.300 Y137.282 E9.6269
G1 X97.024 Y136.979 E9.6523
G1 X96.553 Y136.360 E9.7002
G1 X96.346 Y136.036 E9.7239
G1 X95.980 Y135.343 E9.7722
G1 X95.802 Y134.905 E9.8014
G1 X95.520 Y133.941 E9.8633
G1 X95.434 Y133.472 E9.8927
G1 X95.378 Y132.780 E9.9355
G1 X95.370 Y132.591 E9.9472
G1 X95.370 Y128.380 E10.2069
G1 X81.911 Y128.380 E11.0368
G1 X79.170 Y125.638 E11.2759
G1 X79.170 Y83.362 E13.8828
G1 X81.911 Y80.620 E14.1219
G1 X82.210 Y81.340 F18000
G92 E0.0000
G1 X137.090 Y81.340 E3.3842 F1800
G1 X139.410 Y83.660 E3.5865
G1 X139.410 Y97.040 E4.4116
G1 X137.110 Y99.340 E4.6121
G1 X137.110 Y109.660 E5.2485
G1 X139.410 Y111.960 E5.4491
G1 X139.410 Y126.040 E6.3173
G1 X137.090 Y128.360 E6.5196
G1 X128.410 Y128.360 E7.0549
G1 X128.410 Y132.582 E7.3152
G1 X128.402 Y132.755 E7.3259
G1 X128.346 Y133.398 E7.3657
G1 X128.285 Y133.740 E7.3871
G1 X128.102 Y134.424 E7.4308
G1 X127.999 Y134.712 E7.4497
G1 X127.740 Y135.298 E7.4892
G1 X127.588 Y135.577 E7.5088
G1 X127.194 Y136.182 E7.5533
G1 X126.933 Y136.503 E7.5788
G1 X126.269 Y137.167 E7.6367
G1 X126.000 Y137.392 E7.6583
G1 X125.561 Y137.697 E7.6913
G1 X125.285 Y137.858 E7.7110
G1 X124.480 Y138.243 E7.7660
G1 X124.100 Y138.380 E7.7909
G1 X123.401 Y138.553 E7.8353
G1 X123.084 Y138.605 E7.8551
G1 X122.487 Y138.653 E7.8921
G1 X122.326 Y138.660 E7.9020
G1 X102.168 Y138.660 E9.1451
G1 X101.994 Y138.652 E9.1557
G1 X101.351 Y138.596 E9.1956
G1 X101.009 Y138.535 E9.2170
G1 X100.326 Y138.352 E9.2606
G1 X100.038 Y138.249 E9.2795
G1 X99.452 Y137.990 E9.3190
G1 X99.173 Y137.838 E9.3386
G1 X98.603 Y137.467 E9.3805
G1 X98.341 Y137.263 E9.4010
G1 X97.812 Y136.774 E9.4454
G1 X97.578 Y136.518 E9.4668
G1 X97.144 Y135.947 E9.5110
G1 X96.969 Y135.673 E9.5310
G1 X96.634 Y135.039 E9.5753
G1 X96.483 Y134.668 E9.6000
G1 X96.222 Y133.774 E9.6574
G1 X96.149 Y133.377 E9.6823
G1 X96.096 Y132.736 E9.7219
G1 X96.090 Y132.576 E9.7318
G1 X96.090 Y127.660 E10.0350
G1 X82.210 Y127.660 E10.8909
G1 X79.890 Y125.340 E11.0932
G1 X79.890 Y83.660 E13.6634
G1 X82.210 Y81.340 E13.8657
G1 X82.508 Y82.060 F18000
G92 E0.0000
G1 X136.792 Y82.060 E3.3474 F1800
G1 X138.690 Y83.958 E3.5129
G1 X138.690 Y96.742 E4.3012
G1 X136.792 Y98.640 E4.4667
G1 X136.390 Y98.640 E4.4915
G1 X136.390 Y110.360 E5.2142
G1 X136.792 Y110.360 E5.2390
G1 X138.690 Y112.258 E5.4045
G1 X138.690 Y125.742 E6.2360
G1 X136.792 Y127.640 E6.4015
G1 X127.690 Y127.640 E6.9628
G1 X127.690 Y132.566 E7.2666
G1 X127.684 Y132.708 E7.2754
G1 X127.631 Y133.304 E7.3122
G1 X127.582 Y133.584 E7.3297
G1 X127.414 Y134.210 E7.3697
G1 X127.330 Y134.446 E7.3852
G1 X127.093 Y134.980 E7.4212
G1 X126.969 Y135.208 E7.4372
G1 X126.611 Y135.758 E7.4777
G1 X126.398 Y136.020 E7.4985
G1 X125.783 Y136.635 E7.5521
G1 X125.562 Y136.819 E7.5698
G1 X125.173 Y137.090 E7.5991
G1 X124.948 Y137.221 E7.6152
G1 X124.202 Y137.578 E7.6662
G1 X123.891 Y137.690 E7.6865
G1 X123.256 Y137.847 E7.7269
G1 X122.997 Y137.890 E7.7431
G1 X122.443 Y137.935 E7.7773
G1 X122.311 Y137.940 E7.7854
G1 X102.183 Y137.940 E9.0266
G1 X102.042 Y137.934 E9.0354
G1 X101.445 Y137.881 E9.0723
G1 X101.166 Y137.832 E9.0898
G1 X100.540 Y137.664 E9.1298
G1 X100.304 Y137.580 E9.1452
G1 X99.770 Y137.343 E9.1812
G1 X99.542 Y137.219 E9.1972
G1 X99.022 Y136.880 E9.2355
G1 X98.807 Y136.713 E9.2523
G1 X98.323 Y136.267 E9.2929
G1 X98.132 Y136.056 E9.3104
G1 X97.735 Y135.535 E9.3508
G1 X97.592 Y135.311 E9.3672
G1 X97.287 Y134.734 E9.4074
G1 X97.164 Y134.431 E9.4276
G1 X96.923 Y133.607 E9.4806
G1 X96.863 Y133.283 E9.5009
G1 X96.815 Y132.693 E9.5374
G1 X96.810 Y132.562 E9.5455
G1 X96.810 Y126.940 E9.8921
G1 X82.508 Y126.940 E10.7741
G1 X80.610 Y125.042 E10.9396
G1 X80.610 Y83.958 E13.4730
G1 X82.508 Y82.060 E13.6385
G1 X82.806 Y82.780 F18000
G92 E0.0000
G1 X136.494 Y82.780 E3.3106 F1800
G1 X137.970 Y84.256 E3.4393
G1 X137.970 Y96.444 E4.1909
G1 X136.494 Y97.920 E4.3196
G1 X135.670 Y97.920 E4.3704
G1 X135.670 Y111.080 E5.1819
