; G-Code generated by Simplify3D(R) Version 4.1.2
; Jun 13, 2022 at 12:47:43 PM
; Settings Summary
;   processName,Process1
;   applyToModels,tc-receiver-lgx-LIS3DSH
;   profileName,HSBot
;   profileVersion,2019-11-09 11:59:44
;   baseProfile,Default
;   printMaterial,PETG - Eryone
;   printQuality,Medium
;   printExtruders,
;   extruderName,Extruder 1,Extruder - Lite
;   extruderToolheadNumber,0,1
;   extruderDiameter,0.4,0.4
;   extruderAutoWidth,1,1
;   extruderWidth,0.48,0.48
;   extrusionMultiplier,1.03,0.93
;   extruderUseRetract,0,0
;   extruderRetractionDistance,4,1
;   extruderExtraRestartDistance,0,0
;   extruderRetractionZLift,0,0
;   extruderRetractionSpeed,3600,1800
;   extruderUseCoasting,0,0
;   extruderCoastingDistance,0.2,0.2
;   extruderUseWipe,0,0
;   extruderWipeDistance,1,5
;   primaryExtruder,0
;   layerHeight,0.2
;   topSolidLayers,3
;   bottomSolidLayers,3
;   perimeterOutlines,3
;   printPerimetersInsideOut,1
;   startPointOption,2
;   startPointOriginX,0
;   startPointOriginY,0
;   sequentialIslands,0
;   spiralVaseMode,0
;   firstLayerHeightPercentage,100
;   firstLayerWidthPercentage,150
;   firstLayerUnderspeed,0.25
;   useRaft,0
;   raftExtruder,0
;   raftTopLayers,3
;   raftBaseLayers,2
;   raftOffset,3
;   raftSeparationDistance,0.18
;   raftTopInfill,100
;   aboveRaftSpeedMultiplier,0.3
;   useSkirt,1
;   skirtExtruder,0
;   skirtLayers,1
;   skirtOutlines,10
;   skirtOffset,0
;   usePrimePillar,0
;   primePillarExtruder,999
;   primePillarWidth,12
;   primePillarLocation,7
;   primePillarSpeedMultiplier,1
;   useOozeShield,0
;   oozeShieldExtruder,999
;   oozeShieldOffset,2
;   oozeShieldOutlines,1
;   oozeShieldSidewallShape,1
;   oozeShieldSidewallAngle,30
;   oozeShieldSpeedMultiplier,1
;   infillExtruder,0
;   internalInfillPattern,Full Honeycomb
;   externalInfillPattern,Rectilinear
;   infillPercentage,30
;   outlineOverlapPercentage,20
;   infillExtrusionWidthPercentage,100
;   minInfillLength,3
;   infillLayerInterval,1
;   internalInfillAngles,0,120,-120
;   overlapInternalInfillAngles,0
;   externalInfillAngles,45,-45
;   generateSupport,0
;   supportExtruder,0
;   supportInfillPercentage,30
;   supportExtraInflation,0
;   supportBaseLayers,1
;   denseSupportExtruder,0
;   denseSupportLayers,0
;   denseSupportInfillPercentage,70
;   supportLayerInterval,1
;   supportHorizontalPartOffset,0.3
;   supportUpperSeparationLayers,1
;   supportLowerSeparationLayers,1
;   supportType,0
;   supportGridSpacing,2
;   maxOverhangAngle,45
;   supportAngles,0
;   temperatureName,Extruder 1,Bed
;   temperatureNumber,0,0
;   temperatureSetpointCount,1,1
;   temperatureSetpointLayers,1,1
;   temperatureSetpointTemperatures,225,85
;   temperatureStabilizeAtStartup,1,1
;   temperatureHeatedBed,0,1
;   fanLayers,1,2,3
;   fanSpeeds,0,15,15
;   blipFanToFullPower,1
;   adjustSpeedForCooling,1
;   minSpeedLayerTime,15
;   minCoolingSpeedSlowdown,50
;   increaseFanForCooling,1
;   minFanLayerTime,45
;   maxCoolingFanSpeed,70
;   increaseFanForBridging,1
;   bridgingFanSpeed,80
;   use5D,1
;   relativeEdistances,0
;   allowEaxisZeroing,1
;   independentExtruderAxes,0
;   includeM10123,0
;   stickySupport,1
;   applyToolheadOffsets,0
;   gcodeXoffset,0
;   gcodeYoffset,0
;   gcodeZoffset,0
;   overrideMachineDefinition,1
;   machineTypeOverride,0
;   strokeXoverride,220
;   strokeYoverride,220
;   strokeZoverride,150
;   originOffsetXoverride,0
;   originOffsetYoverride,0
;   originOffsetZoverride,0
;   homeXdirOverride,-1
;   homeYdirOverride,-1
;   homeZdirOverride,-1
;   flipXoverride,1
;   flipYoverride,-1
;   flipZoverride,1
;   toolheadOffsets,0,0|0,0|0,0|0,0|0,0|0,0
;   overrideFirmwareConfiguration,0
;   firmwareTypeOverride,RepRap (Marlin/Repetier/Sprinter)
;   GPXconfigOverride,r2
;   baudRateOverride,115200
;   overridePrinterModels,0
;   printerModelsOverride
;   startingGcode,G28 ; home all axes,G32 ; run bed.g -- probe bed and enable compensation
;   layerChangeGcode,
;   retractionGcode,
;   toolChangeGcode,
;   endingGcode,M0 ; call stop.g
;   exportFileFormat,gcode
;   celebration,0
;   celebrationSong,Random Song
;   postProcessing,|; 0.2mm layer, 8 bands 5mm each, total height 40mm|{REPLACE "; layer 25" "M572 D0 S0.69\n; layer 10"}|{REPLACE "; layer 50" "M572 D0 S0.70\n; layer 50"}|{REPLACE "; layer 75" "M572 D0 S0.71\n; layer 75"}|{REPLACE "; layer 100" "M572 D0 S0.72\n; layer 100"}|{REPLACE "; layer 125" "M572 D0 S0.73\n; layer 125"}|{REPLACE "; layer 150" "M572 D0 S0.74\n; layer 150"}|{REPLACE "; layer 175" "M572 D0 S0.75\n; layer 175"}|{REPLACE "; layer 200" "M572 D0 S0.76\n; layer 200"}
;   defaultSpeed,6000
;   outlineUnderspeed,0.8
;   solidInfillUnderspeed,0.75
;   supportUnderspeed,0.8
;   rapidXYspeed,18000
;   rapidZspeed,1200
;   minBridgingArea,50
;   bridgingExtraInflation,0
;   bridgingExtrusionMultiplier,0.96
;   bridgingSpeedMultiplier,1
;   useFixedBridgingAngle,0
;   fixedBridgingAngle,0
;   applyBridgingToPerimeters,0
;   filamentDiameters,1.75|1.75|1.75|1.75|1.75|1.75
;   filamentPricesPerKg,25|46|46|46|46|46
;   filamentDensities,1.29|1.25|1.25|1.25|1.25|1.25
;   useMinPrintHeight,0
;   minPrintHeight,0.3
;   useMaxPrintHeight,0
;   maxPrintHeight,5
;   useDiaphragm,0
;   diaphragmLayerInterval,20
;   robustSlicing,1
;   mergeAllIntoSolid,0
;   onlyRetractWhenCrossingOutline,1
;   retractBetweenLayers,0
;   useRetractionMinTravel,1
;   retractionMinTravel,5
;   retractWhileWiping,1
;   onlyWipeOutlines,1
;   avoidCrossingOutline,1
;   maxMovementDetourFactor,2
;   toolChangeRetractionDistance,12
;   toolChangeExtraRestartDistance,0
;   toolChangeRetractionSpeed,600
;   externalThinWallType,0
;   internalThinWallType,2
;   thinWallAllowedOverlapPercentage,10
;   singleExtrusionMinLength,0.1
;   singleExtrusionMinPrintingWidthPercentage,50
;   singleExtrusionMaxPrintingWidthPercentage,200
;   singleExtrusionEndpointExtension,0.2
;   horizontalSizeCompensation,-0.1
G90
M82
M106 S0
M140 S85
M190 S85
G10 S225 R{225-50} P0
M116 P0
G28 ; home all axes
G32 ; run bed.g -- probe bed and enable compensation
; process Process1
; layer 1, Z = 0.200
T0
; feature skirt
; tool H0.200 W0.720
G1 Z0.200 F1200
G1 X81.017 Y77.960 F18000
G92 E0.0000
G1 X138.283 Y77.960 E3.5313 F1500
G1 X142.290 Y81.967 E3.8807
G1 X142.290 Y97.733 E4.8529
G1 X139.990 Y100.033 E5.0535
G1 X139.990 Y107.967 E5.5427
G1 X142.290 Y110.267 E5.7433
G1 X142.290 Y126.733 E6.7587
G1 X138.283 Y130.740 E7.1081
G1 X133.540 Y130.740 E7.4006
G1 X133.540 Y132.121 E7.4857
G1 X133.531 Y132.372 E7.5012
G1 X133.466 Y133.258 E7.5560
G1 X133.372 Y133.840 E7.5924
G1 X133.087 Y134.976 E7.6646
G1 X132.946 Y135.414 E7.6930
G1 X132.696 Y136.039 E7.7345
G1 X132.496 Y136.454 E7.7629
G1 X131.890 Y137.527 E7.8389
G1 X131.476 Y138.108 E7.8829
G1 X130.601 Y139.098 E7.9643
G1 X130.190 Y139.492 E7.9994
G1 X129.476 Y140.071 E8.0561
G1 X129.092 Y140.341 E8.0851
G1 X128.292 Y140.825 E8.1427
G1 X127.870 Y141.042 E8.1720
G1 X127.042 Y141.397 E8.2275
G1 X126.607 Y141.550 E8.2560
G1 X125.687 Y141.804 E8.3148
G1 X125.117 Y141.911 E8.3506
G1 X124.012 Y142.023 E8.4191
G1 X123.669 Y142.040 E8.4403
G1 X100.876 Y142.040 E9.8458
G1 X100.625 Y142.031 E9.8613
G1 X99.788 Y141.969 E9.9130
G1 X99.291 Y141.896 E9.9440
G1 X98.383 Y141.692 E10.0014
G1 X97.968 Y141.571 E10.0280
G1 X97.170 Y141.283 E10.0804
G1 X96.747 Y141.097 E10.1088
G1 X95.946 Y140.678 E10.1646
G1 X95.533 Y140.423 E10.1945
G1 X94.771 Y139.876 E10.2524
G1 X94.410 Y139.577 E10.2813
G1 X93.767 Y138.965 E10.3360
G1 X93.468 Y138.641 E10.3632
G1 X92.928 Y137.976 E10.4160
G1 X92.658 Y137.591 E10.4450
G1 X92.175 Y136.792 E10.5026
G1 X91.958 Y136.369 E10.5319
G1 X91.603 Y135.542 E10.5874
G1 X91.450 Y135.106 E10.6159
G1 X91.196 Y134.187 E10.6747
G1 X91.089 Y133.617 E10.7105
G1 X90.977 Y132.512 E10.7789
G1 X90.960 Y132.168 E10.8002
G1 X90.960 Y130.040 E10.9314
G1 X81.017 Y130.040 E11.5446
G1 X77.010 Y126.033 E11.8940
G1 X77.010 Y81.967 E14.6113
G1 X81.017 Y77.960 E14.9607
G1 X81.315 Y78.680 F18000
G92 E0.0000
G1 X137.985 Y78.680 E3.4945 F1500
G1 X141.570 Y82.265 E3.8072
G1 X141.570 Y97.435 E4.7426
G1 X139.270 Y99.735 E4.9432
G1 X139.270 Y108.265 E5.4692
G1 X141.570 Y110.565 E5.6697
G1 X141.570 Y126.435 E6.6484
G1 X137.985 Y130.020 E6.9610
G1 X132.820 Y130.020 E7.2795
G1 X132.820 Y132.108 E7.4082
G1 X132.812 Y132.332 E7.4221
G1 X132.750 Y133.174 E7.4741
G1 X132.666 Y133.695 E7.5067
G1 X132.395 Y134.777 E7.5755
G1 X132.268 Y135.169 E7.6009
G1 X132.036 Y135.750 E7.6394
G1 X131.858 Y136.121 E7.6648
G1 X131.281 Y137.140 E7.7370
G1 X130.911 Y137.660 E7.7764
G1 X130.082 Y138.599 E7.8536
G1 X129.714 Y138.952 E7.8850
G1 X129.042 Y139.496 E7.9384
G1 X128.698 Y139.738 E7.9643
G1 X127.941 Y140.196 E8.0189
G1 X127.563 Y140.390 E8.0451
G1 X126.781 Y140.725 E8.0975
G1 X126.391 Y140.862 E8.1230
G1 X125.524 Y141.102 E8.1785
G1 X125.014 Y141.198 E8.2105
G1 X123.958 Y141.305 E8.2759
G1 X123.650 Y141.320 E8.2949
G1 X100.889 Y141.320 E9.6985
G1 X100.665 Y141.312 E9.7123
G1 X99.867 Y141.253 E9.7617
G1 X99.422 Y141.187 E9.7894
G1 X98.563 Y140.995 E9.8437
G1 X98.191 Y140.887 E9.8675
G1 X97.438 Y140.614 E9.9170
G1 X97.060 Y140.448 E9.9424
G1 X96.302 Y140.052 E9.9951
G1 X95.932 Y139.824 E10.0219
G1 X95.211 Y139.306 E10.0767
G1 X94.888 Y139.038 E10.1025
G1 X94.280 Y138.459 E10.1543
G1 X94.012 Y138.169 E10.1787
G1 X93.503 Y137.541 E10.2285
G1 X93.262 Y137.198 E10.2544
G1 X92.804 Y136.441 E10.3090
G1 X92.610 Y136.063 E10.3352
G1 X92.274 Y135.280 E10.3876
G1 X92.138 Y134.890 E10.4131
G1 X91.898 Y134.024 E10.4686
G1 X91.802 Y133.514 E10.5005
G1 X91.695 Y132.458 E10.5660
G1 X91.680 Y132.150 E10.5850
G1 X91.680 Y129.320 E10.7595
G1 X81.315 Y129.320 E11.3987
G1 X77.730 Y125.735 E11.7113
G1 X77.730 Y82.265 E14.3919
G1 X81.315 Y78.680 E14.7045
G1 X81.613 Y79.400 F18000
G92 E0.0000
G1 X137.687 Y79.400 E3.4577 F1500
G1 X140.850 Y82.563 E3.7336
G1 X140.850 Y97.137 E4.6323
G1 X138.550 Y99.437 E4.8328
G1 X138.550 Y108.563 E5.3956
G1 X140.850 Y110.863 E5.5962
G1 X140.850 Y126.137 E6.5380
G1 X137.687 Y129.300 E6.8139
G1 X132.100 Y129.300 E7.1584
G1 X132.100 Y132.095 E7.3307
G1 X132.093 Y132.293 E7.3429
G1 X132.034 Y133.091 E7.3923
G1 X131.960 Y133.550 E7.4210
G1 X131.702 Y134.579 E7.4863
G1 X131.590 Y134.924 E7.5088
G1 X131.376 Y135.460 E7.5443
G1 X131.219 Y135.787 E7.5667
G1 X130.673 Y136.753 E7.6351
G1 X130.346 Y137.212 E7.6698
G1 X129.562 Y138.100 E7.7429
G1 X129.237 Y138.411 E7.7706
G1 X128.608 Y138.921 E7.8206
G1 X128.304 Y139.135 E7.8435
G1 X127.590 Y139.567 E7.8950
G1 X127.256 Y139.738 E7.9181
G1 X126.520 Y140.054 E7.9675
G1 X126.176 Y140.175 E7.9900
G1 X125.362 Y140.400 E8.0421
G1 X124.912 Y140.485 E8.0703
G1 X123.904 Y140.586 E8.1328
G1 X123.632 Y140.600 E8.1495
G1 X100.903 Y140.600 E9.5511
G1 X100.705 Y140.593 E9.5634
G1 X99.946 Y140.537 E9.6103
G1 X99.554 Y140.479 E9.6347
G1 X98.742 Y140.297 E9.6860
G1 X98.415 Y140.202 E9.7071
G1 X97.705 Y139.945 E9.7536
G1 X97.372 Y139.799 E9.7760
G1 X96.658 Y139.426 E9.8257
G1 X96.332 Y139.225 E9.8493
G1 X95.652 Y138.735 E9.9010
G1 X95.367 Y138.499 E9.9238
G1 X94.793 Y137.954 E9.9726
G1 X94.557 Y137.698 E9.9941
G1 X94.078 Y137.107 E10.0410
G1 X93.865 Y136.804 E10.0638
G1 X93.433 Y136.089 E10.1153
G1 X93.262 Y135.756 E10.1384
G1 X92.946 Y135.019 E10.1879
G1 X92.825 Y134.675 E10.2104
G1 X92.600 Y133.862 E10.2624
G1 X92.515 Y133.412 E10.2906
G1 X92.414 Y132.404 E10.3531
G1 X92.400 Y132.132 E10.3699
G1 X92.400 Y128.600 E10.5877
G1 X81.613 Y128.600 E11.2528
G1 X78.450 Y125.437 E11.5287
G1 X78.450 Y82.563 E14.1725
G1 X81.613 Y79.400 E14.4483
G1 X81.911 Y80.120 F18000
G92 E0.0000
G1 X137.388 Y80.120 E3.4210 F1500
G1 X140.130 Y82.862 E3.6600
G1 X140.130 Y96.838 E4.5219
G1 X137.830 Y99.139 E4.7225
G1 X137.830 Y108.861 E5.3220
G1 X140.130 Y111.162 E5.5226
G1 X140.130 Y125.838 E6.4277
G1 X137.388 Y128.580 E6.6667
G1 X131.380 Y128.580 E7.0373
G1 X131.380 Y132.081 E7.2532
G1 X131.374 Y132.253 E7.2638
G1 X131.318 Y133.007 E7.3104
G1 X131.254 Y133.405 E7.3352
G1 X131.010 Y134.380 E7.3972
G1 X130.913 Y134.680 E7.4166
G1 X130.717 Y135.170 E7.4492
G1 X130.581 Y135.454 E7.4686
G1 X130.065 Y136.366 E7.5332
G1 X129.782 Y136.763 E7.5633
G1 X129.042 Y137.601 E7.6322
G1 X128.761 Y137.870 E7.6562
G1 X128.174 Y138.346 E7.7029
G1 X127.911 Y138.531 E7.7227
G1 X127.238 Y138.938 E7.7711
G1 X126.949 Y139.086 E7.7912
G1 X126.258 Y139.383 E7.8375
G1 X125.960 Y139.487 E7.8570
G1 X125.199 Y139.698 E7.9057
G1 X124.809 Y139.771 E7.9302
G1 X123.850 Y139.868 E7.9896
G1 X123.614 Y139.880 E8.0042
G1 X100.916 Y139.880 E9.4038
G1 X100.745 Y139.874 E9.4144
G1 X100.025 Y139.821 E9.4589
G1 X99.685 Y139.770 E9.4801
G1 X98.922 Y139.600 E9.5283
G1 X98.638 Y139.517 E9.5466
G1 X97.973 Y139.277 E9.5902
G1 X97.684 Y139.149 E9.6097
G1 X97.014 Y138.800 E9.6562
G1 X96.732 Y138.625 E9.6767
G1 X96.092 Y138.165 E9.7253
G1 X95.845 Y137.961 E9.7451
G1 X95.307 Y137.448 E9.7909
G1 X95.102 Y137.226 E9.8095
G1 X94.653 Y136.673 E9.8534
G1 X94.468 Y136.410 E9.8733
G1 X94.062 Y135.738 E9.9217
G1 X93.914 Y135.449 E9.9417
G1 X93.617 Y134.758 E9.9881
G1 X93.512 Y134.459 E10.0076
G1 X93.302 Y133.699 E10.0563
G1 X93.229 Y133.309 E10.0807
G1 X93.132 Y132.350 E10.1402
G1 X93.120 Y132.114 E10.1547
G1 X93.120 Y127.880 E10.4158
G1 X81.911 Y127.880 E11.1070
G1 X79.170 Y125.138 E11.3461
G1 X79.170 Y82.862 E13.9530
G1 X81.911 Y80.120 E14.1921
G1 X82.210 Y80.840 F18000
G92 E0.0000
G1 X137.090 Y80.840 E3.3842 F1500
G1 X139.410 Y83.160 E3.5865
G1 X139.410 Y96.540 E4.4116
G1 X137.110 Y98.840 E4.6121
G1 X137.110 Y109.160 E5.2485
G1 X139.410 Y111.460 E5.4491
G1 X139.410 Y125.540 E6.3173
G1 X137.090 Y127.860 E6.5196
G1 X130.660 Y127.860 E6.9161
G1 X130.660 Y132.068 E7.1756
G1 X130.655 Y132.214 E7.1846
G1 X130.603 Y132.923 E7.2285
G1 X130.548 Y133.260 E7.2495
G1 X130.317 Y134.181 E7.3081
G1 X130.235 Y134.435 E7.3245
G1 X130.057 Y134.880 E7.3541
G1 X129.942 Y135.120 E7.3705
G1 X129.457 Y135.978 E7.4313
G1 X129.217 Y136.315 E7.4568
G1 X128.522 Y137.102 E7.5215
G1 X128.284 Y137.330 E7.5418
G1 X127.739 Y137.772 E7.5851
G1 X127.517 Y137.928 E7.6019
G1 X126.887 Y138.309 E7.6472
G1 X126.643 Y138.434 E7.6642
G1 X125.997 Y138.711 E7.7075
G1 X125.745 Y138.800 E7.7240
G1 X125.036 Y138.996 E7.7693
G1 X124.706 Y139.058 E7.7900
G1 X123.795 Y139.150 E7.8465
G1 X123.596 Y139.160 E7.8588
G1 X100.930 Y139.160 E9.2565
G1 X100.785 Y139.155 E9.2655
G1 X100.104 Y139.105 E9.3075
G1 X99.817 Y139.062 E9.3255
G1 X99.101 Y138.902 E9.3707
G1 X98.861 Y138.832 E9.3861
G1 X98.240 Y138.608 E9.4268
G1 X97.996 Y138.500 E9.4433
G1 X97.371 Y138.173 E9.4868
G1 X97.131 Y138.026 E9.5041
G1 X96.533 Y137.595 E9.5496
G1 X96.324 Y137.422 E9.5663
G1 X95.820 Y136.943 E9.6092
G1 X95.646 Y136.755 E9.6250
G1 X95.228 Y136.239 E9.6659
G1 X95.072 Y136.016 E9.6827
G1 X94.691 Y135.387 E9.7280
G1 X94.565 Y135.142 E9.7450
G1 X94.288 Y134.496 E9.7883
G1 X94.200 Y134.244 E9.8048
G1 X94.004 Y133.536 E9.8501
G1 X93.942 Y133.206 E9.8708
G1 X93.850 Y132.295 E9.9273
G1 X93.840 Y132.096 E9.9396
G1 X93.840 Y127.160 E10.2440
G1 X82.210 Y127.160 E10.9611
G1 X79.890 Y124.840 E11.1634
G1 X79.890 Y83.160 E13.7336
G1 X82.210 Y80.840 E13.9359
G1 X82.508 Y81.560 F18000
G92 E0.0000
G1 X136.792 Y81.560 E3.3474 F1500
G1 X138.690 Y83.458 E3.5129
G1 X138.690 Y96.242 E4.3012
G1 X136.792 Y98.140 E4.4667
G1 X136.390 Y98.140 E4.4915
G1 X136.390 Y109.860 E5.2142
G1 X136.792 Y109.860 E5.2390
G1 X138.690 Y111.758 E5.4045
G1 X138.690 Y125.242 E6.2360
G1 X136.792 Y127.140 E6.4015
G1 X129.940 Y127.140 E6.8241
G1 X129.940 Y132.055 E7.1272
G1 X129.936 Y132.174 E7.1345
G1 X129.887 Y132.839 E7.1756
G1 X129.842 Y133.115 E7.1929
G1 X129.625 Y133.983 E7.2480
G1 X129.558 Y134.190 E7.2615
G1 X129.398 Y134.590 E7.2880
G1 X129.303 Y134.787 E7.3015
G1 X128.848 Y135.591 E7.3585
G1 X128.652 Y135.867 E7.3793
G1 X128.002 Y136.603 E7.4399
G1 X127.808 Y136.789 E7.4565
G1 X127.305 Y137.197 E7.4964
G1 X127.123 Y137.325 E7.5101
G1 X126.536 Y137.680 E7.5524
G1 X126.336 Y137.783 E7.5663
G1 X125.735 Y138.040 E7.6066
G1 X125.529 Y138.113 E7.6201
G1 X124.874 Y138.294 E7.6620
G1 X124.604 Y138.345 E7.6789
G1 X123.741 Y138.432 E7.7324
G1 X123.578 Y138.440 E7.7425
