; G-Code generated by Simplify3D(R) Version 4.1.2
; Jun 12, 2022 at 7:49:49 PM
; Settings Summary
;   processName,Process1
;   applyToModels,tc-receiver-lgx-bracket
;   profileName,HSBot
;   profileVersion,2019-11-09 11:59:44
;   baseProfile,Default
;   printMaterial,PETG - Eryone
;   printQuality,Medium
;   printExtruders,
;   extruderName,Extruder 1,Extruder - Lite
;   extruderToolheadNumber,0,1
;   extruderDiameter,0.4,0.4
;   extruderAutoWidth,1,1
;   extruderWidth,0.48,0.48
;   extrusionMultiplier,1.03,0.93
;   extruderUseRetract,0,0
;   extruderRetractionDistance,4,1
;   extruderExtraRestartDistance,0,0
;   extruderRetractionZLift,0,0
;   extruderRetractionSpeed,3600,1800
;   extruderUseCoasting,0,0
;   extruderCoastingDistance,0.2,0.2
;   extruderUseWipe,0,0
;   extruderWipeDistance,1,5
;   primaryExtruder,0
;   layerHeight,0.2
;   topSolidLayers,3
;   bottomSolidLayers,3
;   perimeterOutlines,3
;   printPerimetersInsideOut,1
;   startPointOption,2
;   startPointOriginX,0
;   startPointOriginY,0
;   sequentialIslands,0
;   spiralVaseMode,0
;   firstLayerHeightPercentage,100
;   firstLayerWidthPercentage,150
;   firstLayerUnderspeed,0.25
;   useRaft,0
;   raftExtruder,0
;   raftTopLayers,3
;   raftBaseLayers,2
;   raftOffset,3
;   raftSeparationDistance,0.18
;   raftTopInfill,100
;   aboveRaftSpeedMultiplier,0.3
;   useSkirt,1
;   skirtExtruder,0
;   skirtLayers,1
;   skirtOutlines,10
;   skirtOffset,0
;   usePrimePillar,0
;   primePillarExtruder,999
;   primePillarWidth,12
;   primePillarLocation,7
;   primePillarSpeedMultiplier,1
;   useOozeShield,0
;   oozeShieldExtruder,999
;   oozeShieldOffset,2
;   oozeShieldOutlines,1
;   oozeShieldSidewallShape,1
;   oozeShieldSidewallAngle,30
;   oozeShieldSpeedMultiplier,1
;   infillExtruder,0
;   internalInfillPattern,Full Honeycomb
;   externalInfillPattern,Rectilinear
;   infillPercentage,30
;   outlineOverlapPercentage,20
;   infillExtrusionWidthPercentage,100
;   minInfillLength,3
;   infillLayerInterval,1
;   internalInfillAngles,0,120,-120
;   overlapInternalInfillAngles,0
;   externalInfillAngles,45,-45
;   generateSupport,0
;   supportExtruder,0
;   supportInfillPercentage,30
;   supportExtraInflation,0
;   supportBaseLayers,1
;   denseSupportExtruder,0
;   denseSupportLayers,0
;   denseSupportInfillPercentage,70
;   supportLayerInterval,1
;   supportHorizontalPartOffset,0.3
;   supportUpperSeparationLayers,1
;   supportLowerSeparationLayers,1
;   supportType,0
;   supportGridSpacing,2
;   maxOverhangAngle,45
;   supportAngles,0
;   temperatureName,Extruder 1,Bed
;   temperatureNumber,0,0
;   temperatureSetpointCount,1,1
;   temperatureSetpointLayers,1,1
;   temperatureSetpointTemperatures,225,85
;   temperatureStabilizeAtStartup,1,1
;   temperatureHeatedBed,0,1
;   fanLayers,1,2,3
;   fanSpeeds,0,15,15
;   blipFanToFullPower,1
;   adjustSpeedForCooling,1
;   minSpeedLayerTime,15
;   minCoolingSpeedSlowdown,50
;   increaseFanForCooling,1
;   minFanLayerTime,45
;   maxCoolingFanSpeed,70
;   increaseFanForBridging,1
;   bridgingFanSpeed,80
;   use5D,1
;   relativeEdistances,0
;   allowEaxisZeroing,1
;   independentExtruderAxes,0
;   includeM10123,0
;   stickySupport,1
;   applyToolheadOffsets,0
;   gcodeXoffset,0
;   gcodeYoffset,0
;   gcodeZoffset,0
;   overrideMachineDefinition,1
;   machineTypeOverride,0
;   strokeXoverride,220
;   strokeYoverride,220
;   strokeZoverride,150
;   originOffsetXoverride,0
;   originOffsetYoverride,0
;   originOffsetZoverride,0
;   homeXdirOverride,-1
;   homeYdirOverride,-1
;   homeZdirOverride,-1
;   flipXoverride,1
;   flipYoverride,-1
;   flipZoverride,1
;   toolheadOffsets,0,0|0,0|0,0|0,0|0,0|0,0
;   overrideFirmwareConfiguration,0
;   firmwareTypeOverride,RepRap (Marlin/Repetier/Sprinter)
;   GPXconfigOverride,r2
;   baudRateOverride,115200
;   overridePrinterModels,0
;   printerModelsOverride
;   startingGcode,G28 ; home all axes,G32 ; run bed.g -- probe bed and enable compensation
;   layerChangeGcode,
;   retractionGcode,
;   toolChangeGcode,
;   endingGcode,M0 ; call stop.g
;   exportFileFormat,gcode
;   celebration,0
;   celebrationSong,Random Song
;   postProcessing,|; 0.2mm layer, 8 bands 5mm each, total height 40mm|{REPLACE "; layer 25" "M572 D0 S0.69\n; layer 10"}|{REPLACE "; layer 50" "M572 D0 S0.70\n; layer 50"}|{REPLACE "; layer 75" "M572 D0 S0.71\n; layer 75"}|{REPLACE "; layer 100" "M572 D0 S0.72\n; layer 100"}|{REPLACE "; layer 125" "M572 D0 S0.73\n; layer 125"}|{REPLACE "; layer 150" "M572 D0 S0.74\n; layer 150"}|{REPLACE "; layer 175" "M572 D0 S0.75\n; layer 175"}|{REPLACE "; layer 200" "M572 D0 S0.76\n; layer 200"}
;   defaultSpeed,7200
;   outlineUnderspeed,0.8
;   solidInfillUnderspeed,0.75
;   supportUnderspeed,0.8
;   rapidXYspeed,18000
;   rapidZspeed,1200
;   minBridgingArea,50
;   bridgingExtraInflation,0
;   bridgingExtrusionMultiplier,0.96
;   bridgingSpeedMultiplier,1
;   useFixedBridgingAngle,0
;   fixedBridgingAngle,0
;   applyBridgingToPerimeters,0
;   filamentDiameters,1.75|1.75|1.75|1.75|1.75|1.75
;   filamentPricesPerKg,25|46|46|46|46|46
;   filamentDensities,1.29|1.25|1.25|1.25|1.25|1.25
;   useMinPrintHeight,0
;   minPrintHeight,0.3
;   useMaxPrintHeight,0
;   maxPrintHeight,5
;   useDiaphragm,0
;   diaphragmLayerInterval,20
;   robustSlicing,1
;   mergeAllIntoSolid,0
;   onlyRetractWhenCrossingOutline,1
;   retractBetweenLayers,0
;   useRetractionMinTravel,1
;   retractionMinTravel,5
;   retractWhileWiping,1
;   onlyWipeOutlines,1
;   avoidCrossingOutline,1
;   maxMovementDetourFactor,2
;   toolChangeRetractionDistance,12
;   toolChangeExtraRestartDistance,0
;   toolChangeRetractionSpeed,600
;   externalThinWallType,0
;   internalThinWallType,2
;   thinWallAllowedOverlapPercentage,10
;   singleExtrusionMinLength,0.1
;   singleExtrusionMinPrintingWidthPercentage,50
;   singleExtrusionMaxPrintingWidthPercentage,200
;   singleExtrusionEndpointExtension,0.2
;   horizontalSizeCompensation,-0.1
G90
M82
M106 S255
G4 P500
M106 S66
M140 S85
M190 S85
G10 S225 R{225-50} P0
M116 P0
G28 ; home all axes
G32 ; run bed.g -- probe bed and enable compensation
; process Process1
; layer 1, Z = 0.200
T0
; feature skirt
; tool H0.200 W0.720
G1 Z0.200 F1200
G1 X85.993 Y94.259 F18000
G92 E0.0000
G1 X128.283 Y94.268 E2.6078 F1800
G1 X128.845 Y94.314 E2.6426
G1 X130.120 Y94.526 E2.7222
G1 X130.775 Y94.703 E2.7641
G1 X132.039 Y95.184 E2.8475
G1 X132.647 Y95.487 E2.8893
G1 X133.743 Y96.176 E2.9692
G1 X134.196 Y96.517 E3.0042
G1 X134.915 Y97.156 E3.0635
G1 X135.233 Y97.479 E3.0914
G1 X135.820 Y98.160 E3.1469
G1 X136.092 Y98.522 E3.1748
G1 X136.587 Y99.279 E3.2306
G1 X136.809 Y99.673 E3.2585
G1 X137.223 Y100.537 E3.3175
G1 X137.425 Y101.067 E3.3525
G1 X137.785 Y102.313 E3.4325
G1 X137.907 Y102.981 E3.4743
G1 X138.010 Y104.216 E3.5508
G1 X138.017 Y104.666 E3.5786
G1 X137.987 Y105.279 E3.6164
G1 X137.954 Y105.617 E3.6373
G1 X137.829 Y106.456 E3.6896
G1 X137.733 Y106.898 E3.7175
G1 X137.483 Y107.764 E3.7731
G1 X137.330 Y108.189 E3.8010
G1 X136.968 Y109.016 E3.8566
G1 X136.760 Y109.418 E3.8845
G1 X136.350 Y110.093 E3.9332
G1 X136.227 Y110.283 E3.9472
G1 X128.368 Y121.506 E4.7921
G1 X128.167 Y121.766 E4.8124
G1 X127.458 Y122.596 E4.8796
G1 X127.071 Y122.982 E4.9133
G1 X126.363 Y123.583 E4.9706
G1 X126.012 Y123.845 E4.9976
G1 X125.279 Y124.320 E5.0515
G1 X124.898 Y124.535 E5.0785
G1 X124.110 Y124.913 E5.1324
G1 X123.704 Y125.077 E5.1594
G1 X122.879 Y125.350 E5.2129
G1 X122.455 Y125.461 E5.2399
G1 X121.598 Y125.628 E5.2938
G1 X121.164 Y125.684 E5.3208
G1 X120.398 Y125.733 E5.3681
G1 X120.180 Y125.740 E5.3816
G1 X85.992 Y125.740 E7.4897
G1 X81.985 Y121.733 E7.8392
G1 X81.985 Y98.266 E9.2862
G1 X85.993 Y94.259 E9.6357
G1 X86.291 Y94.980 F18000
G92 E0.0000
G1 X128.254 Y94.988 E2.5876 F1800
G1 X128.756 Y95.029 E2.6187
G1 X129.966 Y95.231 E2.6943
G1 X130.552 Y95.389 E2.7318
G1 X131.750 Y95.844 E2.8108
G1 X132.293 Y96.115 E2.8482
G1 X133.334 Y96.770 E2.9240
G1 X133.740 Y97.075 E2.9553
G1 X134.419 Y97.679 E3.0114
G1 X134.703 Y97.967 E3.0363
G1 X135.259 Y98.612 E3.0888
G1 X135.502 Y98.936 E3.1138
G1 X135.971 Y99.653 E3.1666
G1 X136.169 Y100.005 E3.1916
G1 X136.561 Y100.821 E3.2474
G1 X136.741 Y101.296 E3.2787
G1 X137.083 Y102.478 E3.3546
G1 X137.193 Y103.076 E3.3921
G1 X137.290 Y104.251 E3.4648
G1 X137.297 Y104.655 E3.4897
G1 X137.269 Y105.226 E3.5250
G1 X137.239 Y105.528 E3.5437
G1 X137.120 Y106.326 E3.5934
G1 X137.034 Y106.721 E3.6184
G1 X136.798 Y107.542 E3.6710
G1 X136.661 Y107.922 E3.6960
G1 X136.318 Y108.705 E3.7487
G1 X136.132 Y109.065 E3.7736
G1 X135.741 Y109.710 E3.8202
G1 X135.630 Y109.879 E3.8326
G1 X127.788 Y121.079 E4.6757
G1 X127.608 Y121.312 E4.6939
G1 X126.929 Y122.106 E4.7583
G1 X126.583 Y122.452 E4.7885
G1 X125.915 Y123.019 E4.8425
G1 X125.600 Y123.253 E4.8667
G1 X124.906 Y123.704 E4.9177
G1 X124.565 Y123.896 E4.9418
G1 X123.819 Y124.254 E4.9929
G1 X123.455 Y124.401 E5.0171
G1 X122.674 Y124.660 E5.0678
G1 X122.295 Y124.759 E5.0920
G1 X121.483 Y124.917 E5.1430
G1 X121.095 Y124.967 E5.1671
G1 X120.364 Y125.014 E5.2123
G1 X120.168 Y125.020 E5.2244
G1 X86.290 Y125.020 E7.3134
G1 X82.705 Y121.435 E7.6261
G1 X82.705 Y98.565 E9.0363
G1 X86.291 Y94.980 E9.3490
G1 X86.589 Y95.700 F18000
G92 E0.0000
G1 X128.224 Y95.708 E2.5674 F1800
G1 X128.667 Y95.744 E2.5948
G1 X129.813 Y95.935 E2.6664
G1 X130.330 Y96.075 E2.6995
G1 X131.461 Y96.504 E2.7740
G1 X131.940 Y96.744 E2.8071
G1 X132.926 Y97.363 E2.8789
G1 X133.284 Y97.632 E2.9065
G1 X133.922 Y98.201 E2.9592
G1 X134.173 Y98.455 E2.9812
G1 X134.698 Y99.064 E3.0308
G1 X134.913 Y99.350 E3.0528
G1 X135.355 Y100.027 E3.1027
G1 X135.530 Y100.338 E3.1247
G1 X135.898 Y101.106 E3.1772
G1 X136.058 Y101.524 E3.2049
G1 X136.381 Y102.644 E3.2767
G1 X136.478 Y103.171 E3.3098
G1 X136.571 Y104.287 E3.3788
G1 X136.577 Y104.643 E3.4008
G1 X136.551 Y105.173 E3.4335
G1 X136.525 Y105.440 E3.4500
G1 X136.412 Y106.196 E3.4972
G1 X136.336 Y106.545 E3.5192
G1 X136.113 Y107.320 E3.5689
G1 X135.992 Y107.656 E3.5909
G1 X135.668 Y108.395 E3.6407
G1 X135.503 Y108.712 E3.6627
G1 X135.131 Y109.327 E3.7071
G1 X135.033 Y109.476 E3.7181
G1 X127.208 Y120.652 E4.5594
G1 X127.049 Y120.857 E4.5754
G1 X126.401 Y121.617 E4.6369
G1 X126.095 Y121.922 E4.6636
G1 X125.466 Y122.455 E4.7144
G1 X125.189 Y122.662 E4.7357
G1 X124.534 Y123.087 E4.7839
G1 X124.232 Y123.257 E4.8052
G1 X123.528 Y123.595 E4.8534
G1 X123.207 Y123.725 E4.8748
G1 X122.470 Y123.969 E4.9227
G1 X122.135 Y124.056 E4.9440
G1 X121.369 Y124.206 E4.9921
G1 X121.026 Y124.250 E5.0135
G1 X120.329 Y124.294 E5.0565
G1 X120.156 Y124.300 E5.0672
G1 X86.588 Y124.300 E7.1371
G1 X83.425 Y121.137 E7.4130
G1 X83.425 Y98.863 E8.7865
G1 X86.589 Y95.700 E9.0624
G1 X86.887 Y96.420 F18000
G92 E0.0000
G1 X128.194 Y96.428 E2.5471 F1800
G1 X128.578 Y96.460 E2.5709
G1 X129.659 Y96.639 E2.6385
G1 X130.108 Y96.761 E2.6671
G1 X131.171 Y97.165 E2.7373
G1 X131.587 Y97.372 E2.7660
G1 X132.517 Y97.957 E2.8337
G1 X132.827 Y98.190 E2.8576
G1 X133.426 Y98.723 E2.9070
G1 X133.643 Y98.943 E2.9261
G1 X134.137 Y99.516 E2.9728
G1 X134.323 Y99.763 E2.9919
G1 X134.740 Y100.401 E3.0388
G1 X134.891 Y100.670 E3.0579
G1 X135.236 Y101.390 E3.1071
G1 X135.375 Y101.753 E3.1310
G1 X135.680 Y102.809 E3.1988
G1 X135.764 Y103.266 E3.2275
G1 X135.851 Y104.323 E3.2929
G1 X135.857 Y104.631 E3.3119
G1 X135.833 Y105.121 E3.3421
G1 X135.810 Y105.352 E3.3564
G1 X135.703 Y106.066 E3.4010
G1 X135.637 Y106.369 E3.4201
G1 X135.428 Y107.098 E3.4668
G1 X135.322 Y107.389 E3.4859
G1 X135.018 Y108.084 E3.5327
G1 X134.875 Y108.359 E3.5518
G1 X134.521 Y108.944 E3.5940
G1 X134.437 Y109.073 E3.6035
G1 X126.628 Y120.225 E4.4430
G1 X126.491 Y120.403 E4.4569
G1 X125.872 Y121.127 E4.5156
G1 X125.607 Y121.392 E4.5387
G1 X125.018 Y121.892 E4.5863
G1 X124.777 Y122.071 E4.6048
G1 X124.161 Y122.471 E4.6501
G1 X123.900 Y122.618 E4.6686
G1 X123.237 Y122.936 E4.7140
G1 X122.959 Y123.048 E4.7325
G1 X122.265 Y123.278 E4.7775
G1 X121.975 Y123.354 E4.7960
G1 X121.254 Y123.494 E4.8413
G1 X120.956 Y123.533 E4.8598
G1 X120.294 Y123.575 E4.9007
G1 X120.145 Y123.580 E4.9099
G1 X86.887 Y123.580 E6.9608
G1 X84.145 Y120.838 E7.1999
G1 X84.145 Y99.161 E8.5366
G1 X86.887 Y96.420 E8.7757
G1 X87.185 Y97.140 F18000
G92 E0.0000
G1 X128.164 Y97.148 E2.5269 F1800
G1 X128.489 Y97.175 E2.5470
G1 X129.506 Y97.344 E2.6106
G1 X129.885 Y97.446 E2.6348
G1 X130.882 Y97.825 E2.7006
G1 X131.234 Y98.000 E2.7248
G1 X132.109 Y98.551 E2.7885
G1 X132.371 Y98.748 E2.8088
G1 X132.930 Y99.245 E2.8549
G1 X133.113 Y99.431 E2.8710
G1 X133.576 Y99.968 E2.9147
G1 X133.733 Y100.177 E2.9309
G1 X134.124 Y100.775 E2.9749
G1 X134.252 Y101.003 E2.9910
G1 X134.574 Y101.674 E3.0369
G1 X134.691 Y101.981 E3.0572
G1 X134.978 Y102.975 E3.1210
G1 X135.049 Y103.361 E3.1452
G1 X135.132 Y104.359 E3.2069
G1 X135.136 Y104.620 E3.2230
G1 X135.114 Y105.068 E3.2507
G1 X135.095 Y105.263 E3.2628
G1 X134.995 Y105.937 E3.3048
G1 X134.939 Y106.192 E3.3209
G1 X134.742 Y106.876 E3.3648
G1 X134.653 Y107.122 E3.3809
G1 X134.368 Y107.774 E3.4248
G1 X134.247 Y108.006 E3.4409
G1 X133.912 Y108.561 E3.4809
G1 X133.840 Y108.670 E3.4890
G1 X126.048 Y119.798 E4.3266
G1 X125.932 Y119.948 E4.3384
G1 X125.343 Y120.638 E4.3943
G1 X125.119 Y120.861 E4.4138
G1 X124.569 Y121.328 E4.4583
G1 X124.366 Y121.479 E4.4739
G1 X123.788 Y121.854 E4.5164
G1 X123.567 Y121.978 E4.5320
G1 X122.946 Y122.277 E4.5745
G1 X122.711 Y122.372 E4.5901
G1 X122.061 Y122.588 E4.6324
G1 X121.815 Y122.652 E4.6480
G1 X121.139 Y122.783 E4.6905
G1 X120.887 Y122.816 E4.7061
G1 X120.260 Y122.856 E4.7449
G1 X120.133 Y122.860 E4.7527
G1 X87.185 Y122.860 E6.7845
G1 X84.865 Y120.540 E6.9868
G1 X84.865 Y99.460 E8.2867
G1 X87.185 Y97.140 E8.4890
G1 X87.484 Y97.860 F18000
G92 E0.0000
G1 X128.134 Y97.868 E2.5067 F1800
G1 X128.400 Y97.890 E2.5231
G1 X129.353 Y98.048 E2.5827
G1 X129.663 Y98.132 E2.6025
G1 X130.593 Y98.485 E2.6639
G1 X130.881 Y98.629 E2.6837
G1 X131.700 Y99.144 E2.7434
G1 X131.915 Y99.306 E2.7599
G1 X132.433 Y99.767 E2.8027
G1 X132.584 Y99.920 E2.8159
G1 X133.015 Y100.420 E2.8567
G1 X133.144 Y100.591 E2.8699
G1 X133.508 Y101.149 E2.9110
G1 X133.613 Y101.335 E2.9242
G1 X133.912 Y101.959 E2.9668
G1 X134.008 Y102.210 E2.9834
G1 X134.276 Y103.140 E3.0431
G1 X134.335 Y103.456 E3.0629
G1 X134.412 Y104.394 E3.1210
G1 X134.416 Y104.608 E3.1341
G1 X134.396 Y105.015 E3.1592
G1 X134.380 Y105.175 E3.1692
G1 X134.286 Y105.807 E3.2086
G1 X134.240 Y106.016 E3.2218
G1 X134.057 Y106.654 E3.2627
G1 X133.984 Y106.855 E3.2759
G1 X133.718 Y107.463 E3.3168
G1 X133.619 Y107.654 E3.3300
G1 X133.302 Y108.177 E3.3678
G1 X133.243 Y108.267 E3.3744
G1 X125.468 Y119.371 E4.2103
G1 X125.373 Y119.494 E4.2199
G1 X124.814 Y120.148 E4.2729
G1 X124.631 Y120.331 E4.2889
G1 X124.121 Y120.764 E4.3302
G1 X123.955 Y120.888 E4.3430
G1 X123.416 Y121.238 E4.3826
G1 X123.235 Y121.339 E4.3954
G1 X122.655 Y121.618 E4.4351
G1 X122.462 Y121.696 E4.4478
G1 X121.856 Y121.897 E4.4872
G1 X121.655 Y121.949 E4.5000
G1 X121.024 Y122.072 E4.5397
G1 X120.818 Y122.099 E4.5525
G1 X120.225 Y122.137 E4.5891
G1 X120.122 Y122.140 E4.5955
G1 X87.483 Y122.140 E6.6081
G1 X85.585 Y120.242 E6.7737
G1 X85.585 Y99.758 E8.0368
G1 X87.484 Y97.860 E8.2023
G1 X87.782 Y98.580 F18000
G92 E0.0000
G1 X128.104 Y98.588 E2.4865 F1800
G1 X128.311 Y98.605 E2.4993
G1 X129.199 Y98.753 E2.5548
G1 X129.441 Y98.818 E2.5702
G1 X130.304 Y99.146 E2.6271
G1 X130.528 Y99.257 E2.6426
G1 X131.291 Y99.738 E2.6982
G1 X131.459 Y99.863 E2.7111
G1 X131.937 Y100.289 E2.7506
G1 X132.054 Y100.408 E2.7608
G1 X132.454 Y100.872 E2.7986
G1 X132.554 Y101.005 E2.8089
G1 X132.892 Y101.522 E2.8470
G1 X132.974 Y101.668 E2.8573
G1 X133.250 Y102.243 E2.8966
G1 X133.324 Y102.438 E2.9095
G1 X133.575 Y103.306 E2.9652
G1 X133.620 Y103.552 E2.9806
G1 X133.693 Y104.430 E3.0350
G1 X133.696 Y104.596 E3.0452
G1 X133.678 Y104.962 E3.0678
G1 X133.666 Y105.086 E3.0755
G1 X133.577 Y105.677 E3.1123
G1 X133.542 Y105.840 E3.1226
G1 X133.372 Y106.431 E3.1606
G1 X133.315 Y106.588 E3.1709
G1 X133.068 Y107.153 E3.2089
G1 X132.991 Y107.301 E3.2191
G1 X132.692 Y107.794 E3.2547
G1 X132.647 Y107.864 E3.2598
G1 X124.889 Y118.944 E4.0939
