; G-Code generated by Simplify3D(R) Version 4.1.2
; Jun 12, 2022 at 4:32:44 PM
; Settings Summary
;   processName,Process1
;   applyToModels,toolplate-adapter-lgx
;   profileName,HSBot (modified)
;   profileVersion,2019-11-09 11:59:44
;   baseProfile,Default
;   printMaterial,PETG - Eryone
;   printQuality,Medium
;   printExtruders,
;   extruderName,Extruder 1,Extruder - Lite
;   extruderToolheadNumber,0,1
;   extruderDiameter,0.4,0.4
;   extruderAutoWidth,1,1
;   extruderWidth,0.48,0.48
;   extrusionMultiplier,1.03,0.93
;   extruderUseRetract,1,0
;   extruderRetractionDistance,4,1
;   extruderExtraRestartDistance,0,0
;   extruderRetractionZLift,0,0
;   extruderRetractionSpeed,3600,1800
;   extruderUseCoasting,0,0
;   extruderCoastingDistance,0.2,0.2
;   extruderUseWipe,0,0
;   extruderWipeDistance,1,5
;   primaryExtruder,0
;   layerHeight,0.2
;   topSolidLayers,3
;   bottomSolidLayers,3
;   perimeterOutlines,3
;   printPerimetersInsideOut,1
;   startPointOption,2
;   startPointOriginX,0
;   startPointOriginY,0
;   sequentialIslands,0
;   spiralVaseMode,0
;   firstLayerHeightPercentage,100
;   firstLayerWidthPercentage,150
;   firstLayerUnderspeed,0.25
;   useRaft,0
;   raftExtruder,0
;   raftTopLayers,3
;   raftBaseLayers,2
;   raftOffset,3
;   raftSeparationDistance,0.18
;   raftTopInfill,100
;   aboveRaftSpeedMultiplier,0.3
;   useSkirt,1
;   skirtExtruder,0
;   skirtLayers,1
;   skirtOutlines,10
;   skirtOffset,0
;   usePrimePillar,0
;   primePillarExtruder,999
;   primePillarWidth,12
;   primePillarLocation,7
;   primePillarSpeedMultiplier,1
;   useOozeShield,0
;   oozeShieldExtruder,999
;   oozeShieldOffset,2
;   oozeShieldOutlines,1
;   oozeShieldSidewallShape,1
;   oozeShieldSidewallAngle,30
;   oozeShieldSpeedMultiplier,1
;   infillExtruder,0
;   internalInfillPattern,Full Honeycomb
;   externalInfillPattern,Rectilinear
;   infillPercentage,30
;   outlineOverlapPercentage,20
;   infillExtrusionWidthPercentage,100
;   minInfillLength,3
;   infillLayerInterval,1
;   internalInfillAngles,0,120,-120
;   overlapInternalInfillAngles,0
;   externalInfillAngles,45,-45
;   generateSupport,0
;   supportExtruder,0
;   supportInfillPercentage,30
;   supportExtraInflation,0
;   supportBaseLayers,1
;   denseSupportExtruder,0
;   denseSupportLayers,0
;   denseSupportInfillPercentage,70
;   supportLayerInterval,1
;   supportHorizontalPartOffset,0.3
;   supportUpperSeparationLayers,1
;   supportLowerSeparationLayers,1
;   supportType,0
;   supportGridSpacing,2
;   maxOverhangAngle,45
;   supportAngles,0
;   temperatureName,Extruder 1,Bed
;   temperatureNumber,0,0
;   temperatureSetpointCount,1,1
;   temperatureSetpointLayers,1,1
;   temperatureSetpointTemperatures,225,85
;   temperatureStabilizeAtStartup,1,1
;   temperatureHeatedBed,0,1
;   fanLayers,1,2,3
;   fanSpeeds,0,15,15
;   blipFanToFullPower,1
;   adjustSpeedForCooling,1
;   minSpeedLayerTime,15
;   minCoolingSpeedSlowdown,20
;   increaseFanForCooling,1
;   minFanLayerTime,45
;   maxCoolingFanSpeed,40
;   increaseFanForBridging,1
;   bridgingFanSpeed,80
;   use5D,1
;   relativeEdistances,0
;   allowEaxisZeroing,1
;   independentExtruderAxes,0
;   includeM10123,0
;   stickySupport,1
;   applyToolheadOffsets,0
;   gcodeXoffset,0
;   gcodeYoffset,0
;   gcodeZoffset,0
;   overrideMachineDefinition,1
;   machineTypeOverride,0
;   strokeXoverride,220
;   strokeYoverride,220
;   strokeZoverride,150
;   originOffsetXoverride,0
;   originOffsetYoverride,0
;   originOffsetZoverride,0
;   homeXdirOverride,-1
;   homeYdirOverride,-1
;   homeZdirOverride,-1
;   flipXoverride,1
;   flipYoverride,-1
;   flipZoverride,1
;   toolheadOffsets,0,0|0,0|0,0|0,0|0,0|0,0
;   overrideFirmwareConfiguration,0
;   firmwareTypeOverride,RepRap (Marlin/Repetier/Sprinter)
;   GPXconfigOverride,r2
;   baudRateOverride,115200
;   overridePrinterModels,0
;   printerModelsOverride
;   startingGcode,G28 ; home all axes,G32 ; run bed.g -- probe bed and enable compensation
;   layerChangeGcode,
;   retractionGcode,
;   toolChangeGcode,
;   endingGcode,M0 ; call stop.g
;   exportFileFormat,gcode
;   celebration,0
;   celebrationSong,Random Song
;   postProcessing,|; 0.2mm layer, 8 bands 5mm each, total height 40mm|{REPLACE "; layer 25" "M572 D0 S0.69\n; layer 10"}|{REPLACE "; layer 50" "M572 D0 S0.70\n; layer 50"}|{REPLACE "; layer 75" "M572 D0 S0.71\n; layer 75"}|{REPLACE "; layer 100" "M572 D0 S0.72\n; layer 100"}|{REPLACE "; layer 125" "M572 D0 S0.73\n; layer 125"}|{REPLACE "; layer 150" "M572 D0 S0.74\n; layer 150"}|{REPLACE "; layer 175" "M572 D0 S0.75\n; layer 175"}|{REPLACE "; layer 200" "M572 D0 S0.76\n; layer 200"}
;   defaultSpeed,7200
;   outlineUnderspeed,0.8
;   solidInfillUnderspeed,0.75
;   supportUnderspeed,0.8
;   rapidXYspeed,18000
;   rapidZspeed,1200
;   minBridgingArea,50
;   bridgingExtraInflation,0
;   bridgingExtrusionMultiplier,0.96
;   bridgingSpeedMultiplier,1
;   useFixedBridgingAngle,0
;   fixedBridgingAngle,0
;   applyBridgingToPerimeters,0
;   filamentDiameters,1.75|1.75|1.75|1.75|1.75|1.75
;   filamentPricesPerKg,25|46|46|46|46|46
;   filamentDensities,1.29|1.25|1.25|1.25|1.25|1.25
;   useMinPrintHeight,0
;   minPrintHeight,0.3
;   useMaxPrintHeight,0
;   maxPrintHeight,5
;   useDiaphragm,0
;   diaphragmLayerInterval,20
;   robustSlicing,1
;   mergeAllIntoSolid,0
;   onlyRetractWhenCrossingOutline,1
;   retractBetweenLayers,0
;   useRetractionMinTravel,1
;   retractionMinTravel,5
;   retractWhileWiping,1
;   onlyWipeOutlines,1
;   avoidCrossingOutline,1
;   maxMovementDetourFactor,2
;   toolChangeRetractionDistance,12
;   toolChangeExtraRestartDistance,0
;   toolChangeRetractionSpeed,600
;   externalThinWallType,0
;   internalThinWallType,1
;   thinWallAllowedOverlapPercentage,10
;   singleExtrusionMinLength,0.1
;   singleExtrusionMinPrintingWidthPercentage,50
;   singleExtrusionMaxPrintingWidthPercentage,200
;   singleExtrusionEndpointExtension,0.2
;   horizontalSizeCompensation,-0.1
G90
M82
M106 S0
M140 S85
M190 S85
G10 S225 R{225-50} P0
M116 P0
G28 ; home all axes
G32 ; run bed.g -- probe bed and enable compensation
; process Process1
; layer 1, Z = 0.200
T0
G92 E0.0000
G1 E-4.0000 F3600
; feature skirt
; tool H0.200 W0.720
G1 Z0.200 F1200
G1 X82.892 Y83.260 F18000
G1 E0.0000 F3600
G92 E0.0000
G1 X120.572 Y83.260 E2.3235 F1800
G1 X121.483 Y83.383 E2.3802
G1 X122.538 Y83.673 E2.4477
G1 X122.683 Y83.631 E2.4570
G1 X123.589 Y83.437 E2.5141
G1 X123.947 Y83.379 E2.5364
G1 X124.873 Y83.281 E2.5939
G1 X125.333 Y83.263 E2.6223
G1 X126.641 Y83.301 E2.7030
G1 X127.198 Y83.363 E2.7375
G1 X128.542 Y83.625 E2.8220
G1 X129.085 Y83.778 E2.8567
G1 X130.324 Y84.241 E2.9383
G1 X130.751 Y84.435 E2.9672
G1 X131.595 Y84.890 E3.0264
G1 X131.916 Y85.086 E3.0495
G1 X132.669 Y85.607 E3.1060
G1 X132.966 Y85.837 E3.1292
G1 X133.692 Y86.466 E3.1885
G1 X134.025 Y86.797 E3.2174
G1 X134.865 Y87.756 E3.2960
G1 X135.150 Y88.131 E3.3250
G1 X135.679 Y88.936 E3.3844
G1 X135.868 Y89.261 E3.4076
G1 X136.284 Y90.076 E3.4640
G1 X136.436 Y90.420 E3.4872
G1 X136.776 Y91.318 E3.5465
G1 X136.912 Y91.767 E3.5754
G1 X137.196 Y93.010 E3.6540
G1 X137.269 Y93.475 E3.6830
G1 X137.270 Y93.483 E3.6835
G1 X138.028 Y94.505 E3.7620
G1 X138.155 Y94.689 E3.7758
G1 X138.844 Y95.755 E3.8540
G1 X138.937 Y95.908 E3.8651
G1 X139.568 Y97.009 E3.9433
G1 X139.673 Y97.206 E3.9571
G1 X140.762 Y99.428 E4.1097
G1 X141.115 Y100.952 E4.2062
G1 X141.115 Y119.048 E5.3220
G1 X140.762 Y120.572 E5.4185
G1 X139.673 Y122.794 E5.5711
G1 X139.568 Y122.991 E5.5849
G1 X138.937 Y124.092 E5.6631
G1 X138.844 Y124.245 E5.6742
G1 X138.155 Y125.311 E5.7524
G1 X138.028 Y125.495 E5.7662
G1 X137.248 Y126.546 E5.8469
G1 X137.198 Y126.975 E5.8735
G1 X137.113 Y127.436 E5.9025
G1 X136.873 Y128.369 E5.9619
G1 X136.759 Y128.727 E5.9850
G1 X136.419 Y129.626 E6.0443
G1 X136.222 Y130.054 E6.0733
G1 X135.612 Y131.172 E6.1519
G1 X135.360 Y131.568 E6.1809
G1 X134.761 Y132.378 E6.2430
G1 X134.457 Y132.736 E6.2719
G1 X133.565 Y133.649 E6.3506
G1 X133.213 Y133.963 E6.3797
G1 X132.453 Y134.551 E6.4390
G1 X132.144 Y134.765 E6.4621
G1 X131.321 Y135.269 E6.5216
G1 X130.904 Y135.487 E6.5507
G1 X129.734 Y135.998 E6.6294
G1 X129.292 Y136.156 E6.6583
G1 X128.322 Y136.429 E6.7205
G1 X127.863 Y136.525 E6.7494
G1 X126.603 Y136.700 E6.8279
G1 X126.137 Y136.732 E6.8567
G1 X125.191 Y136.733 E6.9150
G1 X124.825 Y136.714 E6.9376
G1 X123.948 Y136.621 E6.9919
G1 X123.591 Y136.564 E7.0143
G1 X122.727 Y136.378 E7.0687
G1 X122.554 Y136.331 E7.0798
G1 X121.425 Y136.627 E7.1518
G1 X120.554 Y136.740 E7.2060
G1 X82.892 Y136.740 E9.5284
G1 X78.885 Y132.733 E9.8778
G1 X78.885 Y114.706 E10.9894
G1 X82.550 Y110.767 E11.3212
G1 X85.761 Y110.535 E11.5197
G1 X85.800 Y110.524 E11.5222
G1 X85.847 Y110.506 E11.5253
G1 X85.893 Y110.483 E11.5285
G1 X85.936 Y110.456 E11.5316
G1 X85.977 Y110.425 E11.5348
G1 X86.015 Y110.391 E11.5379
G1 X86.049 Y110.353 E11.5411
G1 X86.080 Y110.312 E11.5442
G1 X86.099 Y110.283 E11.5464
G1 X86.170 Y110.086 E11.5593
G1 X86.174 Y110.051 E11.5615
G1 X86.177 Y110.000 E11.5646
G1 X86.174 Y109.949 E11.5677
G1 X86.170 Y109.914 E11.5699
G1 X86.099 Y109.717 E11.5828
G1 X86.080 Y109.688 E11.5850
G1 X86.049 Y109.647 E11.5881
G1 X86.015 Y109.609 E11.5913
G1 X85.977 Y109.575 E11.5944
G1 X85.936 Y109.544 E11.5976
G1 X85.893 Y109.517 E11.6007
G1 X85.847 Y109.494 E11.6039
G1 X85.800 Y109.476 E11.6070
G1 X85.761 Y109.465 E11.6095
G1 X82.550 Y109.233 E11.8081
G1 X78.885 Y105.294 E12.1398
G1 X78.885 Y87.267 E13.2515
G1 X82.892 Y83.260 E13.6009
G1 X83.190 Y83.980 F18000
G92 E0.0000
G1 X120.524 Y83.980 E2.3022 F1800
G1 X121.339 Y84.090 E2.3529
G1 X122.542 Y84.421 E2.4298
G1 X122.858 Y84.330 E2.4501
G1 X123.721 Y84.145 E2.5045
G1 X124.042 Y84.093 E2.5245
G1 X124.925 Y83.999 E2.5793
G1 X125.336 Y83.983 E2.6047
G1 X126.591 Y84.020 E2.6821
G1 X127.089 Y84.075 E2.7130
G1 X128.375 Y84.326 E2.7938
G1 X128.861 Y84.463 E2.8249
G1 X130.049 Y84.906 E2.9031
G1 X130.431 Y85.080 E2.9290
G1 X131.236 Y85.514 E2.9854
G1 X131.523 Y85.690 E3.0061
G1 X132.244 Y86.188 E3.0602
G1 X132.510 Y86.394 E3.0809
G1 X133.202 Y86.994 E3.1374
G1 X133.500 Y87.290 E3.1633
G1 X134.307 Y88.212 E3.2389
G1 X134.562 Y88.547 E3.2648
G1 X135.067 Y89.315 E3.3215
G1 X135.236 Y89.606 E3.3422
G1 X135.634 Y90.386 E3.3962
G1 X135.770 Y90.693 E3.4170
G1 X136.094 Y91.550 E3.4734
G1 X136.215 Y91.952 E3.4993
G1 X136.488 Y93.147 E3.5749
G1 X136.554 Y93.563 E3.6009
G1 X136.570 Y93.749 E3.6124
G1 X137.443 Y94.925 E3.7027
G1 X137.557 Y95.089 E3.7150
G1 X138.234 Y96.138 E3.7920
G1 X138.317 Y96.274 E3.8019
G1 X138.938 Y97.357 E3.8788
G1 X139.031 Y97.533 E3.8911
G1 X140.079 Y99.671 E4.0379
G1 X140.395 Y101.035 E4.1243
G1 X140.395 Y118.965 E5.2299
G1 X140.079 Y120.329 E5.3163
G1 X139.031 Y122.467 E5.4631
G1 X138.938 Y122.643 E5.4754
G1 X138.317 Y123.726 E5.5523
G1 X138.234 Y123.862 E5.5622
G1 X137.557 Y124.911 E5.6392
G1 X137.443 Y125.075 E5.6515
G1 X136.555 Y126.272 E5.7434
G1 X136.486 Y126.868 E5.7804
G1 X136.409 Y127.281 E5.8063
G1 X136.180 Y128.170 E5.8629
G1 X136.079 Y128.491 E5.8836
G1 X135.754 Y129.348 E5.9402
G1 X135.578 Y129.731 E5.9661
G1 X134.992 Y130.806 E6.0417
G1 X134.766 Y131.160 E6.0676
G1 X134.196 Y131.930 E6.1266
G1 X133.925 Y132.250 E6.1525
G1 X133.067 Y133.128 E6.2282
G1 X132.752 Y133.409 E6.2542
G1 X132.028 Y133.970 E6.3107
G1 X131.751 Y134.162 E6.3315
G1 X130.966 Y134.642 E6.3882
G1 X130.593 Y134.837 E6.4142
G1 X129.468 Y135.328 E6.4899
G1 X129.073 Y135.470 E6.5157
G1 X128.151 Y135.730 E6.5748
G1 X127.740 Y135.815 E6.6007
G1 X126.528 Y135.983 E6.6761
G1 X126.111 Y136.012 E6.7019
G1 X125.209 Y136.013 E6.7576
G1 X124.882 Y135.996 E6.7778
G1 X124.043 Y135.907 E6.8298
G1 X123.723 Y135.856 E6.8498
G1 X122.897 Y135.678 E6.9018
G1 X122.584 Y135.593 E6.9218
G1 X122.560 Y135.585 E6.9234
G1 X121.287 Y135.919 E7.0046
G1 X120.507 Y136.020 E7.0531
G1 X83.190 Y136.020 E9.3542
G1 X79.605 Y132.435 E9.6668
G1 X79.605 Y114.989 E10.7426
G1 X82.884 Y111.465 E11.0395
G1 X85.863 Y111.250 E11.2236
G1 X85.915 Y111.240 E11.2269
G1 X86.029 Y111.208 E11.2342
G1 X86.139 Y111.165 E11.2415
G1 X86.244 Y111.112 E11.2487
G1 X86.344 Y111.051 E11.2560
G1 X86.438 Y110.980 E11.2632
G1 X86.525 Y110.901 E11.2705
G1 X86.604 Y110.814 E11.2777
G1 X86.675 Y110.720 E11.2850
G1 X86.737 Y110.620 E11.2922
G1 X86.757 Y110.578 E11.2951
G1 X86.865 Y110.279 E11.3147
G1 X86.876 Y110.234 E11.3175
G1 X86.892 Y110.117 E11.3248
G1 X86.898 Y110.000 E11.3321
G1 X86.892 Y109.883 E11.3393
G1 X86.876 Y109.766 E11.3466
G1 X86.865 Y109.721 E11.3494
G1 X86.757 Y109.422 E11.3691
G1 X86.737 Y109.380 E11.3719
G1 X86.675 Y109.280 E11.3791
G1 X86.604 Y109.186 E11.3864
G1 X86.525 Y109.099 E11.3937
G1 X86.438 Y109.020 E11.4009
G1 X86.344 Y108.949 E11.4082
G1 X86.244 Y108.888 E11.4154
G1 X86.139 Y108.835 E11.4227
G1 X86.029 Y108.792 E11.4299
G1 X85.915 Y108.760 E11.4372
G1 X85.863 Y108.750 E11.4405
G1 X82.884 Y108.535 E11.6247
G1 X79.605 Y105.011 E11.9215
G1 X79.605 Y87.565 E12.9973
G1 X83.190 Y83.980 E13.3099
G1 X83.488 Y84.700 F18000
G92 E0.0000
G1 X120.476 Y84.700 E2.2808 F1800
G1 X121.194 Y84.797 E2.3255
G1 X122.562 Y85.173 E2.4130
G1 X122.689 Y85.127 E2.4213
G1 X123.033 Y85.029 E2.4433
G1 X123.854 Y84.853 E2.4951
G1 X124.137 Y84.807 E2.5128
G1 X124.977 Y84.718 E2.5649
G1 X125.340 Y84.704 E2.5873
G1 X126.540 Y84.738 E2.6614
G1 X126.980 Y84.787 E2.6887
G1 X128.208 Y85.027 E2.7658
G1 X128.636 Y85.148 E2.7932
G1 X129.774 Y85.572 E2.8681
G1 X130.111 Y85.725 E2.8909
G1 X130.877 Y86.139 E2.9446
G1 X131.130 Y86.293 E2.9629
G1 X131.818 Y86.769 E3.0145
G1 X132.053 Y86.951 E3.0328
G1 X132.711 Y87.522 E3.0865
G1 X132.974 Y87.783 E3.1094
G1 X133.749 Y88.668 E3.1819
G1 X133.974 Y88.964 E3.2048
G1 X134.454 Y89.694 E3.2587
G1 X134.603 Y89.951 E3.2770
G1 X134.983 Y90.695 E3.3286
G1 X135.103 Y90.967 E3.3469
G1 X135.412 Y91.782 E3.4006
G1 X135.519 Y92.136 E3.4235
G1 X135.781 Y93.283 E3.4960
G1 X135.839 Y93.650 E3.5189
G1 X135.871 Y94.014 E3.5415
G1 X136.858 Y95.344 E3.6436
G1 X136.958 Y95.489 E3.6545
G1 X137.624 Y96.520 E3.7301
G1 X137.697 Y96.641 E3.7388
G1 X138.307 Y97.705 E3.8145
G1 X138.390 Y97.860 E3.8253
G1 X139.396 Y99.914 E3.9663
G1 X139.675 Y101.117 E4.0425
G1 X139.675 Y118.883 E5.1380
G1 X139.396 Y120.086 E5.2142
G1 X138.390 Y122.140 E5.3552
G1 X138.307 Y122.295 E5.3661
G1 X137.697 Y123.359 E5.4417
G1 X137.624 Y123.480 E5.4504
G1 X136.958 Y124.511 E5.5261
G1 X136.858 Y124.656 E5.5369
G1 X135.861 Y125.998 E5.6400
G1 X135.773 Y126.761 E5.6874
G1 X135.706 Y127.125 E5.7102
G1 X135.488 Y127.971 E5.7641
G1 X135.398 Y128.254 E5.7824
G1 X135.090 Y129.070 E5.8362
G1 X134.934 Y129.408 E5.8591
G1 X134.371 Y130.440 E5.9316
G1 X134.172 Y130.752 E5.9544
G1 X133.632 Y131.483 E6.0105
G1 X133.392 Y131.765 E6.0333
G1 X132.569 Y132.607 E6.1059
G1 X132.292 Y132.855 E6.1289
G1 X131.602 Y133.389 E6.1827
G1 X131.358 Y133.558 E6.2010
G1 X130.611 Y134.015 E6.2550
G1 X130.282 Y134.187 E6.2779
G1 X129.203 Y134.659 E6.3505
G1 X128.854 Y134.783 E6.3733
G1 X127.980 Y135.030 E6.4294
G1 X127.617 Y135.106 E6.4522
G1 X126.454 Y135.267 E6.5246
G1 X126.086 Y135.292 E6.5473
G1 X125.227 Y135.293 E6.6003
G1 X124.939 Y135.278 E6.6181
G1 X124.138 Y135.193 E6.6678
G1 X123.856 Y135.148 E6.6854
G1 X123.067 Y134.978 E6.7351
G1 X122.791 Y134.903 E6.7528
G1 X122.583 Y134.835 E6.7663
G1 X121.149 Y135.211 E6.8577
G1 X120.461 Y135.300 E6.9005
G1 X83.488 Y135.300 E9.1804
G1 X80.325 Y132.137 E9.4562
G1 X80.325 Y115.272 E10.4962
G1 X83.218 Y112.162 E10.7581
G1 X85.955 Y111.965 E10.9273
G1 X86.081 Y111.941 E10.9352
G1 X86.258 Y111.891 E10.9465
G1 X86.430 Y111.824 E10.9579
G1 X86.595 Y111.742 E10.9693
G1 X86.751 Y111.645 E10.9806
G1 X86.898 Y111.534 E10.9920
G1 X87.034 Y111.410 E11.0033
G1 X87.158 Y111.274 E11.0147
G1 X87.269 Y111.127 E11.0261
G1 X87.366 Y110.970 E11.0374
G1 X87.420 Y110.862 E11.0449
G1 X87.557 Y110.484 E11.0696
G1 X87.584 Y110.367 E11.0771
G1 X87.610 Y110.184 E11.0885
G1 X87.618 Y110.000 E11.0998
G1 X87.610 Y109.816 E11.1112
G1 X87.584 Y109.633 E11.1226
G1 X87.557 Y109.515 E11.1300
G1 X87.420 Y109.138 E11.1548
G1 X87.366 Y109.030 E11.1622
G1 X87.269 Y108.873 E11.1736
G1 X87.158 Y108.726 E11.1850
G1 X87.034 Y108.590 E11.1963
