; G-Code generated by Simplify3D(R) Version 4.1.2
; Aug 28, 2020 at 9:04:58 PM
; Settings Summary
;   processName,Process1
;   applyToModels,homebridge-case-bottom
;   profileName,HBot (modified)
;   profileVersion,2019-10-26 23:38:43
;   baseProfile,Default
;   printMaterial,PETG - ERYONE
;   printQuality,Medium
;   printExtruders,
;   extruderName,Extruder 1
;   extruderToolheadNumber,0
;   extruderDiameter,0.4
;   extruderAutoWidth,1
;   extruderWidth,0.48
;   extrusionMultiplier,0.98
;   extruderUseRetract,1
;   extruderRetractionDistance,4
;   extruderExtraRestartDistance,0
;   extruderRetractionZLift,0.2
;   extruderRetractionSpeed,3600
;   extruderUseCoasting,1
;   extruderCoastingDistance,0.2
;   extruderUseWipe,1
;   extruderWipeDistance,5
;   primaryExtruder,0
;   layerHeight,0.24
;   topSolidLayers,4
;   bottomSolidLayers,4
;   perimeterOutlines,3
;   printPerimetersInsideOut,1
;   startPointOption,3
;   startPointOriginX,200
;   startPointOriginY,100
;   sequentialIslands,0
;   spiralVaseMode,0
;   firstLayerHeightPercentage,100
;   firstLayerWidthPercentage,100
;   firstLayerUnderspeed,0.5
;   useRaft,0
;   raftExtruder,0
;   raftTopLayers,3
;   raftBaseLayers,2
;   raftOffset,3
;   raftSeparationDistance,0.18
;   raftTopInfill,100
;   aboveRaftSpeedMultiplier,0.3
;   useSkirt,1
;   skirtExtruder,0
;   skirtLayers,2
;   skirtOutlines,5
;   skirtOffset,10
;   usePrimePillar,0
;   primePillarExtruder,999
;   primePillarWidth,12
;   primePillarLocation,7
;   primePillarSpeedMultiplier,1
;   useOozeShield,0
;   oozeShieldExtruder,999
;   oozeShieldOffset,0.9
;   oozeShieldOutlines,2
;   oozeShieldSidewallShape,0
;   oozeShieldSidewallAngle,30
;   oozeShieldSpeedMultiplier,1.5
;   infillExtruder,0
;   internalInfillPattern,Fast Honeycomb
;   externalInfillPattern,Rectilinear
;   infillPercentage,15
;   outlineOverlapPercentage,25
;   infillExtrusionWidthPercentage,100
;   minInfillLength,5
;   infillLayerInterval,1
;   internalInfillAngles,0
;   overlapInternalInfillAngles,0
;   externalInfillAngles,45,-45
;   generateSupport,1
;   supportExtruder,0
;   supportInfillPercentage,15
;   supportExtraInflation,0
;   supportBaseLayers,0
;   denseSupportExtruder,0
;   denseSupportLayers,0
;   denseSupportInfillPercentage,70
;   supportLayerInterval,1
;   supportHorizontalPartOffset,0.3
;   supportUpperSeparationLayers,1
;   supportLowerSeparationLayers,1
;   supportType,0
;   supportGridSpacing,4
;   maxOverhangAngle,25
;   supportAngles,0
;   temperatureName,Extruder 1,Heated Bed
;   temperatureNumber,0,1
;   temperatureSetpointCount,1,1
;   temperatureSetpointLayers,1,1
;   temperatureSetpointTemperatures,230,75
;   temperatureStabilizeAtStartup,1,1
;   temperatureHeatedBed,0,1
;   fanLayers,1
;   fanSpeeds,0
;   blipFanToFullPower,1
;   adjustSpeedForCooling,1
;   minSpeedLayerTime,15
;   minCoolingSpeedSlowdown,20
;   increaseFanForCooling,0
;   minFanLayerTime,45
;   maxCoolingFanSpeed,35
;   increaseFanForBridging,1
;   bridgingFanSpeed,85
;   use5D,1
;   relativeEdistances,0
;   allowEaxisZeroing,1
;   independentExtruderAxes,0
;   includeM10123,0
;   stickySupport,1
;   applyToolheadOffsets,0
;   gcodeXoffset,0
;   gcodeYoffset,0
;   gcodeZoffset,0
;   overrideMachineDefinition,1
;   machineTypeOverride,0
;   strokeXoverride,210
;   strokeYoverride,210
;   strokeZoverride,150
;   originOffsetXoverride,0
;   originOffsetYoverride,0
;   originOffsetZoverride,0
;   homeXdirOverride,-1
;   homeYdirOverride,-1
;   homeZdirOverride,-1
;   flipXoverride,1
;   flipYoverride,-1
;   flipZoverride,1
;   toolheadOffsets,0,0|0,0|0,0|0,0|0,0|0,0
;   overrideFirmwareConfiguration,1
;   firmwareTypeOverride,RepRap (Marlin/Repetier/Sprinter)
;   GPXconfigOverride,r2
;   baudRateOverride,115200
;   overridePrinterModels,0
;   printerModelsOverride
;   startingGcode,G28 ; home all axes,G32 ; run bed.g -- probe bed and enable compensation
;   layerChangeGcode,
;   retractionGcode,
;   toolChangeGcode,
;   endingGcode,M0 ; call stop.g
;   exportFileFormat,gcode
;   celebration,0
;   celebrationSong,Random Song
;   postProcessing,
;   defaultSpeed,3600
;   outlineUnderspeed,0.5
;   solidInfillUnderspeed,0.8
;   supportUnderspeed,0.8
;   rapidXYspeed,18000
;   rapidZspeed,1200
;   minBridgingArea,50
;   bridgingExtraInflation,0
;   bridgingExtrusionMultiplier,0.96
;   bridgingSpeedMultiplier,1
;   useFixedBridgingAngle,0
;   fixedBridgingAngle,0
;   applyBridgingToPerimeters,0
;   filamentDiameters,1.75|1.75|1.75|1.75|1.75|1.75
;   filamentPricesPerKg,46|46|46|46|46|46
;   filamentDensities,1.25|1.25|1.25|1.25|1.25|1.25
;   useMinPrintHeight,0
;   minPrintHeight,20
;   useMaxPrintHeight,0
;   maxPrintHeight,15
;   useDiaphragm,0
;   diaphragmLayerInterval,20
;   robustSlicing,1
;   mergeAllIntoSolid,0
;   onlyRetractWhenCrossingOutline,1
;   retractBetweenLayers,0
;   useRetractionMinTravel,1
;   retractionMinTravel,3
;   retractWhileWiping,1
;   onlyWipeOutlines,1
;   avoidCrossingOutline,1
;   maxMovementDetourFactor,5
;   toolChangeRetractionDistance,12
;   toolChangeExtraRestartDistance,-0.5
;   toolChangeRetractionSpeed,600
;   externalThinWallType,0
;   internalThinWallType,2
;   thinWallAllowedOverlapPercentage,10
;   singleExtrusionMinLength,1
;   singleExtrusionMinPrintingWidthPercentage,50
;   singleExtrusionMaxPrintingWidthPercentage,150
;   singleExtrusionEndpointExtension,0.2
;   horizontalSizeCompensation,-0.1
G90
M82
M106 S0
M140 S75
M190 S75
M104 S230 T0
M109 S230 T0
G28 ; home all axes
G32 ; run bed.g -- probe bed and enable compensation
; process Process1
; layer 1, Z = 0.240
T0
G92 E0.0000
G1 E-4.0000 F3600
; feature skirt
; tool H0.240 W0.480
G1 Z0.240 F1200
G1 X163.060 Y70.070 F18000
G1 E0.0000 F3600
G92 E0.0000
G1 X163.049 Y140.551 E3.3081 F1800
G1 X163.026 Y141.080 E3.3330
G1 X162.896 Y142.573 E3.4033
G1 X162.826 Y143.099 E3.4282
G1 X162.578 Y144.510 E3.4955
G1 X162.496 Y144.900 E3.5142
G1 X162.286 Y145.757 E3.5556
G1 X162.179 Y146.140 E3.5743
G1 X161.748 Y147.506 E3.6415
G1 X161.567 Y148.004 E3.6664
G1 X160.993 Y149.389 E3.7368
G1 X160.769 Y149.870 E3.7617
G1 X160.076 Y151.200 E3.8320
G1 X159.811 Y151.660 E3.8569
G1 X159.006 Y152.924 E3.9273
G1 X158.701 Y153.359 E3.9522
G1 X157.789 Y154.548 E4.0226
G1 X157.447 Y154.955 E4.0475
G1 X156.435 Y156.060 E4.1178
G1 X156.060 Y156.435 E4.1427
G1 X155.004 Y157.403 E4.2100
G1 X154.702 Y157.662 E4.2287
G1 X154.013 Y158.214 E4.2701
G1 X153.695 Y158.453 E4.2888
G1 X152.575 Y159.237 E4.3529
G1 X152.242 Y159.454 E4.3716
G1 X151.488 Y159.912 E4.4130
G1 X151.141 Y160.107 E4.4317
G1 X149.870 Y160.769 E4.4989
G1 X149.389 Y160.993 E4.5238
G1 X148.066 Y161.541 E4.5911
G1 X147.693 Y161.681 E4.6097
G1 X146.858 Y161.965 E4.6511
G1 X146.477 Y162.080 E4.6698
G1 X145.094 Y162.451 E4.7371
G1 X144.575 Y162.566 E4.7620
G1 X143.164 Y162.815 E4.8292
G1 X142.771 Y162.871 E4.8479
G1 X141.894 Y162.967 E4.8893
G1 X141.496 Y162.997 E4.9080
G1 X140.196 Y163.054 E4.9691
G1 X139.930 Y163.060 E4.9816
G1 X69.449 Y163.049 E8.2897
G1 X68.920 Y163.026 E8.3146
G1 X67.427 Y162.896 E8.3849
G1 X66.901 Y162.826 E8.4098
G1 X65.490 Y162.578 E8.4771
G1 X65.100 Y162.496 E8.4958
G1 X64.243 Y162.286 E8.5372
G1 X63.860 Y162.179 E8.5559
G1 X62.494 Y161.748 E8.6231
G1 X61.995 Y161.567 E8.6480
G1 X60.611 Y160.993 E8.7183
G1 X60.130 Y160.769 E8.7433
G1 X58.800 Y160.076 E8.8136
G1 X58.340 Y159.811 E8.8385
G1 X57.076 Y159.006 E8.9089
G1 X56.641 Y158.701 E8.9338
G1 X55.452 Y157.789 E9.0042
G1 X55.046 Y157.448 E9.0291
G1 X53.989 Y156.480 E9.0963
G1 X53.705 Y156.201 E9.1150
G1 X53.095 Y155.564 E9.1564
G1 X52.829 Y155.268 E9.1751
G1 X51.951 Y154.221 E9.2392
G1 X51.705 Y153.908 E9.2579
G1 X51.184 Y153.197 E9.2993
G1 X50.959 Y152.868 E9.3180
G1 X50.189 Y151.660 E9.3852
G1 X49.924 Y151.200 E9.4101
G1 X49.231 Y149.870 E9.4805
G1 X49.007 Y149.389 E9.5054
G1 X48.433 Y148.005 E9.5758
G1 X48.252 Y147.506 E9.6007
G1 X47.821 Y146.140 E9.6679
G1 X47.714 Y145.756 E9.6866
G1 X47.520 Y144.964 E9.7249
G1 X47.463 Y144.705 E9.7373
G1 X47.303 Y143.905 E9.7756
G1 X47.239 Y143.512 E9.7943
G1 X47.052 Y142.091 E9.8616
G1 X47.005 Y141.563 E9.8865
G1 X46.946 Y140.196 E9.9507
G1 X46.940 Y139.930 E9.9632
G1 X46.951 Y69.515 E13.2682
G1 X46.964 Y69.118 E13.2869
G1 X47.021 Y68.238 E13.3282
G1 X47.060 Y67.843 E13.3469
G1 X47.247 Y66.422 E13.4141
G1 X47.339 Y65.900 E13.4391
G1 X47.664 Y64.436 E13.5094
G1 X47.801 Y63.923 E13.5343
G1 X48.252 Y62.494 E13.6047
G1 X48.433 Y61.995 E13.6296
G1 X49.007 Y60.611 E13.6999
G1 X49.231 Y60.130 E13.7248
G1 X49.924 Y58.800 E13.7952
G1 X50.189 Y58.340 E13.8201
G1 X50.995 Y57.076 E13.8905
G1 X51.299 Y56.641 E13.9154
G1 X52.211 Y55.452 E13.9857
G1 X52.552 Y55.046 E14.0106
G1 X53.568 Y53.937 E14.0812
G1 X53.949 Y53.557 E14.1065
G1 X55.071 Y52.531 E14.1778
G1 X55.474 Y52.194 E14.2025
G1 X55.496 Y52.176 E14.2038
G1 X55.516 Y52.160 E14.2050
G1 X56.379 Y51.500 E14.2560
G1 X56.592 Y51.337 E14.2686
G1 X56.913 Y51.107 E14.2872
G1 X57.646 Y50.617 E14.3285
G1 X57.984 Y50.407 E14.3472
G1 X59.224 Y49.691 E14.4144
G1 X59.695 Y49.446 E14.4393
G1 X60.993 Y48.840 E14.5066
G1 X61.359 Y48.684 E14.5253
G1 X62.182 Y48.364 E14.5667
G1 X62.557 Y48.232 E14.5854
G1 X63.923 Y47.801 E14.6526
G1 X64.436 Y47.664 E14.6775
G1 X65.900 Y47.339 E14.7479
G1 X66.422 Y47.247 E14.7728
G1 X67.843 Y47.060 E14.8400
G1 X68.238 Y47.021 E14.8587
G1 X69.118 Y46.964 E14.9001
G1 X69.515 Y46.951 E14.9187
G1 X139.930 Y46.940 E18.2238
G1 X140.196 Y46.946 E18.2362
G1 X141.563 Y47.005 E18.3005
G1 X142.091 Y47.052 E18.3254
G1 X143.578 Y47.247 E18.3957
G1 X144.100 Y47.339 E18.4206
G1 X145.564 Y47.664 E18.4910
G1 X146.076 Y47.801 E18.5159
G1 X147.506 Y48.252 E18.5863
G1 X148.005 Y48.433 E18.6112
G1 X149.389 Y49.007 E18.6815
G1 X149.870 Y49.231 E18.7064
G1 X151.200 Y49.924 E18.7768
G1 X151.660 Y50.189 E18.8017
G1 X152.924 Y50.995 E18.8721
G1 X153.359 Y51.299 E18.8970
G1 X154.548 Y52.211 E18.9673
G1 X154.955 Y52.553 E18.9922
G1 X156.060 Y53.565 E19.0626
G1 X156.435 Y53.940 E19.0875
G1 X157.448 Y55.046 E19.1579
G1 X157.789 Y55.452 E19.1828
G1 X158.701 Y56.641 E19.2531
G1 X159.006 Y57.076 E19.2780
G1 X159.811 Y58.340 E19.3484
G1 X160.076 Y58.800 E19.3733
G1 X160.769 Y60.130 E19.4437
G1 X160.993 Y60.611 E19.4686
G1 X161.567 Y61.995 E19.5389
G1 X161.748 Y62.494 E19.5638
G1 X162.199 Y63.923 E19.6342
G1 X162.336 Y64.436 E19.6591
G1 X162.661 Y65.900 E19.7295
G1 X162.753 Y66.422 E19.7544
G1 X162.948 Y67.908 E19.8247
G1 X162.995 Y68.437 E19.8496
G1 X163.054 Y69.804 E19.9139
G1 X163.060 Y70.070 E19.9263
G1 X162.580 Y70.075 F18000
G92 E0.0000
G1 X162.569 Y140.540 E3.3074 F1800
G1 X162.547 Y141.049 E3.3313
G1 X162.418 Y142.521 E3.4006
G1 X162.352 Y143.026 E3.4246
G1 X162.106 Y144.419 E3.4909
G1 X162.028 Y144.793 E3.5089
G1 X161.822 Y145.635 E3.5496
G1 X161.719 Y146.003 E3.5675
G1 X161.293 Y147.352 E3.6339
G1 X161.119 Y147.830 E3.6578
G1 X160.554 Y149.196 E3.7272
G1 X160.338 Y149.658 E3.7511
G1 X159.655 Y150.969 E3.8205
G1 X159.401 Y151.411 E3.8444
G1 X158.606 Y152.657 E3.9138
G1 X158.314 Y153.075 E3.9377
G1 X157.414 Y154.248 E4.0071
G1 X157.086 Y154.638 E4.0310
G1 X156.088 Y155.728 E4.1004
G1 X155.728 Y156.088 E4.1243
G1 X154.685 Y157.043 E4.1907
G1 X154.395 Y157.292 E4.2086
G1 X153.719 Y157.835 E4.2493
G1 X153.413 Y158.064 E4.2673
G1 X152.307 Y158.839 E4.3307
G1 X151.987 Y159.048 E4.3486
G1 X151.246 Y159.497 E4.3893
G1 X150.913 Y159.685 E4.4072
G1 X149.658 Y160.338 E4.4736
G1 X149.196 Y160.554 E4.4975
G1 X147.889 Y161.095 E4.5639
G1 X147.532 Y161.229 E4.5819
G1 X146.711 Y161.508 E4.6225
G1 X146.346 Y161.619 E4.6404
G1 X144.980 Y161.985 E4.7068
G1 X144.482 Y162.095 E4.7308
G1 X143.089 Y162.341 E4.7972
G1 X142.711 Y162.395 E4.8151
G1 X141.849 Y162.489 E4.8558
G1 X141.468 Y162.518 E4.8737
G1 X140.180 Y162.574 E4.9342
G1 X139.925 Y162.580 E4.9462
G1 X69.460 Y162.569 E8.2536
G1 X68.951 Y162.547 E8.2775
G1 X67.479 Y162.418 E8.3468
G1 X66.974 Y162.352 E8.3708
G1 X65.581 Y162.106 E8.4371
G1 X65.207 Y162.028 E8.4551
G1 X64.365 Y161.822 E8.4958
G1 X63.997 Y161.719 E8.5137
G1 X62.648 Y161.293 E8.5801
G1 X62.169 Y161.119 E8.6040
G1 X60.804 Y160.554 E8.6734
G1 X60.342 Y160.338 E8.6973
G1 X59.031 Y159.655 E8.7667
G1 X58.589 Y159.401 E8.7906
G1 X57.342 Y158.606 E8.8600
G1 X56.925 Y158.314 E8.8839
G1 X55.752 Y157.414 E8.9533
G1 X55.362 Y157.087 E8.9772
G1 X54.319 Y156.131 E9.0436
G1 X54.046 Y155.864 E9.0615
G1 X53.447 Y155.238 E9.1022
G1 X53.191 Y154.953 E9.1202
G1 X52.323 Y153.918 E9.1835
G1 X52.088 Y153.618 E9.2015
G1 X51.575 Y152.919 E9.2421
G1 X51.359 Y152.604 E9.2601
G1 X50.599 Y151.411 E9.3265
G1 X50.344 Y150.969 E9.3504
G1 X49.662 Y149.658 E9.4198
G1 X49.447 Y149.196 E9.4437
G1 X48.881 Y147.831 E9.5131
G1 X48.707 Y147.352 E9.5370
G1 X48.281 Y146.003 E9.6034
G1 X48.178 Y145.635 E9.6213
G1 X47.988 Y144.855 E9.6590
G1 X47.932 Y144.606 E9.6710
G1 X47.776 Y143.819 E9.7087
G1 X47.714 Y143.441 E9.7266
G1 X47.529 Y142.039 E9.7930
G1 X47.484 Y141.531 E9.8169
G1 X47.426 Y140.180 E9.8804
G1 X47.420 Y139.925 E9.8924
G1 X47.431 Y69.523 E13.1968
G1 X47.443 Y69.142 E13.2147
G1 X47.500 Y68.278 E13.2554
G1 X47.537 Y67.898 E13.2733
G1 X47.722 Y66.495 E13.3397
G1 X47.810 Y65.993 E13.3636
G1 X48.130 Y64.550 E13.4330
G1 X48.262 Y64.058 E13.4569
G1 X48.707 Y62.648 E13.5263
G1 X48.881 Y62.169 E13.5502
G1 X49.447 Y60.804 E13.6196
G1 X49.662 Y60.342 E13.6435
G1 X50.344 Y59.031 E13.7129
G1 X50.599 Y58.589 E13.7368
G1 X51.394 Y57.342 E13.8062
G1 X51.686 Y56.925 E13.8301
G1 X52.586 Y55.752 E13.8995
G1 X52.913 Y55.362 E13.9234
G1 X53.914 Y54.270 E13.9930
G1 X54.281 Y53.904 E14.0172
G1 X55.387 Y52.893 E14.0876
G1 X55.774 Y52.569 E14.1113
G1 X55.796 Y52.551 E14.1126
G1 X55.816 Y52.535 E14.1138
G1 X56.670 Y51.881 E14.1643
G1 X56.877 Y51.723 E14.1765
G1 X57.186 Y51.501 E14.1944
G1 X57.906 Y51.021 E14.2350
G1 X58.231 Y50.819 E14.2529
G1 X59.455 Y50.112 E14.3193
G1 X59.907 Y49.876 E14.3432
G1 X61.189 Y49.279 E14.4096
G1 X61.541 Y49.128 E14.4276
G1 X62.349 Y48.814 E14.4683
G1 X62.709 Y48.687 E14.4862
G1 X64.058 Y48.262 E14.5526
G1 X64.550 Y48.130 E14.5765
G1 X65.993 Y47.810 E14.6459
G1 X66.495 Y47.722 E14.6698
G1 X67.898 Y47.537 E14.7362
G1 X68.278 Y47.500 E14.7541
G1 X69.142 Y47.443 E14.7948
G1 X69.523 Y47.431 E14.8127
G1 X139.925 Y47.420 E18.1171
G1 X140.180 Y47.426 E18.1291
G1 X141.531 Y47.484 E18.1926
G1 X142.039 Y47.529 E18.2165
G1 X143.505 Y47.722 E18.2859
G1 X144.007 Y47.810 E18.3098
G1 X145.450 Y48.130 E18.3792
G1 X145.942 Y48.262 E18.4031
G1 X147.352 Y48.707 E18.4725
G1 X147.831 Y48.881 E18.4964
G1 X149.196 Y49.447 E18.5658
G1 X149.658 Y49.662 E18.5897
G1 X150.969 Y50.344 E18.6591
G1 X151.411 Y50.599 E18.6830
G1 X152.658 Y51.394 E18.7524
G1 X153.075 Y51.686 E18.7763
G1 X154.248 Y52.586 E18.8457
G1 X154.638 Y52.913 E18.8696
G1 X155.728 Y53.912 E18.9390
G1 X156.088 Y54.272 E18.9629
G1 X157.087 Y55.362 E19.0323
G1 X157.414 Y55.752 E19.0562
G1 X158.314 Y56.925 E19.1255
G1 X158.606 Y57.342 E19.1495
G1 X159.401 Y58.589 E19.2189
G1 X159.655 Y59.031 E19.2428
G1 X160.338 Y60.342 E19.3122
G1 X160.554 Y60.804 E19.3361
G1 X161.119 Y62.169 E19.4055
G1 X161.293 Y62.648 E19.4294
G1 X161.738 Y64.058 E19.4988
G1 X161.870 Y64.550 E19.5227
G1 X162.190 Y65.993 E19.5921
G1 X162.278 Y66.495 E19.6160
G1 X162.471 Y67.961 E19.6854
G1 X162.516 Y68.469 E19.7093
G1 X162.574 Y69.820 E19.7728
G1 X162.580 Y70.075 E19.7848
G1 X162.100 Y70.080 F18000
G92 E0.0000
G1 X162.089 Y140.530 E3.3067 F1800
G1 X162.068 Y141.017 E3.3296
G1 X161.941 Y142.469 E3.3979
G1 X161.877 Y142.953 E3.4209
G1 X161.635 Y144.328 E3.4864
G1 X161.559 Y144.687 E3.5036
G1 X161.357 Y145.513 E3.5435
G1 X161.258 Y145.866 E3.5608
G1 X160.839 Y147.197 E3.6263
G1 X160.672 Y147.656 E3.6492
G1 X160.114 Y149.003 E3.7176
G1 X159.907 Y149.446 E3.7405
G1 X159.235 Y150.738 E3.8089
G1 X158.990 Y151.162 E3.8319
G1 X158.207 Y152.391 E3.9003
G1 X157.927 Y152.791 E3.9232
G1 X157.040 Y153.947 E3.9916
G1 X156.725 Y154.322 E4.0146
G1 X155.741 Y155.396 E4.0829
G1 X155.396 Y155.741 E4.1059
G1 X154.367 Y156.684 E4.1714
G1 X154.088 Y156.923 E4.1886
G1 X153.425 Y157.456 E4.2285
G1 X153.131 Y157.676 E4.2458
G1 X152.038 Y158.441 E4.3084
G1 X151.731 Y158.642 E4.3256
