; G-Code generated by Simplify3D(R) Version 4.1.2
; Jun 15, 2022 at 9:57:39 PM
; Settings Summary
;   processName,Process1
;   applyToModels,batterie-ubec-halter
;   profileName,HSBot
;   profileVersion,2019-11-09 11:59:44
;   baseProfile,Default
;   printMaterial,pla
;   printQuality,Medium
;   printExtruders,
;   extruderName,Extruder - v6,Extruder - lgx ace
;   extruderToolheadNumber,0,1
;   extruderDiameter,0.4,0.4
;   extruderAutoWidth,1,1
;   extruderWidth,0.48,0.48
;   extrusionMultiplier,1.03,1.03
;   extruderUseRetract,0,0
;   extruderRetractionDistance,4,1
;   extruderExtraRestartDistance,0,0
;   extruderRetractionZLift,0,0
;   extruderRetractionSpeed,3600,1800
;   extruderUseCoasting,0,0
;   extruderCoastingDistance,0.2,0.2
;   extruderUseWipe,0,0
;   extruderWipeDistance,1,5
;   primaryExtruder,1
;   layerHeight,0.2
;   topSolidLayers,3
;   bottomSolidLayers,3
;   perimeterOutlines,2
;   printPerimetersInsideOut,1
;   startPointOption,2
;   startPointOriginX,0
;   startPointOriginY,0
;   sequentialIslands,0
;   spiralVaseMode,0
;   firstLayerHeightPercentage,100
;   firstLayerWidthPercentage,150
;   firstLayerUnderspeed,0.25
;   useRaft,0
;   raftExtruder,0
;   raftTopLayers,3
;   raftBaseLayers,2
;   raftOffset,3
;   raftSeparationDistance,0.18
;   raftTopInfill,100
;   aboveRaftSpeedMultiplier,0.3
;   useSkirt,1
;   skirtExtruder,1
;   skirtLayers,1
;   skirtOutlines,5
;   skirtOffset,5
;   usePrimePillar,0
;   primePillarExtruder,999
;   primePillarWidth,12
;   primePillarLocation,7
;   primePillarSpeedMultiplier,1
;   useOozeShield,0
;   oozeShieldExtruder,999
;   oozeShieldOffset,2
;   oozeShieldOutlines,1
;   oozeShieldSidewallShape,1
;   oozeShieldSidewallAngle,30
;   oozeShieldSpeedMultiplier,1
;   infillExtruder,1
;   internalInfillPattern,Fast Honeycomb
;   externalInfillPattern,Rectilinear
;   infillPercentage,15
;   outlineOverlapPercentage,20
;   infillExtrusionWidthPercentage,100
;   minInfillLength,3
;   infillLayerInterval,1
;   internalInfillAngles,0
;   overlapInternalInfillAngles,0
;   externalInfillAngles,45,-45
;   generateSupport,0
;   supportExtruder,1
;   supportInfillPercentage,30
;   supportExtraInflation,0
;   supportBaseLayers,1
;   denseSupportExtruder,0
;   denseSupportLayers,0
;   denseSupportInfillPercentage,70
;   supportLayerInterval,1
;   supportHorizontalPartOffset,0.3
;   supportUpperSeparationLayers,1
;   supportLowerSeparationLayers,1
;   supportType,0
;   supportGridSpacing,2
;   maxOverhangAngle,45
;   supportAngles,0
;   temperatureName,v6,Bed,lgx-ace
;   temperatureNumber,0,0,1
;   temperatureSetpointCount,1,1,1
;   temperatureSetpointLayers,1,1,1
;   temperatureSetpointTemperatures,0,55,217
;   temperatureStabilizeAtStartup,1,1,1
;   temperatureHeatedBed,0,1,0
;   fanLayers,1,2,5
;   fanSpeeds,0,0,0
;   blipFanToFullPower,0
;   adjustSpeedForCooling,1
;   minSpeedLayerTime,15
;   minCoolingSpeedSlowdown,50
;   increaseFanForCooling,0
;   minFanLayerTime,45
;   maxCoolingFanSpeed,70
;   increaseFanForBridging,0
;   bridgingFanSpeed,80
;   use5D,1
;   relativeEdistances,0
;   allowEaxisZeroing,1
;   independentExtruderAxes,0
;   includeM10123,0
;   stickySupport,1
;   applyToolheadOffsets,0
;   gcodeXoffset,0
;   gcodeYoffset,0
;   gcodeZoffset,0
;   overrideMachineDefinition,1
;   machineTypeOverride,0
;   strokeXoverride,220
;   strokeYoverride,220
;   strokeZoverride,150
;   originOffsetXoverride,0
;   originOffsetYoverride,0
;   originOffsetZoverride,0
;   homeXdirOverride,-1
;   homeYdirOverride,-1
;   homeZdirOverride,-1
;   flipXoverride,1
;   flipYoverride,-1
;   flipZoverride,1
;   toolheadOffsets,0,0|0,0|0,0|0,0|0,0|0,0
;   overrideFirmwareConfiguration,0
;   firmwareTypeOverride,RepRap (Marlin/Repetier/Sprinter)
;   GPXconfigOverride,r2
;   baudRateOverride,115200
;   overridePrinterModels,0
;   printerModelsOverride
;   startingGcode,G28 ; home all axes,G32 ; run bed.g -- probe bed and enable compensation
;   layerChangeGcode,
;   retractionGcode,
;   toolChangeGcode,
;   endingGcode,M0 ; call stop.g
;   exportFileFormat,gcode
;   celebration,0
;   celebrationSong,Random Song
;   postProcessing,|; 0.2mm layer, 8 bands 5mm each, total height 40mm|{REPLACE "; layer 25" "M572 D0 S0.69\n; layer 10"}|{REPLACE "; layer 50" "M572 D0 S0.70\n; layer 50"}|{REPLACE "; layer 75" "M572 D0 S0.71\n; layer 75"}|{REPLACE "; layer 100" "M572 D0 S0.72\n; layer 100"}|{REPLACE "; layer 125" "M572 D0 S0.73\n; layer 125"}|{REPLACE "; layer 150" "M572 D0 S0.74\n; layer 150"}|{REPLACE "; layer 175" "M572 D0 S0.75\n; layer 175"}|{REPLACE "; layer 200" "M572 D0 S0.76\n; layer 200"}
;   defaultSpeed,3600
;   outlineUnderspeed,0.8
;   solidInfillUnderspeed,0.75
;   supportUnderspeed,0.8
;   rapidXYspeed,18000
;   rapidZspeed,1200
;   minBridgingArea,50
;   bridgingExtraInflation,0
;   bridgingExtrusionMultiplier,0.96
;   bridgingSpeedMultiplier,1
;   useFixedBridgingAngle,0
;   fixedBridgingAngle,0
;   applyBridgingToPerimeters,0
;   filamentDiameters,1.75|1.75|1.75|1.75|1.75|1.75
;   filamentPricesPerKg,25|46|46|46|46|46
;   filamentDensities,1.29|1.25|1.25|1.25|1.25|1.25
;   useMinPrintHeight,0
;   minPrintHeight,0.3
;   useMaxPrintHeight,0
;   maxPrintHeight,5
;   useDiaphragm,1
;   diaphragmLayerInterval,20
;   robustSlicing,1
;   mergeAllIntoSolid,0
;   onlyRetractWhenCrossingOutline,1
;   retractBetweenLayers,0
;   useRetractionMinTravel,1
;   retractionMinTravel,5
;   retractWhileWiping,1
;   onlyWipeOutlines,1
;   avoidCrossingOutline,1
;   maxMovementDetourFactor,2
;   toolChangeRetractionDistance,12
;   toolChangeExtraRestartDistance,0
;   toolChangeRetractionSpeed,600
;   externalThinWallType,0
;   internalThinWallType,1
;   thinWallAllowedOverlapPercentage,10
;   singleExtrusionMinLength,0.1
;   singleExtrusionMinPrintingWidthPercentage,50
;   singleExtrusionMaxPrintingWidthPercentage,200
;   singleExtrusionEndpointExtension,0.2
;   horizontalSizeCompensation,-0.1
G90
M82
M106 S0
M140 S55
M190 S55
G10 S0 R{0-50} P0
G10 S217 R{217-50} P1
M116 P1
G28 ; home all axes
G32 ; run bed.g -- probe bed and enable compensation
; process Process1
; layer 1, Z = 0.200
T1
; feature skirt
; tool H0.200 W0.720
G1 Z0.200 F1200
G1 X75.013 Y85.005 F18000
G92 E0.0000
G1 X75.897 Y84.385 E0.0665 F900
G1 X77.293 Y83.656 E0.1637
G1 X78.308 Y83.285 E0.2303
G1 X79.760 Y82.961 E0.3220
G1 X80.657 Y82.862 E0.3777
G1 X102.123 Y82.853 E1.7014
G1 X102.264 Y82.974 E1.7128
G1 X102.482 Y82.785 E1.7306
G1 X107.388 Y82.897 E2.0332
G1 X108.364 Y83.037 E2.0940
G1 X109.510 Y83.344 E2.1672
G1 X110.186 Y83.590 E2.2115
G1 X111.138 Y84.034 E2.2763
G1 X111.761 Y84.393 E2.3207
G1 X112.622 Y84.996 E2.3855
G1 X113.173 Y85.459 E2.4298
G1 X113.916 Y86.201 E2.4946
G1 X114.378 Y86.753 E2.5390
G1 X115.032 Y87.685 E2.6092
G1 X115.463 Y88.471 E2.6645
G1 X116.032 Y89.840 E2.7559
G1 X116.312 Y90.885 E2.8226
G1 X116.484 Y92.186 E2.9035
G1 X116.520 Y92.726 E2.9369
G1 X116.520 Y126.170 E4.9992
G1 X116.504 Y126.529 E5.0214
G1 X116.420 Y127.495 E5.0812
G1 X116.243 Y128.382 E5.1370
G1 X115.793 Y129.801 E5.2287
G1 X115.336 Y130.779 E5.2953
G1 X114.539 Y132.027 E5.3866
G1 X113.978 Y132.726 E5.4419
G1 X113.173 Y133.531 E5.5121
G1 X112.622 Y133.993 E5.5564
G1 X111.761 Y134.596 E5.6212
G1 X111.138 Y134.956 E5.6656
G1 X110.106 Y135.437 E5.7358
G1 X109.258 Y135.725 E5.7911
G1 X107.910 Y136.025 E5.8762
G1 X107.039 Y136.124 E5.9303
G1 X102.385 Y136.154 E6.2172
G1 X102.288 Y136.068 E6.2253
G1 X102.213 Y136.135 E6.2314
G1 X81.104 Y136.135 E7.5331
G1 X80.745 Y136.119 E7.5552
G1 X79.779 Y136.034 E7.6150
G1 X78.892 Y135.857 E7.6708
G1 X77.474 Y135.408 E7.7626
G1 X76.496 Y134.951 E7.8291
G1 X75.247 Y134.154 E7.9205
G1 X74.549 Y133.593 E7.9757
G1 X73.743 Y132.788 E8.0459
G1 X73.281 Y132.237 E8.0903
G1 X72.678 Y131.376 E8.1551
G1 X72.319 Y130.753 E8.1995
G1 X71.837 Y129.721 E8.2697
G1 X71.549 Y128.873 E8.3249
G1 X71.248 Y127.522 E8.4102
G1 X71.150 Y126.645 E8.4647
G1 X71.123 Y121.361 E8.7905
G1 X75.955 Y116.505 E9.2129
G1 X85.924 Y116.505 E9.8276
G1 X86.394 Y115.368 E9.9035
G1 X89.654 Y112.109 E10.1877
G1 X92.682 Y110.855 E10.3899
G1 X94.140 Y110.855 E10.4797
G1 X94.140 Y108.135 E10.6475
G1 X92.682 Y108.135 E10.7374
G1 X89.654 Y106.880 E10.9395
G1 X86.394 Y103.621 E11.2237
G1 X85.924 Y102.485 E11.2996
G1 X75.955 Y102.485 E11.9143
G1 X71.123 Y97.629 E12.3367
G1 X71.149 Y92.439 E12.6567
G1 X71.212 Y91.743 E12.6998
G1 X71.392 Y90.718 E12.7640
G1 X71.579 Y90.023 E12.8084
G1 X71.970 Y88.947 E12.8790
G1 X72.370 Y88.137 E12.9347
G1 X73.168 Y86.888 E13.0261
G1 X73.857 Y86.066 E13.0922
G1 X75.013 Y85.005 E13.1890
G1 X75.465 Y85.567 F18000
G92 E0.0000
G1 X76.272 Y85.001 E0.0607 F900
G1 X77.585 Y84.316 E0.1521
G1 X78.511 Y83.978 E0.2129
G1 X79.878 Y83.673 E0.2992
G1 X80.697 Y83.582 E0.3500
G1 X101.857 Y83.574 E1.6549
G1 X102.267 Y83.924 E1.6881
G1 X102.743 Y83.511 E1.7270
G1 X107.329 Y83.615 E2.0098
G1 X108.219 Y83.743 E2.0653
G1 X109.293 Y84.031 E2.1339
G1 X109.910 Y84.255 E2.1743
G1 X110.805 Y84.673 E2.2353
G1 X111.374 Y85.001 E2.2757
G1 X112.183 Y85.568 E2.3367
G1 X112.686 Y85.990 E2.3772
G1 X113.385 Y86.688 E2.4381
G1 X113.807 Y87.191 E2.4786
G1 X114.419 Y88.066 E2.5444
G1 X114.813 Y88.783 E2.5948
G1 X115.349 Y90.072 E2.6809
G1 X115.605 Y91.026 E2.7419
G1 X115.767 Y92.257 E2.8184
G1 X115.800 Y92.750 E2.8488
G1 X115.800 Y126.154 E4.9087
G1 X115.785 Y126.482 E4.9289
G1 X115.706 Y127.393 E4.9853
G1 X115.544 Y128.203 E5.0363
G1 X115.121 Y129.539 E5.1227
G1 X114.704 Y130.431 E5.1834
G1 X113.953 Y131.607 E5.2694
G1 X113.441 Y132.244 E5.3198
G1 X112.686 Y132.999 E5.3857
G1 X112.183 Y133.422 E5.4262
G1 X111.374 Y133.988 E5.4871
G1 X110.805 Y134.316 E5.5276
G1 X109.837 Y134.768 E5.5935
G1 X109.063 Y135.031 E5.6439
G1 X107.791 Y135.314 E5.7242
G1 X106.996 Y135.404 E5.7736
G1 X102.655 Y135.432 E6.0413
G1 X102.286 Y135.107 E6.0716
G1 X101.939 Y135.415 E6.1002
G1 X81.120 Y135.415 E7.3840
G1 X80.792 Y135.400 E7.4042
G1 X79.881 Y135.321 E7.4606
G1 X79.072 Y135.159 E7.5115
G1 X77.736 Y134.736 E7.5979
G1 X76.843 Y134.319 E7.6587
G1 X75.668 Y133.568 E7.7447
G1 X75.030 Y133.056 E7.7951
G1 X74.275 Y132.301 E7.8610
G1 X73.853 Y131.798 E7.9015
G1 X73.286 Y130.989 E7.9624
G1 X72.958 Y130.420 E8.0029
G1 X72.507 Y129.452 E8.0687
G1 X72.243 Y128.678 E8.1192
G1 X71.960 Y127.403 E8.1997
G1 X71.869 Y126.603 E8.2494
G1 X71.845 Y121.656 E8.5544
G1 X76.254 Y117.225 E8.9399
G1 X86.405 Y117.225 E9.5658
G1 X87.005 Y115.776 E9.6625
G1 X90.061 Y112.719 E9.9291
G1 X92.825 Y111.575 E10.1135
G1 X94.860 Y111.575 E10.2390
G1 X94.860 Y107.415 E10.4955
G1 X92.825 Y107.415 E10.6210
G1 X90.061 Y106.270 E10.8054
G1 X87.005 Y103.213 E11.0720
G1 X86.405 Y101.765 E11.1687
G1 X76.254 Y101.765 E11.7946
G1 X71.845 Y97.333 E12.1801
G1 X71.869 Y92.473 E12.4798
G1 X71.926 Y91.838 E12.5191
G1 X72.096 Y90.874 E12.5795
G1 X72.266 Y90.239 E12.6200
G1 X72.633 Y89.230 E12.6862
G1 X72.999 Y88.491 E12.7371
G1 X73.749 Y87.315 E12.8231
G1 X74.379 Y86.565 E12.8834
G1 X75.465 Y85.567 E12.9744
G1 X75.918 Y86.129 F18000
G92 E0.0000
G1 X76.647 Y85.618 E0.0549 F900
G1 X77.876 Y84.976 E0.1404
G1 X78.713 Y84.670 E0.1954
G1 X79.996 Y84.384 E0.2764
G1 X80.737 Y84.302 E0.3224
G1 X101.592 Y84.294 E1.6084
G1 X102.271 Y84.874 E1.6635
G1 X103.005 Y84.237 E1.7234
G1 X107.269 Y84.334 E1.9864
G1 X108.075 Y84.450 E2.0366
G1 X109.076 Y84.718 E2.1006
G1 X109.634 Y84.921 E2.1372
G1 X110.472 Y85.312 E2.1942
G1 X110.987 Y85.609 E2.2308
G1 X111.744 Y86.139 E2.2878
G1 X112.199 Y86.521 E2.3245
G1 X112.853 Y87.175 E2.3815
G1 X113.235 Y87.630 E2.4181
G1 X113.807 Y88.447 E2.4796
G1 X114.163 Y89.095 E2.5252
G1 X114.665 Y90.305 E2.6060
G1 X114.897 Y91.168 E2.6611
G1 X115.050 Y92.328 E2.7332
G1 X115.080 Y92.773 E2.7608
G1 X115.080 Y126.139 E4.8182
G1 X115.067 Y126.435 E4.8365
G1 X114.992 Y127.291 E4.8895
G1 X114.846 Y128.023 E4.9355
G1 X114.449 Y129.276 E5.0166
G1 X114.072 Y130.083 E5.0715
G1 X113.368 Y131.186 E5.1522
G1 X112.905 Y131.763 E5.1978
G1 X112.199 Y132.468 E5.2593
G1 X111.744 Y132.850 E5.2959
G1 X110.987 Y133.380 E5.3530
G1 X110.473 Y133.677 E5.3896
G1 X109.568 Y134.099 E5.4511
G1 X108.868 Y134.337 E5.4967
G1 X107.672 Y134.603 E5.5723
G1 X106.953 Y134.685 E5.6169
G1 X102.925 Y134.711 E5.8653
G1 X102.284 Y134.146 E5.9180
G1 X101.666 Y134.695 E5.9690
G1 X81.136 Y134.695 E7.2349
G1 X80.839 Y134.682 E7.2532
G1 X79.983 Y134.607 E7.3062
G1 X79.251 Y134.461 E7.3522
G1 X77.998 Y134.064 E7.4333
G1 X77.191 Y133.687 E7.4882
G1 X76.088 Y132.982 E7.5689
G1 X75.512 Y132.519 E7.6145
G1 X74.806 Y131.814 E7.6760
G1 X74.425 Y131.359 E7.7127
G1 X73.894 Y130.602 E7.7697
G1 X73.597 Y130.087 E7.8063
G1 X73.176 Y129.183 E7.8678
G1 X72.938 Y128.483 E7.9134
G1 X72.671 Y127.285 E7.9891
G1 X72.589 Y126.560 E8.0341
G1 X72.566 Y121.952 E8.3182
G1 X76.554 Y117.945 E8.6668
G1 X86.886 Y117.945 E9.3040
G1 X87.615 Y116.184 E9.4215
G1 X90.469 Y113.330 E9.6704
G1 X92.969 Y112.295 E9.8372
G1 X95.580 Y112.295 E9.9982
G1 X95.580 Y106.695 E10.3435
G1 X92.969 Y106.695 E10.5046
G1 X90.469 Y105.659 E10.6714
G1 X87.615 Y102.805 E10.9203
G1 X86.886 Y101.045 E11.0378
G1 X76.554 Y101.045 E11.6749
G1 X72.566 Y97.037 E12.0235
G1 X72.589 Y92.507 E12.3029
G1 X72.641 Y91.933 E12.3384
G1 X72.800 Y91.030 E12.3950
G1 X72.953 Y90.456 E12.4316
G1 X73.297 Y89.514 E12.4934
G1 X73.627 Y88.845 E12.5394
G1 X74.331 Y87.741 E12.6201
G1 X74.900 Y87.064 E12.6747
G1 X75.918 Y86.129 E12.7599
G1 X76.370 Y86.692 F18000
G92 E0.0000
G1 X77.022 Y86.234 E0.0491 F900
G1 X78.167 Y85.636 E0.1288
G1 X78.916 Y85.362 E0.1780
G1 X80.114 Y85.095 E0.2537
G1 X80.776 Y85.022 E0.2947
G1 X101.326 Y85.014 E1.5619
G1 X102.274 Y85.824 E1.6388
G1 X103.267 Y84.963 E1.7198
G1 X107.210 Y85.053 E1.9630
G1 X107.930 Y85.156 E2.0079
G1 X108.860 Y85.406 E2.0673
G1 X109.358 Y85.587 E2.1000
G1 X110.140 Y85.951 E2.1531
G1 X110.599 Y86.217 E2.1859
G1 X111.306 Y86.711 E2.2390
G1 X111.712 Y87.053 E2.2718
G1 X112.322 Y87.662 E2.3249
G1 X112.663 Y88.069 E2.3577
G1 X113.195 Y88.828 E2.4148
G1 X113.513 Y89.408 E2.4556
G1 X113.982 Y90.537 E2.5310
G1 X114.190 Y91.309 E2.5803
G1 X114.334 Y92.399 E2.6481
G1 X114.360 Y92.797 E2.6727
G1 X114.360 Y126.123 E4.7277
G1 X114.348 Y126.388 E4.7441
G1 X114.278 Y127.189 E4.7937
G1 X114.148 Y127.844 E4.8348
G1 X113.777 Y129.014 E4.9105
G1 X113.440 Y129.736 E4.9596
G1 X112.782 Y130.766 E5.0350
G1 X112.368 Y131.281 E5.0758
G1 X111.712 Y131.937 E5.1330
G1 X111.306 Y132.278 E5.1657
G1 X110.599 Y132.772 E5.2188
G1 X110.140 Y133.038 E5.2516
G1 X109.299 Y133.430 E5.3088
G1 X108.674 Y133.643 E5.3495
G1 X107.553 Y133.892 E5.4203
G1 X106.910 Y133.965 E5.4602
G1 X103.195 Y133.989 E5.6893
G1 X102.283 Y133.184 E5.7643
G1 X101.392 Y133.975 E5.8377
G1 X81.151 Y133.975 E7.0859
G1 X80.886 Y133.963 E7.1022
G1 X80.085 Y133.893 E7.1518
G1 X79.431 Y133.762 E7.1930
G1 X78.260 Y133.392 E7.2687
G1 X77.539 Y133.054 E7.3178
G1 X76.508 Y132.397 E7.3932
G1 X75.993 Y131.983 E7.4339
G1 X75.338 Y131.327 E7.4911
G1 X74.996 Y130.920 E7.5238
G1 X74.502 Y130.214 E7.5770
G1 X74.236 Y129.755 E7.6097
G1 X73.845 Y128.914 E7.6669
G1 X73.632 Y128.288 E7.7077
G1 X73.382 Y127.166 E7.7786
G1 X73.309 Y126.518 E7.8188
G1 X73.288 Y122.248 E8.0821
G1 X76.853 Y118.665 E8.3938
G1 X87.367 Y118.665 E9.0421
G1 X88.225 Y116.592 E9.1805
G1 X90.877 Y113.940 E9.4117
G1 X93.112 Y113.015 E9.5609
G1 X96.300 Y113.015 E9.7575
G1 X96.300 Y105.975 E10.1916
G1 X93.112 Y105.975 E10.3882
G1 X90.877 Y105.049 E10.5373
G1 X88.225 Y102.397 E10.7686
G1 X87.367 Y100.325 E10.9069
G1 X76.853 Y100.325 E11.5552
G1 X73.288 Y96.742 E11.8669
G1 X73.309 Y92.541 E12.1259
G1 X73.355 Y92.028 E12.1577
G1 X73.503 Y91.186 E12.2104
G1 X73.641 Y90.673 E12.2432
G1 X73.960 Y89.797 E12.3007
G1 X74.255 Y89.199 E12.3418
G1 X74.913 Y88.168 E12.4172
G1 X75.421 Y87.562 E12.4660
G1 X76.370 Y86.692 E12.5454
G1 X76.822 Y87.254 F18000
G92 E0.0000
G1 X77.397 Y86.851 E0.0433 F900
G1 X78.459 Y86.296 E0.1172
G1 X79.119 Y86.055 E0.1605
G1 X80.232 Y85.807 E0.2309
G1 X80.816 Y85.742 E0.2671
G1 X101.060 Y85.734 E1.5154
G1 X102.278 Y86.774 E1.6142
G1 X103.528 Y85.690 E1.7162
G1 X107.150 Y85.772 E1.9396
G1 X107.785 Y85.863 E1.9792
G1 X108.643 Y86.093 E2.0340
G1 X109.083 Y86.253 E2.0628
