; G-Code generated by Simplify3D(R) Version 4.1.2
; Jun 4, 2022 at 5:53:43 PM
; Settings Summary
;   processName,Process1
;   applyToModels,bracket-hinten
;   profileName,HSBot
;   profileVersion,2019-11-09 11:59:44
;   baseProfile,Default
;   printMaterial,pla
;   printQuality,Medium
;   printExtruders,
;   extruderName,Extruder 1,Extruder - Lite
;   extruderToolheadNumber,0,1
;   extruderDiameter,0.4,0.4
;   extruderAutoWidth,1,1
;   extruderWidth,0.48,0.48
;   extrusionMultiplier,1.1,0.93
;   extruderUseRetract,0,0
;   extruderRetractionDistance,1,1
;   extruderExtraRestartDistance,0,0
;   extruderRetractionZLift,0,0
;   extruderRetractionSpeed,4800,1800
;   extruderUseCoasting,0,0
;   extruderCoastingDistance,0.2,0.2
;   extruderUseWipe,0,0
;   extruderWipeDistance,2,5
;   primaryExtruder,0
;   layerHeight,0.2
;   topSolidLayers,3
;   bottomSolidLayers,3
;   perimeterOutlines,3
;   printPerimetersInsideOut,1
;   startPointOption,2
;   startPointOriginX,0
;   startPointOriginY,0
;   sequentialIslands,0
;   spiralVaseMode,0
;   firstLayerHeightPercentage,100
;   firstLayerWidthPercentage,150
;   firstLayerUnderspeed,0.25
;   useRaft,0
;   raftExtruder,0
;   raftTopLayers,3
;   raftBaseLayers,2
;   raftOffset,3
;   raftSeparationDistance,0.18
;   raftTopInfill,100
;   aboveRaftSpeedMultiplier,0.3
;   useSkirt,1
;   skirtExtruder,0
;   skirtLayers,1
;   skirtOutlines,5
;   skirtOffset,5
;   usePrimePillar,0
;   primePillarExtruder,999
;   primePillarWidth,12
;   primePillarLocation,7
;   primePillarSpeedMultiplier,1
;   useOozeShield,0
;   oozeShieldExtruder,999
;   oozeShieldOffset,2
;   oozeShieldOutlines,1
;   oozeShieldSidewallShape,1
;   oozeShieldSidewallAngle,30
;   oozeShieldSpeedMultiplier,1
;   infillExtruder,0
;   internalInfillPattern,Full Honeycomb
;   externalInfillPattern,Rectilinear
;   infillPercentage,20
;   outlineOverlapPercentage,20
;   infillExtrusionWidthPercentage,100
;   minInfillLength,3
;   infillLayerInterval,1
;   internalInfillAngles,0,120,-120
;   overlapInternalInfillAngles,0
;   externalInfillAngles,45,-45
;   generateSupport,0
;   supportExtruder,0
;   supportInfillPercentage,30
;   supportExtraInflation,0
;   supportBaseLayers,1
;   denseSupportExtruder,0
;   denseSupportLayers,0
;   denseSupportInfillPercentage,70
;   supportLayerInterval,1
;   supportHorizontalPartOffset,0.3
;   supportUpperSeparationLayers,1
;   supportLowerSeparationLayers,1
;   supportType,0
;   supportGridSpacing,2
;   maxOverhangAngle,45
;   supportAngles,0
;   temperatureName,Extruder 1,Bed
;   temperatureNumber,0,0
;   temperatureSetpointCount,1,1
;   temperatureSetpointLayers,1,1
;   temperatureSetpointTemperatures,217,55
;   temperatureStabilizeAtStartup,1,1
;   temperatureHeatedBed,0,1
;   fanLayers,1,2,5
;   fanSpeeds,0,15,50
;   blipFanToFullPower,1
;   adjustSpeedForCooling,1
;   minSpeedLayerTime,15
;   minCoolingSpeedSlowdown,20
;   increaseFanForCooling,1
;   minFanLayerTime,45
;   maxCoolingFanSpeed,40
;   increaseFanForBridging,1
;   bridgingFanSpeed,80
;   use5D,1
;   relativeEdistances,0
;   allowEaxisZeroing,1
;   independentExtruderAxes,0
;   includeM10123,0
;   stickySupport,1
;   applyToolheadOffsets,0
;   gcodeXoffset,0
;   gcodeYoffset,0
;   gcodeZoffset,0
;   overrideMachineDefinition,1
;   machineTypeOverride,0
;   strokeXoverride,220
;   strokeYoverride,220
;   strokeZoverride,150
;   originOffsetXoverride,0
;   originOffsetYoverride,0
;   originOffsetZoverride,0
;   homeXdirOverride,-1
;   homeYdirOverride,-1
;   homeZdirOverride,-1
;   flipXoverride,1
;   flipYoverride,-1
;   flipZoverride,1
;   toolheadOffsets,0,0|0,0|0,0|0,0|0,0|0,0
;   overrideFirmwareConfiguration,0
;   firmwareTypeOverride,RepRap (Marlin/Repetier/Sprinter)
;   GPXconfigOverride,r2
;   baudRateOverride,115200
;   overridePrinterModels,0
;   printerModelsOverride
;   startingGcode,G28 ; home all axes,G32 ; run bed.g -- probe bed and enable compensation
;   layerChangeGcode,
;   retractionGcode,
;   toolChangeGcode,
;   endingGcode,M0 ; call stop.g
;   exportFileFormat,gcode
;   celebration,0
;   celebrationSong,Random Song
;   postProcessing,|; 0.2mm layer, 8 bands 5mm each, total height 40mm|{REPLACE "; layer 25" "M572 D0 S0.69\n; layer 10"}|{REPLACE "; layer 50" "M572 D0 S0.70\n; layer 50"}|{REPLACE "; layer 75" "M572 D0 S0.71\n; layer 75"}|{REPLACE "; layer 100" "M572 D0 S0.72\n; layer 100"}|{REPLACE "; layer 125" "M572 D0 S0.73\n; layer 125"}|{REPLACE "; layer 150" "M572 D0 S0.74\n; layer 150"}|{REPLACE "; layer 175" "M572 D0 S0.75\n; layer 175"}|{REPLACE "; layer 200" "M572 D0 S0.76\n; layer 200"}
;   defaultSpeed,5100
;   outlineUnderspeed,0.8
;   solidInfillUnderspeed,0.75
;   supportUnderspeed,0.8
;   rapidXYspeed,18000
;   rapidZspeed,1200
;   minBridgingArea,50
;   bridgingExtraInflation,0
;   bridgingExtrusionMultiplier,0.96
;   bridgingSpeedMultiplier,1
;   useFixedBridgingAngle,0
;   fixedBridgingAngle,0
;   applyBridgingToPerimeters,0
;   filamentDiameters,1.75|1.75|1.75|1.75|1.75|1.75
;   filamentPricesPerKg,25|46|46|46|46|46
;   filamentDensities,1.29|1.25|1.25|1.25|1.25|1.25
;   useMinPrintHeight,0
;   minPrintHeight,0.3
;   useMaxPrintHeight,0
;   maxPrintHeight,5
;   useDiaphragm,0
;   diaphragmLayerInterval,20
;   robustSlicing,1
;   mergeAllIntoSolid,0
;   onlyRetractWhenCrossingOutline,1
;   retractBetweenLayers,0
;   useRetractionMinTravel,1
;   retractionMinTravel,5
;   retractWhileWiping,1
;   onlyWipeOutlines,1
;   avoidCrossingOutline,1
;   maxMovementDetourFactor,2
;   toolChangeRetractionDistance,12
;   toolChangeExtraRestartDistance,0
;   toolChangeRetractionSpeed,600
;   externalThinWallType,0
;   internalThinWallType,1
;   thinWallAllowedOverlapPercentage,10
;   singleExtrusionMinLength,0.1
;   singleExtrusionMinPrintingWidthPercentage,50
;   singleExtrusionMaxPrintingWidthPercentage,200
;   singleExtrusionEndpointExtension,0.2
;   horizontalSizeCompensation,-0.1
G90
M82
M106 S0
M140 S55
M190 S55
G10 S217 R{217-50} P0
M116 P0
G28 ; home all axes
G32 ; run bed.g -- probe bed and enable compensation
; process Process1
; layer 1, Z = 0.200
T0
; feature skirt
; tool H0.200 W0.720
G1 Z0.200 F1200
G1 X54.433 Y81.323 F18000
G92 E0.0000
G1 X55.407 Y80.798 E0.0729 F1275
G1 X55.748 Y80.634 E0.0978
G1 X56.685 Y80.236 E0.1648
G1 X57.093 Y80.087 E0.1934
G1 X58.585 Y79.631 E0.2962
G1 X59.072 Y79.514 E0.3292
G1 X60.230 Y79.309 E0.4066
G1 X60.709 Y79.252 E0.4384
G1 X62.241 Y79.163 E0.5394
G1 X62.641 Y79.159 E0.5657
G1 X63.367 Y79.188 E0.6136
G1 X63.740 Y79.219 E0.6383
G1 X65.174 Y79.406 E0.7335
G1 X65.636 Y79.493 E0.7644
G1 X66.709 Y79.760 E0.8373
G1 X67.069 Y79.867 E0.8620
G1 X68.068 Y80.215 E0.9317
G1 X68.416 Y80.354 E0.9564
G1 X69.380 Y80.791 E1.0261
G1 X69.714 Y80.962 E1.0508
G1 X70.676 Y81.508 E1.1236
G1 X71.070 Y81.763 E1.1545
G1 X72.275 Y82.643 E1.2528
G1 X72.637 Y82.941 E1.2836
G1 X73.455 Y83.695 E1.3569
G1 X73.729 Y83.973 E1.3826
G1 X74.346 Y84.660 E1.4434
G1 X145.654 Y84.660 E6.1394
G1 X146.123 Y84.129 E6.1861
G1 X146.367 Y83.876 E6.2092
G1 X147.184 Y83.098 E6.2835
G1 X147.491 Y82.833 E6.3102
G1 X148.376 Y82.143 E6.3842
G1 X148.763 Y81.875 E6.4151
G1 X150.035 Y81.097 E6.5133
G1 X150.447 Y80.876 E6.5441
G1 X151.371 Y80.447 E6.6112
G1 X151.686 Y80.316 E6.6337
G1 X152.743 Y79.928 E6.7078
G1 X153.134 Y79.806 E6.7348
G1 X154.223 Y79.525 E6.8088
G1 X154.683 Y79.433 E6.8397
G1 X156.160 Y79.227 E6.9380
G1 X156.627 Y79.188 E6.9688
G1 X157.738 Y79.160 E7.0420
G1 X158.126 Y79.169 E7.0676
G1 X159.317 Y79.251 E7.1462
G1 X159.806 Y79.315 E7.1787
G1 X161.329 Y79.606 E7.2808
G1 X161.873 Y79.749 E7.3178
G1 X163.377 Y80.256 E7.4223
G1 X163.897 Y80.472 E7.4594
G1 X165.317 Y81.179 E7.5639
G1 X165.803 Y81.464 E7.6010
G1 X167.113 Y82.358 E7.7054
G1 X167.556 Y82.706 E7.7425
G1 X168.740 Y83.776 E7.8476
G1 X169.142 Y84.195 E7.8859
G1 X170.215 Y85.483 E7.9962
G1 X170.555 Y85.956 E8.0346
G1 X171.394 Y87.314 E8.1398
G1 X171.656 Y87.812 E8.1768
G1 X172.299 Y89.263 E8.2813
G1 X172.491 Y89.792 E8.3184
G1 X172.916 Y91.272 E8.4198
G1 X173.020 Y91.730 E8.4507
G1 X173.202 Y92.816 E8.5232
G1 X173.247 Y93.178 E8.5473
G1 X173.322 Y94.150 E8.6115
G1 X173.334 Y94.508 E8.6351
G1 X173.324 Y95.639 E8.7095
G1 X173.300 Y96.041 E8.7360
G1 X173.186 Y97.104 E8.8065
G1 X173.130 Y97.469 E8.8308
G1 X172.940 Y98.424 E8.8949
G1 X172.856 Y98.765 E8.9180
G1 X172.542 Y99.850 E8.9924
G1 X172.410 Y100.233 E9.0191
G1 X172.012 Y101.231 E9.0898
G1 X171.857 Y101.572 E9.1145
G1 X171.376 Y102.515 E9.1842
G1 X171.191 Y102.841 E9.2089
G1 X170.597 Y103.783 E9.2822
G1 X170.314 Y104.179 E9.3143
G1 X169.324 Y105.401 E9.4179
G1 X169.005 Y105.752 E9.4491
G1 X168.272 Y106.470 E9.5167
G1 X168.009 Y106.706 E9.5399
G1 X167.840 Y106.846 E9.5544
G1 X167.840 Y113.154 E9.9698
G1 X168.371 Y113.623 E10.0165
G1 X168.623 Y113.867 E10.0396
G1 X169.402 Y114.684 E10.1139
G1 X169.667 Y114.991 E10.1406
G1 X170.357 Y115.876 E10.2145
G1 X170.625 Y116.263 E10.2455
G1 X171.403 Y117.535 E10.3437
G1 X171.623 Y117.947 E10.3745
G1 X172.053 Y118.871 E10.4415
G1 X172.184 Y119.186 E10.4641
G1 X172.572 Y120.243 E10.5382
G1 X172.694 Y120.634 E10.5652
G1 X172.975 Y121.723 E10.6392
G1 X173.067 Y122.183 E10.6701
G1 X173.273 Y123.660 E10.7684
G1 X173.312 Y124.128 E10.7992
G1 X173.340 Y125.239 E10.8724
G1 X173.331 Y125.626 E10.8979
G1 X173.249 Y126.817 E10.9765
G1 X173.185 Y127.306 E11.0091
G1 X172.894 Y128.829 E11.1112
G1 X172.751 Y129.374 E11.1482
G1 X172.259 Y130.833 E11.2496
G1 X172.084 Y131.269 E11.2806
G1 X171.614 Y132.267 E11.3533
G1 X171.442 Y132.595 E11.3776
G1 X170.951 Y133.435 E11.4417
G1 X170.762 Y133.729 E11.4648
G1 X170.111 Y134.652 E11.5391
G1 X169.861 Y134.972 E11.5658
G1 X169.127 Y135.821 E11.6398
G1 X168.800 Y136.159 E11.6707
G1 X167.668 Y137.202 E11.7721
G1 X167.228 Y137.554 E11.8092
G1 X165.926 Y138.460 E11.9136
G1 X165.443 Y138.749 E11.9507
G1 X164.030 Y139.469 E12.0552
G1 X163.512 Y139.689 E12.0922
G1 X162.006 Y140.213 E12.1972
G1 X161.449 Y140.363 E12.2352
G1 X159.806 Y140.687 E12.3455
G1 X159.225 Y140.759 E12.3841
G1 X157.629 Y140.842 E12.4893
G1 X157.065 Y140.833 E12.5264
G1 X155.483 Y140.699 E12.6310
G1 X154.927 Y140.614 E12.6681
G1 X153.426 Y140.276 E12.7694
G1 X152.975 Y140.148 E12.8002
G1 X151.932 Y139.785 E12.8730
G1 X151.584 Y139.646 E12.8977
G1 X150.569 Y139.185 E12.9711
G1 X150.138 Y138.958 E13.0032
G1 X148.793 Y138.144 E13.1067
G1 X148.404 Y137.878 E13.1377
G1 X147.593 Y137.250 E13.2053
G1 X147.321 Y137.021 E13.2287
G1 X146.545 Y136.305 E13.2982
G1 X146.271 Y136.027 E13.3239
G1 X145.654 Y135.340 E13.3847
G1 X74.346 Y135.340 E18.0807
G1 X73.877 Y135.871 E18.1274
G1 X73.633 Y136.124 E18.1505
G1 X72.815 Y136.902 E18.2249
G1 X72.509 Y137.167 E18.2516
G1 X71.624 Y137.857 E18.3255
G1 X71.237 Y138.125 E18.3564
G1 X69.965 Y138.902 E18.4546
G1 X69.553 Y139.123 E18.4854
G1 X68.629 Y139.553 E18.5525
G1 X68.314 Y139.684 E18.5750
G1 X67.257 Y140.072 E18.6491
G1 X66.866 Y140.194 E18.6761
G1 X65.777 Y140.475 E18.7501
G1 X65.317 Y140.567 E18.7811
G1 X63.840 Y140.773 E18.8793
G1 X63.372 Y140.812 E18.9102
G1 X62.261 Y140.840 E18.9833
G1 X61.874 Y140.831 E19.0089
G1 X60.730 Y140.752 E19.0844
G1 X60.333 Y140.705 E19.1107
G1 X59.230 Y140.520 E19.1844
G1 X58.771 Y140.416 E19.2153
G1 X57.293 Y139.991 E19.3167
G1 X56.764 Y139.799 E19.3537
G1 X55.399 Y139.195 E19.4520
G1 X55.063 Y139.028 E19.4767
G1 X54.438 Y138.680 E19.5238
G1 X54.119 Y138.483 E19.5485
G1 X52.886 Y137.642 E19.6468
G1 X52.444 Y137.294 E19.6838
G1 X51.260 Y136.224 E19.7889
G1 X50.858 Y135.804 E19.8272
G1 X49.785 Y134.517 E19.9376
G1 X49.445 Y134.044 E19.9759
G1 X48.634 Y132.732 E20.0775
G1 X48.417 Y132.332 E20.1075
G1 X47.981 Y131.414 E20.1744
G1 X47.844 Y131.089 E20.1976
G1 X47.476 Y130.102 E20.2670
G1 X47.357 Y129.732 E20.2926
G1 X47.060 Y128.630 E20.3678
G1 X46.977 Y128.250 E20.3933
G1 X46.803 Y127.230 E20.4616
G1 X46.751 Y126.776 E20.4916
G1 X46.658 Y125.163 E20.5980
G1 X46.666 Y124.576 E20.6367
G1 X46.796 Y123.034 E20.7386
G1 X46.861 Y122.577 E20.7690
G1 X47.060 Y121.576 E20.8362
G1 X47.144 Y121.234 E20.8594
G1 X47.474 Y120.096 E20.9374
G1 X47.649 Y119.608 E20.9716
G1 X48.278 Y118.151 E21.0761
G1 X48.488 Y117.732 E21.1069
G1 X48.999 Y116.842 E21.1745
G1 X49.190 Y116.541 E21.1980
G1 X49.794 Y115.674 E21.2676
G1 X50.033 Y115.363 E21.2934
G1 X50.770 Y114.493 E21.3685
G1 X51.029 Y114.215 E21.3935
G1 X51.762 Y113.496 E21.4611
G1 X52.098 Y113.201 E21.4906
G1 X52.160 Y113.152 E21.4958
G1 X52.160 Y106.853 E21.9106
G1 X51.845 Y106.580 E21.9381
G1 X51.018 Y105.776 E22.0140
G1 X50.701 Y105.430 E22.0449
G1 X49.786 Y104.311 E22.1401
G1 X49.561 Y104.009 E22.1649
G1 X49.161 Y103.417 E22.2120
G1 X48.966 Y103.097 E22.2366
G1 X48.268 Y101.831 E22.3318
G1 X48.066 Y101.407 E22.3628
G1 X47.646 Y100.384 E22.4356
G1 X47.519 Y100.029 E22.4604
G1 X47.234 Y99.101 E22.5243
G1 X47.148 Y98.774 E22.5466
G1 X46.906 Y97.675 E22.6207
G1 X46.838 Y97.270 E22.6478
G1 X46.708 Y96.152 E22.7219
G1 X46.680 Y95.683 E22.7528
G1 X46.677 Y94.137 E22.8547
G1 X46.716 Y93.561 E22.8927
G1 X46.939 Y91.954 E22.9996
G1 X47.033 Y91.479 E23.0314
G1 X47.294 Y90.480 E23.0994
G1 X47.398 Y90.140 E23.1229
G1 X47.777 Y89.074 E23.1973
G1 X47.930 Y88.701 E23.2239
G1 X48.407 Y87.686 E23.2977
G1 X48.631 Y87.273 E23.3287
G1 X49.440 Y85.963 E23.4301
G1 X49.768 Y85.505 E23.4672
G1 X50.718 Y84.354 E23.5654
G1 X50.970 Y84.076 E23.5901
G1 X51.439 Y83.603 E23.6340
G1 X51.644 Y83.410 E23.6526
G1 X52.440 Y82.709 E23.7224
G1 X52.809 Y82.420 E23.7533
G1 X54.034 Y81.568 E23.8515
G1 X54.433 Y81.323 E23.8824
G1 X54.792 Y81.947 F18000
G92 E0.0000
G1 X55.734 Y81.440 E0.0704 F1275
G1 X56.045 Y81.291 E0.0931
G1 X56.949 Y80.906 E0.1579
G1 X57.322 Y80.770 E0.1840
G1 X58.774 Y80.326 E0.2840
G1 X59.219 Y80.219 E0.3141
G1 X60.335 Y80.021 E0.3887
G1 X60.772 Y79.970 E0.4177
G1 X62.266 Y79.883 E0.5163
G1 X62.630 Y79.880 E0.5403
G1 X63.322 Y79.906 E0.5859
G1 X63.663 Y79.935 E0.6084
G1 X65.061 Y80.118 E0.7012
G1 X65.482 Y80.197 E0.7295
G1 X66.519 Y80.455 E0.7999
G1 X66.847 Y80.553 E0.8224
G1 X67.816 Y80.890 E0.8899
G1 X68.134 Y81.017 E0.9125
G1 X69.068 Y81.440 E0.9800
G1 X69.373 Y81.596 E1.0026
G1 X70.302 Y82.124 E1.0730
G1 X70.662 Y82.357 E1.1012
G1 X71.833 Y83.213 E1.1967
G1 X72.164 Y83.484 E1.2249
G1 X72.954 Y84.212 E1.2957
G1 X73.205 Y84.466 E1.3192
G1 X73.972 Y85.321 E1.3948
G1 X74.019 Y85.380 E1.3997
G1 X145.982 Y85.380 E6.1389
G1 X146.028 Y85.323 E6.1437
G1 X146.652 Y84.618 E6.2057
G1 X146.875 Y84.387 E6.2268
G1 X147.668 Y83.632 E6.2990
G1 X147.948 Y83.390 E6.3234
G1 X148.803 Y82.723 E6.3948
G1 X149.156 Y82.479 E6.4230
G1 X150.393 Y81.722 E6.5185
G1 X150.769 Y81.521 E6.5466
G1 X151.661 Y81.106 E6.6113
G1 X151.949 Y80.987 E6.6319
G1 X152.975 Y80.610 E6.7039
G1 X153.332 Y80.498 E6.7285
G1 X154.383 Y80.227 E6.8000
G1 X154.803 Y80.143 E6.8282
G1 X156.240 Y79.943 E6.9237
G1 X156.666 Y79.908 E6.9519
G1 X157.739 Y79.881 E7.0226
G1 X158.093 Y79.888 E7.0459
G1 X159.246 Y79.968 E7.1220
G1 X159.692 Y80.026 E7.1517
G1 X161.170 Y80.308 E7.2507
G1 X161.667 Y80.439 E7.2846
G1 X163.123 Y80.930 E7.3858
G1 X163.598 Y81.127 E7.4196
G1 X164.974 Y81.812 E7.5209
G1 X165.417 Y82.072 E7.5547
G1 X166.687 Y82.939 E7.6560
G1 X167.091 Y83.256 E7.6898
G1 X168.238 Y84.293 E7.7916
G1 X168.605 Y84.676 E7.8265
G1 X169.645 Y85.924 E7.9335
G1 X169.956 Y86.356 E7.9686
G1 X170.769 Y87.671 E8.0704
G1 X171.008 Y88.126 E8.1042
G1 X171.630 Y89.532 E8.2055
G1 X171.806 Y90.015 E8.2393
G1 X172.219 Y91.451 E8.3378
G1 X172.314 Y91.869 E8.3660
G1 X172.490 Y92.919 E8.4361
G1 X172.530 Y93.250 E8.4580
G1 X172.603 Y94.191 E8.5202
G1 X172.614 Y94.517 E8.5417
G1 X172.604 Y95.615 E8.6139
G1 X172.582 Y95.981 E8.6381
G1 X172.472 Y97.011 E8.7064
G1 X172.421 Y97.344 E8.7285
G1 X172.237 Y98.268 E8.7906
G1 X172.161 Y98.580 E8.8117
G1 X171.856 Y99.633 E8.8839
G1 X171.735 Y99.982 E8.9083
G1 X171.349 Y100.948 E8.9767
G1 X171.208 Y101.260 E8.9993
G1 X170.742 Y102.173 E9.0668
G1 X170.573 Y102.471 E9.0894
G1 X169.999 Y103.381 E9.1602
G1 X169.741 Y103.742 E9.1894
G1 X168.777 Y104.932 E9.2903
G1 X168.486 Y105.252 E9.3187
G1 X167.779 Y105.945 E9.3840
G1 X167.539 Y106.161 E9.4052
G1 X167.120 Y106.507 E9.4410
G1 X167.120 Y113.482 E9.9004
