; G-Code generated by Simplify3D(R) Version 4.1.2
; Jun 20, 2022 at 4:14:55 PM
; Settings Summary
;   processName,Process1
;   applyToModels,controller-pcb-mount,controller-pcb-mount(2)
;   profileName,HSBot (modified)
;   profileVersion,2019-11-09 11:59:44
;   baseProfile,Default
;   printMaterial,pla
;   printQuality,Medium
;   printExtruders,
;   extruderName,Extruder - v6,Extruder - lgx ace
;   extruderToolheadNumber,0,1
;   extruderDiameter,0.4,0.4
;   extruderAutoWidth,1,1
;   extruderWidth,0.48,0.48
;   extrusionMultiplier,1.03,1.03
;   extruderUseRetract,0,0
;   extruderRetractionDistance,4,1
;   extruderExtraRestartDistance,0,0
;   extruderRetractionZLift,0,0
;   extruderRetractionSpeed,3600,1800
;   extruderUseCoasting,0,0
;   extruderCoastingDistance,0.2,0.2
;   extruderUseWipe,0,0
;   extruderWipeDistance,1,1
;   primaryExtruder,1
;   layerHeight,0.2
;   topSolidLayers,3
;   bottomSolidLayers,3
;   perimeterOutlines,2
;   printPerimetersInsideOut,1
;   startPointOption,2
;   startPointOriginX,0
;   startPointOriginY,0
;   sequentialIslands,0
;   spiralVaseMode,0
;   firstLayerHeightPercentage,100
;   firstLayerWidthPercentage,150
;   firstLayerUnderspeed,0.25
;   useRaft,0
;   raftExtruder,0
;   raftTopLayers,3
;   raftBaseLayers,2
;   raftOffset,3
;   raftSeparationDistance,0.18
;   raftTopInfill,100
;   aboveRaftSpeedMultiplier,0.3
;   useSkirt,1
;   skirtExtruder,1
;   skirtLayers,1
;   skirtOutlines,5
;   skirtOffset,5
;   usePrimePillar,0
;   primePillarExtruder,999
;   primePillarWidth,12
;   primePillarLocation,7
;   primePillarSpeedMultiplier,1
;   useOozeShield,0
;   oozeShieldExtruder,999
;   oozeShieldOffset,2
;   oozeShieldOutlines,1
;   oozeShieldSidewallShape,1
;   oozeShieldSidewallAngle,30
;   oozeShieldSpeedMultiplier,1
;   infillExtruder,1
;   internalInfillPattern,Fast Honeycomb
;   externalInfillPattern,Rectilinear
;   infillPercentage,15
;   outlineOverlapPercentage,20
;   infillExtrusionWidthPercentage,100
;   minInfillLength,3
;   infillLayerInterval,1
;   internalInfillAngles,0
;   overlapInternalInfillAngles,0
;   externalInfillAngles,45,-45
;   generateSupport,0
;   supportExtruder,1
;   supportInfillPercentage,30
;   supportExtraInflation,0
;   supportBaseLayers,1
;   denseSupportExtruder,0
;   denseSupportLayers,0
;   denseSupportInfillPercentage,70
;   supportLayerInterval,1
;   supportHorizontalPartOffset,0.3
;   supportUpperSeparationLayers,1
;   supportLowerSeparationLayers,1
;   supportType,0
;   supportGridSpacing,2
;   maxOverhangAngle,45
;   supportAngles,0
;   temperatureName,v6,Bed,lgx-ace
;   temperatureNumber,0,0,1
;   temperatureSetpointCount,1,1,1
;   temperatureSetpointLayers,1,1,1
;   temperatureSetpointTemperatures,0,55,217
;   temperatureStabilizeAtStartup,1,1,1
;   temperatureHeatedBed,0,1,0
;   fanLayers,1,2,5
;   fanSpeeds,0,0,0
;   blipFanToFullPower,0
;   adjustSpeedForCooling,1
;   minSpeedLayerTime,15
;   minCoolingSpeedSlowdown,50
;   increaseFanForCooling,0
;   minFanLayerTime,45
;   maxCoolingFanSpeed,70
;   increaseFanForBridging,0
;   bridgingFanSpeed,80
;   use5D,1
;   relativeEdistances,0
;   allowEaxisZeroing,1
;   independentExtruderAxes,0
;   includeM10123,0
;   stickySupport,1
;   applyToolheadOffsets,0
;   gcodeXoffset,0
;   gcodeYoffset,0
;   gcodeZoffset,0
;   overrideMachineDefinition,1
;   machineTypeOverride,0
;   strokeXoverride,220
;   strokeYoverride,220
;   strokeZoverride,150
;   originOffsetXoverride,0
;   originOffsetYoverride,0
;   originOffsetZoverride,0
;   homeXdirOverride,-1
;   homeYdirOverride,-1
;   homeZdirOverride,-1
;   flipXoverride,1
;   flipYoverride,-1
;   flipZoverride,1
;   toolheadOffsets,0,0|0,0|0,0|0,0|0,0|0,0
;   overrideFirmwareConfiguration,0
;   firmwareTypeOverride,RepRap (Marlin/Repetier/Sprinter)
;   GPXconfigOverride,r2
;   baudRateOverride,115200
;   overridePrinterModels,0
;   printerModelsOverride
;   startingGcode,G28 ; home all axes,G32 ; run bed.g -- probe bed and enable compensation
;   layerChangeGcode,
;   retractionGcode,
;   toolChangeGcode,
;   endingGcode,M0 ; call stop.g
;   exportFileFormat,gcode
;   celebration,0
;   celebrationSong,Random Song
;   postProcessing,|; 0.2mm layer, 8 bands 5mm each, total height 40mm|{REPLACE "; layer 25" "M572 D0 S0.69\n; layer 10"}|{REPLACE "; layer 50" "M572 D0 S0.70\n; layer 50"}|{REPLACE "; layer 75" "M572 D0 S0.71\n; layer 75"}|{REPLACE "; layer 100" "M572 D0 S0.72\n; layer 100"}|{REPLACE "; layer 125" "M572 D0 S0.73\n; layer 125"}|{REPLACE "; layer 150" "M572 D0 S0.74\n; layer 150"}|{REPLACE "; layer 175" "M572 D0 S0.75\n; layer 175"}|{REPLACE "; layer 200" "M572 D0 S0.76\n; layer 200"}
;   defaultSpeed,4800
;   outlineUnderspeed,0.8
;   solidInfillUnderspeed,0.75
;   supportUnderspeed,0.8
;   rapidXYspeed,18000
;   rapidZspeed,1200
;   minBridgingArea,50
;   bridgingExtraInflation,0
;   bridgingExtrusionMultiplier,0.96
;   bridgingSpeedMultiplier,1
;   useFixedBridgingAngle,0
;   fixedBridgingAngle,0
;   applyBridgingToPerimeters,0
;   filamentDiameters,1.75|1.75|1.75|1.75|1.75|1.75
;   filamentPricesPerKg,25|46|46|46|46|46
;   filamentDensities,1.29|1.25|1.25|1.25|1.25|1.25
;   useMinPrintHeight,0
;   minPrintHeight,0.3
;   useMaxPrintHeight,0
;   maxPrintHeight,5
;   useDiaphragm,1
;   diaphragmLayerInterval,20
;   robustSlicing,1
;   mergeAllIntoSolid,0
;   onlyRetractWhenCrossingOutline,1
;   retractBetweenLayers,0
;   useRetractionMinTravel,1
;   retractionMinTravel,5
;   retractWhileWiping,1
;   onlyWipeOutlines,1
;   avoidCrossingOutline,1
;   maxMovementDetourFactor,2
;   toolChangeRetractionDistance,12
;   toolChangeExtraRestartDistance,0
;   toolChangeRetractionSpeed,600
;   externalThinWallType,0
;   internalThinWallType,2
;   thinWallAllowedOverlapPercentage,10
;   singleExtrusionMinLength,0.1
;   singleExtrusionMinPrintingWidthPercentage,50
;   singleExtrusionMaxPrintingWidthPercentage,200
;   singleExtrusionEndpointExtension,0.2
;   horizontalSizeCompensation,0
G90
M82
M106 S0
M140 S55
M190 S55
G10 S0 R{0-50} P0
G10 S217 R{217-50} P1
M116 P1
G28 ; home all axes
G32 ; run bed.g -- probe bed and enable compensation
; process Process1
; layer 1, Z = 0.200
T1
; feature skirt
; tool H0.200 W0.720
G1 Z0.200 F1200
G1 X91.303 Y86.836 F18000
G92 E0.0000
G1 X92.072 Y86.051 E0.0678 F1200
G1 X92.323 Y85.814 E0.0890
G1 X93.155 Y85.096 E0.1568
G1 X93.426 Y84.882 E0.1781
G1 X94.315 Y84.236 E0.2459
G1 X94.602 Y84.045 E0.2672
G1 X95.542 Y83.476 E0.3349
G1 X95.845 Y83.309 E0.3562
G1 X96.829 Y82.821 E0.4240
G1 X97.144 Y82.680 E0.4453
G1 X98.166 Y82.276 E0.5130
G1 X98.492 Y82.162 E0.5343
G1 X99.544 Y81.845 E0.6021
G1 X99.879 Y81.759 E0.6234
G1 X100.954 Y81.530 E0.6911
G1 X101.294 Y81.473 E0.7124
G1 X102.384 Y81.335 E0.7802
G1 X102.728 Y81.306 E0.8015
G1 X103.740 Y81.264 E0.8639
G1 X103.913 Y81.260 E0.8746
G1 X128.412 Y81.260 E2.3853
G1 X133.239 Y86.087 E2.8062
G1 X133.239 Y99.416 E3.6282
G1 X128.411 Y104.243 E4.0492
G1 X124.155 Y104.242 E4.3116
G1 X124.155 Y109.086 E4.6103
G1 X124.155 Y115.758 E5.0217
G1 X128.411 Y115.757 E5.2841
G1 X133.239 Y120.584 E5.7052
G1 X133.239 Y133.913 E6.5271
G1 X128.412 Y138.740 E6.9480
G1 X103.913 Y138.740 E8.4588
G1 X103.740 Y138.736 E8.4694
G1 X102.728 Y138.694 E8.5318
G1 X102.384 Y138.665 E8.5531
G1 X101.294 Y138.527 E8.6209
G1 X100.954 Y138.470 E8.6422
G1 X99.879 Y138.241 E8.7099
G1 X99.544 Y138.155 E8.7312
G1 X98.492 Y137.838 E8.7990
G1 X98.166 Y137.724 E8.8203
G1 X97.144 Y137.320 E8.8881
G1 X96.829 Y137.179 E8.9093
G1 X95.845 Y136.691 E8.9771
G1 X95.542 Y136.524 E8.9984
G1 X94.565 Y135.933 E9.0688
G1 X94.209 Y135.690 E9.0954
G1 X92.964 Y134.746 E9.1917
G1 X92.635 Y134.467 E9.2183
G1 X91.802 Y133.686 E9.2888
G1 X91.561 Y133.439 E9.3101
G1 X90.825 Y132.622 E9.3778
G1 X90.605 Y132.356 E9.3991
G1 X89.941 Y131.481 E9.4669
G1 X89.744 Y131.198 E9.4882
G1 X89.132 Y130.233 E9.5586
G1 X88.920 Y129.857 E9.5852
G1 X88.226 Y128.458 E9.6815
G1 X88.054 Y128.062 E9.7081
G1 X87.641 Y126.951 E9.7812
G1 X87.512 Y126.539 E9.8078
G1 X87.124 Y125.027 E9.9041
G1 X87.038 Y124.604 E9.9307
G1 X86.871 Y123.474 E10.0012
G1 X86.835 Y123.130 E10.0225
G1 X86.764 Y121.991 E10.0929
G1 X86.759 Y121.559 E10.1195
G1 X86.825 Y119.999 E10.2158
G1 X86.865 Y119.569 E10.2424
G1 X87.032 Y118.439 E10.3128
G1 X87.097 Y118.100 E10.3341
G1 X87.348 Y117.030 E10.4019
G1 X87.441 Y116.698 E10.4232
G1 X87.780 Y115.652 E10.4910
G1 X87.900 Y115.329 E10.5122
G1 X88.343 Y114.276 E10.5827
G1 X88.531 Y113.887 E10.6093
G1 X89.304 Y112.481 E10.7082
G1 X89.582 Y112.044 E10.7402
G1 X90.525 Y110.745 E10.8392
G1 X90.796 Y110.410 E10.8658
G1 X91.170 Y109.995 E10.9002
G1 X90.423 Y109.130 E10.9707
G1 X90.110 Y108.717 E11.0026
G1 X89.222 Y107.380 E11.1016
G1 X89.002 Y107.009 E11.1282
G1 X88.473 Y105.997 E11.1986
G1 X88.326 Y105.684 E11.2199
G1 X87.884 Y104.631 E11.2904
G1 X87.738 Y104.225 E11.3170
G1 X87.274 Y102.689 E11.4159
G1 X87.155 Y102.185 E11.4479
G1 X86.888 Y100.602 E11.5468
G1 X86.838 Y100.174 E11.5734
G1 X86.766 Y99.034 E11.6439
G1 X86.759 Y98.688 E11.6652
G1 X86.782 Y97.590 E11.7329
G1 X86.804 Y97.245 E11.7542
G1 X86.919 Y96.152 E11.8220
G1 X86.969 Y95.811 E11.8433
G1 X87.175 Y94.731 E11.9110
G1 X87.254 Y94.395 E11.9323
G1 X87.549 Y93.337 E12.0001
G1 X87.656 Y93.008 E12.0214
G1 X88.039 Y91.978 E12.0891
G1 X88.173 Y91.660 E12.1104
G1 X88.641 Y90.666 E12.1782
G1 X88.801 Y90.360 E12.1995
G1 X89.350 Y89.408 E12.2673
G1 X89.535 Y89.117 E12.2885
G1 X90.162 Y88.214 E12.3563
G1 X90.371 Y87.939 E12.3776
G1 X91.072 Y87.092 E12.4454
G1 X91.303 Y86.836 E12.4667
G1 X91.828 Y87.329 F18000
G92 E0.0000
G1 X92.575 Y86.565 E0.0659 F1200
G1 X92.805 Y86.350 E0.0853
G1 X93.614 Y85.651 E0.1512
G1 X93.861 Y85.456 E0.1707
G1 X94.726 Y84.827 E0.2366
G1 X94.988 Y84.653 E0.2560
G1 X95.902 Y84.099 E0.3219
G1 X96.178 Y83.948 E0.3413
G1 X97.136 Y83.472 E0.4072
G1 X97.424 Y83.344 E0.4267
G1 X98.417 Y82.951 E0.4926
G1 X98.715 Y82.847 E0.5120
G1 X99.738 Y82.538 E0.5779
G1 X100.043 Y82.460 E0.5973
G1 X101.089 Y82.238 E0.6632
G1 X101.399 Y82.185 E0.6827
G1 X102.460 Y82.051 E0.7486
G1 X102.774 Y82.025 E0.7680
G1 X103.763 Y81.983 E0.8291
G1 X103.920 Y81.980 E0.8388
G1 X128.114 Y81.980 E2.3306
G1 X132.519 Y86.385 E2.7148
G1 X132.519 Y99.118 E3.4999
G1 X128.113 Y103.523 E3.8842
G1 X123.435 Y103.522 E4.1726
G1 X123.435 Y109.384 E4.5341
G1 X123.435 Y116.478 E4.9715
G1 X128.113 Y116.477 E5.2600
G1 X132.519 Y120.882 E5.6442
G1 X132.519 Y133.615 E6.4293
G1 X128.114 Y138.020 E6.8135
G1 X103.920 Y138.020 E8.3054
G1 X103.763 Y138.017 E8.3151
G1 X102.774 Y137.975 E8.3761
G1 X102.460 Y137.949 E8.3956
G1 X101.399 Y137.815 E8.4615
G1 X101.089 Y137.762 E8.4809
G1 X100.043 Y137.540 E8.5468
G1 X99.738 Y137.462 E8.5662
G1 X98.715 Y137.153 E8.6321
G1 X98.417 Y137.049 E8.6516
G1 X97.424 Y136.656 E8.7175
G1 X97.136 Y136.528 E8.7369
G1 X96.178 Y136.052 E8.8028
G1 X95.902 Y135.901 E8.8222
G1 X94.955 Y135.327 E8.8906
G1 X94.629 Y135.105 E8.9149
G1 X93.415 Y134.184 E9.0088
G1 X93.114 Y133.930 E9.0331
G1 X92.306 Y133.171 E9.1015
G1 X92.086 Y132.946 E9.1209
G1 X91.371 Y132.152 E9.1868
G1 X91.170 Y131.909 E9.2062
G1 X90.524 Y131.058 E9.2721
G1 X90.344 Y130.799 E9.2915
G1 X89.750 Y129.863 E9.3599
G1 X89.557 Y129.520 E9.3842
G1 X88.879 Y128.155 E9.4782
G1 X88.722 Y127.793 E9.5025
G1 X88.322 Y126.718 E9.5732
G1 X88.205 Y126.342 E9.5975
G1 X87.826 Y124.866 E9.6915
G1 X87.748 Y124.480 E9.7158
G1 X87.586 Y123.383 E9.7841
G1 X87.553 Y123.070 E9.8035
G1 X87.483 Y121.964 E9.8719
G1 X87.479 Y121.570 E9.8961
G1 X87.543 Y120.048 E9.9901
G1 X87.580 Y119.656 E10.0144
G1 X87.742 Y118.559 E10.0828
G1 X87.801 Y118.250 E10.1022
G1 X88.045 Y117.209 E10.1681
G1 X88.130 Y116.906 E10.1875
G1 X88.460 Y115.889 E10.2534
G1 X88.570 Y115.594 E10.2728
G1 X88.999 Y114.572 E10.3412
G1 X89.171 Y114.218 E10.3655
G1 X89.924 Y112.848 E10.4619
G1 X90.177 Y112.449 E10.4910
G1 X91.096 Y111.184 E10.5874
G1 X91.344 Y110.878 E10.6117
G1 X92.086 Y110.054 E10.6801
G1 X92.139 Y110.000 E10.6848
G1 X92.005 Y109.860 E10.6967
G1 X90.983 Y108.676 E10.7931
G1 X90.697 Y108.300 E10.8223
G1 X89.832 Y106.998 E10.9187
G1 X89.632 Y106.658 E10.9430
G1 X89.118 Y105.676 E11.0113
G1 X88.984 Y105.391 E11.0307
G1 X88.555 Y104.370 E11.0991
G1 X88.421 Y103.999 E11.1233
G1 X87.969 Y102.502 E11.2198
G1 X87.862 Y102.042 E11.2489
G1 X87.601 Y100.501 E11.3453
G1 X87.556 Y100.109 E11.3696
G1 X87.486 Y99.003 E11.4379
G1 X87.479 Y98.688 E11.4574
G1 X87.502 Y97.620 E11.5233
G1 X87.522 Y97.305 E11.5427
G1 X87.633 Y96.243 E11.6086
G1 X87.679 Y95.931 E11.6280
G1 X87.879 Y94.881 E11.6939
G1 X87.951 Y94.574 E11.7134
G1 X88.239 Y93.545 E11.7793
G1 X88.336 Y93.245 E11.7987
G1 X88.709 Y92.243 E11.8646
G1 X88.831 Y91.953 E11.8840
G1 X89.286 Y90.986 E11.9499
G1 X89.432 Y90.707 E11.9694
G1 X89.966 Y89.781 E12.0353
G1 X90.135 Y89.515 E12.0547
G1 X90.745 Y88.637 E12.1206
G1 X90.936 Y88.387 E12.1400
G1 X91.617 Y87.563 E12.2059
G1 X91.828 Y87.329 E12.2254
G1 X92.353 Y87.822 F18000
G92 E0.0000
G1 X93.079 Y87.080 E0.0640 F1200
G1 X93.287 Y86.885 E0.0816
G1 X94.073 Y86.206 E0.1457
G1 X94.296 Y86.029 E0.1632
G1 X95.137 Y85.419 E0.2273
G1 X95.374 Y85.261 E0.2448
G1 X96.263 Y84.723 E0.3089
G1 X96.512 Y84.586 E0.3265
G1 X97.442 Y84.124 E0.3905
G1 X97.703 Y84.008 E0.4081
G1 X98.668 Y83.626 E0.4721
G1 X98.937 Y83.532 E0.4897
G1 X99.932 Y83.232 E0.5537
G1 X100.208 Y83.161 E0.5713
G1 X101.224 Y82.945 E0.6353
G1 X101.504 Y82.897 E0.6529
G1 X102.535 Y82.767 E0.7170
G1 X102.819 Y82.743 E0.7345
G1 X103.785 Y82.703 E0.7942
G1 X103.928 Y82.700 E0.8030
G1 X127.816 Y82.700 E2.2760
G1 X131.799 Y86.683 E2.6234
G1 X131.799 Y98.819 E3.3717
G1 X127.814 Y102.803 E3.7191
G1 X122.715 Y102.802 E4.0336
G1 X122.715 Y109.682 E4.4579
G1 X122.715 Y117.198 E4.9214
G1 X127.815 Y117.197 E5.2358
G1 X131.799 Y121.181 E5.5833
G1 X131.799 Y133.317 E6.3316
G1 X127.816 Y137.300 E6.6790
G1 X103.928 Y137.300 E8.1520
G1 X103.785 Y137.297 E8.1608
G1 X102.819 Y137.256 E8.2204
G1 X102.535 Y137.233 E8.2380
G1 X101.504 Y137.102 E8.3021
G1 X101.224 Y137.055 E8.3196
G1 X100.208 Y136.839 E8.3837
G1 X99.932 Y136.768 E8.4012
G1 X98.937 Y136.468 E8.4653
G1 X98.668 Y136.374 E8.4829
G1 X97.703 Y135.992 E8.5469
G1 X97.442 Y135.876 E8.5645
G1 X96.512 Y135.414 E8.6285
G1 X96.263 Y135.277 E8.6461
G1 X95.344 Y134.721 E8.7123
G1 X95.049 Y134.520 E8.7343
G1 X93.865 Y133.622 E8.8259
G1 X93.593 Y133.392 E8.8479
G1 X92.810 Y132.656 E8.9141
G1 X92.611 Y132.453 E8.9317
G1 X91.916 Y131.681 E8.9958
G1 X91.734 Y131.462 E9.0133
G1 X91.106 Y130.634 E9.0774
G1 X90.944 Y130.400 E9.0949
G1 X90.368 Y129.493 E9.1612
G1 X90.193 Y129.183 E9.1831
G1 X89.532 Y127.852 E9.2748
G1 X89.391 Y127.525 E9.2968
G1 X89.004 Y126.484 E9.3652
G1 X88.897 Y126.145 E9.3872
G1 X88.528 Y124.705 E9.4788
G1 X88.457 Y124.356 E9.5008
G1 X88.300 Y123.293 E9.5670
G1 X88.271 Y123.010 E9.5846
G1 X88.203 Y121.938 E9.6508
G1 X88.199 Y121.582 E9.6728
G1 X88.262 Y120.097 E9.7644
G1 X88.295 Y119.742 E9.7864
G1 X88.452 Y118.679 E9.8527
G1 X88.506 Y118.399 E9.8702
G1 X88.743 Y117.388 E9.9343
G1 X88.819 Y117.114 E9.9518
G1 X89.140 Y116.126 E10.0159
G1 X89.240 Y115.859 E10.0334
G1 X89.656 Y114.869 E10.0997
G1 X89.811 Y114.548 E10.1216
G1 X90.544 Y113.214 E10.2155
G1 X90.773 Y112.853 E10.2419
G1 X91.668 Y111.622 E10.3357
G1 X91.892 Y111.345 E10.3577
G1 X92.611 Y110.547 E10.4239
G1 X92.810 Y110.344 E10.4415
G1 X93.176 Y110.000 E10.4724
G1 X92.784 Y109.632 E10.5056
G1 X92.538 Y109.375 E10.5275
G1 X91.543 Y108.223 E10.6214
G1 X91.285 Y107.882 E10.6477
G1 X90.442 Y106.615 E10.7416
G1 X90.261 Y106.308 E10.7636
G1 X89.763 Y105.356 E10.8298
G1 X89.642 Y105.098 E10.8474
G1 X89.226 Y104.108 E10.9136
G1 X89.105 Y103.773 E10.9356
G1 X88.665 Y102.316 E11.0294
G1 X88.568 Y101.900 E11.0558
G1 X88.314 Y100.399 E11.1496
G1 X88.273 Y100.045 E11.1716
G1 X88.205 Y98.973 E11.2378
G1 X88.199 Y98.688 E11.2554
G1 X88.221 Y97.650 E11.3195
G1 X88.239 Y97.366 E11.3370
G1 X88.348 Y96.333 E11.4011
G1 X88.389 Y96.051 E11.4186
G1 X88.584 Y95.031 E11.4827
G1 X88.649 Y94.753 E11.5002
G1 X88.928 Y93.753 E11.5643
G1 X89.016 Y93.482 E11.5819
G1 X89.378 Y92.509 E11.6459
G1 X89.489 Y92.246 E11.6635
G1 X89.931 Y91.306 E11.7275
