; G-Code generated by Simplify3D(R) Version 4.1.2
; May 30, 2022 at 4:31:45 PM
; Settings Summary
;   processName,Process1
;   applyToModels,glaitlager-klaemme-aussen
;   profileName,HSBot (modified)
;   profileVersion,2019-11-09 11:59:44
;   baseProfile,Default
;   printMaterial,pla
;   printQuality,Medium
;   printExtruders,
;   extruderName,Extruder 1,Extruder - Lite
;   extruderToolheadNumber,0,1
;   extruderDiameter,0.4,0.4
;   extruderAutoWidth,1,1
;   extruderWidth,0.48,0.48
;   extrusionMultiplier,1,0.93
;   extruderUseRetract,1,1
;   extruderRetractionDistance,2,1
;   extruderExtraRestartDistance,0,0
;   extruderRetractionZLift,0,0
;   extruderRetractionSpeed,3600,1800
;   extruderUseCoasting,1,0
;   extruderCoastingDistance,0.2,0.2
;   extruderUseWipe,1,0
;   extruderWipeDistance,2,5
;   primaryExtruder,0
;   layerHeight,0.2
;   topSolidLayers,3
;   bottomSolidLayers,3
;   perimeterOutlines,4
;   printPerimetersInsideOut,1
;   startPointOption,2
;   startPointOriginX,0
;   startPointOriginY,0
;   sequentialIslands,0
;   spiralVaseMode,0
;   firstLayerHeightPercentage,150
;   firstLayerWidthPercentage,150
;   firstLayerUnderspeed,0.5
;   useRaft,0
;   raftExtruder,0
;   raftTopLayers,3
;   raftBaseLayers,2
;   raftOffset,3
;   raftSeparationDistance,0.18
;   raftTopInfill,100
;   aboveRaftSpeedMultiplier,0.3
;   useSkirt,1
;   skirtExtruder,0
;   skirtLayers,1
;   skirtOutlines,5
;   skirtOffset,0
;   usePrimePillar,0
;   primePillarExtruder,999
;   primePillarWidth,12
;   primePillarLocation,7
;   primePillarSpeedMultiplier,1
;   useOozeShield,0
;   oozeShieldExtruder,999
;   oozeShieldOffset,2
;   oozeShieldOutlines,1
;   oozeShieldSidewallShape,1
;   oozeShieldSidewallAngle,30
;   oozeShieldSpeedMultiplier,1
;   infillExtruder,0
;   internalInfillPattern,Full Honeycomb
;   externalInfillPattern,Rectilinear
;   infillPercentage,20
;   outlineOverlapPercentage,15
;   infillExtrusionWidthPercentage,100
;   minInfillLength,5
;   infillLayerInterval,1
;   internalInfillAngles,0,120,-120
;   overlapInternalInfillAngles,0
;   externalInfillAngles,45,-45
;   generateSupport,0
;   supportExtruder,0
;   supportInfillPercentage,30
;   supportExtraInflation,0
;   supportBaseLayers,1
;   denseSupportExtruder,0
;   denseSupportLayers,0
;   denseSupportInfillPercentage,70
;   supportLayerInterval,1
;   supportHorizontalPartOffset,0.3
;   supportUpperSeparationLayers,1
;   supportLowerSeparationLayers,1
;   supportType,0
;   supportGridSpacing,2
;   maxOverhangAngle,45
;   supportAngles,0
;   temperatureName,Extruder 1,Bed
;   temperatureNumber,0,0
;   temperatureSetpointCount,1,1
;   temperatureSetpointLayers,1,1
;   temperatureSetpointTemperatures,217,55
;   temperatureStabilizeAtStartup,1,1
;   temperatureHeatedBed,0,1
;   fanLayers,1,2,5
;   fanSpeeds,0,15,50
;   blipFanToFullPower,1
;   adjustSpeedForCooling,0
;   minSpeedLayerTime,15
;   minCoolingSpeedSlowdown,20
;   increaseFanForCooling,1
;   minFanLayerTime,45
;   maxCoolingFanSpeed,40
;   increaseFanForBridging,1
;   bridgingFanSpeed,80
;   use5D,1
;   relativeEdistances,0
;   allowEaxisZeroing,1
;   independentExtruderAxes,0
;   includeM10123,0
;   stickySupport,1
;   applyToolheadOffsets,0
;   gcodeXoffset,0
;   gcodeYoffset,0
;   gcodeZoffset,0
;   overrideMachineDefinition,1
;   machineTypeOverride,0
;   strokeXoverride,220
;   strokeYoverride,220
;   strokeZoverride,150
;   originOffsetXoverride,0
;   originOffsetYoverride,0
;   originOffsetZoverride,0
;   homeXdirOverride,-1
;   homeYdirOverride,-1
;   homeZdirOverride,-1
;   flipXoverride,1
;   flipYoverride,-1
;   flipZoverride,1
;   toolheadOffsets,0,0|0,0|0,0|0,0|0,0|0,0
;   overrideFirmwareConfiguration,0
;   firmwareTypeOverride,RepRap (Marlin/Repetier/Sprinter)
;   GPXconfigOverride,r2
;   baudRateOverride,115200
;   overridePrinterModels,0
;   printerModelsOverride
;   startingGcode,G28 ; home all axes,G32 ; run bed.g -- probe bed and enable compensation
;   layerChangeGcode,
;   retractionGcode,
;   toolChangeGcode,
;   endingGcode,M0 ; call stop.g
;   exportFileFormat,gcode
;   celebration,0
;   celebrationSong,Random Song
;   postProcessing,
;   defaultSpeed,4800
;   outlineUnderspeed,1
;   solidInfillUnderspeed,0.8
;   supportUnderspeed,0.8
;   rapidXYspeed,18000
;   rapidZspeed,1200
;   minBridgingArea,50
;   bridgingExtraInflation,0
;   bridgingExtrusionMultiplier,0.96
;   bridgingSpeedMultiplier,1
;   useFixedBridgingAngle,0
;   fixedBridgingAngle,0
;   applyBridgingToPerimeters,0
;   filamentDiameters,1.75|1.75|1.75|1.75|1.75|1.75
;   filamentPricesPerKg,25|46|46|46|46|46
;   filamentDensities,1.29|1.25|1.25|1.25|1.25|1.25
;   useMinPrintHeight,0
;   minPrintHeight,0.3
;   useMaxPrintHeight,0
;   maxPrintHeight,5
;   useDiaphragm,1
;   diaphragmLayerInterval,20
;   robustSlicing,1
;   mergeAllIntoSolid,0
;   onlyRetractWhenCrossingOutline,1
;   retractBetweenLayers,0
;   useRetractionMinTravel,1
;   retractionMinTravel,5
;   retractWhileWiping,1
;   onlyWipeOutlines,1
;   avoidCrossingOutline,1
;   maxMovementDetourFactor,5
;   toolChangeRetractionDistance,12
;   toolChangeExtraRestartDistance,0
;   toolChangeRetractionSpeed,600
;   externalThinWallType,1
;   internalThinWallType,1
;   thinWallAllowedOverlapPercentage,10
;   singleExtrusionMinLength,0.1
;   singleExtrusionMinPrintingWidthPercentage,50
;   singleExtrusionMaxPrintingWidthPercentage,200
;   singleExtrusionEndpointExtension,0.2
;   horizontalSizeCompensation,0
G90
M82
M106 S255
G4 P500
M106 S102
M140 S55
M190 S55
G10 S217 R{217-50} P0
M116 P0
G28 ; home all axes
G32 ; run bed.g -- probe bed and enable compensation
; process Process1
; layer 1, Z = 0.300
T0
G92 E0.0000
G1 E-2.0000 F3600
; feature skirt
; tool H0.300 W0.720
G1 Z0.300 F1200
G1 X85.487 Y103.186 F18000
G1 E0.0000 F3600
G92 E0.0000
G1 X86.351 Y102.510 E0.0985 F2400
G1 X86.525 Y102.392 E0.1174
G1 X87.209 Y101.987 E0.1887
G1 X87.357 Y101.909 E0.2038
G1 X87.965 Y101.630 E0.2639
G1 X88.100 Y101.576 E0.2769
G1 X88.917 Y101.286 E0.3548
G1 X89.100 Y101.233 E0.3719
G1 X89.892 Y101.053 E0.4449
G1 X90.110 Y101.019 E0.4647
G1 X91.289 Y100.916 E0.5709
G1 X91.430 Y100.910 E0.5836
G1 X128.563 Y100.910 E3.9182
G1 X128.688 Y100.915 E3.9295
G1 X129.759 Y100.998 E4.0259
G1 X129.960 Y101.027 E4.0442
G1 X130.639 Y101.167 E4.1064
G1 X130.790 Y101.206 E4.1204
G1 X131.642 Y101.469 E4.2005
G1 X131.854 Y101.552 E4.2210
G1 X132.875 Y102.033 E4.3223
G1 X133.058 Y102.134 E4.3411
G1 X133.745 Y102.575 E4.4144
G1 X133.914 Y102.699 E4.4333
G1 X134.786 Y103.433 E4.5356
G1 X134.966 Y103.610 E4.5582
G1 X135.727 Y104.486 E4.6624
G1 X135.877 Y104.688 E4.6850
G1 X136.482 Y105.654 E4.7874
G1 X136.582 Y105.839 E4.8063
G1 X136.870 Y106.466 E4.8682
G1 X136.925 Y106.600 E4.8813
G1 X137.221 Y107.437 E4.9610
G1 X137.283 Y107.662 E4.9819
G1 X137.509 Y108.791 E5.0854
G1 X137.539 Y109.041 E5.1080
G1 X137.587 Y110.205 E5.2126
G1 X137.577 Y110.466 E5.2361
G1 X137.428 Y111.703 E5.3479
G1 X137.385 Y111.925 E5.3682
G1 X137.174 Y112.722 E5.4422
G1 X137.107 Y112.921 E5.4611
G1 X136.675 Y113.975 E5.5634
G1 X136.562 Y114.201 E5.5861
G1 X135.961 Y115.193 E5.6902
G1 X135.815 Y115.398 E5.7129
G1 X135.067 Y116.286 E5.8172
G1 X134.890 Y116.466 E5.8398
G1 X134.046 Y117.199 E5.9402
G1 X133.914 Y117.302 E5.9552
G1 X133.528 Y117.574 E5.9976
G1 X133.385 Y117.663 E6.0127
G1 X132.427 Y118.197 E6.1112
G1 X132.237 Y118.287 E6.1301
G1 X131.479 Y118.588 E6.2034
G1 X131.279 Y118.653 E6.2222
G1 X130.170 Y118.935 E6.3250
G1 X129.911 Y118.979 E6.3486
G1 X128.711 Y119.084 E6.4568
G1 X128.570 Y119.090 E6.4694
G1 X91.437 Y119.090 E9.8040
G1 X91.312 Y119.085 E9.8154
G1 X90.217 Y119.000 E9.9139
G1 X89.968 Y118.961 E9.9366
G1 X88.839 Y118.693 E10.0408
G1 X88.599 Y118.615 E10.0635
G1 X87.525 Y118.175 E10.1677
G1 X87.300 Y118.062 E10.1903
G1 X86.307 Y117.461 E10.2945
G1 X86.102 Y117.315 E10.3171
G1 X85.214 Y116.567 E10.4214
G1 X85.034 Y116.390 E10.4440
G1 X84.273 Y115.514 E10.5482
G1 X84.123 Y115.312 E10.5709
G1 X83.506 Y114.328 E10.6751
G1 X83.390 Y114.105 E10.6978
G1 X82.933 Y113.038 E10.8019
G1 X82.852 Y112.800 E10.8246
G1 X82.576 Y111.715 E10.9251
G1 X82.543 Y111.551 E10.9401
G1 X82.475 Y111.085 E10.9824
G1 X82.460 Y110.917 E10.9975
G1 X82.413 Y109.796 E11.0983
G1 X82.423 Y109.534 E11.1218
G1 X82.572 Y108.296 E11.2338
G1 X82.615 Y108.075 E11.2541
G1 X82.826 Y107.278 E11.3281
G1 X82.893 Y107.079 E11.3469
G1 X83.325 Y106.025 E11.4493
G1 X83.438 Y105.800 E11.4719
G1 X84.039 Y104.807 E11.5761
G1 X84.186 Y104.602 E11.5987
G1 X84.906 Y103.746 E11.6992
G1 X85.021 Y103.624 E11.7143
G1 X85.360 Y103.296 E11.7566
G1 X85.487 Y103.186 E11.7717
G1 X85.945 Y103.742 F18000
G92 E0.0000
G1 X86.776 Y103.092 E0.0948 F2400
G1 X86.911 Y103.000 E0.1094
G1 X87.559 Y102.616 E0.1770
G1 X87.675 Y102.556 E0.1888
G1 X88.251 Y102.291 E0.2457
G1 X88.356 Y102.249 E0.2558
G1 X89.138 Y101.971 E0.3304
G1 X89.280 Y101.930 E0.3437
G1 X90.028 Y101.761 E0.4125
G1 X90.197 Y101.734 E0.4279
G1 X91.336 Y101.635 E0.5305
G1 X91.445 Y101.630 E0.5404
G1 X128.549 Y101.630 E3.8724
G1 X128.647 Y101.634 E3.8812
G1 X129.680 Y101.714 E3.9743
G1 X129.837 Y101.736 E3.9885
G1 X130.476 Y101.868 E4.0471
G1 X130.594 Y101.899 E4.0580
G1 X131.405 Y102.149 E4.1342
G1 X131.570 Y102.214 E4.1502
G1 X132.546 Y102.674 E4.2471
G1 X132.689 Y102.753 E4.2618
G1 X133.337 Y103.168 E4.3308
G1 X133.468 Y103.265 E4.3455
G1 X134.301 Y103.966 E4.4432
G1 X134.441 Y104.103 E4.4608
G1 X135.165 Y104.937 E4.5600
G1 X135.282 Y105.094 E4.5776
G1 X135.860 Y106.017 E4.6754
G1 X135.938 Y106.160 E4.6900
G1 X136.209 Y106.751 E4.7484
G1 X136.251 Y106.856 E4.7586
G1 X136.534 Y107.654 E4.8346
G1 X136.582 Y107.828 E4.8508
G1 X136.797 Y108.904 E4.9494
G1 X136.820 Y109.099 E4.9670
G1 X136.867 Y110.206 E5.0665
G1 X136.859 Y110.409 E5.0847
G1 X136.716 Y111.592 E5.1917
G1 X136.683 Y111.765 E5.2075
G1 X136.484 Y112.515 E5.2772
G1 X136.432 Y112.669 E5.2919
G1 X136.020 Y113.677 E5.3896
G1 X135.932 Y113.852 E5.4072
G1 X135.360 Y114.796 E5.5063
G1 X135.246 Y114.956 E5.5239
G1 X134.534 Y115.801 E5.6232
G1 X134.397 Y115.941 E5.6408
G1 X133.588 Y116.643 E5.7370
G1 X133.485 Y116.724 E5.7487
G1 X133.129 Y116.973 E5.7877
G1 X133.019 Y117.043 E5.7995
G1 X132.097 Y117.556 E5.8942
G1 X131.949 Y117.626 E5.9089
G1 X131.235 Y117.911 E5.9780
G1 X131.079 Y117.961 E5.9926
G1 X130.021 Y118.230 E6.0907
G1 X129.820 Y118.264 E6.1090
G1 X128.664 Y118.365 E6.2132
G1 X128.555 Y118.370 E6.2230
G1 X91.451 Y118.370 E9.5550
G1 X91.353 Y118.366 E9.5638
G1 X90.301 Y118.284 E9.6586
G1 X90.107 Y118.254 E9.6762
G1 X89.032 Y117.999 E9.7754
G1 X88.846 Y117.939 E9.7930
G1 X87.824 Y117.520 E9.8922
G1 X87.648 Y117.432 E9.9098
G1 X86.704 Y116.860 E10.0090
G1 X86.544 Y116.746 E10.0266
G1 X85.699 Y116.034 E10.1258
G1 X85.559 Y115.897 E10.1434
G1 X84.835 Y115.063 E10.2426
G1 X84.718 Y114.906 E10.2602
G1 X84.131 Y113.969 E10.3594
G1 X84.040 Y113.796 E10.3770
G1 X83.606 Y112.781 E10.4762
G1 X83.543 Y112.595 E10.4938
G1 X83.279 Y111.556 E10.5901
G1 X83.253 Y111.428 E10.6018
G1 X83.190 Y110.999 E10.6407
G1 X83.178 Y110.869 E10.6525
G1 X83.133 Y109.795 E10.7490
G1 X83.141 Y109.591 E10.7673
G1 X83.284 Y108.408 E10.8744
G1 X83.317 Y108.235 E10.8901
G1 X83.516 Y107.485 E10.9598
G1 X83.568 Y107.330 E10.9745
G1 X83.980 Y106.323 E11.0722
G1 X84.068 Y106.148 E11.0898
G1 X84.640 Y105.204 E11.1890
G1 X84.754 Y105.044 E11.2066
G1 X85.445 Y104.224 E11.3028
G1 X85.534 Y104.129 E11.3146
G1 X85.846 Y103.827 E11.3535
G1 X85.945 Y103.742 E11.3653
G1 X86.403 Y104.297 F18000
G92 E0.0000
G1 X87.201 Y103.673 E0.0910 F2400
G1 X87.298 Y103.607 E0.1015
G1 X87.910 Y103.246 E0.1653
G1 X87.992 Y103.202 E0.1737
G1 X88.537 Y102.952 E0.2275
G1 X88.611 Y102.922 E0.2347
G1 X89.359 Y102.657 E0.3059
G1 X89.460 Y102.628 E0.3154
G1 X90.163 Y102.468 E0.3801
G1 X90.284 Y102.449 E0.3911
G1 X91.383 Y102.353 E0.4902
G1 X91.461 Y102.350 E0.4972
G1 X128.535 Y102.350 E3.8265
G1 X128.605 Y102.353 E3.8328
G1 X129.602 Y102.430 E3.9226
G1 X129.714 Y102.446 E3.9328
G1 X130.314 Y102.570 E3.9878
G1 X130.398 Y102.592 E3.9956
G1 X131.168 Y102.830 E4.0680
G1 X131.286 Y102.876 E4.0794
G1 X132.218 Y103.315 E4.1719
G1 X132.320 Y103.372 E4.1824
G1 X132.929 Y103.762 E4.2473
G1 X133.023 Y103.831 E4.2577
G1 X133.816 Y104.499 E4.3509
G1 X133.915 Y104.597 E4.3634
G1 X134.603 Y105.388 E4.4576
G1 X134.687 Y105.501 E4.4702
G1 X135.237 Y106.379 E4.5633
G1 X135.293 Y106.482 E4.5738
G1 X135.548 Y107.037 E4.6286
G1 X135.578 Y107.112 E4.6358
G1 X135.847 Y107.870 E4.7081
G1 X135.881 Y107.994 E4.7197
G1 X136.086 Y109.018 E4.8134
G1 X136.102 Y109.157 E4.8260
G1 X136.146 Y110.207 E4.9203
G1 X136.140 Y110.352 E4.9334
G1 X136.004 Y111.481 E5.0356
G1 X135.981 Y111.605 E5.0468
G1 X135.794 Y112.308 E5.1121
G1 X135.757 Y112.418 E5.1226
G1 X135.364 Y113.378 E5.2157
G1 X135.301 Y113.503 E5.2283
G1 X134.758 Y114.400 E5.3224
G1 X134.677 Y114.513 E5.3350
G1 X134.001 Y115.316 E5.4292
G1 X133.903 Y115.415 E5.4418
G1 X133.130 Y116.088 E5.5338
G1 X133.056 Y116.145 E5.5422
G1 X132.731 Y116.373 E5.5778
G1 X132.652 Y116.423 E5.5862
G1 X131.767 Y116.916 E5.6772
G1 X131.662 Y116.966 E5.6877
G1 X130.990 Y117.233 E5.7526
G1 X130.879 Y117.269 E5.7630
G1 X129.872 Y117.525 E5.8564
G1 X129.728 Y117.550 E5.8695
G1 X128.617 Y117.647 E5.9696
G1 X128.539 Y117.650 E5.9766
G1 X91.465 Y117.650 E9.3060
G1 X91.395 Y117.647 E9.3122
G1 X90.385 Y117.569 E9.4033
G1 X90.246 Y117.547 E9.4158
G1 X89.226 Y117.304 E9.5100
G1 X89.093 Y117.262 E9.5226
G1 X88.122 Y116.864 E9.6168
G1 X87.997 Y116.801 E9.6293
G1 X87.100 Y116.258 E9.7235
G1 X86.987 Y116.177 E9.7361
G1 X86.184 Y115.501 E9.8302
G1 X86.085 Y115.403 E9.8428
G1 X85.397 Y114.612 E9.9370
G1 X85.313 Y114.499 E9.9495
G1 X84.756 Y113.611 E10.0437
G1 X84.691 Y113.487 E10.0563
G1 X84.279 Y112.523 E10.1504
G1 X84.234 Y112.390 E10.1630
G1 X83.981 Y111.397 E10.2551
G1 X83.963 Y111.305 E10.2635
G1 X83.906 Y110.913 E10.2990
G1 X83.897 Y110.820 E10.3074
G1 X83.854 Y109.794 E10.3997
G1 X83.860 Y109.648 E10.4128
G1 X83.996 Y108.519 E10.5149
G1 X84.019 Y108.395 E10.5262
G1 X84.206 Y107.692 E10.5915
G1 X84.243 Y107.582 E10.6020
G1 X84.636 Y106.622 E10.6951
G1 X84.699 Y106.497 E10.7077
G1 X85.242 Y105.600 E10.8018
G1 X85.323 Y105.487 E10.8144
G1 X85.984 Y104.702 E10.9065
G1 X86.047 Y104.634 E10.9149
G1 X86.333 Y104.359 E10.9505
G1 X86.403 Y104.297 E10.9589
G1 X86.861 Y104.853 F18000
G92 E0.0000
G1 X87.627 Y104.255 E0.0872 F2400
G1 X87.684 Y104.215 E0.0935
G1 X88.260 Y103.875 E0.1536
G1 X88.310 Y103.849 E0.1586
G1 X88.822 Y103.613 E0.2093
G1 X88.867 Y103.595 E0.2136
G1 X89.579 Y103.343 E0.2815
G1 X89.640 Y103.325 E0.2872
G1 X90.298 Y103.176 E0.3478
G1 X90.371 Y103.164 E0.3544
G1 X91.430 Y103.072 E0.4498
G1 X91.477 Y103.070 E0.4540
G1 X128.521 Y103.070 E3.7807
G1 X128.563 Y103.072 E3.7845
G1 X129.523 Y103.146 E3.8710
G1 X129.591 Y103.156 E3.8771
G1 X130.151 Y103.272 E3.9285
G1 X130.201 Y103.285 E3.9331
G1 X130.931 Y103.510 E4.0017
G1 X131.002 Y103.538 E4.0086
G1 X131.890 Y103.956 E4.0967
G1 X131.951 Y103.990 E4.1030
G1 X132.520 Y104.355 E4.1637
G1 X132.577 Y104.397 E4.1700
G1 X133.331 Y105.031 E4.2585
G1 X133.390 Y105.090 E4.2660
G1 X134.041 Y105.839 E4.3552
G1 X134.091 Y105.907 E4.3627
G1 X134.615 Y106.742 E4.4512
G1 X134.648 Y106.804 E4.4575
G1 X134.887 Y107.323 E4.5088
G1 X134.905 Y107.367 E4.5131
G1 X135.160 Y108.086 E4.5816
G1 X135.180 Y108.161 E4.5886
G1 X135.374 Y109.131 E4.6774
G1 X135.384 Y109.215 E4.6850
G1 X135.425 Y110.207 E4.7742
G1 X135.422 Y110.295 E4.7821
G1 X135.292 Y111.370 E4.8794
G1 X135.278 Y111.444 E4.8861
G1 X135.104 Y112.100 E4.9471
G1 X135.082 Y112.167 E4.9534
G1 X134.709 Y113.079 E5.0419
G1 X134.671 Y113.154 E5.0494
G1 X134.157 Y114.003 E5.1385
G1 X134.108 Y114.071 E5.1461
G1 X133.469 Y114.831 E5.2352
G1 X133.410 Y114.890 E5.2428
G1 X132.671 Y115.532 E5.3306
G1 X132.627 Y115.567 E5.3356
G1 X132.333 Y115.773 E5.3679
G1 X132.286 Y115.803 E5.3729
G1 X131.437 Y116.276 E5.4602
G1 X131.374 Y116.306 E5.4665
G1 X130.746 Y116.555 E5.5272
G1 X130.679 Y116.577 E5.5335
G1 X129.722 Y116.820 E5.6221
G1 X129.636 Y116.835 E5.6300
G1 X128.570 Y116.928 E5.7260
G1 X128.523 Y116.930 E5.7302
G1 X91.479 Y116.930 E9.0569
