; G-Code generated by Simplify3D(R) Version 4.1.2
; May 30, 2022 at 10:32:22 PM
; Settings Summary
;   processName,Process1
;   applyToModels,gleitlager-klemme-innen,gleitlager-klemme-innen(2),gleitlager-klemme-innen(3),gleitlager-klemme-innen(4)
;   profileName,HSBot
;   profileVersion,2019-11-09 11:59:44
;   baseProfile,Default
;   printMaterial,pla
;   printQuality,Medium
;   printExtruders,
;   extruderName,Extruder 1,Extruder - Lite
;   extruderToolheadNumber,0,1
;   extruderDiameter,0.4,0.4
;   extruderAutoWidth,1,1
;   extruderWidth,0.48,0.48
;   extrusionMultiplier,1.1,0.93
;   extruderUseRetract,1,1
;   extruderRetractionDistance,2,1
;   extruderExtraRestartDistance,0,0
;   extruderRetractionZLift,0,0
;   extruderRetractionSpeed,3600,1800
;   extruderUseCoasting,1,0
;   extruderCoastingDistance,0.2,0.2
;   extruderUseWipe,1,0
;   extruderWipeDistance,2,5
;   primaryExtruder,0
;   layerHeight,0.2
;   topSolidLayers,3
;   bottomSolidLayers,3
;   perimeterOutlines,4
;   printPerimetersInsideOut,1
;   startPointOption,2
;   startPointOriginX,0
;   startPointOriginY,0
;   sequentialIslands,0
;   spiralVaseMode,0
;   firstLayerHeightPercentage,150
;   firstLayerWidthPercentage,150
;   firstLayerUnderspeed,0.5
;   useRaft,0
;   raftExtruder,0
;   raftTopLayers,3
;   raftBaseLayers,2
;   raftOffset,3
;   raftSeparationDistance,0.18
;   raftTopInfill,100
;   aboveRaftSpeedMultiplier,0.3
;   useSkirt,1
;   skirtExtruder,0
;   skirtLayers,1
;   skirtOutlines,5
;   skirtOffset,10
;   usePrimePillar,0
;   primePillarExtruder,999
;   primePillarWidth,12
;   primePillarLocation,7
;   primePillarSpeedMultiplier,1
;   useOozeShield,0
;   oozeShieldExtruder,999
;   oozeShieldOffset,2
;   oozeShieldOutlines,1
;   oozeShieldSidewallShape,1
;   oozeShieldSidewallAngle,30
;   oozeShieldSpeedMultiplier,1
;   infillExtruder,0
;   internalInfillPattern,Full Honeycomb
;   externalInfillPattern,Rectilinear
;   infillPercentage,20
;   outlineOverlapPercentage,15
;   infillExtrusionWidthPercentage,100
;   minInfillLength,5
;   infillLayerInterval,1
;   internalInfillAngles,0,120,-120
;   overlapInternalInfillAngles,0
;   externalInfillAngles,45,-45
;   generateSupport,0
;   supportExtruder,0
;   supportInfillPercentage,30
;   supportExtraInflation,0
;   supportBaseLayers,1
;   denseSupportExtruder,0
;   denseSupportLayers,0
;   denseSupportInfillPercentage,70
;   supportLayerInterval,1
;   supportHorizontalPartOffset,0.3
;   supportUpperSeparationLayers,1
;   supportLowerSeparationLayers,1
;   supportType,0
;   supportGridSpacing,2
;   maxOverhangAngle,45
;   supportAngles,0
;   temperatureName,Extruder 1,Bed
;   temperatureNumber,0,0
;   temperatureSetpointCount,1,1
;   temperatureSetpointLayers,1,1
;   temperatureSetpointTemperatures,217,55
;   temperatureStabilizeAtStartup,1,1
;   temperatureHeatedBed,0,1
;   fanLayers,1,2,5
;   fanSpeeds,0,15,50
;   blipFanToFullPower,1
;   adjustSpeedForCooling,0
;   minSpeedLayerTime,15
;   minCoolingSpeedSlowdown,20
;   increaseFanForCooling,1
;   minFanLayerTime,45
;   maxCoolingFanSpeed,40
;   increaseFanForBridging,1
;   bridgingFanSpeed,80
;   use5D,1
;   relativeEdistances,0
;   allowEaxisZeroing,1
;   independentExtruderAxes,0
;   includeM10123,0
;   stickySupport,1
;   applyToolheadOffsets,0
;   gcodeXoffset,0
;   gcodeYoffset,0
;   gcodeZoffset,0
;   overrideMachineDefinition,1
;   machineTypeOverride,0
;   strokeXoverride,220
;   strokeYoverride,220
;   strokeZoverride,150
;   originOffsetXoverride,0
;   originOffsetYoverride,0
;   originOffsetZoverride,0
;   homeXdirOverride,-1
;   homeYdirOverride,-1
;   homeZdirOverride,-1
;   flipXoverride,1
;   flipYoverride,-1
;   flipZoverride,1
;   toolheadOffsets,0,0|0,0|0,0|0,0|0,0|0,0
;   overrideFirmwareConfiguration,0
;   firmwareTypeOverride,RepRap (Marlin/Repetier/Sprinter)
;   GPXconfigOverride,r2
;   baudRateOverride,115200
;   overridePrinterModels,0
;   printerModelsOverride
;   startingGcode,G28 ; home all axes,G32 ; run bed.g -- probe bed and enable compensation
;   layerChangeGcode,
;   retractionGcode,
;   toolChangeGcode,
;   endingGcode,M0 ; call stop.g
;   exportFileFormat,gcode
;   celebration,0
;   celebrationSong,Random Song
;   postProcessing,
;   defaultSpeed,3600
;   outlineUnderspeed,0.8
;   solidInfillUnderspeed,0.75
;   supportUnderspeed,0.8
;   rapidXYspeed,18000
;   rapidZspeed,1200
;   minBridgingArea,50
;   bridgingExtraInflation,0
;   bridgingExtrusionMultiplier,0.96
;   bridgingSpeedMultiplier,1
;   useFixedBridgingAngle,0
;   fixedBridgingAngle,0
;   applyBridgingToPerimeters,0
;   filamentDiameters,1.75|1.75|1.75|1.75|1.75|1.75
;   filamentPricesPerKg,25|46|46|46|46|46
;   filamentDensities,1.29|1.25|1.25|1.25|1.25|1.25
;   useMinPrintHeight,0
;   minPrintHeight,0.3
;   useMaxPrintHeight,0
;   maxPrintHeight,5
;   useDiaphragm,1
;   diaphragmLayerInterval,20
;   robustSlicing,1
;   mergeAllIntoSolid,0
;   onlyRetractWhenCrossingOutline,1
;   retractBetweenLayers,0
;   useRetractionMinTravel,1
;   retractionMinTravel,5
;   retractWhileWiping,1
;   onlyWipeOutlines,1
;   avoidCrossingOutline,1
;   maxMovementDetourFactor,5
;   toolChangeRetractionDistance,12
;   toolChangeExtraRestartDistance,0
;   toolChangeRetractionSpeed,600
;   externalThinWallType,1
;   internalThinWallType,1
;   thinWallAllowedOverlapPercentage,10
;   singleExtrusionMinLength,0.1
;   singleExtrusionMinPrintingWidthPercentage,50
;   singleExtrusionMaxPrintingWidthPercentage,200
;   singleExtrusionEndpointExtension,0.2
;   horizontalSizeCompensation,0
G90
M82
M106 S0
M140 S55
M190 S55
G10 S217 R{217-50} P0
M116 P0
G28 ; home all axes
G32 ; run bed.g -- probe bed and enable compensation
; process Process1
; layer 1, Z = 0.300
T0
G92 E0.0000
G1 E-2.0000 F3600
; feature skirt
; tool H0.300 W0.720
G1 Z0.300 F1200
G1 X71.366 Y68.610 F18000
G1 E0.0000 F3600
G92 E0.0000
G1 X148.634 Y68.610 E7.6328 F1800
G1 X156.390 Y76.366 E8.7163
G1 X156.390 Y143.634 E15.3612
G1 X148.634 Y151.390 E16.4447
G1 X71.366 Y151.390 E24.0775
G1 X63.610 Y143.634 E25.1609
G1 X63.610 Y76.366 E31.8059
G1 X71.366 Y68.610 E32.8894
G1 X71.664 Y69.330 F18000
G92 E0.0000
G1 X148.336 Y69.330 E7.5738 F1800
G1 X155.670 Y76.664 E8.5984
G1 X155.670 Y143.336 E15.1844
G1 X148.336 Y150.670 E16.2090
G1 X71.664 Y150.670 E23.7829
G1 X64.330 Y143.336 E24.8074
G1 X64.330 Y76.664 E31.3934
G1 X71.664 Y69.330 E32.4180
G1 X71.962 Y70.050 F18000
G92 E0.0000
G1 X148.038 Y70.050 E7.5149 F1800
G1 X154.950 Y76.962 E8.4806
G1 X154.950 Y143.038 E15.0077
G1 X148.038 Y149.950 E15.9733
G1 X71.962 Y149.950 E23.4882
G1 X65.050 Y143.038 E24.4539
G1 X65.050 Y76.962 E30.9810
G1 X71.962 Y70.050 E31.9466
G1 X72.261 Y70.770 F18000
G92 E0.0000
G1 X147.739 Y70.770 E7.4560 F1800
G1 X154.230 Y77.261 E8.3627
G1 X154.230 Y142.739 E14.8309
G1 X147.739 Y149.230 E15.7376
G1 X72.261 Y149.230 E23.1936
G1 X65.770 Y142.739 E24.1004
G1 X65.770 Y77.261 E30.5686
G1 X72.261 Y70.770 E31.4753
G1 X72.559 Y71.490 F18000
G92 E0.0000
G1 X147.441 Y71.490 E7.3971 F1800
G1 X153.510 Y77.559 E8.2449
G1 X153.510 Y94.253 E9.8940
G1 X153.334 Y94.441 E9.9194
G1 X153.510 Y94.621 E9.9443
G1 X153.510 Y125.253 E12.9702
G1 X153.334 Y125.441 E12.9956
G1 X153.510 Y125.621 E13.0205
G1 X153.510 Y142.441 E14.6821
G1 X147.441 Y148.510 E15.5299
G1 X72.559 Y148.510 E22.9270
G1 X66.490 Y142.441 E23.7748
G1 X66.490 Y125.565 E25.4418
G1 X66.582 Y125.473 E25.4547
G1 X66.490 Y125.379 E25.4676
G1 X66.490 Y94.565 E28.5115
G1 X66.582 Y94.473 E28.5244
G1 X66.490 Y94.379 E28.5373
G1 X66.490 Y77.559 E30.1989
G1 X72.559 Y71.490 E31.0467
G92 E0.0000
G1 E-2.0000 F3600
; feature inner perimeter
G1 X77.210 Y82.210 F18000
G1 X78.228 Y82.210
G1 X79.370 Y84.370
G1 E0.0000 F3600
G92 E0.0000
G1 X88.325 Y84.370 E0.8846 F1620
G1 X88.096 Y84.988 E0.9497
G1 X87.973 Y85.789 E1.0297
G1 X88.013 Y86.608 E1.1108
G1 X88.218 Y87.401 E1.1916
G1 X88.577 Y88.133 E1.2723
G1 X89.077 Y88.779 E1.3529
G1 X89.696 Y89.310 E1.4335
G1 X90.410 Y89.706 E1.5141
G1 X91.188 Y89.950 E1.5947
G1 X92.000 Y90.033 E1.6753
G1 X92.812 Y89.950 E1.7559
G1 X93.590 Y89.706 E1.8365
G1 X94.304 Y89.310 E1.9171
G1 X94.923 Y88.779 E1.9977
G1 X95.383 Y88.184 E2.0720
G1 X95.643 Y87.716 E2.1249
G1 X95.904 Y87.011 E2.1992
G1 X96.028 Y86.204 E2.2798
G1 X95.986 Y85.389 E2.3604
G1 X95.723 Y84.370 E2.4644
G1 X104.630 Y84.370 E3.3443
G1 X104.630 Y88.051 E3.7079
G1 X103.920 Y88.354 E3.7842
G1 X103.225 Y88.757 E3.8635
G1 X102.759 Y89.093 E3.9203
G1 X102.246 Y89.537 E3.9873
G1 X101.856 Y89.945 E4.0430
G1 X101.417 Y90.490 E4.1122
G1 X100.983 Y91.177 E4.1925
G1 X100.666 Y91.834 E4.2646
G1 X100.394 Y92.600 E4.3448
G1 X100.222 Y93.371 E4.4229
G1 X100.158 Y93.857 E4.4713
G1 X100.127 Y94.647 E4.5493
G1 X100.192 Y95.434 E4.6274
G1 X100.275 Y95.917 E4.6758
G1 X100.475 Y96.658 E4.7516
G1 X100.679 Y97.194 E4.8082
G1 X100.983 Y97.823 E4.8773
G1 X101.417 Y98.510 E4.9575
G1 X101.856 Y99.055 E5.0267
G1 X102.246 Y99.463 E5.0824
G1 X102.759 Y99.907 E5.1494
G1 X103.216 Y100.237 E5.2052
G1 X103.823 Y100.595 E5.2747
G1 X104.630 Y100.958 E5.3621
G1 X104.630 Y104.630 E5.7249
G1 X95.723 Y104.630 E6.6048
G1 X95.986 Y103.611 E6.7088
G1 X96.028 Y102.796 E6.7894
G1 X95.904 Y101.989 E6.8700
G1 X95.621 Y101.224 E6.9506
G1 X95.189 Y100.531 E7.0312
G1 X94.627 Y99.940 E7.1118
G1 X93.957 Y99.474 E7.1925
G1 X93.207 Y99.152 E7.2731
G1 X92.408 Y98.988 E7.3537
G1 X91.592 Y98.988 E7.4343
G1 X90.793 Y99.152 E7.5149
G1 X90.102 Y99.448 E7.5891
G1 X89.647 Y99.732 E7.6421
G1 X89.077 Y100.221 E7.7163
G1 X88.577 Y100.867 E7.7969
G1 X88.218 Y101.599 E7.8775
G1 X88.013 Y102.389 E7.9582
G1 X87.972 Y103.204 E8.0388
G1 X88.096 Y104.011 E8.1194
G1 X88.325 Y104.630 E8.1846
G1 X79.370 Y104.630 E9.0692
G1 X79.370 Y100.949 E9.4328
G1 X79.953 Y100.700 E9.4954
G1 X80.422 Y100.459 E9.5476
G1 X80.827 Y100.208 E9.5946
G1 X81.428 Y99.756 E9.6689
G1 X81.791 Y99.427 E9.7173
G1 X82.301 Y98.874 E9.7916
G1 X82.617 Y98.461 E9.8429
G1 X83.127 Y97.611 E9.9409
G1 X83.342 Y97.144 E9.9916
G1 X83.593 Y96.436 E10.0659
G1 X83.714 Y95.961 E10.1143
G1 X83.834 Y95.218 E10.1886
G1 X83.868 Y94.729 E10.2370
G1 X83.852 Y93.978 E10.3113
G1 X83.798 Y93.491 E10.3597
G1 X83.640 Y92.721 E10.4373
G1 X83.422 Y92.061 E10.5060
G1 X83.204 Y91.541 E10.5617
G1 X82.864 Y90.917 E10.6319
G1 X82.401 Y90.249 E10.7122
G1 X81.944 Y89.735 E10.7801
G1 X81.567 Y89.367 E10.8321
G1 X81.199 Y89.061 E10.8794
G1 X80.580 Y88.634 E10.9537
G1 X80.153 Y88.394 E11.0021
G1 X79.370 Y88.042 E11.0869
G1 X79.370 Y84.570 E11.4299
G1 X79.370 Y84.370 F1620
G1 X78.650 Y83.650 F18000
G92 E0.0000
G1 X89.585 Y83.650 E1.0802 F1620
G1 X89.029 Y84.543 E1.1841
G1 X88.797 Y85.170 E1.2502
G1 X88.696 Y85.826 E1.3158
G1 X88.728 Y86.499 E1.3824
G1 X88.897 Y87.149 E1.4487
G1 X89.192 Y87.751 E1.5148
G1 X89.601 Y88.280 E1.5810
G1 X90.109 Y88.716 E1.6471
G1 X90.695 Y89.041 E1.7133
G1 X91.334 Y89.242 E1.7794
G1 X92.000 Y89.309 E1.8456
G1 X92.666 Y89.242 E1.9117
G1 X93.305 Y89.041 E1.9778
G1 X93.891 Y88.716 E2.0440
G1 X94.399 Y88.280 E2.1101
G1 X94.780 Y87.787 E2.1717
G1 X94.987 Y87.414 E2.2138
G1 X95.204 Y86.829 E2.2754
G1 X95.305 Y86.168 E2.3416
G1 X95.271 Y85.499 E2.4077
G1 X95.103 Y84.851 E2.4739
G1 X94.808 Y84.249 E2.5400
G1 X94.344 Y83.650 E2.6149
G1 X105.350 Y83.650 E3.7021
G1 X105.350 Y88.584 E4.1895
G1 X104.925 Y88.708 E4.2332
G1 X104.243 Y88.999 E4.3065
G1 X103.617 Y89.362 E4.3779
G1 X103.206 Y89.658 E4.4280
G1 X102.742 Y90.059 E4.4885
G1 X102.397 Y90.420 E4.5378
G1 X102.003 Y90.909 E4.5999
G1 X101.613 Y91.527 E4.6720
G1 X101.331 Y92.112 E4.7362
G1 X101.087 Y92.800 E4.8083
G1 X100.931 Y93.497 E4.8788
G1 X100.876 Y93.918 E4.9208
G1 X100.849 Y94.631 E4.9913
G1 X100.907 Y95.343 E5.0619
G1 X100.979 Y95.762 E5.1039
G1 X101.160 Y96.436 E5.1728
G1 X101.341 Y96.908 E5.2227
G1 X101.613 Y97.473 E5.2847
G1 X102.003 Y98.091 E5.3569
G1 X102.397 Y98.580 E5.4189
G1 X102.742 Y98.941 E5.4682
G1 X103.206 Y99.342 E5.5288
G1 X103.611 Y99.634 E5.5781
G1 X104.154 Y99.955 E5.6405
G1 X104.823 Y100.255 E5.7129
G1 X105.350 Y100.419 E5.7674
G1 X105.350 Y105.350 E6.2545
G1 X94.344 Y105.350 E7.3416
G1 X94.808 Y104.751 E7.4165
G1 X95.103 Y104.149 E7.4827
G1 X95.271 Y103.501 E7.5488
G1 X95.305 Y102.832 E7.6150
G1 X95.204 Y102.171 E7.6811
G1 X94.971 Y101.543 E7.7473
G1 X94.617 Y100.974 E7.8134
G1 X94.156 Y100.489 E7.8795
G1 X93.606 Y100.107 E7.9457
G1 X92.991 Y99.842 E8.0118
G1 X92.335 Y99.708 E8.0780
G1 X91.665 Y99.708 E8.1441
G1 X91.009 Y99.842 E8.2103
G1 X90.436 Y100.088 E8.2719
G1 X90.075 Y100.314 E8.3140
G1 X89.601 Y100.720 E8.3756
G1 X89.192 Y101.249 E8.4417
G1 X88.897 Y101.851 E8.5078
G1 X88.729 Y102.499 E8.5740
G1 X88.695 Y103.168 E8.6401
G1 X88.796 Y103.829 E8.7063
G1 X89.013 Y104.414 E8.7679
G1 X89.220 Y104.787 E8.8100
G1 X89.656 Y105.350 E8.8803
G1 X78.650 Y105.350 E9.9675
G1 X78.650 Y100.416 E10.4549
G1 X79.075 Y100.292 E10.4986
G1 X79.646 Y100.048 E10.5600
G1 X80.067 Y99.832 E10.6067
G1 X80.420 Y99.613 E10.6478
G1 X80.969 Y99.200 E10.7156
G1 X81.284 Y98.915 E10.7576
G1 X81.749 Y98.410 E10.8254
G1 X82.021 Y98.056 E10.8695
G1 X82.490 Y97.274 E10.9595
G1 X82.674 Y96.873 E11.0031
G1 X82.904 Y96.226 E11.0710
G1 X83.009 Y95.814 E11.1130
G1 X83.118 Y95.136 E11.1808
G1 X83.148 Y94.712 E11.2228
G1 X83.133 Y94.026 E11.2906
G1 X83.086 Y93.603 E11.3326
G1 X82.943 Y92.907 E11.4028
G1 X82.747 Y92.313 E11.4645
G1 X82.554 Y91.853 E11.5138
G1 X82.250 Y91.295 E11.5766
G1 X81.834 Y90.695 E11.6488
G1 X81.422 Y90.232 E11.7100
G1 X81.085 Y89.902 E11.7566
G1 X80.764 Y89.635 E11.7978
G1 X80.199 Y89.246 E11.8656
G1 X79.828 Y89.037 E11.9076
G1 X79.202 Y88.756 E11.9754
G1 X78.650 Y88.566 E12.0331
G1 X78.650 Y83.850 E12.4989
G1 X78.650 Y83.650 F1620
G1 X77.930 Y82.930 F18000
G92 E0.0000
G1 X91.319 Y82.930 E1.3226 F1620
G1 X91.425 Y83.448 E1.3748
G1 X90.745 Y83.739 E1.4479
G1 X90.316 Y84.038 E1.4995
G1 X89.955 Y84.417 E1.5512
G1 X89.679 Y84.861 E1.6029
G1 X89.497 Y85.352 E1.6545
G1 X89.418 Y85.864 E1.7057
G1 X89.444 Y86.391 E1.7578
G1 X89.575 Y86.898 E1.8096
G1 X89.806 Y87.368 E1.8613
G1 X90.126 Y87.781 E1.9130
G1 X90.523 Y88.122 E1.9646
G1 X90.980 Y88.376 E2.0163
G1 X91.479 Y88.533 E2.0680
G1 X92.000 Y88.586 E2.1197
G1 X92.520 Y88.533 E2.1714
G1 X93.020 Y88.376 E2.2230
G1 X93.477 Y88.122 E2.2747
G1 X93.874 Y87.781 E2.3264
G1 X94.177 Y87.390 E2.3753
G1 X94.331 Y87.113 E2.4066
G1 X94.503 Y86.648 E2.4556
G1 X94.582 Y86.131 E2.5072
G1 X94.556 Y85.608 E2.5589
G1 X94.425 Y85.102 E2.6106
G1 X94.194 Y84.632 E2.6623
G1 X93.874 Y84.219 E2.7139
G1 X93.477 Y83.878 E2.7656
G1 X93.044 Y83.637 E2.8146
G1 X92.575 Y83.464 E2.8640
G1 X92.670 Y82.930 E2.9175
G1 X106.070 Y82.930 E4.2412
G1 X106.070 Y89.152 E4.8558
G1 X105.780 Y89.209 E4.8850
G1 X105.168 Y89.387 E4.9480
G1 X104.566 Y89.644 E5.0126
G1 X104.009 Y89.967 E5.0762
G1 X103.653 Y90.224 E5.1196
G1 X103.239 Y90.582 E5.1736
G1 X102.939 Y90.896 E5.2165
G1 X102.590 Y91.329 E5.2715
G1 X102.244 Y91.876 E5.3355
G1 X101.997 Y92.389 E5.3917
G1 X101.780 Y92.999 E5.4557
G1 X101.641 Y93.622 E5.5187
G1 X101.595 Y93.979 E5.5542
G1 X101.570 Y94.616 E5.6172
G1 X101.622 Y95.252 E5.6803
G1 X101.683 Y95.607 E5.7158
G1 X101.846 Y96.213 E5.7779
G1 X102.003 Y96.623 E5.8212
G1 X102.244 Y97.124 E5.8761
G1 X102.590 Y97.671 E5.9401
G1 X102.939 Y98.104 E5.9950
G1 X103.239 Y98.418 E6.0379
G1 X103.653 Y98.776 E6.0920
G1 X104.005 Y99.031 E6.1349
G1 X104.486 Y99.314 E6.1901
G1 X105.078 Y99.581 E6.2542
G1 X105.688 Y99.770 E6.3172
G1 X106.070 Y99.852 E6.3559
G1 X106.070 Y106.070 E6.9701
G1 X92.645 Y106.070 E8.2963
G1 X92.560 Y105.520 E8.3513
G1 X93.020 Y105.376 E8.3988
G1 X93.477 Y105.122 E8.4505
G1 X93.874 Y104.781 E8.5022
G1 X94.194 Y104.368 E8.5538
G1 X94.425 Y103.898 E8.6055
G1 X94.556 Y103.392 E8.6572
G1 X94.582 Y102.869 E8.7089
G1 X94.503 Y102.352 E8.7606
G1 X94.321 Y101.861 E8.8122
G1 X94.045 Y101.417 E8.8639
G1 X93.684 Y101.038 E8.9156
G1 X93.255 Y100.739 E8.9673
G1 X92.774 Y100.533 E9.0189
G1 X92.262 Y100.428 E9.0706
G1 X91.738 Y100.428 E9.1223
G1 X91.226 Y100.533 E9.1740
G1 X90.771 Y100.728 E9.2229
G1 X90.502 Y100.896 E9.2542
G1 X90.126 Y101.219 E9.3031
G1 X89.806 Y101.632 E9.3548
G1 X89.575 Y102.102 E9.4065
G1 X89.444 Y102.608 E9.4582
G1 X89.418 Y103.131 E9.5099
