; G-Code generated by Simplify3D(R) Version 4.1.2
; May 30, 2022 at 4:37:07 PM
; Settings Summary
;   processName,Process1
;   applyToModels,gleitlager-klemme-innen
;   profileName,HSBot
;   profileVersion,2019-11-09 11:59:44
;   baseProfile,Default
;   printMaterial,pla
;   printQuality,Medium
;   printExtruders,
;   extruderName,Extruder 1,Extruder - Lite
;   extruderToolheadNumber,0,1
;   extruderDiameter,0.4,0.4
;   extruderAutoWidth,1,1
;   extruderWidth,0.48,0.48
;   extrusionMultiplier,1,0.93
;   extruderUseRetract,1,1
;   extruderRetractionDistance,2,1
;   extruderExtraRestartDistance,0,0
;   extruderRetractionZLift,0,0
;   extruderRetractionSpeed,3600,1800
;   extruderUseCoasting,1,0
;   extruderCoastingDistance,0.2,0.2
;   extruderUseWipe,1,0
;   extruderWipeDistance,2,5
;   primaryExtruder,0
;   layerHeight,0.2
;   topSolidLayers,3
;   bottomSolidLayers,3
;   perimeterOutlines,4
;   printPerimetersInsideOut,1
;   startPointOption,2
;   startPointOriginX,0
;   startPointOriginY,0
;   sequentialIslands,0
;   spiralVaseMode,0
;   firstLayerHeightPercentage,150
;   firstLayerWidthPercentage,150
;   firstLayerUnderspeed,0.5
;   useRaft,0
;   raftExtruder,0
;   raftTopLayers,3
;   raftBaseLayers,2
;   raftOffset,3
;   raftSeparationDistance,0.18
;   raftTopInfill,100
;   aboveRaftSpeedMultiplier,0.3
;   useSkirt,1
;   skirtExtruder,0
;   skirtLayers,1
;   skirtOutlines,5
;   skirtOffset,0
;   usePrimePillar,0
;   primePillarExtruder,999
;   primePillarWidth,12
;   primePillarLocation,7
;   primePillarSpeedMultiplier,1
;   useOozeShield,0
;   oozeShieldExtruder,999
;   oozeShieldOffset,2
;   oozeShieldOutlines,1
;   oozeShieldSidewallShape,1
;   oozeShieldSidewallAngle,30
;   oozeShieldSpeedMultiplier,1
;   infillExtruder,0
;   internalInfillPattern,Full Honeycomb
;   externalInfillPattern,Rectilinear
;   infillPercentage,20
;   outlineOverlapPercentage,15
;   infillExtrusionWidthPercentage,100
;   minInfillLength,5
;   infillLayerInterval,1
;   internalInfillAngles,0,120,-120
;   overlapInternalInfillAngles,0
;   externalInfillAngles,45,-45
;   generateSupport,0
;   supportExtruder,0
;   supportInfillPercentage,30
;   supportExtraInflation,0
;   supportBaseLayers,1
;   denseSupportExtruder,0
;   denseSupportLayers,0
;   denseSupportInfillPercentage,70
;   supportLayerInterval,1
;   supportHorizontalPartOffset,0.3
;   supportUpperSeparationLayers,1
;   supportLowerSeparationLayers,1
;   supportType,0
;   supportGridSpacing,2
;   maxOverhangAngle,45
;   supportAngles,0
;   temperatureName,Extruder 1,Bed
;   temperatureNumber,0,0
;   temperatureSetpointCount,1,1
;   temperatureSetpointLayers,1,1
;   temperatureSetpointTemperatures,217,55
;   temperatureStabilizeAtStartup,1,1
;   temperatureHeatedBed,0,1
;   fanLayers,1,2,5
;   fanSpeeds,0,15,50
;   blipFanToFullPower,1
;   adjustSpeedForCooling,0
;   minSpeedLayerTime,15
;   minCoolingSpeedSlowdown,20
;   increaseFanForCooling,1
;   minFanLayerTime,45
;   maxCoolingFanSpeed,40
;   increaseFanForBridging,1
;   bridgingFanSpeed,80
;   use5D,1
;   relativeEdistances,0
;   allowEaxisZeroing,1
;   independentExtruderAxes,0
;   includeM10123,0
;   stickySupport,1
;   applyToolheadOffsets,0
;   gcodeXoffset,0
;   gcodeYoffset,0
;   gcodeZoffset,0
;   overrideMachineDefinition,1
;   machineTypeOverride,0
;   strokeXoverride,220
;   strokeYoverride,220
;   strokeZoverride,150
;   originOffsetXoverride,0
;   originOffsetYoverride,0
;   originOffsetZoverride,0
;   homeXdirOverride,-1
;   homeYdirOverride,-1
;   homeZdirOverride,-1
;   flipXoverride,1
;   flipYoverride,-1
;   flipZoverride,1
;   toolheadOffsets,0,0|0,0|0,0|0,0|0,0|0,0
;   overrideFirmwareConfiguration,0
;   firmwareTypeOverride,RepRap (Marlin/Repetier/Sprinter)
;   GPXconfigOverride,r2
;   baudRateOverride,115200
;   overridePrinterModels,0
;   printerModelsOverride
;   startingGcode,G28 ; home all axes,G32 ; run bed.g -- probe bed and enable compensation
;   layerChangeGcode,
;   retractionGcode,
;   toolChangeGcode,
;   endingGcode,M0 ; call stop.g
;   exportFileFormat,gcode
;   celebration,0
;   celebrationSong,Random Song
;   postProcessing,
;   defaultSpeed,6000
;   outlineUnderspeed,0.8
;   solidInfillUnderspeed,0.75
;   supportUnderspeed,0.8
;   rapidXYspeed,18000
;   rapidZspeed,1200
;   minBridgingArea,50
;   bridgingExtraInflation,0
;   bridgingExtrusionMultiplier,0.96
;   bridgingSpeedMultiplier,1
;   useFixedBridgingAngle,0
;   fixedBridgingAngle,0
;   applyBridgingToPerimeters,0
;   filamentDiameters,1.75|1.75|1.75|1.75|1.75|1.75
;   filamentPricesPerKg,25|46|46|46|46|46
;   filamentDensities,1.29|1.25|1.25|1.25|1.25|1.25
;   useMinPrintHeight,0
;   minPrintHeight,0.3
;   useMaxPrintHeight,0
;   maxPrintHeight,5
;   useDiaphragm,1
;   diaphragmLayerInterval,20
;   robustSlicing,1
;   mergeAllIntoSolid,0
;   onlyRetractWhenCrossingOutline,1
;   retractBetweenLayers,0
;   useRetractionMinTravel,1
;   retractionMinTravel,5
;   retractWhileWiping,1
;   onlyWipeOutlines,1
;   avoidCrossingOutline,1
;   maxMovementDetourFactor,5
;   toolChangeRetractionDistance,12
;   toolChangeExtraRestartDistance,0
;   toolChangeRetractionSpeed,600
;   externalThinWallType,1
;   internalThinWallType,1
;   thinWallAllowedOverlapPercentage,10
;   singleExtrusionMinLength,0.1
;   singleExtrusionMinPrintingWidthPercentage,50
;   singleExtrusionMaxPrintingWidthPercentage,200
;   singleExtrusionEndpointExtension,0.2
;   horizontalSizeCompensation,0
G90
M82
M106 S255
G4 P500
M106 S102
M140 S55
M190 S55
G10 S217 R{217-50} P0
M116 P0
G28 ; home all axes
G32 ; run bed.g -- probe bed and enable compensation
; process Process1
; layer 1, Z = 0.300
T0
G92 E0.0000
G1 E-2.0000 F3600
; feature skirt
; tool H0.300 W0.720
G1 Z0.300 F1200
G1 X93.508 Y94.110 F18000
G1 E0.0000 F3600
G92 E0.0000
G1 X126.492 Y94.110 E2.9620 F3000
G1 X128.390 Y96.008 E3.2031
G1 X128.390 Y106.936 E4.1845
G1 X126.636 Y108.806 E4.4147
G1 X124.806 Y108.923 E4.5794
G1 X124.581 Y108.981 E4.6002
G1 X124.504 Y109.014 E4.6077
G1 X124.432 Y109.056 E4.6153
G1 X124.239 Y109.210 E4.6374
G1 X124.078 Y109.397 E4.6596
G1 X124.028 Y109.475 E4.6679
G1 X123.990 Y109.553 E4.6757
G1 X123.939 Y109.697 E4.6894
G1 X123.921 Y109.779 E4.6969
G1 X123.904 Y110.025 E4.7191
G1 X123.931 Y110.270 E4.7412
G1 X123.961 Y110.378 E4.7513
G1 X123.973 Y110.411 E4.7544
G1 X124.028 Y110.525 E4.7658
G1 X124.078 Y110.603 E4.7741
G1 X124.239 Y110.790 E4.7963
G1 X124.443 Y110.953 E4.8198
G1 X124.476 Y110.972 E4.8232
G1 X124.565 Y111.013 E4.8320
G1 X124.858 Y111.094 E4.8592
G1 X124.901 Y111.099 E4.8631
G1 X126.542 Y111.135 E5.0105
G1 X128.390 Y113.024 E5.2479
G1 X128.390 Y123.992 E6.2328
G1 X126.492 Y125.890 E6.4738
G1 X93.508 Y125.890 E9.4359
G1 X91.610 Y123.992 E9.6769
G1 X91.610 Y113.007 E10.6634
G1 X93.500 Y111.110 E10.9038
G1 X95.015 Y111.105 E11.0399
G1 X95.133 Y111.093 E11.0505
G1 X95.371 Y111.031 E11.0727
G1 X95.551 Y110.948 E11.0904
G1 X95.739 Y110.815 E11.1111
G1 X95.897 Y110.632 E11.1328
G1 X95.996 Y110.468 E11.1500
G1 X96.070 Y110.237 E11.1718
G1 X96.095 Y110.041 E11.1895
G1 X96.083 Y109.795 E11.2117
G1 X96.065 Y109.707 E11.2198
G1 X96.053 Y109.671 E11.2232
G1 X95.913 Y109.385 E11.2518
G1 X95.866 Y109.317 E11.2592
G1 X95.811 Y109.255 E11.2666
G1 X95.657 Y109.115 E11.2853
G1 X95.609 Y109.082 E11.2905
G1 X95.387 Y108.974 E11.3127
G1 X95.142 Y108.906 E11.3355
G1 X95.099 Y108.901 E11.3394
G1 X93.458 Y108.865 E11.4868
G1 X91.610 Y106.976 E11.7241
G1 X91.610 Y96.008 E12.7091
G1 X93.508 Y94.110 E12.9501
G1 X93.806 Y94.830 F18000
G92 E0.0000
G1 X126.194 Y94.830 E2.9085 F3000
G1 X127.670 Y96.306 E3.0960
G1 X127.670 Y106.651 E4.0250
G1 X126.306 Y108.106 E4.2041
G1 X124.692 Y108.209 E4.3493
G1 X124.348 Y108.298 E4.3812
G1 X124.181 Y108.369 E4.3975
G1 X124.024 Y108.460 E4.4138
G1 X123.738 Y108.689 E4.4467
G1 X123.498 Y108.966 E4.4796
G1 X123.397 Y109.125 E4.4965
G1 X123.325 Y109.276 E4.5115
G1 X123.246 Y109.498 E4.5326
G1 X123.207 Y109.674 E4.5489
G1 X123.181 Y110.040 E4.5818
G1 X123.222 Y110.404 E4.6147
G1 X123.275 Y110.601 E4.6330
G1 X123.311 Y110.696 E4.6422
G1 X123.397 Y110.875 E4.6600
G1 X123.498 Y111.034 E4.6769
G1 X123.738 Y111.311 E4.7098
G1 X124.033 Y111.547 E4.7438
G1 X124.144 Y111.613 E4.7554
G1 X124.320 Y111.692 E4.7727
G1 X124.715 Y111.802 E4.8095
G1 X124.848 Y111.818 E4.8215
G1 X126.233 Y111.849 E4.9459
G1 X127.670 Y113.318 E5.1305
G1 X127.670 Y123.694 E6.0622
G1 X126.194 Y125.170 E6.2497
G1 X93.806 Y125.170 E9.1582
G1 X92.330 Y123.694 E9.3457
G1 X92.330 Y113.304 E10.2787
G1 X93.800 Y111.829 E10.4657
G1 X95.053 Y111.825 E10.5782
G1 X95.260 Y111.804 E10.5969
G1 X95.615 Y111.712 E10.6298
G1 X95.913 Y111.574 E10.6593
G1 X96.226 Y111.353 E10.6937
G1 X96.482 Y111.057 E10.7289
G1 X96.656 Y110.767 E10.7592
G1 X96.775 Y110.395 E10.7943
G1 X96.818 Y110.070 E10.8238
G1 X96.799 Y109.704 E10.8567
G1 X96.762 Y109.521 E10.8734
G1 X96.721 Y109.399 E10.8850
G1 X96.536 Y109.019 E10.9229
G1 X96.433 Y108.871 E10.9391
G1 X96.324 Y108.749 E10.9538
G1 X96.106 Y108.550 E10.9804
G1 X95.973 Y108.458 E10.9949
G1 X95.643 Y108.298 E11.0278
G1 X95.284 Y108.198 E11.0612
G1 X95.152 Y108.182 E11.0732
G1 X93.767 Y108.151 E11.1975
G1 X92.330 Y106.682 E11.3821
G1 X92.330 Y96.306 E12.3139
G1 X93.806 Y94.830 E12.5014
G1 X94.104 Y95.550 F18000
G92 E0.0000
G1 X125.896 Y95.550 E2.8549 F3000
G1 X126.950 Y96.604 E2.9888
G1 X126.950 Y106.366 E3.8655
G1 X125.975 Y107.405 E3.9934
G1 X124.578 Y107.495 E4.1192
G1 X124.115 Y107.614 E4.1621
G1 X123.858 Y107.724 E4.1872
G1 X123.616 Y107.864 E4.2123
G1 X123.237 Y108.168 E4.2559
G1 X122.919 Y108.535 E4.2996
G1 X122.767 Y108.776 E4.3251
G1 X122.659 Y108.999 E4.3474
G1 X122.553 Y109.298 E4.3759
G1 X122.492 Y109.570 E4.4009
G1 X122.458 Y110.055 E4.4446
G1 X122.512 Y110.538 E4.4882
G1 X122.589 Y110.823 E4.5147
G1 X122.649 Y110.981 E4.5299
G1 X122.767 Y111.224 E4.5542
G1 X122.919 Y111.465 E4.5797
G1 X123.237 Y111.832 E4.6234
G1 X123.623 Y112.141 E4.6677
G1 X123.813 Y112.253 E4.6875
G1 X124.075 Y112.371 E4.7133
G1 X124.573 Y112.510 E4.7598
G1 X124.795 Y112.537 E4.7799
G1 X125.923 Y112.562 E4.8812
G1 X126.950 Y113.612 E5.0131
G1 X126.950 Y123.396 E5.8917
G1 X125.896 Y124.450 E6.0256
G1 X94.104 Y124.450 E8.8805
G1 X93.050 Y123.396 E9.0144
G1 X93.050 Y113.602 E9.8939
G1 X94.100 Y112.548 E10.0275
G1 X95.091 Y112.545 E10.1165
G1 X95.388 Y112.514 E10.1433
G1 X95.859 Y112.392 E10.1870
G1 X96.275 Y112.200 E10.2282
G1 X96.694 Y111.903 E10.2743
G1 X96.727 Y111.873 E10.2783
G1 X97.067 Y111.481 E10.3249
G1 X97.301 Y111.091 E10.3657
G1 X97.324 Y111.041 E10.3707
G1 X97.481 Y110.553 E10.4167
G1 X97.540 Y110.098 E10.4579
G1 X97.515 Y109.613 E10.5016
G1 X97.459 Y109.335 E10.5270
G1 X97.390 Y109.126 E10.5468
G1 X97.158 Y108.654 E10.5940
G1 X97.000 Y108.425 E10.6190
G1 X96.837 Y108.242 E10.6410
G1 X96.554 Y107.984 E10.6753
G1 X96.336 Y107.834 E10.6991
G1 X95.899 Y107.622 E10.7428
G1 X95.427 Y107.490 E10.7868
G1 X95.205 Y107.463 E10.8069
G1 X94.077 Y107.438 E10.9082
G1 X93.050 Y106.388 E11.0400
G1 X93.050 Y96.604 E11.9187
G1 X94.104 Y95.550 E12.0526
G1 X94.403 Y96.270 F18000
G92 E0.0000
G1 X125.597 Y96.270 E2.8014 F3000
G1 X126.230 Y96.903 E2.8817
G1 X126.230 Y106.082 E3.7060
G1 X125.645 Y106.705 E3.7827
G1 X124.464 Y106.780 E3.8891
G1 X123.882 Y106.931 E3.9430
G1 X123.535 Y107.079 E3.9769
G1 X123.209 Y107.268 E4.0108
G1 X122.736 Y107.647 E4.0652
G1 X122.339 Y108.104 E4.1196
G1 X122.136 Y108.426 E4.1537
G1 X121.993 Y108.721 E4.1832
G1 X121.860 Y109.098 E4.2191
G1 X121.778 Y109.466 E4.2529
G1 X121.736 Y110.070 E4.3073
G1 X121.803 Y110.672 E4.3617
G1 X121.903 Y111.046 E4.3965
G1 X121.988 Y111.267 E4.4177
G1 X122.136 Y111.574 E4.4483
G1 X122.339 Y111.896 E4.4825
G1 X122.736 Y112.353 E4.5369
G1 X123.213 Y112.735 E4.5917
G1 X123.481 Y112.893 E4.6197
G1 X123.829 Y113.050 E4.6540
G1 X124.431 Y113.217 E4.7101
G1 X124.742 Y113.256 E4.7383
G1 X125.614 Y113.276 E4.8166
G1 X126.230 Y113.905 E4.8957
G1 X126.230 Y123.097 E5.7211
G1 X125.597 Y123.730 E5.8015
G1 X94.403 Y123.730 E8.6029
G1 X93.770 Y123.097 E8.6832
G1 X93.770 Y113.899 E9.5092
G1 X94.400 Y113.267 E9.5893
G1 X95.129 Y113.265 E9.6548
G1 X95.516 Y113.225 E9.6897
G1 X96.102 Y113.073 E9.7441
G1 X96.637 Y112.825 E9.7970
G1 X97.145 Y112.466 E9.8529
G1 X97.243 Y112.378 E9.8647
G1 X97.653 Y111.905 E9.9209
G1 X97.939 Y111.428 E9.9709
G1 X97.996 Y111.303 E9.9833
G1 X98.186 Y110.711 E10.0391
G1 X98.263 Y110.126 E10.0921
G1 X98.232 Y109.521 E10.1464
G1 X98.156 Y109.150 E10.1805
G1 X98.058 Y108.854 E10.2085
G1 X97.781 Y108.288 E10.2650
G1 X97.567 Y107.979 E10.2988
G1 X97.349 Y107.735 E10.3282
G1 X97.003 Y107.419 E10.3702
G1 X96.700 Y107.210 E10.4033
G1 X96.155 Y106.946 E10.4577
G1 X95.569 Y106.783 E10.5124
G1 X95.258 Y106.744 E10.5405
G1 X94.386 Y106.724 E10.6188
G1 X93.770 Y106.095 E10.6979
G1 X93.770 Y96.903 E11.5234
G1 X94.403 Y96.270 E11.6037
G1 X94.701 Y96.990 F18000
G92 E0.0000
G1 X125.299 Y96.990 E2.7478 F3000
G1 X125.510 Y97.201 E2.7746
G1 X125.510 Y105.797 E3.5465
G1 X125.315 Y106.005 E3.5721
G1 X124.349 Y106.066 E3.6590
G1 X123.649 Y106.248 E3.7240
G1 X123.212 Y106.434 E3.7666
G1 X122.801 Y106.672 E3.8093
G1 X122.235 Y107.126 E3.8744
G1 X121.760 Y107.674 E3.9396
G1 X121.505 Y108.076 E3.9823
G1 X121.328 Y108.444 E4.0190
G1 X121.167 Y108.899 E4.0623
G1 X121.063 Y109.362 E4.1050
G1 X121.013 Y110.086 E4.1701
G1 X121.094 Y110.807 E4.2352
G1 X121.218 Y111.268 E4.2782
G1 X121.326 Y111.552 E4.3055
G1 X121.505 Y111.924 E4.3425
G1 X121.760 Y112.326 E4.3853
G1 X122.235 Y112.874 E4.4504
G1 X122.802 Y113.329 E4.5157
G1 X123.149 Y113.534 E4.5519
G1 X123.584 Y113.729 E4.5947
G1 X124.289 Y113.925 E4.6604
G1 X124.689 Y113.975 E4.6967
G1 X125.305 Y113.989 E4.7519
G1 X125.510 Y114.199 E4.7783
G1 X125.510 Y122.799 E5.5506
G1 X125.299 Y123.010 E5.5774
G1 X94.701 Y123.010 E8.3252
G1 X94.490 Y122.799 E8.3520
G1 X94.490 Y114.197 E9.1245
G1 X94.700 Y113.986 E9.1512
G1 X95.168 Y113.985 E9.1932
G1 X95.644 Y113.936 E9.2361
G1 X96.346 Y113.754 E9.3013
G1 X96.999 Y113.451 E9.3659
G1 X97.596 Y113.029 E9.4316
G1 X97.758 Y112.883 E9.4512
G1 X98.238 Y112.330 E9.5169
G1 X98.577 Y111.765 E9.5761
G1 X98.669 Y111.564 E9.5959
G1 X98.892 Y110.868 E9.6615
G1 X98.985 Y110.155 E9.7262
G1 X98.948 Y109.430 E9.7913
G1 X98.852 Y108.964 E9.8340
G1 X98.726 Y108.582 E9.8702
G1 X98.404 Y107.923 E9.9361
G1 X98.133 Y107.533 E9.9787
G1 X97.862 Y107.228 E10.0153
G1 X97.452 Y106.854 E10.0652
G1 X97.063 Y106.586 E10.1076
G1 X96.411 Y106.269 E10.1727
G1 X95.711 Y106.075 E10.2379
G1 X95.311 Y106.024 E10.2742
G1 X94.695 Y106.011 E10.3294
G1 X94.490 Y105.801 E10.3558
G1 X94.490 Y97.201 E11.1281
G1 X94.701 Y96.990 E11.1549
; feature inner perimeter
G1 X95.210 Y97.710 F18000
G1 X95.368 Y97.710
G1 X97.370 Y99.870
G92 E0.0000
G1 X106.325 Y99.870 E0.8042 F2700
G1 X106.096 Y100.488 E0.8634
G1 X105.973 Y101.289 E0.9361
G1 X106.013 Y102.108 E1.0098
G1 X106.218 Y102.901 E1.0833
G1 X106.577 Y103.633 E1.1566
G1 X107.077 Y104.279 E1.2299
G1 X107.696 Y104.810 E1.3031
G1 X108.410 Y105.206 E1.3764
G1 X109.188 Y105.450 E1.4497
G1 X110.000 Y105.533 E1.5230
G1 X110.812 Y105.450 E1.5963
G1 X111.529 Y105.225 E1.6638
G1 X112.010 Y104.989 E1.7119
G1 X112.627 Y104.560 E1.7794
G1 X113.189 Y103.969 E1.8527
G1 X113.621 Y103.276 E1.9260
G1 X113.904 Y102.511 E1.9992
G1 X114.028 Y101.704 E2.0725
G1 X113.987 Y100.889 E2.1458
G1 X113.723 Y99.870 E2.2403
G1 X122.630 Y99.870 E3.0403
G1 X122.630 Y103.551 E3.3708
G1 X121.920 Y103.854 E3.4401
G1 X121.225 Y104.257 E3.5122
G1 X120.759 Y104.593 E3.5639
G1 X120.246 Y105.037 E3.6248
G1 X119.856 Y105.445 E3.6755
G1 X119.417 Y105.990 E3.7383
G1 X118.983 Y106.677 E3.8113
G1 X118.666 Y107.334 E3.8769
G1 X118.394 Y108.100 E3.9499
G1 X118.222 Y108.871 E4.0208
G1 X118.158 Y109.357 E4.0648
G1 X118.127 Y110.147 E4.1357
G1 X118.192 Y110.934 E4.2067
G1 X118.275 Y111.417 E4.2507
G1 X118.475 Y112.158 E4.3197
G1 X118.679 Y112.694 E4.3711
G1 X118.983 Y113.323 E4.4339
G1 X119.417 Y114.010 E4.5069
G1 X119.856 Y114.555 E4.5697
G1 X120.246 Y114.963 E4.6203
G1 X120.759 Y115.407 E4.6813
G1 X121.216 Y115.737 E4.7320
G1 X121.823 Y116.095 E4.7952
G1 X122.630 Y116.458 E4.8747
G1 X122.630 Y120.130 E5.2045
