; G-Code generated by Simplify3D(R) Version 4.1.2
; May 31, 2022 at 2:11:17 AM
; Settings Summary
;   processName,Process1
;   applyToModels,82050.jpgW65H65T3V4B0A0C0NS
;   profileName,HSBot
;   profileVersion,2019-11-09 11:59:44
;   baseProfile,Default
;   printMaterial,pla
;   printQuality,High
;   printExtruders,
;   extruderName,Extruder 1,Extruder - Lite
;   extruderToolheadNumber,0,1
;   extruderDiameter,0.4,0.4
;   extruderAutoWidth,1,1
;   extruderWidth,0.48,0.48
;   extrusionMultiplier,1.1,0.93
;   extruderUseRetract,1,1
;   extruderRetractionDistance,2,1
;   extruderExtraRestartDistance,0,0
;   extruderRetractionZLift,0,0
;   extruderRetractionSpeed,3600,1800
;   extruderUseCoasting,0,0
;   extruderCoastingDistance,0.2,0.2
;   extruderUseWipe,0,0
;   extruderWipeDistance,2,5
;   primaryExtruder,0
;   layerHeight,0.2
;   topSolidLayers,4
;   bottomSolidLayers,4
;   perimeterOutlines,3
;   printPerimetersInsideOut,1
;   startPointOption,2
;   startPointOriginX,0
;   startPointOriginY,0
;   sequentialIslands,0
;   spiralVaseMode,0
;   firstLayerHeightPercentage,150
;   firstLayerWidthPercentage,150
;   firstLayerUnderspeed,0.5
;   useRaft,0
;   raftExtruder,0
;   raftTopLayers,3
;   raftBaseLayers,2
;   raftOffset,3
;   raftSeparationDistance,0.18
;   raftTopInfill,100
;   aboveRaftSpeedMultiplier,0.3
;   useSkirt,1
;   skirtExtruder,0
;   skirtLayers,1
;   skirtOutlines,5
;   skirtOffset,10
;   usePrimePillar,0
;   primePillarExtruder,999
;   primePillarWidth,12
;   primePillarLocation,7
;   primePillarSpeedMultiplier,1
;   useOozeShield,0
;   oozeShieldExtruder,999
;   oozeShieldOffset,2
;   oozeShieldOutlines,1
;   oozeShieldSidewallShape,1
;   oozeShieldSidewallAngle,30
;   oozeShieldSpeedMultiplier,1
;   infillExtruder,0
;   internalInfillPattern,Full Honeycomb
;   externalInfillPattern,Rectilinear
;   infillPercentage,20
;   outlineOverlapPercentage,15
;   infillExtrusionWidthPercentage,100
;   minInfillLength,5
;   infillLayerInterval,1
;   internalInfillAngles,0,120,-120
;   overlapInternalInfillAngles,0
;   externalInfillAngles,45,-45
;   generateSupport,0
;   supportExtruder,0
;   supportInfillPercentage,40
;   supportExtraInflation,0
;   supportBaseLayers,1
;   denseSupportExtruder,0
;   denseSupportLayers,0
;   denseSupportInfillPercentage,70
;   supportLayerInterval,1
;   supportHorizontalPartOffset,0.3
;   supportUpperSeparationLayers,1
;   supportLowerSeparationLayers,1
;   supportType,0
;   supportGridSpacing,2
;   maxOverhangAngle,45
;   supportAngles,0
;   temperatureName,Extruder 1,Bed
;   temperatureNumber,0,0
;   temperatureSetpointCount,1,1
;   temperatureSetpointLayers,1,1
;   temperatureSetpointTemperatures,217,55
;   temperatureStabilizeAtStartup,1,1
;   temperatureHeatedBed,0,1
;   fanLayers,1,2,5
;   fanSpeeds,0,15,50
;   blipFanToFullPower,1
;   adjustSpeedForCooling,0
;   minSpeedLayerTime,15
;   minCoolingSpeedSlowdown,20
;   increaseFanForCooling,1
;   minFanLayerTime,45
;   maxCoolingFanSpeed,40
;   increaseFanForBridging,1
;   bridgingFanSpeed,80
;   use5D,1
;   relativeEdistances,0
;   allowEaxisZeroing,1
;   independentExtruderAxes,0
;   includeM10123,0
;   stickySupport,1
;   applyToolheadOffsets,0
;   gcodeXoffset,0
;   gcodeYoffset,0
;   gcodeZoffset,0
;   overrideMachineDefinition,1
;   machineTypeOverride,0
;   strokeXoverride,220
;   strokeYoverride,220
;   strokeZoverride,150
;   originOffsetXoverride,0
;   originOffsetYoverride,0
;   originOffsetZoverride,0
;   homeXdirOverride,-1
;   homeYdirOverride,-1
;   homeZdirOverride,-1
;   flipXoverride,1
;   flipYoverride,-1
;   flipZoverride,1
;   toolheadOffsets,0,0|0,0|0,0|0,0|0,0|0,0
;   overrideFirmwareConfiguration,0
;   firmwareTypeOverride,RepRap (Marlin/Repetier/Sprinter)
;   GPXconfigOverride,r2
;   baudRateOverride,115200
;   overridePrinterModels,0
;   printerModelsOverride
;   startingGcode,G28 ; home all axes,G32 ; run bed.g -- probe bed and enable compensation
;   layerChangeGcode,
;   retractionGcode,
;   toolChangeGcode,
;   endingGcode,M0 ; call stop.g
;   exportFileFormat,gcode
;   celebration,0
;   celebrationSong,Random Song
;   postProcessing,
;   defaultSpeed,2400
;   outlineUnderspeed,0.5
;   solidInfillUnderspeed,0.8
;   supportUnderspeed,0.8
;   rapidXYspeed,18000
;   rapidZspeed,1200
;   minBridgingArea,50
;   bridgingExtraInflation,0
;   bridgingExtrusionMultiplier,0.96
;   bridgingSpeedMultiplier,1
;   useFixedBridgingAngle,0
;   fixedBridgingAngle,0
;   applyBridgingToPerimeters,0
;   filamentDiameters,1.75|1.75|1.75|1.75|1.75|1.75
;   filamentPricesPerKg,25|46|46|46|46|46
;   filamentDensities,1.29|1.25|1.25|1.25|1.25|1.25
;   useMinPrintHeight,0
;   minPrintHeight,0.3
;   useMaxPrintHeight,0
;   maxPrintHeight,5
;   useDiaphragm,1
;   diaphragmLayerInterval,20
;   robustSlicing,1
;   mergeAllIntoSolid,0
;   onlyRetractWhenCrossingOutline,1
;   retractBetweenLayers,0
;   useRetractionMinTravel,1
;   retractionMinTravel,5
;   retractWhileWiping,1
;   onlyWipeOutlines,1
;   avoidCrossingOutline,1
;   maxMovementDetourFactor,5
;   toolChangeRetractionDistance,12
;   toolChangeExtraRestartDistance,0
;   toolChangeRetractionSpeed,600
;   externalThinWallType,1
;   internalThinWallType,1
;   thinWallAllowedOverlapPercentage,10
;   singleExtrusionMinLength,0.1
;   singleExtrusionMinPrintingWidthPercentage,50
;   singleExtrusionMaxPrintingWidthPercentage,200
;   singleExtrusionEndpointExtension,0.2
;   horizontalSizeCompensation,0
G90
M82
M106 S0
M140 S55
M190 S55
G10 S217 R{217-50} P0
M116 P0
G28 ; home all axes
G32 ; run bed.g -- probe bed and enable compensation
; process Process1
; layer 1, Z = 0.300
T0
G92 E0.0000
G1 E-2.0000 F3600
; feature skirt
; tool H0.300 W0.720
G1 Z0.300 F1200
G1 X64.260 Y72.016 F18000
G1 E0.0000 F3600
G92 E0.0000
G1 X72.016 Y64.260 E1.0835 F1200
G1 X147.984 Y64.260 E8.5878
G1 X155.740 Y72.016 E9.6713
G1 X155.740 Y147.984 E17.1757
G1 X147.984 Y155.740 E18.2592
G1 X72.016 Y155.740 E25.7635
G1 X64.260 Y147.984 E26.8470
G1 X64.260 Y72.016 E34.3514
G1 X64.980 Y72.314 F18000
G92 E0.0000
G1 X72.314 Y64.980 E1.0246 F1200
G1 X147.686 Y64.980 E8.4700
G1 X155.020 Y72.314 E9.4946
G1 X155.020 Y147.686 E16.9400
G1 X147.686 Y155.020 E17.9646
G1 X72.314 Y155.020 E25.4100
G1 X64.980 Y147.686 E26.4346
G1 X64.980 Y72.314 E33.8800
G1 X65.700 Y72.612 F18000
G92 E0.0000
G1 X72.612 Y65.700 E0.9656 F1200
G1 X147.388 Y65.700 E8.3522
G1 X154.300 Y72.612 E9.3178
G1 X154.300 Y147.388 E16.7043
G1 X147.388 Y154.300 E17.6700
G1 X72.612 Y154.300 E25.0565
G1 X65.700 Y147.388 E26.0221
G1 X65.700 Y72.612 E33.4086
G1 X66.420 Y72.911 F18000
G92 E0.0000
G1 X72.911 Y66.420 E0.9067 F1200
G1 X147.089 Y66.420 E8.2343
G1 X153.580 Y72.911 E9.1410
G1 X153.580 Y147.089 E16.4686
G1 X147.089 Y153.580 E17.3754
G1 X72.911 Y153.580 E24.7029
G1 X66.420 Y147.089 E25.6097
G1 X66.420 Y72.911 E32.9373
G1 X67.140 Y73.209 F18000
G92 E0.0000
G1 X73.209 Y67.140 E0.8478 F1200
G1 X146.791 Y67.140 E8.1165
G1 X152.860 Y73.209 E8.9643
G1 X152.860 Y146.791 E16.2329
G1 X146.791 Y152.860 E17.0807
G1 X73.209 Y152.860 E24.3494
G1 X67.140 Y146.791 E25.1972
G1 X67.140 Y73.209 E32.4659
G92 E0.0000
G1 E-2.0000 F3600
; feature inner perimeter
G1 X77.860 Y77.860 F18000
G1 X77.860 Y78.579
G1 X79.300 Y79.300
G1 E0.0000 F3600
G92 E0.0000
G1 X140.700 Y79.300 E6.0653 F900
G1 X140.700 Y140.700 E12.1305
G1 X79.300 Y140.700 E18.1958
G1 X79.300 Y79.300 E24.2610
G1 X78.580 Y78.580 F18000
G92 E0.0000
G1 X141.420 Y78.580 E6.2075 F900
G1 X141.420 Y141.420 E12.4150
G1 X78.580 Y141.420 E18.6225
G1 X78.580 Y78.580 E24.8300
; feature outer perimeter
G1 X77.860 Y77.860 F18000
G92 E0.0000
G1 X142.140 Y77.860 E6.3497 F600
G1 X142.140 Y142.140 E12.6995
G1 X77.860 Y142.140 E19.0492
G1 X77.860 Y77.860 E25.3990
; feature solid layer
G1 X139.988 Y79.912 F18000
G92 E0.0000
G1 X140.088 Y80.012 E0.0140 F960
G1 X140.088 Y81.030 E0.1146
G1 X138.970 Y79.912 E0.2708
G1 X137.951 Y79.912 E0.3714
G1 X140.088 Y82.049 E0.6699
G1 X140.088 Y83.067 E0.7705
G1 X136.933 Y79.912 E1.2112
G1 X135.915 Y79.912 E1.3118
G1 X140.088 Y84.085 E1.8948
G1 X140.088 Y85.103 E1.9954
G1 X134.897 Y79.912 E2.7206
G1 X133.878 Y79.912 E2.8212
G1 X140.088 Y86.122 E3.6887
G1 X140.088 Y87.140 E3.7893
G1 X132.860 Y79.912 E4.7990
G1 X131.842 Y79.912 E4.8996
G1 X140.088 Y88.158 E6.0515
G1 X140.088 Y89.176 E6.1521
G1 X130.824 Y79.912 E7.4463
G1 X129.805 Y79.912 E7.5469
G1 X140.088 Y90.195 E8.9834
G1 X140.088 Y91.213 E9.0840
G1 X128.787 Y79.912 E10.6627
G1 X127.769 Y79.912 E10.7633
G1 X140.088 Y92.231 E12.4842
G1 X140.088 Y93.249 E12.5848
G1 X126.751 Y79.912 E14.4480
G1 X125.733 Y79.912 E14.5486
G1 X140.088 Y94.267 E16.5541
G1 X140.088 Y95.286 E16.6546
G1 X124.714 Y79.912 E18.8023
G1 X123.696 Y79.912 E18.9029
G1 X140.088 Y96.304 E21.1929
G1 X140.088 Y97.322 E21.2935
G1 X122.678 Y79.912 E23.7257
G1 X121.660 Y79.912 E23.8262
G1 X140.088 Y98.340 E26.4007
G1 X140.088 Y99.359 E26.5013
G1 X120.641 Y79.912 E29.2180
G1 X119.623 Y79.912 E29.3185
G1 X140.088 Y100.377 E32.1775
G1 X140.088 Y101.395 E32.2781
G1 X118.605 Y79.912 E35.2792
G1 X117.587 Y79.912 E35.3798
G1 X140.088 Y102.413 E38.5233
G1 X140.088 Y103.432 E38.6238
G1 X116.568 Y79.912 E41.9095
G1 X115.550 Y79.912 E42.0101
G1 X140.088 Y104.450 E45.4380
G1 X140.088 Y105.468 E45.5386
G1 X114.532 Y79.912 E49.1088
G1 X113.514 Y79.912 E49.2094
G1 X140.088 Y106.486 E52.9218
G1 X140.088 Y107.505 E53.0224
G1 X112.495 Y79.912 E56.8770
G1 X111.477 Y79.912 E56.9776
G1 X140.088 Y108.523 E60.9745
G1 X140.088 Y109.541 E61.0751
G1 X110.459 Y79.912 E65.2143
G1 X109.441 Y79.912 E65.3149
G1 X140.088 Y110.559 E69.5963
G1 X140.088 Y111.577 E69.6968
G1 X108.423 Y79.912 E74.1205
G1 X107.404 Y79.912 E74.2211
G1 X140.088 Y112.596 E78.7870
G1 X140.088 Y113.614 E78.8876
G1 X106.386 Y79.912 E83.5957
G1 X105.368 Y79.912 E83.6963
G1 X140.088 Y114.632 E88.5467
G1 X140.088 Y115.650 E88.6473
G1 X104.350 Y79.912 E93.6399
G1 X103.331 Y79.912 E93.7405
G1 X140.088 Y116.669 E98.8754
G1 X140.088 Y117.687 E98.9760
G1 X102.313 Y79.912 E104.2531
G1 X101.295 Y79.912 E104.3537
G1 X140.088 Y118.705 E109.7731
G1 X140.088 Y119.723 E109.8737
G1 X100.277 Y79.912 E115.4353
G1 X99.258 Y79.912 E115.5359
G1 X140.088 Y120.742 E121.2397
G1 X140.088 Y121.760 E121.3403
G1 X98.240 Y79.912 E127.1864
G1 X97.222 Y79.912 E127.2870
G1 X140.088 Y122.778 E133.2754
G1 X140.088 Y123.796 E133.3760
G1 X96.204 Y79.912 E139.5066
G1 X95.186 Y79.912 E139.6072
G1 X140.088 Y124.814 E145.8800
G1 X140.088 Y125.833 E145.9806
G1 X94.167 Y79.912 E152.3957
G1 X93.149 Y79.912 E152.4963
G1 X140.088 Y126.851 E159.0537
G1 X140.088 Y127.869 E159.1543
G1 X92.131 Y79.912 E165.8539
G1 X91.113 Y79.912 E165.9545
G1 X140.088 Y128.887 E172.7963
G1 X140.088 Y129.906 E172.8969
G1 X90.094 Y79.912 E179.8810
G1 X89.076 Y79.912 E179.9816
G1 X140.088 Y130.924 E187.1079
G1 X140.088 Y131.942 E187.2085
G1 X88.058 Y79.912 E194.4771
G1 X87.040 Y79.912 E194.5777
G1 X140.088 Y132.960 E201.9885
G1 X140.088 Y133.979 E202.0891
G1 X86.021 Y79.912 E209.6422
G1 X85.003 Y79.912 E209.7428
G1 X140.088 Y134.997 E217.4381
G1 X140.088 Y136.015 E217.5387
G1 X83.985 Y79.912 E225.3763
G1 X82.967 Y79.912 E225.4768
G1 X140.088 Y137.033 E233.4567
G1 X140.088 Y138.052 E233.5573
G1 X81.948 Y79.912 E241.6793
G1 X80.930 Y79.912 E241.7799
G1 X140.088 Y139.070 E250.0442
G1 X140.088 Y140.088 E250.1448
G1 X79.912 Y79.912 E258.5514
G1 X79.912 Y80.930 E258.6520
G1 X139.070 Y140.088 E266.9163
G1 X138.052 Y140.088 E267.0169
G1 X79.912 Y81.948 E275.1390
G1 X79.912 Y82.967 E275.2395
G1 X137.033 Y140.088 E283.2194
G1 X136.015 Y140.088 E283.3199
G1 X79.912 Y83.985 E291.1575
G1 X79.912 Y85.003 E291.2581
G1 X134.997 Y140.088 E298.9535
G1 X133.979 Y140.088 E299.0540
G1 X79.912 Y86.021 E306.6071
G1 X79.912 Y87.040 E306.7077
G1 X132.960 Y140.088 E314.1186
G1 X131.942 Y140.088 E314.2191
G1 X79.912 Y88.058 E321.4877
G1 X79.912 Y89.076 E321.5883
G1 X130.924 Y140.088 E328.7147
G1 X129.906 Y140.088 E328.8152
G1 X79.912 Y90.094 E335.7993
G1 X79.912 Y91.113 E335.8999
G1 X128.887 Y140.088 E342.7418
G1 X127.869 Y140.088 E342.8424
G1 X79.912 Y92.131 E349.5420
G1 X79.912 Y93.149 E349.6426
G1 X126.851 Y140.088 E356.1999
G1 X125.833 Y140.088 E356.3005
G1 X79.912 Y94.167 E362.7156
G1 X79.912 Y95.185 E362.8162
G1 X124.815 Y140.088 E369.0891
G1 X123.796 Y140.088 E369.1897
G1 X79.912 Y96.204 E375.3203
G1 X79.912 Y97.222 E375.4209
G1 X122.778 Y140.088 E381.4092
G1 X121.760 Y140.088 E381.5098
G1 X79.912 Y98.240 E387.3559
G1 X79.912 Y99.258 E387.4565
G1 X120.742 Y140.088 E393.1604
G1 X119.723 Y140.088 E393.2610
G1 X79.912 Y100.277 E398.8226
G1 X79.912 Y101.295 E398.9232
G1 X118.705 Y140.088 E404.3426
G1 X117.687 Y140.088 E404.4432
G1 X79.912 Y102.313 E409.7203
G1 X79.912 Y103.331 E409.8209
G1 X116.669 Y140.088 E414.9558
G1 X115.650 Y140.088 E415.0564
G1 X79.912 Y104.350 E420.0490
G1 X79.912 Y105.368 E420.1496
G1 X114.632 Y140.088 E425.0000
G1 X113.614 Y140.088 E425.1006
G1 X79.912 Y106.386 E429.8087
G1 X79.912 Y107.404 E429.9093
G1 X112.596 Y140.088 E434.4752
G1 X111.577 Y140.088 E434.5758
G1 X79.912 Y108.423 E438.9995
G1 X79.912 Y109.441 E439.1000
G1 X110.559 Y140.088 E443.3814
G1 X109.541 Y140.088 E443.4820
G1 X79.912 Y110.459 E447.6212
G1 X79.912 Y111.477 E447.7218
G1 X108.523 Y140.088 E451.7187
G1 X107.505 Y140.088 E451.8193
G1 X79.912 Y112.495 E455.6739
G1 X79.912 Y113.514 E455.7745
G1 X106.486 Y140.088 E459.4869
G1 X105.468 Y140.088 E459.5875
G1 X79.912 Y114.532 E463.1577
G1 X79.912 Y115.550 E463.2583
G1 X104.450 Y140.088 E466.6862
G1 X103.432 Y140.088 E466.7868
G1 X79.912 Y116.568 E470.0725
G1 X79.912 Y117.587 E470.1731
G1 X102.413 Y140.088 E473.3165
G1 X101.395 Y140.088 E473.4171
G1 X79.912 Y118.605 E476.4183
G1 X79.912 Y119.623 E476.5189
G1 X100.377 Y140.088 E479.3778
G1 X99.359 Y140.088 E479.4784
G1 X79.912 Y120.641 E482.1951
G1 X79.912 Y121.660 E482.2957
G1 X98.340 Y140.088 E484.8701
G1 X97.322 Y140.088 E484.9707
G1 X79.912 Y122.678 E487.4029
G1 X79.912 Y123.696 E487.5035
G1 X96.304 Y140.088 E489.7934
G1 X95.286 Y140.088 E489.8940
G1 X79.912 Y124.714 E492.0417
G1 X79.912 Y125.733 E492.1423
G1 X94.267 Y140.088 E494.1477
G1 X93.249 Y140.088 E494.2483
G1 X79.912 Y126.751 E496.1115
G1 X79.912 Y127.769 E496.2121
G1 X92.231 Y140.088 E497.9331
G1 X91.213 Y140.088 E498.0337
G1 X79.912 Y128.787 E499.6124
G1 X79.912 Y129.805 E499.7130
G1 X90.195 Y140.088 E501.1494
G1 X89.176 Y140.088 E501.2500
G1 X79.912 Y130.824 E502.5443
G1 X79.912 Y131.842 E502.6448
G1 X88.158 Y140.088 E503.7968
G1 X87.140 Y140.088 E503.8974
G1 X79.912 Y132.860 E504.9071
G1 X79.912 Y133.878 E505.0077
G1 X86.122 Y140.088 E505.8752
G1 X85.103 Y140.088 E505.9758
G1 X79.912 Y134.897 E506.7010
G1 X79.912 Y135.915 E506.8016
G1 X84.085 Y140.088 E507.3846
G1 X83.067 Y140.088 E507.4852
G1 X79.912 Y136.933 E507.9259
G1 X79.912 Y137.951 E508.0265
G1 X82.049 Y140.088 E508.3250
G1 X81.030 Y140.088 E508.4256
G1 X79.912 Y138.970 E508.5818
G1 X79.912 Y139.988 E508.6824
G1 X80.012 Y140.088 E508.6964
; layer 2, Z = 0.500
M106 S255
G4 P500
M106 S38
; feature inner perimeter
; tool H0.200 W0.480
G1 Z0.500 F1200
G1 X78.700 Y141.300 F18000
G92 E0.0000
G1 X78.700 Y78.700 E2.7484 F1800
G1 X141.300 Y78.700 E5.4967
G1 X141.300 Y141.300 E8.2451
G1 X78.700 Y141.300 E10.9934
G1 X78.220 Y141.780 F18000
G92 E0.0000
G1 X78.220 Y78.220 E2.7905 F1800
G1 X141.780 Y78.220 E5.5810
G1 X141.780 Y141.780 E8.3715
G1 X78.220 Y141.780 E11.1620
; feature outer perimeter
G1 X77.740 Y142.260 F18000
G92 E0.0000
G1 X77.740 Y77.740 E2.8326 F1200
G1 X142.260 Y77.740 E5.6653
G1 X142.260 Y142.260 E8.4979
G1 X77.740 Y142.260 E11.3306
; feature solid layer
G1 X79.108 Y79.119 F18000
G92 E0.0000
G1 X79.119 Y79.108 E0.0007 F1920
G1 X79.798 Y79.108 E0.0305
G1 X79.108 Y79.798 E0.0733
G1 X79.108 Y80.477 E0.1031
G1 X80.477 Y79.108 E0.1881
G1 X81.156 Y79.108 E0.2179
G1 X79.108 Y81.156 E0.3451
G1 X79.108 Y81.834 E0.3749
G1 X81.834 Y79.108 E0.5442
G1 X82.513 Y79.108 E0.5740
G1 X79.108 Y82.513 E0.7854
G1 X79.108 Y83.192 E0.8152
G1 X83.192 Y79.108 E1.0688
G1 X83.871 Y79.108 E1.0986
G1 X79.108 Y83.871 E1.3943
G1 X79.108 Y84.550 E1.4241
G1 X84.550 Y79.108 E1.7620
G1 X85.229 Y79.108 E1.7918
