; G-Code generated by Simplify3D(R) Version 4.1.2
; Jun 3, 2022 at 8:06:27 PM
; Settings Summary
;   processName,Process1
;   applyToModels,motor-halterung-federung-v4
;   profileName,HSBot (modified)
;   profileVersion,2019-11-09 11:59:44
;   baseProfile,Default
;   printMaterial,Filaflex 82A
;   printQuality,Medium
;   printExtruders,
;   extruderName,Extruder 1,Extruder - Lite
;   extruderToolheadNumber,0,1
;   extruderDiameter,0.4,0.4
;   extruderAutoWidth,1,1
;   extruderWidth,0.48,0.48
;   extrusionMultiplier,0.95,0.93
;   extruderUseRetract,0,1
;   extruderRetractionDistance,6,1
;   extruderExtraRestartDistance,0,0
;   extruderRetractionZLift,0,0
;   extruderRetractionSpeed,2400,1800
;   extruderUseCoasting,0,0
;   extruderCoastingDistance,0.2,0.2
;   extruderUseWipe,0,0
;   extruderWipeDistance,1,5
;   primaryExtruder,0
;   layerHeight,0.2
;   topSolidLayers,3
;   bottomSolidLayers,3
;   perimeterOutlines,3
;   printPerimetersInsideOut,1
;   startPointOption,2
;   startPointOriginX,0
;   startPointOriginY,0
;   sequentialIslands,0
;   spiralVaseMode,0
;   firstLayerHeightPercentage,100
;   firstLayerWidthPercentage,100
;   firstLayerUnderspeed,1
;   useRaft,0
;   raftExtruder,0
;   raftTopLayers,3
;   raftBaseLayers,2
;   raftOffset,3
;   raftSeparationDistance,0.18
;   raftTopInfill,100
;   aboveRaftSpeedMultiplier,0.3
;   useSkirt,1
;   skirtExtruder,0
;   skirtLayers,1
;   skirtOutlines,5
;   skirtOffset,5
;   usePrimePillar,0
;   primePillarExtruder,999
;   primePillarWidth,12
;   primePillarLocation,7
;   primePillarSpeedMultiplier,1
;   useOozeShield,0
;   oozeShieldExtruder,999
;   oozeShieldOffset,2
;   oozeShieldOutlines,1
;   oozeShieldSidewallShape,1
;   oozeShieldSidewallAngle,30
;   oozeShieldSpeedMultiplier,1
;   infillExtruder,0
;   internalInfillPattern,Full Honeycomb
;   externalInfillPattern,Rectilinear
;   infillPercentage,20
;   outlineOverlapPercentage,20
;   infillExtrusionWidthPercentage,100
;   minInfillLength,3
;   infillLayerInterval,1
;   internalInfillAngles,0,120,-120
;   overlapInternalInfillAngles,0
;   externalInfillAngles,45,-45
;   generateSupport,0
;   supportExtruder,0
;   supportInfillPercentage,30
;   supportExtraInflation,0
;   supportBaseLayers,1
;   denseSupportExtruder,0
;   denseSupportLayers,0
;   denseSupportInfillPercentage,70
;   supportLayerInterval,1
;   supportHorizontalPartOffset,0.3
;   supportUpperSeparationLayers,1
;   supportLowerSeparationLayers,1
;   supportType,0
;   supportGridSpacing,2
;   maxOverhangAngle,45
;   supportAngles,0
;   temperatureName,Extruder 1,Bed
;   temperatureNumber,0,0
;   temperatureSetpointCount,1,1
;   temperatureSetpointLayers,1,1
;   temperatureSetpointTemperatures,245,55
;   temperatureStabilizeAtStartup,1,1
;   temperatureHeatedBed,0,1
;   fanLayers,1,2,3
;   fanSpeeds,0,15,30
;   blipFanToFullPower,1
;   adjustSpeedForCooling,0
;   minSpeedLayerTime,15
;   minCoolingSpeedSlowdown,20
;   increaseFanForCooling,1
;   minFanLayerTime,45
;   maxCoolingFanSpeed,40
;   increaseFanForBridging,1
;   bridgingFanSpeed,80
;   use5D,1
;   relativeEdistances,0
;   allowEaxisZeroing,1
;   independentExtruderAxes,0
;   includeM10123,0
;   stickySupport,1
;   applyToolheadOffsets,0
;   gcodeXoffset,0
;   gcodeYoffset,0
;   gcodeZoffset,0
;   overrideMachineDefinition,1
;   machineTypeOverride,0
;   strokeXoverride,220
;   strokeYoverride,220
;   strokeZoverride,150
;   originOffsetXoverride,0
;   originOffsetYoverride,0
;   originOffsetZoverride,0
;   homeXdirOverride,-1
;   homeYdirOverride,-1
;   homeZdirOverride,-1
;   flipXoverride,1
;   flipYoverride,-1
;   flipZoverride,1
;   toolheadOffsets,0,0|0,0|0,0|0,0|0,0|0,0
;   overrideFirmwareConfiguration,0
;   firmwareTypeOverride,RepRap (Marlin/Repetier/Sprinter)
;   GPXconfigOverride,r2
;   baudRateOverride,115200
;   overridePrinterModels,0
;   printerModelsOverride
;   startingGcode,G28 ; home all axes,G32 ; run bed.g -- probe bed and enable compensation
;   layerChangeGcode,
;   retractionGcode,
;   toolChangeGcode,
;   endingGcode,M0 ; call stop.g
;   exportFileFormat,gcode
;   celebration,0
;   celebrationSong,Random Song
;   postProcessing,|; 0.2mm layer, 8 bands 5mm each, total height 40mm|{REPLACE "; layer 25" "M572 D0 S0.69\n; layer 10"}|{REPLACE "; layer 50" "M572 D0 S0.70\n; layer 50"}|{REPLACE "; layer 75" "M572 D0 S0.71\n; layer 75"}|{REPLACE "; layer 100" "M572 D0 S0.72\n; layer 100"}|{REPLACE "; layer 125" "M572 D0 S0.73\n; layer 125"}|{REPLACE "; layer 150" "M572 D0 S0.74\n; layer 150"}|{REPLACE "; layer 175" "M572 D0 S0.75\n; layer 175"}|{REPLACE "; layer 200" "M572 D0 S0.76\n; layer 200"}
;   defaultSpeed,1200
;   outlineUnderspeed,0.8
;   solidInfillUnderspeed,0.75
;   supportUnderspeed,0.8
;   rapidXYspeed,18000
;   rapidZspeed,1200
;   minBridgingArea,50
;   bridgingExtraInflation,0
;   bridgingExtrusionMultiplier,0.96
;   bridgingSpeedMultiplier,1
;   useFixedBridgingAngle,0
;   fixedBridgingAngle,0
;   applyBridgingToPerimeters,0
;   filamentDiameters,1.75|1.75|1.75|1.75|1.75|1.75
;   filamentPricesPerKg,25|46|46|46|46|46
;   filamentDensities,1.29|1.25|1.25|1.25|1.25|1.25
;   useMinPrintHeight,0
;   minPrintHeight,0.3
;   useMaxPrintHeight,0
;   maxPrintHeight,5
;   useDiaphragm,0
;   diaphragmLayerInterval,20
;   robustSlicing,1
;   mergeAllIntoSolid,0
;   onlyRetractWhenCrossingOutline,1
;   retractBetweenLayers,0
;   useRetractionMinTravel,1
;   retractionMinTravel,5
;   retractWhileWiping,1
;   onlyWipeOutlines,1
;   avoidCrossingOutline,1
;   maxMovementDetourFactor,2
;   toolChangeRetractionDistance,12
;   toolChangeExtraRestartDistance,0
;   toolChangeRetractionSpeed,600
;   externalThinWallType,0
;   internalThinWallType,0
;   thinWallAllowedOverlapPercentage,10
;   singleExtrusionMinLength,0.1
;   singleExtrusionMinPrintingWidthPercentage,50
;   singleExtrusionMaxPrintingWidthPercentage,200
;   singleExtrusionEndpointExtension,0.2
;   horizontalSizeCompensation,0.02
G90
M82
M106 S255
G4 P500
M106 S102
M140 S55
M190 S55
G10 S245 R{245-50} P0
M116 P0
G28 ; home all axes
G32 ; run bed.g -- probe bed and enable compensation
; process Process1
; layer 1, Z = 0.200
T0
; feature skirt
; tool H0.200 W0.480
G1 Z0.200 F1200
G1 X101.126 Y100.391 F18000
G92 E0.0000
G1 X101.468 Y100.082 E0.0175 F1200
G1 X102.271 Y99.446 E0.0563
G1 X102.571 Y99.233 E0.0703
G1 X103.397 Y98.707 E0.1074
G1 X103.718 Y98.526 E0.1214
G1 X104.593 Y98.088 E0.1585
G1 X104.931 Y97.941 E0.1725
G1 X105.846 Y97.596 E0.2095
G1 X106.198 Y97.483 E0.2235
G1 X107.144 Y97.234 E0.2606
G1 X107.505 Y97.159 E0.2746
G1 X108.472 Y97.008 E0.3117
G1 X108.838 Y96.970 E0.3257
G1 X109.816 Y96.920 E0.3628
G1 X110.184 Y96.920 E0.3768
G1 X111.162 Y96.970 E0.4139
G1 X111.528 Y97.008 E0.4279
G1 X112.495 Y97.159 E0.4649
G1 X112.856 Y97.234 E0.4789
G1 X113.847 Y97.495 E0.5178
G1 X114.284 Y97.641 E0.5353
G1 X115.558 Y98.159 E0.5874
G1 X115.973 Y98.360 E0.6049
G1 X116.864 Y98.864 E0.6437
G1 X117.176 Y99.062 E0.6577
G1 X117.973 Y99.629 E0.6948
G1 X118.262 Y99.858 E0.7088
G1 X118.997 Y100.504 E0.7459
G1 X119.261 Y100.761 E0.7599
G1 X119.926 Y101.479 E0.7970
G1 X120.162 Y101.763 E0.8109
G1 X120.749 Y102.545 E0.8480
G1 X120.955 Y102.851 E0.8620
G1 X121.459 Y103.690 E0.8991
G1 X121.632 Y104.016 E0.9131
G1 X122.047 Y104.902 E0.9502
G1 X122.186 Y105.243 E0.9642
G1 X122.507 Y106.167 E1.0013
G1 X122.610 Y106.521 E1.0153
G1 X122.835 Y107.474 E1.0524
G1 X122.901 Y107.837 E1.0664
G1 X123.033 Y108.852 E1.1052
G1 X123.062 Y109.312 E1.1227
G1 X123.062 Y110.687 E1.1748
G1 X123.033 Y111.147 E1.1923
G1 X122.901 Y112.164 E1.2311
G1 X122.835 Y112.526 E1.2451
G1 X122.610 Y113.479 E1.2822
G1 X122.507 Y113.833 E1.2962
G1 X122.186 Y114.757 E1.3333
G1 X122.047 Y115.098 E1.3473
G1 X121.632 Y115.984 E1.3844
G1 X121.459 Y116.310 E1.3984
G1 X120.955 Y117.149 E1.4355
G1 X120.749 Y117.455 E1.4494
G1 X120.134 Y118.274 E1.4883
G1 X119.834 Y118.625 E1.5058
G1 X118.874 Y119.609 E1.5579
G1 X118.532 Y119.918 E1.5754
G1 X117.729 Y120.554 E1.6142
G1 X117.429 Y120.767 E1.6282
G1 X116.603 Y121.293 E1.6653
G1 X116.282 Y121.474 E1.6793
G1 X115.407 Y121.912 E1.7164
G1 X115.069 Y122.059 E1.7304
G1 X114.154 Y122.404 E1.7675
G1 X113.802 Y122.517 E1.7815
G1 X112.856 Y122.766 E1.8186
G1 X112.495 Y122.841 E1.8325
G1 X111.528 Y122.992 E1.8696
G1 X111.162 Y123.030 E1.8836
G1 X110.184 Y123.080 E1.9207
G1 X109.816 Y123.080 E1.9347
G1 X108.838 Y123.030 E1.9718
G1 X108.472 Y122.992 E1.9858
G1 X107.505 Y122.841 E2.0229
G1 X107.144 Y122.766 E2.0368
G1 X106.153 Y122.505 E2.0757
G1 X105.716 Y122.359 E2.0932
G1 X104.442 Y121.841 E2.1453
G1 X104.027 Y121.640 E2.1628
G1 X103.136 Y121.136 E2.2016
G1 X102.824 Y120.938 E2.2156
G1 X102.027 Y120.371 E2.2527
G1 X101.738 Y120.142 E2.2667
G1 X101.003 Y119.496 E2.3038
G1 X100.739 Y119.239 E2.3178
G1 X100.074 Y118.521 E2.3549
G1 X99.838 Y118.237 E2.3689
G1 X99.251 Y117.455 E2.4060
G1 X99.045 Y117.149 E2.4199
G1 X98.518 Y116.271 E2.4588
G1 X98.306 Y115.861 E2.4763
G1 X97.756 Y114.601 E2.5284
G1 X97.598 Y114.168 E2.5459
G1 X97.312 Y113.184 E2.5847
G1 X97.227 Y112.825 E2.5987
G1 X97.052 Y111.862 E2.6358
G1 X97.005 Y111.497 E2.6498
G1 X96.929 Y110.521 E2.6869
G1 X96.920 Y110.153 E2.7009
G1 X96.945 Y109.174 E2.7380
G1 X96.973 Y108.807 E2.7520
G1 X97.099 Y107.836 E2.7891
G1 X97.165 Y107.474 E2.8030
G1 X97.390 Y106.521 E2.8401
G1 X97.493 Y106.167 E2.8541
G1 X97.814 Y105.243 E2.8912
G1 X97.953 Y104.902 E2.9052
G1 X98.368 Y104.016 E2.9423
G1 X98.541 Y103.690 E2.9563
G1 X99.045 Y102.851 E2.9934
G1 X99.251 Y102.545 E3.0074
G1 X99.866 Y101.726 E3.0462
G1 X100.166 Y101.375 E3.0637
G1 X101.126 Y100.391 E3.1158
G1 X101.458 Y100.737 F18000
G92 E0.0000
G1 X101.778 Y100.449 E0.0163 F1200
G1 X102.559 Y99.830 E0.0541
G1 X102.840 Y99.631 E0.0671
G1 X103.644 Y99.119 E0.1033
G1 X103.944 Y98.950 E0.1163
G1 X104.797 Y98.523 E0.1525
G1 X105.112 Y98.385 E0.1655
G1 X106.004 Y98.049 E0.2017
G1 X106.332 Y97.944 E0.2147
G1 X107.254 Y97.702 E0.2509
G1 X107.591 Y97.631 E0.2640
G1 X108.533 Y97.484 E0.3001
G1 X108.875 Y97.449 E0.3132
G1 X109.828 Y97.400 E0.3493
G1 X110.172 Y97.400 E0.3624
G1 X111.125 Y97.449 E0.3985
G1 X111.467 Y97.484 E0.4116
G1 X112.409 Y97.631 E0.4477
G1 X112.746 Y97.702 E0.4608
G1 X113.710 Y97.955 E0.4986
G1 X114.118 Y98.092 E0.5149
G1 X115.363 Y98.598 E0.5658
G1 X115.750 Y98.785 E0.5822
G1 X116.617 Y99.276 E0.6199
G1 X116.908 Y99.461 E0.6330
G1 X117.685 Y100.013 E0.6691
G1 X117.955 Y100.227 E0.6822
G1 X118.671 Y100.856 E0.7183
G1 X118.917 Y101.096 E0.7314
G1 X119.565 Y101.796 E0.7675
G1 X119.786 Y102.061 E0.7806
G1 X120.358 Y102.823 E0.8168
G1 X120.550 Y103.109 E0.8298
G1 X121.041 Y103.926 E0.8660
G1 X121.203 Y104.230 E0.8790
G1 X121.607 Y105.094 E0.9152
G1 X121.737 Y105.413 E0.9282
G1 X122.050 Y106.313 E0.9644
G1 X122.146 Y106.644 E0.9774
G1 X122.365 Y107.572 E1.0136
G1 X122.427 Y107.910 E1.0266
G1 X122.555 Y108.898 E1.0644
G1 X122.582 Y109.328 E1.0807
G1 X122.582 Y110.672 E1.1317
G1 X122.555 Y111.101 E1.1480
G1 X122.427 Y112.090 E1.1858
G1 X122.365 Y112.428 E1.1988
G1 X122.146 Y113.356 E1.2350
G1 X122.050 Y113.687 E1.2480
G1 X121.737 Y114.587 E1.2842
G1 X121.607 Y114.906 E1.2972
G1 X121.203 Y115.770 E1.3334
G1 X121.041 Y116.074 E1.3464
G1 X120.550 Y116.891 E1.3826
G1 X120.358 Y117.177 E1.3956
G1 X119.760 Y117.974 E1.4334
G1 X119.480 Y118.301 E1.4498
G1 X118.541 Y119.263 E1.5007
G1 X118.222 Y119.551 E1.5170
G1 X117.441 Y120.170 E1.5548
G1 X117.160 Y120.369 E1.5679
G1 X116.356 Y120.881 E1.6040
G1 X116.056 Y121.050 E1.6171
G1 X115.203 Y121.477 E1.6532
G1 X114.888 Y121.614 E1.6663
G1 X113.996 Y121.951 E1.7024
G1 X113.668 Y122.056 E1.7155
G1 X112.746 Y122.298 E1.7516
G1 X112.409 Y122.369 E1.7647
G1 X111.467 Y122.516 E1.8008
G1 X111.125 Y122.551 E1.8139
G1 X110.172 Y122.600 E1.8500
G1 X109.828 Y122.600 E1.8631
G1 X108.875 Y122.551 E1.8993
G1 X108.533 Y122.516 E1.9123
G1 X107.591 Y122.369 E1.9485
G1 X107.254 Y122.298 E1.9615
G1 X106.290 Y122.045 E1.9993
G1 X105.882 Y121.908 E2.0156
G1 X104.637 Y121.402 E2.0666
G1 X104.250 Y121.215 E2.0829
G1 X103.383 Y120.724 E2.1207
G1 X103.092 Y120.539 E2.1337
G1 X102.315 Y119.987 E2.1699
G1 X102.045 Y119.773 E2.1829
G1 X101.329 Y119.144 E2.2191
G1 X101.083 Y118.904 E2.2321
G1 X100.435 Y118.204 E2.2683
G1 X100.214 Y117.939 E2.2813
G1 X99.642 Y117.177 E2.3175
G1 X99.450 Y116.891 E2.3305
G1 X98.937 Y116.037 E2.3683
G1 X98.740 Y115.655 E2.3846
G1 X98.202 Y114.423 E2.4356
G1 X98.055 Y114.019 E2.4519
G1 X97.776 Y113.062 E2.4897
G1 X97.697 Y112.727 E2.5027
G1 X97.526 Y111.788 E2.5389
G1 X97.482 Y111.447 E2.5519
G1 X97.409 Y110.497 E2.5881
G1 X97.400 Y110.153 E2.6011
G1 X97.424 Y109.199 E2.6373
G1 X97.451 Y108.856 E2.6504
G1 X97.573 Y107.910 E2.6865
G1 X97.635 Y107.572 E2.6996
G1 X97.854 Y106.644 E2.7357
G1 X97.950 Y106.313 E2.7488
G1 X98.263 Y105.413 E2.7849
G1 X98.393 Y105.094 E2.7980
G1 X98.797 Y104.230 E2.8341
G1 X98.959 Y103.926 E2.8472
G1 X99.450 Y103.109 E2.8833
G1 X99.642 Y102.823 E2.8964
G1 X100.240 Y102.026 E2.9342
G1 X100.520 Y101.699 E2.9505
G1 X101.458 Y100.737 E3.0015
G1 X101.791 Y101.083 F18000
G92 E0.0000
G1 X102.088 Y100.815 E0.0151 F1200
G1 X102.847 Y100.214 E0.0519
G1 X103.108 Y100.029 E0.0640
G1 X103.891 Y99.531 E0.0992
G1 X104.169 Y99.373 E0.1113
G1 X105.000 Y98.958 E0.1465
G1 X105.293 Y98.830 E0.1586
G1 X106.162 Y98.503 E0.1938
G1 X106.466 Y98.405 E0.2060
G1 X107.365 Y98.169 E0.2412
G1 X107.677 Y98.104 E0.2533
G1 X108.595 Y97.961 E0.2885
G1 X108.913 Y97.928 E0.3006
G1 X109.840 Y97.880 E0.3358
G1 X110.160 Y97.880 E0.3479
G1 X111.087 Y97.928 E0.3832
G1 X111.405 Y97.961 E0.3953
G1 X112.323 Y98.104 E0.4305
G1 X112.635 Y98.169 E0.4426
G1 X113.572 Y98.416 E0.4793
G1 X113.951 Y98.542 E0.4945
G1 X115.168 Y99.037 E0.5443
G1 X115.527 Y99.211 E0.5594
G1 X116.370 Y99.688 E0.5961
G1 X116.640 Y99.859 E0.6083
G1 X117.397 Y100.397 E0.6435
G1 X117.647 Y100.596 E0.6556
G1 X118.345 Y101.209 E0.6908
G1 X118.573 Y101.432 E0.7029
G1 X119.204 Y102.113 E0.7381
G1 X119.409 Y102.359 E0.7502
G1 X119.967 Y103.102 E0.7855
G1 X120.145 Y103.367 E0.7976
G1 X120.623 Y104.163 E0.8328
G1 X120.773 Y104.445 E0.8449
G1 X121.167 Y105.286 E0.8801
G1 X121.287 Y105.582 E0.8922
G1 X121.592 Y106.459 E0.9275
G1 X121.682 Y106.766 E0.9396
G1 X121.895 Y107.670 E0.9748
G1 X121.952 Y107.984 E0.9869
G1 X122.077 Y108.945 E1.0236
G1 X122.102 Y109.343 E1.0387
G1 X122.102 Y110.656 E1.0885
G1 X122.077 Y111.055 E1.1037
G1 X121.952 Y112.016 E1.1404
G1 X121.895 Y112.330 E1.1525
G1 X121.682 Y113.234 E1.1878
G1 X121.592 Y113.541 E1.1999
G1 X121.287 Y114.418 E1.2351
G1 X121.167 Y114.714 E1.2472
G1 X120.773 Y115.555 E1.2824
G1 X120.623 Y115.837 E1.2945
G1 X120.145 Y116.633 E1.3297
G1 X119.967 Y116.898 E1.3419
G1 X119.385 Y117.673 E1.3786
G1 X119.125 Y117.977 E1.3937
G1 X118.209 Y118.917 E1.4435
G1 X117.912 Y119.185 E1.4587
G1 X117.153 Y119.786 E1.4954
G1 X116.892 Y119.971 E1.5075
G1 X116.109 Y120.469 E1.5427
G1 X115.831 Y120.627 E1.5548
G1 X115.000 Y121.042 E1.5901
G1 X114.707 Y121.170 E1.6022
G1 X113.838 Y121.497 E1.6374
G1 X113.534 Y121.595 E1.6495
G1 X112.635 Y121.831 E1.6847
G1 X112.323 Y121.896 E1.6968
G1 X111.405 Y122.039 E1.7320
G1 X111.087 Y122.072 E1.7441
G1 X110.160 Y122.120 E1.7794
G1 X109.840 Y122.120 E1.7915
G1 X108.913 Y122.072 E1.8267
G1 X108.595 Y122.039 E1.8388
G1 X107.677 Y121.896 E1.8740
G1 X107.365 Y121.831 E1.8861
G1 X106.428 Y121.584 E1.9229
G1 X106.049 Y121.458 E1.9380
G1 X104.832 Y120.963 E1.9878
G1 X104.473 Y120.789 E2.0030
G1 X103.630 Y120.312 E2.0397
G1 X103.360 Y120.141 E2.0518
G1 X102.603 Y119.603 E2.0870
G1 X102.353 Y119.404 E2.0991
G1 X101.655 Y118.791 E2.1343
G1 X101.427 Y118.568 E2.1464
G1 X100.796 Y117.887 E2.1817
G1 X100.591 Y117.641 E2.1938
G1 X100.033 Y116.898 E2.2290
G1 X99.855 Y116.633 E2.2411
G1 X99.357 Y115.803 E2.2778
G1 X99.173 Y115.448 E2.2930
G1 X98.648 Y114.245 E2.3428
G1 X98.512 Y113.870 E2.3579
G1 X98.241 Y112.939 E2.3946
G1 X98.167 Y112.628 E2.4067
G1 X98.001 Y111.715 E2.4420
G1 X97.960 Y111.398 E2.4541
G1 X97.888 Y110.472 E2.4893
G1 X97.880 Y110.153 E2.5014
G1 X97.904 Y109.224 E2.5366
G1 X97.928 Y108.905 E2.5487
G1 X98.048 Y107.984 E2.5840
G1 X98.105 Y107.670 E2.5961
G1 X98.318 Y106.766 E2.6313
