; G-Code generated by Simplify3D(R) Version 4.1.2
; Jun 3, 2022 at 8:03:05 PM
; Settings Summary
;   processName,Process1
;   applyToModels,motor-halterung-federung-v3
;   profileName,HSBot (modified)
;   profileVersion,2019-11-09 11:59:44
;   baseProfile,Default
;   printMaterial,Filaflex 82A
;   printQuality,Medium
;   printExtruders,
;   extruderName,Extruder 1,Extruder - Lite
;   extruderToolheadNumber,0,1
;   extruderDiameter,0.4,0.4
;   extruderAutoWidth,1,1
;   extruderWidth,0.48,0.48
;   extrusionMultiplier,0.95,0.93
;   extruderUseRetract,0,1
;   extruderRetractionDistance,6,1
;   extruderExtraRestartDistance,0,0
;   extruderRetractionZLift,0,0
;   extruderRetractionSpeed,2400,1800
;   extruderUseCoasting,0,0
;   extruderCoastingDistance,0.2,0.2
;   extruderUseWipe,0,0
;   extruderWipeDistance,1,5
;   primaryExtruder,0
;   layerHeight,0.2
;   topSolidLayers,3
;   bottomSolidLayers,3
;   perimeterOutlines,3
;   printPerimetersInsideOut,1
;   startPointOption,2
;   startPointOriginX,0
;   startPointOriginY,0
;   sequentialIslands,0
;   spiralVaseMode,0
;   firstLayerHeightPercentage,100
;   firstLayerWidthPercentage,100
;   firstLayerUnderspeed,1
;   useRaft,0
;   raftExtruder,0
;   raftTopLayers,3
;   raftBaseLayers,2
;   raftOffset,3
;   raftSeparationDistance,0.18
;   raftTopInfill,100
;   aboveRaftSpeedMultiplier,0.3
;   useSkirt,1
;   skirtExtruder,0
;   skirtLayers,1
;   skirtOutlines,5
;   skirtOffset,5
;   usePrimePillar,0
;   primePillarExtruder,999
;   primePillarWidth,12
;   primePillarLocation,7
;   primePillarSpeedMultiplier,1
;   useOozeShield,0
;   oozeShieldExtruder,999
;   oozeShieldOffset,2
;   oozeShieldOutlines,1
;   oozeShieldSidewallShape,1
;   oozeShieldSidewallAngle,30
;   oozeShieldSpeedMultiplier,1
;   infillExtruder,0
;   internalInfillPattern,Full Honeycomb
;   externalInfillPattern,Rectilinear
;   infillPercentage,20
;   outlineOverlapPercentage,20
;   infillExtrusionWidthPercentage,100
;   minInfillLength,3
;   infillLayerInterval,1
;   internalInfillAngles,0,120,-120
;   overlapInternalInfillAngles,0
;   externalInfillAngles,45,-45
;   generateSupport,0
;   supportExtruder,0
;   supportInfillPercentage,30
;   supportExtraInflation,0
;   supportBaseLayers,1
;   denseSupportExtruder,0
;   denseSupportLayers,0
;   denseSupportInfillPercentage,70
;   supportLayerInterval,1
;   supportHorizontalPartOffset,0.3
;   supportUpperSeparationLayers,1
;   supportLowerSeparationLayers,1
;   supportType,0
;   supportGridSpacing,2
;   maxOverhangAngle,45
;   supportAngles,0
;   temperatureName,Extruder 1,Bed
;   temperatureNumber,0,0
;   temperatureSetpointCount,1,1
;   temperatureSetpointLayers,1,1
;   temperatureSetpointTemperatures,245,55
;   temperatureStabilizeAtStartup,1,1
;   temperatureHeatedBed,0,1
;   fanLayers,1,2,3
;   fanSpeeds,0,15,30
;   blipFanToFullPower,1
;   adjustSpeedForCooling,0
;   minSpeedLayerTime,15
;   minCoolingSpeedSlowdown,20
;   increaseFanForCooling,1
;   minFanLayerTime,45
;   maxCoolingFanSpeed,40
;   increaseFanForBridging,1
;   bridgingFanSpeed,80
;   use5D,1
;   relativeEdistances,0
;   allowEaxisZeroing,1
;   independentExtruderAxes,0
;   includeM10123,0
;   stickySupport,1
;   applyToolheadOffsets,0
;   gcodeXoffset,0
;   gcodeYoffset,0
;   gcodeZoffset,0
;   overrideMachineDefinition,1
;   machineTypeOverride,0
;   strokeXoverride,220
;   strokeYoverride,220
;   strokeZoverride,150
;   originOffsetXoverride,0
;   originOffsetYoverride,0
;   originOffsetZoverride,0
;   homeXdirOverride,-1
;   homeYdirOverride,-1
;   homeZdirOverride,-1
;   flipXoverride,1
;   flipYoverride,-1
;   flipZoverride,1
;   toolheadOffsets,0,0|0,0|0,0|0,0|0,0|0,0
;   overrideFirmwareConfiguration,0
;   firmwareTypeOverride,RepRap (Marlin/Repetier/Sprinter)
;   GPXconfigOverride,r2
;   baudRateOverride,115200
;   overridePrinterModels,0
;   printerModelsOverride
;   startingGcode,G28 ; home all axes,G32 ; run bed.g -- probe bed and enable compensation
;   layerChangeGcode,
;   retractionGcode,
;   toolChangeGcode,
;   endingGcode,M0 ; call stop.g
;   exportFileFormat,gcode
;   celebration,0
;   celebrationSong,Random Song
;   postProcessing,|; 0.2mm layer, 8 bands 5mm each, total height 40mm|{REPLACE "; layer 25" "M572 D0 S0.69\n; layer 10"}|{REPLACE "; layer 50" "M572 D0 S0.70\n; layer 50"}|{REPLACE "; layer 75" "M572 D0 S0.71\n; layer 75"}|{REPLACE "; layer 100" "M572 D0 S0.72\n; layer 100"}|{REPLACE "; layer 125" "M572 D0 S0.73\n; layer 125"}|{REPLACE "; layer 150" "M572 D0 S0.74\n; layer 150"}|{REPLACE "; layer 175" "M572 D0 S0.75\n; layer 175"}|{REPLACE "; layer 200" "M572 D0 S0.76\n; layer 200"}
;   defaultSpeed,1200
;   outlineUnderspeed,0.8
;   solidInfillUnderspeed,0.75
;   supportUnderspeed,0.8
;   rapidXYspeed,18000
;   rapidZspeed,1200
;   minBridgingArea,50
;   bridgingExtraInflation,0
;   bridgingExtrusionMultiplier,0.96
;   bridgingSpeedMultiplier,1
;   useFixedBridgingAngle,0
;   fixedBridgingAngle,0
;   applyBridgingToPerimeters,0
;   filamentDiameters,1.75|1.75|1.75|1.75|1.75|1.75
;   filamentPricesPerKg,25|46|46|46|46|46
;   filamentDensities,1.29|1.25|1.25|1.25|1.25|1.25
;   useMinPrintHeight,0
;   minPrintHeight,0.3
;   useMaxPrintHeight,0
;   maxPrintHeight,5
;   useDiaphragm,0
;   diaphragmLayerInterval,20
;   robustSlicing,1
;   mergeAllIntoSolid,0
;   onlyRetractWhenCrossingOutline,1
;   retractBetweenLayers,0
;   useRetractionMinTravel,1
;   retractionMinTravel,5
;   retractWhileWiping,1
;   onlyWipeOutlines,1
;   avoidCrossingOutline,1
;   maxMovementDetourFactor,2
;   toolChangeRetractionDistance,12
;   toolChangeExtraRestartDistance,0
;   toolChangeRetractionSpeed,600
;   externalThinWallType,0
;   internalThinWallType,0
;   thinWallAllowedOverlapPercentage,10
;   singleExtrusionMinLength,0.1
;   singleExtrusionMinPrintingWidthPercentage,50
;   singleExtrusionMaxPrintingWidthPercentage,200
;   singleExtrusionEndpointExtension,0.2
;   horizontalSizeCompensation,0.02
G90
M82
M106 S255
G4 P500
M106 S102
M140 S55
M190 S55
G10 S245 R{245-50} P0
M116 P0
G28 ; home all axes
G32 ; run bed.g -- probe bed and enable compensation
; process Process1
; layer 1, Z = 0.200
T0
; feature skirt
; tool H0.200 W0.480
G1 Z0.200 F1200
G1 X100.704 Y101.083 F18000
G92 E0.0000
G1 X101.404 Y100.406 E0.0369 F1200
G1 X101.687 Y100.160 E0.0511
G1 X102.454 Y99.560 E0.0881
G1 X102.761 Y99.345 E0.1023
G1 X103.587 Y98.829 E0.1392
G1 X103.915 Y98.647 E0.1534
G1 X104.832 Y98.199 E0.1921
G1 X105.265 Y98.021 E0.2099
G1 X106.561 Y97.587 E0.2617
G1 X107.014 Y97.467 E0.2795
G1 X108.016 Y97.272 E0.3182
G1 X108.388 Y97.220 E0.3324
G1 X109.358 Y97.135 E0.3693
G1 X109.732 Y97.121 E0.3835
G1 X110.706 Y97.138 E0.4204
G1 X111.080 Y97.164 E0.4347
G1 X112.046 Y97.282 E0.4716
G1 X112.416 Y97.347 E0.4858
G1 X113.410 Y97.576 E0.5245
G1 X113.859 Y97.711 E0.5423
G1 X115.140 Y98.189 E0.5941
G1 X115.567 Y98.382 E0.6119
G1 X116.468 Y98.860 E0.6506
G1 X116.790 Y99.053 E0.6648
G1 X117.597 Y99.597 E0.7017
G1 X117.897 Y99.823 E0.7159
G1 X118.643 Y100.448 E0.7528
G1 X118.917 Y100.704 E0.7670
G1 X119.626 Y101.438 E0.8057
G1 X119.929 Y101.795 E0.8235
G1 X120.743 Y102.893 E0.8753
G1 X120.997 Y103.288 E0.8931
G1 X121.492 Y104.180 E0.9318
G1 X121.656 Y104.517 E0.9460
G1 X122.056 Y105.456 E0.9847
G1 X122.210 Y105.899 E1.0025
G1 X122.576 Y107.216 E1.0543
G1 X122.672 Y107.675 E1.0721
G1 X122.814 Y108.685 E1.1108
G1 X122.847 Y109.058 E1.1250
G1 X122.883 Y110.078 E1.1637
G1 X122.869 Y110.547 E1.1814
G1 X122.739 Y111.907 E1.2333
G1 X122.663 Y112.370 E1.2510
G1 X122.434 Y113.365 E1.2897
G1 X122.331 Y113.725 E1.3040
G1 X122.014 Y114.646 E1.3409
G1 X121.874 Y114.994 E1.3551
G1 X121.463 Y115.876 E1.3920
G1 X121.287 Y116.207 E1.4062
G1 X120.762 Y117.082 E1.4449
G1 X120.495 Y117.468 E1.4627
G1 X119.644 Y118.538 E1.5145
G1 X119.329 Y118.885 E1.5323
G1 X118.596 Y119.594 E1.5710
G1 X118.313 Y119.840 E1.5852
G1 X117.546 Y120.440 E1.6221
G1 X117.239 Y120.655 E1.6363
G1 X116.413 Y121.171 E1.6733
G1 X116.085 Y121.353 E1.6875
G1 X115.210 Y121.781 E1.7244
G1 X114.865 Y121.927 E1.7386
G1 X113.950 Y122.261 E1.7755
G1 X113.592 Y122.370 E1.7898
G1 X112.647 Y122.606 E1.8267
G1 X112.279 Y122.678 E1.8409
G1 X111.315 Y122.814 E1.8778
G1 X110.941 Y122.847 E1.8920
G1 X109.968 Y122.881 E1.9290
G1 X109.593 Y122.875 E1.9432
G1 X108.622 Y122.807 E1.9801
G1 X108.250 Y122.762 E1.9943
G1 X107.245 Y122.585 E2.0330
G1 X106.790 Y122.474 E2.0508
G1 X105.486 Y122.064 E2.1026
G1 X105.049 Y121.894 E2.1204
G1 X104.124 Y121.463 E2.1591
G1 X103.793 Y121.287 E2.1733
G1 X102.958 Y120.786 E2.2102
G1 X102.647 Y120.576 E2.2244
G1 X101.869 Y119.991 E2.2613
G1 X101.582 Y119.750 E2.2756
G1 X100.869 Y119.086 E2.3125
G1 X100.608 Y118.816 E2.3267
G1 X99.969 Y118.082 E2.3636
G1 X99.738 Y117.786 E2.3778
G1 X99.179 Y116.989 E2.4148
G1 X98.981 Y116.671 E2.4290
G1 X98.508 Y115.820 E2.4659
G1 X98.344 Y115.483 E2.4801
G1 X97.963 Y114.587 E2.5170
G1 X97.834 Y114.234 E2.5312
G1 X97.549 Y113.303 E2.5682
G1 X97.458 Y112.939 E2.5824
G1 X97.272 Y111.984 E2.6193
G1 X97.220 Y111.612 E2.6335
G1 X97.135 Y110.642 E2.6704
G1 X97.121 Y110.268 E2.6847
G1 X97.138 Y109.294 E2.7216
G1 X97.164 Y108.920 E2.7358
G1 X97.282 Y107.954 E2.7727
G1 X97.347 Y107.584 E2.7869
G1 X97.566 Y106.635 E2.8239
G1 X97.669 Y106.275 E2.8381
G1 X98.001 Y105.310 E2.8768
G1 X98.182 Y104.878 E2.8945
G1 X98.791 Y103.654 E2.9463
G1 X99.027 Y103.249 E2.9641
G1 X99.597 Y102.403 E3.0028
G1 X99.823 Y102.103 E3.0170
G1 X100.448 Y101.357 E3.0540
G1 X100.704 Y101.083 E3.0682
G1 X101.047 Y101.419 F18000
G92 E0.0000
G1 X101.729 Y100.760 E0.0360 F1200
G1 X101.993 Y100.530 E0.0492
G1 X102.740 Y99.946 E0.0852
G1 X103.026 Y99.745 E0.0985
G1 X103.831 Y99.242 E0.1344
G1 X104.137 Y99.072 E0.1477
G1 X105.028 Y98.637 E0.1853
G1 X105.433 Y98.471 E0.2019
G1 X106.699 Y98.047 E0.2525
G1 X107.122 Y97.936 E0.2691
G1 X108.096 Y97.746 E0.3067
G1 X108.442 Y97.697 E0.3200
G1 X109.387 Y97.614 E0.3560
G1 X109.737 Y97.602 E0.3692
G1 X110.685 Y97.618 E0.4052
G1 X111.034 Y97.642 E0.4185
G1 X111.976 Y97.757 E0.4544
G1 X112.320 Y97.818 E0.4677
G1 X113.287 Y98.041 E0.5053
G1 X113.706 Y98.166 E0.5219
G1 X114.957 Y98.634 E0.5725
G1 X115.356 Y98.813 E0.5891
G1 X116.232 Y99.278 E0.6267
G1 X116.532 Y99.458 E0.6400
G1 X117.319 Y99.988 E0.6760
G1 X117.598 Y100.199 E0.6892
G1 X118.325 Y100.808 E0.7252
G1 X118.581 Y101.047 E0.7385
G1 X119.270 Y101.760 E0.7761
G1 X119.553 Y102.094 E0.7926
G1 X120.348 Y103.167 E0.8433
G1 X120.584 Y103.534 E0.8599
G1 X121.066 Y104.402 E0.8975
G1 X121.219 Y104.716 E0.9107
G1 X121.608 Y105.630 E0.9484
G1 X121.752 Y106.043 E0.9650
G1 X122.109 Y107.329 E1.0156
G1 X122.199 Y107.757 E1.0322
G1 X122.337 Y108.740 E1.0698
G1 X122.368 Y109.088 E1.0830
G1 X122.403 Y110.079 E1.1207
G1 X122.390 Y110.517 E1.1372
G1 X122.262 Y111.846 E1.1879
G1 X122.192 Y112.277 E1.2045
G1 X121.969 Y113.244 E1.2421
G1 X121.873 Y113.581 E1.2553
G1 X121.565 Y114.478 E1.2913
G1 X121.434 Y114.802 E1.3046
G1 X121.033 Y115.662 E1.3405
G1 X120.869 Y115.971 E1.3538
G1 X120.358 Y116.822 E1.3914
G1 X120.109 Y117.182 E1.4080
G1 X119.278 Y118.227 E1.4587
G1 X118.984 Y118.551 E1.4752
G1 X118.271 Y119.240 E1.5128
G1 X118.007 Y119.470 E1.5261
G1 X117.260 Y120.054 E1.5621
G1 X116.974 Y120.255 E1.5753
G1 X116.169 Y120.758 E1.6113
G1 X115.863 Y120.928 E1.6246
G1 X115.011 Y121.344 E1.6605
G1 X114.689 Y121.481 E1.6738
G1 X113.798 Y121.805 E1.7098
G1 X113.463 Y121.908 E1.7230
G1 X112.543 Y122.138 E1.7590
G1 X112.200 Y122.205 E1.7723
G1 X111.260 Y122.337 E1.8082
G1 X110.912 Y122.368 E1.8215
G1 X109.964 Y122.401 E1.8575
G1 X109.614 Y122.395 E1.8707
G1 X108.668 Y122.329 E1.9067
G1 X108.321 Y122.287 E1.9200
G1 X107.344 Y122.115 E1.9576
G1 X106.919 Y122.011 E1.9742
G1 X105.645 Y121.611 E2.0248
G1 X105.237 Y121.452 E2.0414
G1 X104.338 Y121.033 E2.0790
G1 X104.029 Y120.869 E2.0923
G1 X103.216 Y120.381 E2.1282
G1 X102.925 Y120.185 E2.1415
G1 X102.168 Y119.615 E2.1775
G1 X101.900 Y119.390 E2.1907
G1 X101.206 Y118.743 E2.2267
G1 X100.962 Y118.492 E2.2400
G1 X100.340 Y117.776 E2.2759
G1 X100.124 Y117.501 E2.2892
G1 X99.580 Y116.724 E2.3252
G1 X99.394 Y116.427 E2.3384
G1 X98.934 Y115.598 E2.3744
G1 X98.781 Y115.284 E2.3876
G1 X98.410 Y114.411 E2.4236
G1 X98.290 Y114.082 E2.4369
G1 X98.012 Y113.175 E2.4728
G1 X97.927 Y112.835 E2.4861
G1 X97.746 Y111.904 E2.5221
G1 X97.697 Y111.558 E2.5353
G1 X97.614 Y110.613 E2.5713
G1 X97.602 Y110.263 E2.5846
G1 X97.618 Y109.315 E2.6205
G1 X97.642 Y108.966 E2.6338
G1 X97.757 Y108.024 E2.6698
G1 X97.818 Y107.680 E2.6830
G1 X98.031 Y106.755 E2.7190
G1 X98.127 Y106.419 E2.7323
G1 X98.450 Y105.481 E2.7699
G1 X98.618 Y105.078 E2.7865
G1 X99.214 Y103.883 E2.8371
G1 X99.434 Y103.504 E2.8537
G1 X99.988 Y102.681 E2.8913
G1 X100.199 Y102.402 E2.9046
G1 X100.808 Y101.675 E2.9405
G1 X101.047 Y101.419 E2.9538
G1 X101.389 Y101.756 F18000
G92 E0.0000
G1 X102.053 Y101.114 E0.0350 F1200
G1 X102.298 Y100.901 E0.0473
G1 X103.026 Y100.332 E0.0823
G1 X103.292 Y100.146 E0.0946
G1 X104.074 Y99.656 E0.1297
G1 X104.358 Y99.498 E0.1420
G1 X105.224 Y99.075 E0.1785
G1 X105.600 Y98.922 E0.1939
G1 X106.836 Y98.507 E0.2433
G1 X107.229 Y98.404 E0.2587
G1 X108.175 Y98.219 E0.2953
G1 X108.497 Y98.174 E0.3076
G1 X109.417 Y98.093 E0.3426
G1 X109.741 Y98.082 E0.3549
G1 X110.664 Y98.097 E0.3899
G1 X110.988 Y98.120 E0.4023
G1 X111.905 Y98.232 E0.4373
G1 X112.225 Y98.288 E0.4496
G1 X113.164 Y98.505 E0.4861
G1 X113.553 Y98.622 E0.5015
G1 X114.774 Y99.078 E0.5510
G1 X115.144 Y99.244 E0.5663
G1 X115.996 Y99.696 E0.6029
G1 X116.274 Y99.863 E0.6152
G1 X117.040 Y100.379 E0.6502
G1 X117.299 Y100.575 E0.6625
G1 X118.007 Y101.168 E0.6975
G1 X118.244 Y101.389 E0.7099
G1 X118.914 Y102.082 E0.7464
G1 X119.177 Y102.392 E0.7618
G1 X119.953 Y103.440 E0.8112
G1 X120.172 Y103.781 E0.8266
G1 X120.640 Y104.624 E0.8632
G1 X120.783 Y104.916 E0.8755
G1 X121.160 Y105.803 E0.9120
G1 X121.294 Y106.186 E0.9274
G1 X121.643 Y107.443 E0.9769
G1 X121.725 Y107.840 E0.9923
G1 X121.860 Y108.794 E1.0288
G1 X121.888 Y109.118 E1.0411
G1 X121.923 Y110.081 E1.0776
G1 X121.910 Y110.486 E1.0930
G1 X121.786 Y111.784 E1.1425
G1 X121.721 Y112.185 E1.1579
G1 X121.504 Y113.124 E1.1944
G1 X121.415 Y113.437 E1.2067
G1 X121.115 Y114.310 E1.2417
G1 X120.993 Y114.611 E1.2541
G1 X120.603 Y115.448 E1.2891
G1 X120.451 Y115.735 E1.3014
G1 X119.955 Y116.561 E1.3379
G1 X119.724 Y116.895 E1.3533
G1 X118.912 Y117.916 E1.4028
G1 X118.640 Y118.216 E1.4182
G1 X117.947 Y118.886 E1.4547
G1 X117.702 Y119.099 E1.4670
G1 X116.974 Y119.668 E1.5020
G1 X116.708 Y119.854 E1.5143
G1 X115.925 Y120.344 E1.5493
G1 X115.641 Y120.502 E1.5617
G1 X114.812 Y120.907 E1.5967
G1 X114.513 Y121.034 E1.6090
G1 X113.645 Y121.350 E1.6440
G1 X113.335 Y121.445 E1.6563
G1 X112.439 Y121.669 E1.6913
G1 X112.120 Y121.731 E1.7036
G1 X111.206 Y121.860 E1.7386
G1 X110.882 Y121.888 E1.7510
G1 X109.959 Y121.921 E1.7860
G1 X109.635 Y121.916 E1.7983
G1 X108.714 Y121.852 E1.8333
G1 X108.391 Y121.812 E1.8456
G1 X107.442 Y121.645 E1.8821
G1 X107.048 Y121.549 E1.8975
G1 X105.804 Y121.157 E1.9470
G1 X105.426 Y121.010 E1.9624
G1 X104.552 Y120.603 E1.9989
G1 X104.265 Y120.451 E2.0112
G1 X103.473 Y119.976 E2.0462
G1 X103.204 Y119.794 E2.0586
G1 X102.466 Y119.239 E2.0936
G1 X102.218 Y119.030 E2.1059
G1 X101.542 Y118.401 E2.1409
G1 X101.316 Y118.167 E2.1532
G1 X100.710 Y117.471 E2.1882
G1 X100.510 Y117.215 E2.2005
G1 X99.980 Y116.459 E2.2356
G1 X99.808 Y116.183 E2.2479
G1 X99.360 Y115.376 E2.2829
G1 X99.217 Y115.084 E2.2952
G1 X98.856 Y114.234 E2.3302
G1 X98.745 Y113.929 E2.3425
G1 X98.475 Y113.046 E2.3775
G1 X98.396 Y112.731 E2.3898
G1 X98.219 Y111.825 E2.4248
G1 X98.174 Y111.503 E2.4372
G1 X98.093 Y110.583 E2.4722
G1 X98.082 Y110.259 E2.4845
G1 X98.097 Y109.336 E2.5195
G1 X98.120 Y109.012 E2.5318
G1 X98.232 Y108.095 E2.5668
G1 X98.288 Y107.775 E2.5791
G1 X98.496 Y106.875 E2.6141
G1 X98.585 Y106.563 E2.6265
G1 X98.898 Y105.652 E2.6630
G1 X99.055 Y105.278 E2.6784
G1 X99.636 Y104.111 E2.7278
G1 X99.841 Y103.760 E2.7432
G1 X100.379 Y102.960 E2.7798
G1 X100.575 Y102.701 E2.7921
G1 X101.168 Y101.993 E2.8271
G1 X101.389 Y101.756 E2.8394
G1 X101.732 Y102.092 F18000
G92 E0.0000
