; G-Code generated by Simplify3D(R) Version 4.1.2
; Jun 3, 2022 at 4:07:16 PM
; Settings Summary
;   processName,Process1
;   applyToModels,motor-halterung-federung
;   profileName,HSBot (modified)
;   profileVersion,2019-11-09 11:59:44
;   baseProfile,Default
;   printMaterial,Filaflex 82A
;   printQuality,Medium
;   printExtruders,
;   extruderName,Extruder 1,Extruder - Lite
;   extruderToolheadNumber,0,1
;   extruderDiameter,0.4,0.4
;   extruderAutoWidth,1,1
;   extruderWidth,0.48,0.48
;   extrusionMultiplier,1,0.93
;   extruderUseRetract,0,1
;   extruderRetractionDistance,6,1
;   extruderExtraRestartDistance,0,0
;   extruderRetractionZLift,0,0
;   extruderRetractionSpeed,2400,1800
;   extruderUseCoasting,0,0
;   extruderCoastingDistance,0.2,0.2
;   extruderUseWipe,0,0
;   extruderWipeDistance,1,5
;   primaryExtruder,0
;   layerHeight,0.2
;   topSolidLayers,3
;   bottomSolidLayers,3
;   perimeterOutlines,3
;   printPerimetersInsideOut,1
;   startPointOption,2
;   startPointOriginX,0
;   startPointOriginY,0
;   sequentialIslands,0
;   spiralVaseMode,0
;   firstLayerHeightPercentage,100
;   firstLayerWidthPercentage,100
;   firstLayerUnderspeed,0.25
;   useRaft,0
;   raftExtruder,0
;   raftTopLayers,3
;   raftBaseLayers,2
;   raftOffset,3
;   raftSeparationDistance,0.18
;   raftTopInfill,100
;   aboveRaftSpeedMultiplier,0.3
;   useSkirt,1
;   skirtExtruder,0
;   skirtLayers,1
;   skirtOutlines,5
;   skirtOffset,5
;   usePrimePillar,0
;   primePillarExtruder,999
;   primePillarWidth,12
;   primePillarLocation,7
;   primePillarSpeedMultiplier,1
;   useOozeShield,0
;   oozeShieldExtruder,999
;   oozeShieldOffset,2
;   oozeShieldOutlines,1
;   oozeShieldSidewallShape,1
;   oozeShieldSidewallAngle,30
;   oozeShieldSpeedMultiplier,1
;   infillExtruder,0
;   internalInfillPattern,Full Honeycomb
;   externalInfillPattern,Rectilinear
;   infillPercentage,20
;   outlineOverlapPercentage,20
;   infillExtrusionWidthPercentage,100
;   minInfillLength,3
;   infillLayerInterval,1
;   internalInfillAngles,0,120,-120
;   overlapInternalInfillAngles,0
;   externalInfillAngles,45,-45
;   generateSupport,0
;   supportExtruder,0
;   supportInfillPercentage,30
;   supportExtraInflation,0
;   supportBaseLayers,1
;   denseSupportExtruder,0
;   denseSupportLayers,0
;   denseSupportInfillPercentage,70
;   supportLayerInterval,1
;   supportHorizontalPartOffset,0.3
;   supportUpperSeparationLayers,1
;   supportLowerSeparationLayers,1
;   supportType,0
;   supportGridSpacing,2
;   maxOverhangAngle,45
;   supportAngles,0
;   temperatureName,Extruder 1,Bed
;   temperatureNumber,0,0
;   temperatureSetpointCount,1,1
;   temperatureSetpointLayers,1,1
;   temperatureSetpointTemperatures,245,55
;   temperatureStabilizeAtStartup,1,1
;   temperatureHeatedBed,0,1
;   fanLayers,1,2,3
;   fanSpeeds,0,15,15
;   blipFanToFullPower,1
;   adjustSpeedForCooling,0
;   minSpeedLayerTime,15
;   minCoolingSpeedSlowdown,20
;   increaseFanForCooling,1
;   minFanLayerTime,45
;   maxCoolingFanSpeed,40
;   increaseFanForBridging,1
;   bridgingFanSpeed,80
;   use5D,1
;   relativeEdistances,0
;   allowEaxisZeroing,1
;   independentExtruderAxes,0
;   includeM10123,0
;   stickySupport,1
;   applyToolheadOffsets,0
;   gcodeXoffset,0
;   gcodeYoffset,0
;   gcodeZoffset,0
;   overrideMachineDefinition,1
;   machineTypeOverride,0
;   strokeXoverride,220
;   strokeYoverride,220
;   strokeZoverride,150
;   originOffsetXoverride,0
;   originOffsetYoverride,0
;   originOffsetZoverride,0
;   homeXdirOverride,-1
;   homeYdirOverride,-1
;   homeZdirOverride,-1
;   flipXoverride,1
;   flipYoverride,-1
;   flipZoverride,1
;   toolheadOffsets,0,0|0,0|0,0|0,0|0,0|0,0
;   overrideFirmwareConfiguration,0
;   firmwareTypeOverride,RepRap (Marlin/Repetier/Sprinter)
;   GPXconfigOverride,r2
;   baudRateOverride,115200
;   overridePrinterModels,0
;   printerModelsOverride
;   startingGcode,G28 ; home all axes,G32 ; run bed.g -- probe bed and enable compensation
;   layerChangeGcode,
;   retractionGcode,
;   toolChangeGcode,
;   endingGcode,M0 ; call stop.g
;   exportFileFormat,gcode
;   celebration,0
;   celebrationSong,Random Song
;   postProcessing,|; 0.2mm layer, 8 bands 5mm each, total height 40mm|{REPLACE "; layer 25" "M572 D0 S0.69\n; layer 10"}|{REPLACE "; layer 50" "M572 D0 S0.70\n; layer 50"}|{REPLACE "; layer 75" "M572 D0 S0.71\n; layer 75"}|{REPLACE "; layer 100" "M572 D0 S0.72\n; layer 100"}|{REPLACE "; layer 125" "M572 D0 S0.73\n; layer 125"}|{REPLACE "; layer 150" "M572 D0 S0.74\n; layer 150"}|{REPLACE "; layer 175" "M572 D0 S0.75\n; layer 175"}|{REPLACE "; layer 200" "M572 D0 S0.76\n; layer 200"}
;   defaultSpeed,1800
;   outlineUnderspeed,0.8
;   solidInfillUnderspeed,0.75
;   supportUnderspeed,0.8
;   rapidXYspeed,18000
;   rapidZspeed,1200
;   minBridgingArea,50
;   bridgingExtraInflation,0
;   bridgingExtrusionMultiplier,0.96
;   bridgingSpeedMultiplier,1
;   useFixedBridgingAngle,0
;   fixedBridgingAngle,0
;   applyBridgingToPerimeters,0
;   filamentDiameters,1.75|1.75|1.75|1.75|1.75|1.75
;   filamentPricesPerKg,25|46|46|46|46|46
;   filamentDensities,1.29|1.25|1.25|1.25|1.25|1.25
;   useMinPrintHeight,0
;   minPrintHeight,0.3
;   useMaxPrintHeight,0
;   maxPrintHeight,5
;   useDiaphragm,0
;   diaphragmLayerInterval,20
;   robustSlicing,1
;   mergeAllIntoSolid,0
;   onlyRetractWhenCrossingOutline,1
;   retractBetweenLayers,0
;   useRetractionMinTravel,1
;   retractionMinTravel,5
;   retractWhileWiping,1
;   onlyWipeOutlines,1
;   avoidCrossingOutline,1
;   maxMovementDetourFactor,2
;   toolChangeRetractionDistance,12
;   toolChangeExtraRestartDistance,0
;   toolChangeRetractionSpeed,600
;   externalThinWallType,0
;   internalThinWallType,0
;   thinWallAllowedOverlapPercentage,10
;   singleExtrusionMinLength,0.1
;   singleExtrusionMinPrintingWidthPercentage,50
;   singleExtrusionMaxPrintingWidthPercentage,200
;   singleExtrusionEndpointExtension,0.2
;   horizontalSizeCompensation,0.02
G90
M82
M106 S255
G4 P500
M106 S102
M140 S55
M190 S55
G10 S245 R{245-50} P0
M116 P0
G28 ; home all axes
G32 ; run bed.g -- probe bed and enable compensation
; process Process1
; layer 1, Z = 0.200
T0
; feature skirt
; tool H0.200 W0.480
G1 Z0.200 F1200
G1 X100.420 Y100.944 F18000
G92 E0.0000
G1 X101.161 Y100.222 E0.0413 F450
G1 X101.438 Y99.978 E0.0560
G1 X102.213 Y99.365 E0.0955
G1 X102.513 Y99.151 E0.1102
G1 X103.348 Y98.620 E0.1497
G1 X103.669 Y98.439 E0.1644
G1 X104.553 Y97.997 E0.2038
G1 X104.891 Y97.849 E0.2186
G1 X105.816 Y97.500 E0.2580
G1 X106.167 Y97.388 E0.2727
G1 X107.123 Y97.136 E0.3122
G1 X107.484 Y97.061 E0.3269
G1 X108.461 Y96.909 E0.3664
G1 X108.828 Y96.871 E0.3811
G1 X109.816 Y96.820 E0.4206
G1 X110.184 Y96.820 E0.4353
G1 X111.217 Y96.873 E0.4766
G1 X111.675 Y96.926 E0.4950
G1 X113.043 Y97.176 E0.5505
G1 X113.491 Y97.287 E0.5689
G1 X114.477 Y97.602 E0.6102
G1 X114.822 Y97.732 E0.6249
G1 X115.728 Y98.128 E0.6644
G1 X116.058 Y98.293 E0.6791
G1 X116.918 Y98.780 E0.7185
G1 X117.229 Y98.978 E0.7333
G1 X118.035 Y99.551 E0.7727
G1 X118.324 Y99.780 E0.7874
G1 X119.067 Y100.432 E0.8269
G1 X119.331 Y100.690 E0.8416
G1 X120.034 Y101.449 E0.8829
G1 X120.325 Y101.807 E0.9013
G1 X121.130 Y102.941 E0.9568
G1 X121.373 Y103.333 E0.9752
G1 X121.859 Y104.246 E1.0165
G1 X122.015 Y104.580 E1.0312
G1 X122.388 Y105.496 E1.0707
G1 X122.509 Y105.844 E1.0854
G1 X122.785 Y106.793 E1.1249
G1 X122.870 Y107.152 E1.1396
G1 X123.047 Y108.125 E1.1791
G1 X123.095 Y108.491 E1.1938
G1 X123.171 Y109.476 E1.2332
G1 X123.180 Y109.845 E1.2479
G1 X123.154 Y110.879 E1.2893
G1 X123.112 Y111.339 E1.3077
G1 X122.898 Y112.713 E1.3632
G1 X122.798 Y113.163 E1.3816
G1 X122.509 Y114.156 E1.4229
G1 X122.388 Y114.504 E1.4376
G1 X122.015 Y115.420 E1.4770
G1 X121.859 Y115.754 E1.4917
G1 X121.394 Y116.627 E1.5312
G1 X121.204 Y116.943 E1.5459
G1 X120.653 Y117.763 E1.5854
G1 X120.431 Y118.058 E1.6001
G1 X119.798 Y118.817 E1.6396
G1 X119.547 Y119.088 E1.6543
G1 X118.839 Y119.778 E1.6937
G1 X118.562 Y120.022 E1.7085
G1 X117.787 Y120.635 E1.7479
G1 X117.487 Y120.849 E1.7626
G1 X116.652 Y121.379 E1.8021
G1 X116.331 Y121.561 E1.8168
G1 X115.447 Y122.003 E1.8563
G1 X115.109 Y122.151 E1.8710
G1 X114.184 Y122.500 E1.9105
G1 X113.833 Y122.612 E1.9252
G1 X112.876 Y122.864 E1.9646
G1 X112.516 Y122.939 E1.9794
G1 X111.539 Y123.091 E2.0188
G1 X111.172 Y123.129 E2.0335
G1 X110.184 Y123.180 E2.0730
G1 X109.816 Y123.180 E2.0877
G1 X108.828 Y123.129 E2.1272
G1 X108.461 Y123.091 E2.1419
G1 X107.484 Y122.939 E2.1814
G1 X107.123 Y122.864 E2.1961
G1 X106.167 Y122.612 E2.2355
G1 X105.816 Y122.500 E2.2503
G1 X104.848 Y122.135 E2.2916
G1 X104.428 Y121.945 E2.3099
G1 X103.201 Y121.291 E2.3654
G1 X102.808 Y121.049 E2.3839
G1 X101.965 Y120.449 E2.4252
G1 X101.676 Y120.220 E2.4399
G1 X100.933 Y119.568 E2.4793
G1 X100.669 Y119.310 E2.4941
G1 X99.997 Y118.585 E2.5335
G1 X99.761 Y118.301 E2.5482
G1 X99.168 Y117.511 E2.5877
G1 X98.962 Y117.205 E2.6024
G1 X98.453 Y116.357 E2.6419
G1 X98.280 Y116.031 E2.6566
G1 X97.860 Y115.136 E2.6961
G1 X97.722 Y114.794 E2.7108
G1 X97.397 Y113.861 E2.7502
G1 X97.294 Y113.507 E2.7650
G1 X97.056 Y112.500 E2.8062
G1 X96.979 Y112.045 E2.8246
G1 X96.836 Y110.662 E2.8801
G1 X96.818 Y110.201 E2.8986
G1 X96.845 Y109.167 E2.9399
G1 X96.874 Y108.799 E2.9546
G1 X97.000 Y107.819 E2.9940
G1 X97.067 Y107.456 E3.0088
G1 X97.294 Y106.493 E3.0482
G1 X97.397 Y106.139 E3.0629
G1 X97.722 Y105.206 E3.1024
G1 X97.860 Y104.864 E3.1171
G1 X98.280 Y103.969 E3.1566
G1 X98.453 Y103.643 E3.1713
G1 X98.986 Y102.756 E3.2126
G1 X99.248 Y102.377 E3.2310
G1 X100.111 Y101.287 E3.2865
G1 X100.420 Y100.944 E3.3049
G1 X100.766 Y101.277 F18000
G92 E0.0000
G1 X101.487 Y100.574 E0.0402 F450
G1 X101.745 Y100.347 E0.0539
G1 X102.501 Y99.749 E0.0924
G1 X102.781 Y99.549 E0.1061
G1 X103.595 Y99.032 E0.1446
G1 X103.894 Y98.863 E0.1583
G1 X104.757 Y98.432 E0.1968
G1 X105.072 Y98.294 E0.2105
G1 X105.974 Y97.954 E0.2490
G1 X106.302 Y97.849 E0.2628
G1 X107.234 Y97.604 E0.3012
G1 X107.571 Y97.533 E0.3150
G1 X108.523 Y97.385 E0.3534
G1 X108.865 Y97.350 E0.3672
G1 X109.828 Y97.300 E0.4056
G1 X110.172 Y97.300 E0.4194
G1 X111.177 Y97.352 E0.4595
G1 X111.605 Y97.401 E0.4767
G1 X112.942 Y97.645 E0.5310
G1 X113.360 Y97.749 E0.5481
G1 X114.319 Y98.056 E0.5883
G1 X114.641 Y98.177 E0.6021
G1 X115.524 Y98.563 E0.6405
G1 X115.832 Y98.717 E0.6543
G1 X116.671 Y99.192 E0.6928
G1 X116.961 Y99.376 E0.7065
G1 X117.747 Y99.935 E0.7450
G1 X118.017 Y100.148 E0.7587
G1 X118.741 Y100.785 E0.7972
G1 X118.987 Y101.025 E0.8109
G1 X119.671 Y101.764 E0.8511
G1 X119.943 Y102.098 E0.8683
G1 X120.730 Y103.206 E0.9225
G1 X120.956 Y103.572 E0.9397
G1 X121.430 Y104.460 E0.9799
G1 X121.575 Y104.772 E0.9936
G1 X121.939 Y105.665 E1.0321
G1 X122.052 Y105.990 E1.0458
G1 X122.321 Y106.915 E1.0843
G1 X122.400 Y107.250 E1.0980
G1 X122.573 Y108.199 E1.1365
G1 X122.617 Y108.540 E1.1502
G1 X122.691 Y109.501 E1.1887
G1 X122.700 Y109.845 E1.2024
G1 X122.674 Y110.852 E1.2426
G1 X122.636 Y111.280 E1.2598
G1 X122.426 Y112.624 E1.3141
G1 X122.333 Y113.044 E1.3312
G1 X122.052 Y114.010 E1.3714
G1 X121.939 Y114.335 E1.3851
G1 X121.575 Y115.228 E1.4236
G1 X121.430 Y115.540 E1.4373
G1 X120.976 Y116.390 E1.4758
G1 X120.799 Y116.685 E1.4896
G1 X120.261 Y117.485 E1.5280
G1 X120.055 Y117.760 E1.5418
G1 X119.437 Y118.501 E1.5802
G1 X119.204 Y118.753 E1.5940
G1 X118.513 Y119.426 E1.6324
G1 X118.255 Y119.653 E1.6462
G1 X117.499 Y120.251 E1.6846
G1 X117.218 Y120.451 E1.6984
G1 X116.405 Y120.968 E1.7368
G1 X116.106 Y121.137 E1.7506
G1 X115.243 Y121.568 E1.7891
G1 X114.928 Y121.706 E1.8028
G1 X114.026 Y122.046 E1.8413
G1 X113.698 Y122.151 E1.8550
G1 X112.766 Y122.396 E1.8935
G1 X112.429 Y122.467 E1.9072
G1 X111.477 Y122.615 E1.9457
G1 X111.135 Y122.650 E1.9594
G1 X110.172 Y122.700 E1.9979
G1 X109.828 Y122.700 E2.0116
G1 X108.865 Y122.650 E2.0501
G1 X108.523 Y122.615 E2.0638
G1 X107.571 Y122.467 E2.1023
G1 X107.234 Y122.396 E2.1160
G1 X106.302 Y122.151 E2.1545
G1 X105.974 Y122.046 E2.1682
G1 X105.032 Y121.691 E2.2084
G1 X104.640 Y121.514 E2.2256
G1 X103.440 Y120.875 E2.2798
G1 X103.074 Y120.649 E2.2970
G1 X102.253 Y120.065 E2.3372
G1 X101.983 Y119.852 E2.3509
G1 X101.259 Y119.215 E2.3894
G1 X101.013 Y118.975 E2.4031
G1 X100.358 Y118.268 E2.4416
G1 X100.138 Y118.003 E2.4553
G1 X99.559 Y117.233 E2.4938
G1 X99.367 Y116.947 E2.5076
G1 X98.871 Y116.121 E2.5460
G1 X98.709 Y115.817 E2.5598
G1 X98.300 Y114.944 E2.5982
G1 X98.171 Y114.625 E2.6120
G1 X97.854 Y113.715 E2.6504
G1 X97.758 Y113.384 E2.6642
G1 X97.527 Y112.405 E2.7043
G1 X97.455 Y111.980 E2.7215
G1 X97.315 Y110.628 E2.7758
G1 X97.299 Y110.198 E2.7930
G1 X97.325 Y109.191 E2.8331
G1 X97.351 Y108.848 E2.8469
G1 X97.475 Y107.892 E2.8854
G1 X97.537 Y107.554 E2.8991
G1 X97.758 Y106.616 E2.9376
G1 X97.854 Y106.285 E2.9513
G1 X98.171 Y105.375 E2.9898
G1 X98.300 Y105.056 E3.0035
G1 X98.709 Y104.183 E3.0420
G1 X98.871 Y103.879 E3.0557
G1 X99.389 Y103.016 E3.0959
G1 X99.634 Y102.663 E3.1130
G1 X100.477 Y101.597 E3.1673
G1 X100.766 Y101.277 E3.1845
G1 X101.112 Y101.610 F18000
G92 E0.0000
G1 X101.813 Y100.927 E0.0391 F450
G1 X102.053 Y100.716 E0.0518
G1 X102.789 Y100.133 E0.0893
G1 X103.050 Y99.948 E0.1021
G1 X103.842 Y99.444 E0.1395
G1 X104.120 Y99.286 E0.1523
G1 X104.960 Y98.867 E0.1898
G1 X105.253 Y98.739 E0.2025
G1 X106.132 Y98.407 E0.2400
G1 X106.436 Y98.310 E0.2528
G1 X107.344 Y98.071 E0.2902
G1 X107.657 Y98.006 E0.3030
G1 X108.585 Y97.861 E0.3405
G1 X108.902 Y97.828 E0.3532
G1 X109.840 Y97.780 E0.3907
G1 X110.160 Y97.780 E0.4035
G1 X111.137 Y97.830 E0.4425
G1 X111.534 Y97.876 E0.4585
G1 X112.841 Y98.115 E0.5115
G1 X113.228 Y98.211 E0.5274
G1 X114.161 Y98.509 E0.5665
G1 X114.460 Y98.622 E0.5793
G1 X115.321 Y98.998 E0.6167
G1 X115.606 Y99.141 E0.6295
G1 X116.424 Y99.603 E0.6670
G1 X116.693 Y99.775 E0.6797
G1 X117.459 Y100.319 E0.7172
G1 X117.709 Y100.517 E0.7299
G1 X118.414 Y101.137 E0.7674
G1 X118.643 Y101.360 E0.7802
G1 X119.308 Y102.079 E0.8193
G1 X119.560 Y102.389 E0.8352
G1 X120.330 Y103.472 E0.8882
G1 X120.540 Y103.811 E0.9042
G1 X121.000 Y104.675 E0.9432
G1 X121.135 Y104.964 E0.9560
G1 X121.489 Y105.834 E0.9935
G1 X121.594 Y106.136 E1.0062
G1 X121.857 Y107.038 E1.0437
G1 X121.930 Y107.349 E1.0564
G1 X122.098 Y108.273 E1.0939
G1 X122.139 Y108.589 E1.1067
G1 X122.212 Y109.526 E1.1442
G1 X122.220 Y109.845 E1.1569
G1 X122.195 Y110.824 E1.1960
G1 X122.159 Y111.222 E1.2119
G1 X121.954 Y112.535 E1.2650
G1 X121.868 Y112.924 E1.2809
G1 X121.594 Y113.864 E1.3200
G1 X121.489 Y114.166 E1.3327
G1 X121.135 Y115.036 E1.3702
G1 X121.000 Y115.325 E1.3829
G1 X120.559 Y116.154 E1.4204
G1 X120.394 Y116.428 E1.4332
G1 X119.870 Y117.207 E1.4707
G1 X119.678 Y117.462 E1.4834
G1 X119.077 Y118.184 E1.5209
G1 X118.860 Y118.418 E1.5336
G1 X118.187 Y119.073 E1.5711
G1 X117.947 Y119.284 E1.5839
G1 X117.211 Y119.867 E1.6214
G1 X116.950 Y120.052 E1.6341
G1 X116.158 Y120.556 E1.6716
G1 X115.880 Y120.714 E1.6843
G1 X115.040 Y121.133 E1.7218
G1 X114.747 Y121.261 E1.7346
G1 X113.868 Y121.593 E1.7721
G1 X113.564 Y121.690 E1.7848
G1 X112.656 Y121.929 E1.8223
G1 X112.343 Y121.994 E1.8350
G1 X111.415 Y122.139 E1.8725
G1 X111.098 Y122.172 E1.8853
G1 X110.160 Y122.220 E1.9227
G1 X109.840 Y122.220 E1.9355
G1 X108.902 Y122.172 E1.9730
G1 X108.585 Y122.139 E1.9857
G1 X107.657 Y121.994 E2.0232
G1 X107.344 Y121.929 E2.0360
G1 X106.436 Y121.690 E2.0734
G1 X106.132 Y121.593 E2.0862
G1 X105.216 Y121.247 E2.1253
G1 X104.852 Y121.083 E2.1412
G1 X103.679 Y120.458 E2.1942
G1 X103.339 Y120.248 E2.2102
G1 X102.541 Y119.681 E2.2492
G1 X102.291 Y119.483 E2.2620
G1 X101.585 Y118.863 E2.2995
G1 X101.357 Y118.640 E2.3122
G1 X100.719 Y117.951 E2.3497
G1 X100.514 Y117.705 E2.3625
G1 X99.951 Y116.954 E2.3999
G1 X99.772 Y116.689 E2.4127
G1 X99.289 Y115.884 E2.4502
G1 X99.139 Y115.602 E2.4629
G1 X98.740 Y114.751 E2.5004
G1 X98.620 Y114.456 E2.5132
G1 X98.312 Y113.569 E2.5506
G1 X98.222 Y113.262 E2.5634
G1 X97.997 Y112.309 E2.6025
G1 X97.931 Y111.916 E2.6184
G1 X97.794 Y110.594 E2.6714
G1 X97.779 Y110.195 E2.6874
G1 X97.804 Y109.216 E2.7264
G1 X97.829 Y108.898 E2.7392
G1 X97.949 Y107.966 E2.7767
G1 X98.007 Y107.652 E2.7894
