; G-Code generated by Simplify3D(R) Version 4.1.2
; Jun 3, 2022 at 5:47:57 PM
; Settings Summary
;   processName,Process1
;   applyToModels,motor-halterung-federung-v3,motor-halterung-federung-v3(2),motor-halterung-federung-v3(3),motor-halterung-federung-v3(4)
;   profileName,HSBot
;   profileVersion,2019-11-09 11:59:44
;   baseProfile,Default
;   printMaterial,Filaflex 82A
;   printQuality,Medium
;   printExtruders,
;   extruderName,Extruder 1,Extruder - Lite
;   extruderToolheadNumber,0,1
;   extruderDiameter,0.4,0.4
;   extruderAutoWidth,1,1
;   extruderWidth,0.48,0.48
;   extrusionMultiplier,1,0.93
;   extruderUseRetract,0,1
;   extruderRetractionDistance,6,1
;   extruderExtraRestartDistance,0,0
;   extruderRetractionZLift,0,0
;   extruderRetractionSpeed,2400,1800
;   extruderUseCoasting,0,0
;   extruderCoastingDistance,0.2,0.2
;   extruderUseWipe,0,0
;   extruderWipeDistance,1,5
;   primaryExtruder,0
;   layerHeight,0.2
;   topSolidLayers,3
;   bottomSolidLayers,3
;   perimeterOutlines,3
;   printPerimetersInsideOut,1
;   startPointOption,2
;   startPointOriginX,0
;   startPointOriginY,0
;   sequentialIslands,0
;   spiralVaseMode,0
;   firstLayerHeightPercentage,100
;   firstLayerWidthPercentage,100
;   firstLayerUnderspeed,0.25
;   useRaft,0
;   raftExtruder,0
;   raftTopLayers,3
;   raftBaseLayers,2
;   raftOffset,3
;   raftSeparationDistance,0.18
;   raftTopInfill,100
;   aboveRaftSpeedMultiplier,0.3
;   useSkirt,1
;   skirtExtruder,0
;   skirtLayers,1
;   skirtOutlines,5
;   skirtOffset,5
;   usePrimePillar,0
;   primePillarExtruder,999
;   primePillarWidth,12
;   primePillarLocation,7
;   primePillarSpeedMultiplier,1
;   useOozeShield,0
;   oozeShieldExtruder,999
;   oozeShieldOffset,2
;   oozeShieldOutlines,1
;   oozeShieldSidewallShape,1
;   oozeShieldSidewallAngle,30
;   oozeShieldSpeedMultiplier,1
;   infillExtruder,0
;   internalInfillPattern,Full Honeycomb
;   externalInfillPattern,Rectilinear
;   infillPercentage,20
;   outlineOverlapPercentage,20
;   infillExtrusionWidthPercentage,100
;   minInfillLength,3
;   infillLayerInterval,1
;   internalInfillAngles,0,120,-120
;   overlapInternalInfillAngles,0
;   externalInfillAngles,45,-45
;   generateSupport,0
;   supportExtruder,0
;   supportInfillPercentage,30
;   supportExtraInflation,0
;   supportBaseLayers,1
;   denseSupportExtruder,0
;   denseSupportLayers,0
;   denseSupportInfillPercentage,70
;   supportLayerInterval,1
;   supportHorizontalPartOffset,0.3
;   supportUpperSeparationLayers,1
;   supportLowerSeparationLayers,1
;   supportType,0
;   supportGridSpacing,2
;   maxOverhangAngle,45
;   supportAngles,0
;   temperatureName,Extruder 1,Bed
;   temperatureNumber,0,0
;   temperatureSetpointCount,1,1
;   temperatureSetpointLayers,1,1
;   temperatureSetpointTemperatures,245,55
;   temperatureStabilizeAtStartup,1,1
;   temperatureHeatedBed,0,1
;   fanLayers,1,2,3
;   fanSpeeds,0,15,30
;   blipFanToFullPower,1
;   adjustSpeedForCooling,0
;   minSpeedLayerTime,15
;   minCoolingSpeedSlowdown,20
;   increaseFanForCooling,1
;   minFanLayerTime,45
;   maxCoolingFanSpeed,40
;   increaseFanForBridging,1
;   bridgingFanSpeed,80
;   use5D,1
;   relativeEdistances,0
;   allowEaxisZeroing,1
;   independentExtruderAxes,0
;   includeM10123,0
;   stickySupport,1
;   applyToolheadOffsets,0
;   gcodeXoffset,0
;   gcodeYoffset,0
;   gcodeZoffset,0
;   overrideMachineDefinition,1
;   machineTypeOverride,0
;   strokeXoverride,220
;   strokeYoverride,220
;   strokeZoverride,150
;   originOffsetXoverride,0
;   originOffsetYoverride,0
;   originOffsetZoverride,0
;   homeXdirOverride,-1
;   homeYdirOverride,-1
;   homeZdirOverride,-1
;   flipXoverride,1
;   flipYoverride,-1
;   flipZoverride,1
;   toolheadOffsets,0,0|0,0|0,0|0,0|0,0|0,0
;   overrideFirmwareConfiguration,0
;   firmwareTypeOverride,RepRap (Marlin/Repetier/Sprinter)
;   GPXconfigOverride,r2
;   baudRateOverride,115200
;   overridePrinterModels,0
;   printerModelsOverride
;   startingGcode,G28 ; home all axes,G32 ; run bed.g -- probe bed and enable compensation
;   layerChangeGcode,
;   retractionGcode,
;   toolChangeGcode,
;   endingGcode,M0 ; call stop.g
;   exportFileFormat,gcode
;   celebration,0
;   celebrationSong,Random Song
;   postProcessing,|; 0.2mm layer, 8 bands 5mm each, total height 40mm|{REPLACE "; layer 25" "M572 D0 S0.69\n; layer 10"}|{REPLACE "; layer 50" "M572 D0 S0.70\n; layer 50"}|{REPLACE "; layer 75" "M572 D0 S0.71\n; layer 75"}|{REPLACE "; layer 100" "M572 D0 S0.72\n; layer 100"}|{REPLACE "; layer 125" "M572 D0 S0.73\n; layer 125"}|{REPLACE "; layer 150" "M572 D0 S0.74\n; layer 150"}|{REPLACE "; layer 175" "M572 D0 S0.75\n; layer 175"}|{REPLACE "; layer 200" "M572 D0 S0.76\n; layer 200"}
;   defaultSpeed,1200
;   outlineUnderspeed,0.8
;   solidInfillUnderspeed,0.75
;   supportUnderspeed,0.8
;   rapidXYspeed,18000
;   rapidZspeed,1200
;   minBridgingArea,50
;   bridgingExtraInflation,0
;   bridgingExtrusionMultiplier,0.96
;   bridgingSpeedMultiplier,1
;   useFixedBridgingAngle,0
;   fixedBridgingAngle,0
;   applyBridgingToPerimeters,0
;   filamentDiameters,1.75|1.75|1.75|1.75|1.75|1.75
;   filamentPricesPerKg,25|46|46|46|46|46
;   filamentDensities,1.29|1.25|1.25|1.25|1.25|1.25
;   useMinPrintHeight,0
;   minPrintHeight,0.3
;   useMaxPrintHeight,0
;   maxPrintHeight,5
;   useDiaphragm,0
;   diaphragmLayerInterval,20
;   robustSlicing,1
;   mergeAllIntoSolid,0
;   onlyRetractWhenCrossingOutline,1
;   retractBetweenLayers,0
;   useRetractionMinTravel,1
;   retractionMinTravel,5
;   retractWhileWiping,1
;   onlyWipeOutlines,1
;   avoidCrossingOutline,1
;   maxMovementDetourFactor,2
;   toolChangeRetractionDistance,12
;   toolChangeExtraRestartDistance,0
;   toolChangeRetractionSpeed,600
;   externalThinWallType,0
;   internalThinWallType,0
;   thinWallAllowedOverlapPercentage,10
;   singleExtrusionMinLength,0.1
;   singleExtrusionMinPrintingWidthPercentage,50
;   singleExtrusionMaxPrintingWidthPercentage,200
;   singleExtrusionEndpointExtension,0.2
;   horizontalSizeCompensation,0.02
G90
M82
M106 S0
M140 S55
M190 S55
G10 S245 R{245-50} P0
M116 P0
G28 ; home all axes
G32 ; run bed.g -- probe bed and enable compensation
; process Process1
; layer 1, Z = 0.200
T0
; feature skirt
; tool H0.200 W0.480
G1 Z0.200 F1200
G1 X92.435 Y91.932 F18000
G92 E0.0000
G1 X93.178 Y91.280 E0.0395 F300
G1 X93.467 Y91.051 E0.0542
G1 X94.273 Y90.478 E0.0936
G1 X94.584 Y90.280 E0.1084
G1 X95.444 Y89.793 E0.1478
G1 X95.774 Y89.628 E0.1625
G1 X96.680 Y89.232 E0.2020
G1 X97.025 Y89.102 E0.2167
G1 X97.967 Y88.801 E0.2562
G1 X98.324 Y88.708 E0.2709
G1 X99.292 Y88.505 E0.3104
G1 X99.656 Y88.449 E0.3251
G1 X100.639 Y88.347 E0.3645
G1 X101.008 Y88.328 E0.3793
G1 X101.996 Y88.328 E0.4187
G1 X102.365 Y88.347 E0.4334
G1 X103.348 Y88.449 E0.4729
G1 X103.712 Y88.505 E0.4876
G1 X104.680 Y88.708 E0.5271
G1 X105.037 Y88.801 E0.5418
G1 X106.023 Y89.116 E0.5831
G1 X106.452 Y89.284 E0.6015
G1 X107.712 Y89.874 E0.6570
G1 X108.116 Y90.096 E0.6754
G1 X108.989 Y90.651 E0.7167
G1 X109.289 Y90.865 E0.7314
G1 X110.003 Y91.430 E0.7678
G1 X110.174 Y91.280 E0.7768
G1 X110.463 Y91.051 E0.7915
G1 X111.269 Y90.478 E0.8310
G1 X111.580 Y90.280 E0.8457
G1 X112.440 Y89.793 E0.8852
G1 X112.770 Y89.628 E0.8999
G1 X113.718 Y89.214 E0.9412
G1 X114.152 Y89.057 E0.9596
G1 X115.487 Y88.668 E1.0151
G1 X115.937 Y88.568 E1.0335
G1 X116.959 Y88.409 E1.0748
G1 X117.326 Y88.371 E1.0895
G1 X118.314 Y88.320 E1.1290
G1 X118.682 Y88.320 E1.1437
G1 X119.715 Y88.373 E1.1850
G1 X120.173 Y88.426 E1.2034
G1 X121.541 Y88.676 E1.2589
G1 X121.989 Y88.787 E1.2773
G1 X122.975 Y89.102 E1.3186
G1 X123.320 Y89.232 E1.3333
G1 X124.226 Y89.628 E1.3728
G1 X124.556 Y89.793 E1.3875
G1 X125.416 Y90.280 E1.4270
G1 X125.727 Y90.478 E1.4417
G1 X126.533 Y91.051 E1.4811
G1 X126.822 Y91.280 E1.4959
G1 X127.565 Y91.932 E1.5353
G1 X127.829 Y92.190 E1.5500
G1 X128.501 Y92.915 E1.5895
G1 X128.737 Y93.199 E1.6042
G1 X129.330 Y93.989 E1.6437
G1 X129.536 Y94.295 E1.6584
G1 X130.069 Y95.182 E1.6997
G1 X130.280 Y95.592 E1.7181
G1 X130.837 Y96.866 E1.7736
G1 X130.994 Y97.300 E1.7920
G1 X131.283 Y98.293 E1.8333
G1 X131.368 Y98.652 E1.8480
G1 X131.545 Y99.625 E1.8875
G1 X131.593 Y99.991 E1.9022
G1 X131.669 Y100.976 E1.9417
G1 X131.678 Y101.345 E1.9564
G1 X131.652 Y102.379 E1.9977
G1 X131.610 Y102.839 E2.0161
G1 X131.396 Y104.213 E2.0716
G1 X131.296 Y104.663 E2.0900
G1 X131.007 Y105.656 E2.1313
G1 X130.886 Y106.004 E2.1460
G1 X130.513 Y106.920 E2.1854
G1 X130.357 Y107.254 E2.2002
G1 X129.892 Y108.127 E2.2396
G1 X129.703 Y108.443 E2.2544
G1 X129.151 Y109.263 E2.2938
G1 X128.929 Y109.558 E2.3085
G1 X128.567 Y109.992 E2.3311
G1 X128.823 Y110.307 E2.3473
G1 X129.628 Y111.441 E2.4028
G1 X129.871 Y111.833 E2.4212
G1 X130.357 Y112.746 E2.4625
G1 X130.513 Y113.080 E2.4772
G1 X130.903 Y114.038 E2.5185
G1 X131.049 Y114.475 E2.5369
G1 X131.403 Y115.820 E2.5924
G1 X131.492 Y116.273 E2.6108
G1 X131.624 Y117.299 E2.6521
G1 X131.653 Y117.667 E2.6668
G1 X131.678 Y118.655 E2.7063
G1 X131.669 Y119.024 E2.7210
G1 X131.593 Y120.009 E2.7604
G1 X131.545 Y120.375 E2.7752
G1 X131.368 Y121.348 E2.8146
G1 X131.283 Y121.707 E2.8293
G1 X131.007 Y122.656 E2.8688
G1 X130.886 Y123.004 E2.8835
G1 X130.513 Y123.920 E2.9230
G1 X130.357 Y124.254 E2.9377
G1 X129.892 Y125.127 E2.9772
G1 X129.702 Y125.443 E2.9919
G1 X129.151 Y126.263 E3.0313
G1 X128.929 Y126.558 E3.0461
G1 X128.296 Y127.317 E3.0855
G1 X128.045 Y127.588 E3.1002
G1 X127.337 Y128.278 E3.1397
G1 X127.060 Y128.522 E3.1544
G1 X126.285 Y129.135 E3.1939
G1 X125.985 Y129.349 E3.2086
G1 X125.112 Y129.904 E3.2499
G1 X124.708 Y130.126 E3.2683
G1 X123.448 Y130.716 E3.3238
G1 X123.019 Y130.884 E3.3422
G1 X122.033 Y131.198 E3.3835
G1 X121.676 Y131.292 E3.3982
G1 X120.709 Y131.495 E3.4377
G1 X120.344 Y131.551 E3.4524
G1 X119.361 Y131.653 E3.4919
G1 X118.992 Y131.672 E3.5066
G1 X118.004 Y131.672 E3.5460
G1 X117.635 Y131.653 E3.5608
G1 X116.652 Y131.551 E3.6002
G1 X116.287 Y131.495 E3.6149
G1 X115.320 Y131.292 E3.6544
G1 X114.963 Y131.198 E3.6691
G1 X114.021 Y130.898 E3.7086
G1 X113.676 Y130.768 E3.7233
G1 X112.770 Y130.372 E3.7628
G1 X112.440 Y130.207 E3.7775
G1 X111.580 Y129.720 E3.8169
G1 X111.269 Y129.522 E3.8317
G1 X110.425 Y128.922 E3.8730
G1 X110.067 Y128.631 E3.8914
G1 X109.999 Y128.568 E3.8951
G1 X109.826 Y128.720 E3.9043
G1 X109.537 Y128.949 E3.9190
G1 X108.731 Y129.522 E3.9584
G1 X108.420 Y129.720 E3.9732
G1 X107.560 Y130.207 E4.0126
G1 X107.230 Y130.372 E4.0273
G1 X106.324 Y130.768 E4.0668
G1 X105.979 Y130.898 E4.0815
G1 X105.037 Y131.198 E4.1210
G1 X104.680 Y131.292 E4.1357
G1 X103.713 Y131.495 E4.1752
G1 X103.348 Y131.551 E4.1899
G1 X102.365 Y131.653 E4.2293
G1 X101.996 Y131.672 E4.2441
G1 X101.008 Y131.672 E4.2835
G1 X100.639 Y131.653 E4.2982
G1 X99.656 Y131.551 E4.3377
G1 X99.291 Y131.495 E4.3524
G1 X98.324 Y131.292 E4.3919
G1 X97.967 Y131.198 E4.4066
G1 X97.025 Y130.898 E4.4461
G1 X96.680 Y130.768 E4.4608
G1 X95.774 Y130.372 E4.5002
G1 X95.444 Y130.207 E4.5150
G1 X94.584 Y129.720 E4.5544
G1 X94.273 Y129.522 E4.5691
G1 X93.429 Y128.922 E4.6104
G1 X93.071 Y128.631 E4.6289
G1 X92.051 Y127.687 E4.6844
G1 X91.733 Y127.353 E4.7027
G1 X91.071 Y126.558 E4.7440
G1 X90.849 Y126.263 E4.7588
G1 X90.297 Y125.443 E4.7982
G1 X90.108 Y125.127 E4.8129
G1 X89.643 Y124.254 E4.8524
G1 X89.487 Y123.920 E4.8671
G1 X89.114 Y123.004 E4.9066
G1 X88.993 Y122.656 E4.9213
G1 X88.717 Y121.707 E4.9608
G1 X88.632 Y121.348 E4.9755
G1 X88.455 Y120.375 E5.0149
G1 X88.407 Y120.009 E5.0297
G1 X88.331 Y119.024 E5.0691
G1 X88.322 Y118.655 E5.0838
G1 X88.347 Y117.667 E5.1233
G1 X88.376 Y117.299 E5.1380
G1 X88.502 Y116.319 E5.1775
G1 X88.569 Y115.956 E5.1922
G1 X88.796 Y114.993 E5.2317
G1 X88.899 Y114.639 E5.2464
G1 X89.224 Y113.706 E5.2858
G1 X89.362 Y113.364 E5.3006
G1 X89.782 Y112.469 E5.3400
G1 X89.955 Y112.143 E5.3547
G1 X90.464 Y111.295 E5.3942
G1 X90.670 Y110.989 E5.4089
G1 X91.263 Y110.199 E5.4484
G1 X91.434 Y109.994 E5.4590
G1 X91.071 Y109.558 E5.4816
G1 X90.849 Y109.263 E5.4964
G1 X90.297 Y108.443 E5.5358
G1 X90.108 Y108.127 E5.5506
G1 X89.643 Y107.254 E5.5900
G1 X89.487 Y106.920 E5.6047
G1 X89.114 Y106.004 E5.6442
G1 X88.993 Y105.656 E5.6589
G1 X88.717 Y104.707 E5.6984
G1 X88.632 Y104.348 E5.7131
G1 X88.455 Y103.375 E5.7525
G1 X88.407 Y103.009 E5.7673
G1 X88.331 Y102.024 E5.8067
G1 X88.322 Y101.655 E5.8214
G1 X88.347 Y100.667 E5.8609
G1 X88.376 Y100.299 E5.8756
G1 X88.502 Y99.318 E5.9151
G1 X88.569 Y98.955 E5.9298
G1 X88.796 Y97.993 E5.9693
G1 X88.899 Y97.639 E5.9840
G1 X89.224 Y96.706 E6.0234
G1 X89.362 Y96.364 E6.0382
G1 X89.782 Y95.469 E6.0776
G1 X89.955 Y95.143 E6.0924
G1 X90.464 Y94.295 E6.1318
G1 X90.670 Y93.989 E6.1465
G1 X91.263 Y93.199 E6.1860
G1 X91.499 Y92.915 E6.2007
G1 X92.171 Y92.190 E6.2402
G1 X92.435 Y91.932 E6.2549
G1 X92.515 Y92.525 F18000
G92 E0.0000
G1 X92.761 Y92.285 E0.0137 F300
G1 X93.485 Y91.648 E0.0522
G1 X93.755 Y91.435 E0.0659
G1 X94.541 Y90.876 E0.1044
G1 X94.831 Y90.692 E0.1181
G1 X95.670 Y90.217 E0.1566
G1 X95.978 Y90.063 E0.1704
G1 X96.861 Y89.677 E0.2088
G1 X97.183 Y89.556 E0.2226
G1 X98.101 Y89.263 E0.2610
G1 X98.434 Y89.175 E0.2748
G1 X99.378 Y88.978 E0.3132
G1 X99.718 Y88.925 E0.3270
G1 X100.676 Y88.826 E0.3654
G1 X101.020 Y88.808 E0.3792
G1 X101.984 Y88.808 E0.4176
G1 X102.328 Y88.826 E0.4314
G1 X103.286 Y88.925 E0.4699
G1 X103.626 Y88.978 E0.4836
G1 X104.570 Y89.175 E0.5221
G1 X104.903 Y89.263 E0.5358
G1 X105.862 Y89.569 E0.5760
G1 X106.263 Y89.726 E0.5932
G1 X107.494 Y90.302 E0.6474
G1 X107.871 Y90.509 E0.6646
G1 X108.721 Y91.050 E0.7048
G1 X109.001 Y91.249 E0.7185
G1 X109.757 Y91.847 E0.7570
G1 X110.006 Y92.066 E0.7702
G1 X110.481 Y91.648 E0.7955
G1 X110.751 Y91.435 E0.8092
G1 X111.537 Y90.876 E0.8477
G1 X111.827 Y90.692 E0.8614
G1 X112.666 Y90.217 E0.8999
G1 X112.974 Y90.063 E0.9136
G1 X113.896 Y89.660 E0.9538
G1 X114.301 Y89.513 E0.9710
G1 X115.606 Y89.133 E1.0252
G1 X116.026 Y89.040 E1.0424
G1 X117.021 Y88.885 E1.0826
G1 X117.363 Y88.850 E1.0963
G1 X118.326 Y88.800 E1.1348
G1 X118.670 Y88.800 E1.1485
G1 X119.675 Y88.852 E1.1887
G1 X120.103 Y88.901 E1.2059
G1 X121.440 Y89.145 E1.2601
G1 X121.858 Y89.249 E1.2773
G1 X122.817 Y89.556 E1.3175
G1 X123.139 Y89.677 E1.3312
G1 X124.022 Y90.063 E1.3697
G1 X124.330 Y90.217 E1.3835
G1 X125.169 Y90.692 E1.4219
G1 X125.459 Y90.876 E1.4357
G1 X126.245 Y91.435 E1.4741
G1 X126.515 Y91.648 E1.4879
G1 X127.239 Y92.285 E1.5263
G1 X127.485 Y92.525 E1.5401
G1 X128.140 Y93.232 E1.5785
G1 X128.360 Y93.497 E1.5923
G1 X128.939 Y94.268 E1.6307
G1 X129.131 Y94.553 E1.6445
G1 X129.649 Y95.416 E1.6847
G1 X129.846 Y95.798 E1.7018
G1 X130.391 Y97.044 E1.7561
G1 X130.538 Y97.449 E1.7733
G1 X130.819 Y98.415 E1.8135
G1 X130.898 Y98.750 E1.8272
G1 X131.071 Y99.699 E1.8657
G1 X131.115 Y100.040 E1.8794
G1 X131.189 Y101.001 E1.9179
G1 X131.198 Y101.345 E1.9316
G1 X131.172 Y102.352 E1.9718
G1 X131.134 Y102.780 E1.9890
G1 X130.924 Y104.124 E2.0432
G1 X130.831 Y104.544 E2.0604
G1 X130.550 Y105.510 E2.1006
G1 X130.437 Y105.835 E2.1143
G1 X130.073 Y106.728 E2.1528
G1 X129.927 Y107.040 E2.1665
G1 X129.474 Y107.890 E2.2050
G1 X129.297 Y108.185 E2.2187
G1 X128.759 Y108.985 E2.2572
G1 X128.553 Y109.260 E2.2709
G1 X127.935 Y110.001 E2.3094
G1 X127.930 Y110.006 E2.3097
G1 X128.169 Y110.264 E2.3237
G1 X128.441 Y110.598 E2.3409
G1 X129.228 Y111.706 E2.3952
G1 X129.454 Y112.072 E2.4123
G1 X129.927 Y112.960 E2.4525
G1 X130.073 Y113.272 E2.4662
G1 X130.453 Y114.205 E2.5064
G1 X130.589 Y114.613 E2.5236
G1 X130.935 Y115.927 E2.5779
G1 X131.018 Y116.350 E2.5950
G1 X131.147 Y117.348 E2.6352
G1 X131.173 Y117.691 E2.6490
G1 X131.198 Y118.655 E2.6874
G1 X131.189 Y118.999 E2.7012
G1 X131.115 Y119.960 E2.7396
G1 X131.071 Y120.301 E2.7534
G1 X130.898 Y121.250 E2.7918
G1 X130.819 Y121.584 E2.8056
G1 X130.550 Y122.510 E2.8440
G1 X130.436 Y122.835 E2.8578
G1 X130.073 Y123.728 E2.8963
G1 X129.927 Y124.040 E2.9100
G1 X129.474 Y124.890 E2.9485
G1 X129.297 Y125.185 E2.9622
G1 X128.759 Y125.985 E3.0007
G1 X128.553 Y126.260 E3.0144
G1 X127.935 Y127.000 E3.0529
G1 X127.702 Y127.253 E3.0666
G1 X127.011 Y127.926 E3.1051
G1 X126.753 Y128.153 E3.1188
