; G-Code generated by Simplify3D(R) Version 4.1.2
; Jun 3, 2022 at 8:27:56 PM
; Settings Summary
;   processName,Process1
;   applyToModels,motor-halterung-federung-v4,motor-halterung-federung-v4(2),motor-halterung-federung-v4(3),motor-halterung-federung-v4(4)
;   profileName,HSBot (modified)
;   profileVersion,2019-11-09 11:59:44
;   baseProfile,Default
;   printMaterial,Filaflex 82A
;   printQuality,Medium
;   printExtruders,
;   extruderName,Extruder 1,Extruder - Lite
;   extruderToolheadNumber,0,1
;   extruderDiameter,0.4,0.4
;   extruderAutoWidth,1,1
;   extruderWidth,0.48,0.48
;   extrusionMultiplier,0.95,0.93
;   extruderUseRetract,0,1
;   extruderRetractionDistance,6,1
;   extruderExtraRestartDistance,0,0
;   extruderRetractionZLift,0,0
;   extruderRetractionSpeed,2400,1800
;   extruderUseCoasting,0,0
;   extruderCoastingDistance,0.2,0.2
;   extruderUseWipe,0,0
;   extruderWipeDistance,1,5
;   primaryExtruder,0
;   layerHeight,0.2
;   topSolidLayers,3
;   bottomSolidLayers,3
;   perimeterOutlines,3
;   printPerimetersInsideOut,1
;   startPointOption,2
;   startPointOriginX,0
;   startPointOriginY,0
;   sequentialIslands,0
;   spiralVaseMode,0
;   firstLayerHeightPercentage,100
;   firstLayerWidthPercentage,100
;   firstLayerUnderspeed,1
;   useRaft,0
;   raftExtruder,0
;   raftTopLayers,3
;   raftBaseLayers,2
;   raftOffset,3
;   raftSeparationDistance,0.18
;   raftTopInfill,100
;   aboveRaftSpeedMultiplier,0.3
;   useSkirt,1
;   skirtExtruder,0
;   skirtLayers,1
;   skirtOutlines,5
;   skirtOffset,5
;   usePrimePillar,0
;   primePillarExtruder,999
;   primePillarWidth,12
;   primePillarLocation,7
;   primePillarSpeedMultiplier,1
;   useOozeShield,0
;   oozeShieldExtruder,999
;   oozeShieldOffset,2
;   oozeShieldOutlines,1
;   oozeShieldSidewallShape,1
;   oozeShieldSidewallAngle,30
;   oozeShieldSpeedMultiplier,1
;   infillExtruder,0
;   internalInfillPattern,Full Honeycomb
;   externalInfillPattern,Rectilinear
;   infillPercentage,20
;   outlineOverlapPercentage,20
;   infillExtrusionWidthPercentage,100
;   minInfillLength,3
;   infillLayerInterval,1
;   internalInfillAngles,0,120,-120
;   overlapInternalInfillAngles,0
;   externalInfillAngles,45,-45
;   generateSupport,0
;   supportExtruder,0
;   supportInfillPercentage,30
;   supportExtraInflation,0
;   supportBaseLayers,1
;   denseSupportExtruder,0
;   denseSupportLayers,0
;   denseSupportInfillPercentage,70
;   supportLayerInterval,1
;   supportHorizontalPartOffset,0.3
;   supportUpperSeparationLayers,1
;   supportLowerSeparationLayers,1
;   supportType,0
;   supportGridSpacing,2
;   maxOverhangAngle,45
;   supportAngles,0
;   temperatureName,Extruder 1,Bed
;   temperatureNumber,0,0
;   temperatureSetpointCount,1,1
;   temperatureSetpointLayers,1,1
;   temperatureSetpointTemperatures,245,55
;   temperatureStabilizeAtStartup,1,1
;   temperatureHeatedBed,0,1
;   fanLayers,1,2,3
;   fanSpeeds,0,15,30
;   blipFanToFullPower,1
;   adjustSpeedForCooling,0
;   minSpeedLayerTime,15
;   minCoolingSpeedSlowdown,20
;   increaseFanForCooling,1
;   minFanLayerTime,45
;   maxCoolingFanSpeed,40
;   increaseFanForBridging,1
;   bridgingFanSpeed,80
;   use5D,1
;   relativeEdistances,0
;   allowEaxisZeroing,1
;   independentExtruderAxes,0
;   includeM10123,0
;   stickySupport,1
;   applyToolheadOffsets,0
;   gcodeXoffset,0
;   gcodeYoffset,0
;   gcodeZoffset,0
;   overrideMachineDefinition,1
;   machineTypeOverride,0
;   strokeXoverride,220
;   strokeYoverride,220
;   strokeZoverride,150
;   originOffsetXoverride,0
;   originOffsetYoverride,0
;   originOffsetZoverride,0
;   homeXdirOverride,-1
;   homeYdirOverride,-1
;   homeZdirOverride,-1
;   flipXoverride,1
;   flipYoverride,-1
;   flipZoverride,1
;   toolheadOffsets,0,0|0,0|0,0|0,0|0,0|0,0
;   overrideFirmwareConfiguration,0
;   firmwareTypeOverride,RepRap (Marlin/Repetier/Sprinter)
;   GPXconfigOverride,r2
;   baudRateOverride,115200
;   overridePrinterModels,0
;   printerModelsOverride
;   startingGcode,G28 ; home all axes,G32 ; run bed.g -- probe bed and enable compensation
;   layerChangeGcode,
;   retractionGcode,
;   toolChangeGcode,
;   endingGcode,M0 ; call stop.g
;   exportFileFormat,gcode
;   celebration,0
;   celebrationSong,Random Song
;   postProcessing,|; 0.2mm layer, 8 bands 5mm each, total height 40mm|{REPLACE "; layer 25" "M572 D0 S0.69\n; layer 10"}|{REPLACE "; layer 50" "M572 D0 S0.70\n; layer 50"}|{REPLACE "; layer 75" "M572 D0 S0.71\n; layer 75"}|{REPLACE "; layer 100" "M572 D0 S0.72\n; layer 100"}|{REPLACE "; layer 125" "M572 D0 S0.73\n; layer 125"}|{REPLACE "; layer 150" "M572 D0 S0.74\n; layer 150"}|{REPLACE "; layer 175" "M572 D0 S0.75\n; layer 175"}|{REPLACE "; layer 200" "M572 D0 S0.76\n; layer 200"}
;   defaultSpeed,1200
;   outlineUnderspeed,0.8
;   solidInfillUnderspeed,0.75
;   supportUnderspeed,0.8
;   rapidXYspeed,18000
;   rapidZspeed,1200
;   minBridgingArea,50
;   bridgingExtraInflation,0
;   bridgingExtrusionMultiplier,0.96
;   bridgingSpeedMultiplier,1
;   useFixedBridgingAngle,0
;   fixedBridgingAngle,0
;   applyBridgingToPerimeters,0
;   filamentDiameters,1.75|1.75|1.75|1.75|1.75|1.75
;   filamentPricesPerKg,25|46|46|46|46|46
;   filamentDensities,1.29|1.25|1.25|1.25|1.25|1.25
;   useMinPrintHeight,0
;   minPrintHeight,0.3
;   useMaxPrintHeight,0
;   maxPrintHeight,5
;   useDiaphragm,0
;   diaphragmLayerInterval,20
;   robustSlicing,1
;   mergeAllIntoSolid,0
;   onlyRetractWhenCrossingOutline,1
;   retractBetweenLayers,0
;   useRetractionMinTravel,1
;   retractionMinTravel,5
;   retractWhileWiping,1
;   onlyWipeOutlines,1
;   avoidCrossingOutline,1
;   maxMovementDetourFactor,2
;   toolChangeRetractionDistance,12
;   toolChangeExtraRestartDistance,0
;   toolChangeRetractionSpeed,600
;   externalThinWallType,0
;   internalThinWallType,0
;   thinWallAllowedOverlapPercentage,10
;   singleExtrusionMinLength,0.1
;   singleExtrusionMinPrintingWidthPercentage,50
;   singleExtrusionMaxPrintingWidthPercentage,200
;   singleExtrusionEndpointExtension,0.2
;   horizontalSizeCompensation,0.02
G90
M82
M106 S255
G4 P500
M106 S63
M140 S55
M190 S55
G10 S245 R{245-50} P0
M116 P0
G28 ; home all axes
G32 ; run bed.g -- probe bed and enable compensation
; process Process1
; layer 1, Z = 0.200
T0
; feature skirt
; tool H0.200 W0.480
G1 Z0.200 F1200
G1 X92.341 Y92.361 F18000
G92 E0.0000
G1 X92.605 Y92.104 E0.0140 F1200
G1 X93.340 Y91.458 E0.0511
G1 X93.629 Y91.229 E0.0651
G1 X94.426 Y90.662 E0.1022
G1 X94.738 Y90.464 E0.1161
G1 X95.589 Y89.982 E0.1532
G1 X95.919 Y89.818 E0.1672
G1 X96.857 Y89.408 E0.2061
G1 X97.291 Y89.250 E0.2235
G1 X98.611 Y88.866 E0.2757
G1 X99.061 Y88.766 E0.2932
G1 X100.073 Y88.608 E0.3320
G1 X100.440 Y88.570 E0.3460
G1 X101.418 Y88.520 E0.3831
G1 X101.786 Y88.520 E0.3971
G1 X102.809 Y88.573 E0.4359
G1 X103.267 Y88.626 E0.4534
G1 X104.620 Y88.872 E0.5055
G1 X105.067 Y88.984 E0.5230
G1 X106.043 Y89.296 E0.5619
G1 X106.389 Y89.426 E0.5758
G1 X107.285 Y89.818 E0.6129
G1 X107.615 Y89.982 E0.6269
G1 X108.466 Y90.464 E0.6640
G1 X108.778 Y90.662 E0.6780
G1 X109.575 Y91.229 E0.7151
G1 X109.864 Y91.458 E0.7291
G1 X110.000 Y91.578 E0.7359
G1 X110.136 Y91.458 E0.7428
G1 X110.425 Y91.229 E0.7568
G1 X111.260 Y90.636 E0.7956
G1 X111.652 Y90.393 E0.8131
G1 X112.866 Y89.747 E0.8653
G1 X113.286 Y89.557 E0.8827
G1 X114.245 Y89.196 E0.9216
G1 X114.596 Y89.083 E0.9356
G1 X115.542 Y88.834 E0.9727
G1 X115.903 Y88.759 E0.9866
G1 X116.870 Y88.608 E1.0237
G1 X117.236 Y88.570 E1.0377
G1 X118.214 Y88.520 E1.0748
G1 X118.582 Y88.520 E1.0888
G1 X119.605 Y88.573 E1.1276
G1 X120.063 Y88.626 E1.1451
G1 X121.416 Y88.872 E1.1972
G1 X121.864 Y88.984 E1.2147
G1 X122.840 Y89.296 E1.2536
G1 X123.185 Y89.426 E1.2676
G1 X124.123 Y89.836 E1.3064
G1 X124.533 Y90.048 E1.3239
G1 X125.712 Y90.756 E1.3760
G1 X126.091 Y91.018 E1.3935
G1 X126.894 Y91.653 E1.4324
G1 X127.171 Y91.897 E1.4463
G1 X127.872 Y92.580 E1.4834
G1 X128.123 Y92.850 E1.4974
G1 X128.749 Y93.602 E1.5345
G1 X128.971 Y93.897 E1.5485
G1 X129.517 Y94.709 E1.5856
G1 X129.707 Y95.025 E1.5996
G1 X130.166 Y95.888 E1.6367
G1 X130.323 Y96.222 E1.6507
G1 X130.691 Y97.128 E1.6878
G1 X130.813 Y97.477 E1.7017
G1 X131.086 Y98.416 E1.7388
G1 X131.171 Y98.775 E1.7528
G1 X131.346 Y99.738 E1.7899
G1 X131.393 Y100.103 E1.8039
G1 X131.469 Y101.079 E1.8410
G1 X131.478 Y101.448 E1.8550
G1 X131.453 Y102.426 E1.8921
G1 X131.425 Y102.793 E1.9061
G1 X131.299 Y103.763 E1.9431
G1 X131.233 Y104.126 E1.9571
G1 X130.998 Y105.123 E1.9960
G1 X130.863 Y105.564 E2.0135
G1 X130.378 Y106.851 E2.0656
G1 X130.188 Y107.271 E2.0831
G1 X129.707 Y108.175 E2.1219
G1 X129.517 Y108.491 E2.1359
G1 X128.971 Y109.303 E2.1730
G1 X128.749 Y109.598 E2.1870
G1 X128.419 Y109.994 E2.2065
G1 X128.560 Y110.163 E2.2149
G1 X129.147 Y110.945 E2.2520
G1 X129.353 Y111.251 E2.2659
G1 X129.857 Y112.090 E2.3030
G1 X130.030 Y112.415 E2.3170
G1 X130.445 Y113.302 E2.3541
G1 X130.584 Y113.643 E2.3681
G1 X130.920 Y114.611 E2.4069
G1 X131.044 Y115.055 E2.4244
G1 X131.325 Y116.401 E2.4766
G1 X131.390 Y116.858 E2.4940
G1 X131.469 Y117.879 E2.5329
G1 X131.478 Y118.248 E2.5469
G1 X131.453 Y119.226 E2.5840
G1 X131.425 Y119.593 E2.5979
G1 X131.299 Y120.564 E2.6350
G1 X131.233 Y120.926 E2.6490
G1 X131.008 Y121.879 E2.6861
G1 X130.905 Y122.233 E2.7001
G1 X130.584 Y123.157 E2.7372
G1 X130.445 Y123.498 E2.7512
G1 X130.030 Y124.384 E2.7883
G1 X129.857 Y124.710 E2.8023
G1 X129.353 Y125.549 E2.8394
G1 X129.147 Y125.855 E2.8533
G1 X128.560 Y126.637 E2.8904
G1 X128.324 Y126.921 E2.9044
G1 X127.659 Y127.639 E2.9415
G1 X127.395 Y127.896 E2.9555
G1 X126.660 Y128.542 E2.9926
G1 X126.371 Y128.771 E3.0066
G1 X125.574 Y129.338 E3.0437
G1 X125.262 Y129.536 E3.0577
G1 X124.371 Y130.040 E3.0965
G1 X123.956 Y130.241 E3.1140
G1 X122.682 Y130.759 E3.1661
G1 X122.244 Y130.905 E3.1836
G1 X121.254 Y131.166 E3.2225
G1 X120.893 Y131.241 E3.2364
G1 X119.927 Y131.392 E3.2735
G1 X119.560 Y131.430 E3.2875
G1 X118.582 Y131.480 E3.3246
G1 X118.214 Y131.480 E3.3386
G1 X117.191 Y131.427 E3.3774
G1 X116.733 Y131.374 E3.3949
G1 X115.380 Y131.128 E3.4470
G1 X114.933 Y131.016 E3.4645
G1 X113.957 Y130.704 E3.5034
G1 X113.611 Y130.574 E3.5174
G1 X112.715 Y130.182 E3.5545
G1 X112.385 Y130.018 E3.5684
G1 X111.534 Y129.536 E3.6055
G1 X111.222 Y129.338 E3.6195
G1 X110.425 Y128.771 E3.6566
G1 X110.136 Y128.542 E3.6706
G1 X110.001 Y128.423 E3.6774
G1 X109.331 Y128.954 E3.7098
G1 X109.031 Y129.167 E3.7238
G1 X108.205 Y129.692 E3.7609
G1 X107.884 Y129.874 E3.7749
G1 X107.009 Y130.312 E3.8120
G1 X106.671 Y130.459 E3.8260
G1 X105.713 Y130.821 E3.8648
G1 X105.272 Y130.955 E3.8823
G1 X103.933 Y131.271 E3.9344
G1 X103.479 Y131.348 E3.9519
G1 X102.459 Y131.453 E3.9907
G1 X102.091 Y131.472 E4.0047
G1 X101.113 Y131.472 E4.0418
G1 X100.745 Y131.453 E4.0558
G1 X99.771 Y131.353 E4.0929
G1 X99.407 Y131.296 E4.1069
G1 X98.449 Y131.096 E4.1440
G1 X98.093 Y131.002 E4.1580
G1 X97.160 Y130.704 E4.1951
G1 X96.815 Y130.574 E4.2090
G1 X95.877 Y130.164 E4.2479
G1 X95.467 Y129.952 E4.2654
G1 X94.288 Y129.244 E4.3175
G1 X93.909 Y128.982 E4.3350
G1 X93.106 Y128.347 E4.3738
G1 X92.829 Y128.103 E4.3878
G1 X92.128 Y127.420 E4.4249
G1 X91.877 Y127.150 E4.4389
G1 X91.251 Y126.398 E4.4760
G1 X91.029 Y126.103 E4.4900
G1 X90.483 Y125.292 E4.5271
G1 X90.293 Y124.976 E4.5411
G1 X89.834 Y124.112 E4.5782
G1 X89.677 Y123.778 E4.5921
G1 X89.309 Y122.871 E4.6292
G1 X89.187 Y122.523 E4.6432
G1 X88.914 Y121.584 E4.6803
G1 X88.829 Y121.225 E4.6943
G1 X88.654 Y120.262 E4.7314
G1 X88.607 Y119.897 E4.7454
G1 X88.531 Y118.921 E4.7825
G1 X88.522 Y118.552 E4.7965
G1 X88.547 Y117.574 E4.8336
G1 X88.575 Y117.207 E4.8475
G1 X88.701 Y116.236 E4.8846
G1 X88.767 Y115.874 E4.8986
G1 X88.992 Y114.921 E4.9357
G1 X89.095 Y114.567 E4.9497
G1 X89.416 Y113.643 E4.9868
G1 X89.555 Y113.302 E5.0008
G1 X89.970 Y112.416 E5.0379
G1 X90.143 Y112.090 E5.0519
G1 X90.647 Y111.251 E5.0890
G1 X90.853 Y110.945 E5.1029
G1 X91.440 Y110.163 E5.1400
G1 X91.585 Y109.989 E5.1486
G1 X91.336 Y109.706 E5.1629
G1 X91.055 Y109.341 E5.1804
G1 X90.483 Y108.492 E5.2192
G1 X90.293 Y108.175 E5.2332
G1 X89.833 Y107.312 E5.2703
G1 X89.677 Y106.978 E5.2843
G1 X89.309 Y106.071 E5.3214
G1 X89.187 Y105.723 E5.3353
G1 X88.914 Y104.784 E5.3724
G1 X88.829 Y104.425 E5.3864
G1 X88.654 Y103.462 E5.4235
G1 X88.607 Y103.096 E5.4375
G1 X88.531 Y102.121 E5.4746
G1 X88.522 Y101.753 E5.4886
G1 X88.547 Y100.775 E5.5257
G1 X88.575 Y100.407 E5.5397
G1 X88.701 Y99.436 E5.5767
G1 X88.767 Y99.074 E5.5907
G1 X88.992 Y98.121 E5.6278
G1 X89.095 Y97.767 E5.6418
G1 X89.416 Y96.843 E5.6789
G1 X89.555 Y96.502 E5.6929
G1 X89.970 Y95.616 E5.7300
G1 X90.143 Y95.290 E5.7440
G1 X90.647 Y94.451 E5.7811
G1 X90.853 Y94.145 E5.7950
G1 X91.440 Y93.363 E5.8321
G1 X91.676 Y93.079 E5.8461
G1 X92.341 Y92.361 E5.8832
G1 X92.931 Y92.456 F18000
G92 E0.0000
G1 X93.647 Y91.827 E0.0362 F1200
G1 X93.917 Y91.613 E0.0492
G1 X94.694 Y91.061 E0.0854
G1 X94.985 Y90.876 E0.0984
G1 X95.815 Y90.406 E0.1346
G1 X96.122 Y90.253 E0.1476
G1 X97.035 Y89.854 E0.1854
G1 X97.440 Y89.707 E0.2017
G1 X98.730 Y89.331 E0.2527
G1 X99.150 Y89.238 E0.2690
G1 X100.135 Y89.084 E0.3068
G1 X100.477 Y89.049 E0.3198
G1 X101.430 Y89.000 E0.3560
G1 X101.774 Y89.000 E0.3690
G1 X102.769 Y89.051 E0.4068
G1 X103.196 Y89.101 E0.4231
G1 X104.519 Y89.342 E0.4741
G1 X104.936 Y89.446 E0.4904
G1 X105.886 Y89.749 E0.5282
G1 X106.208 Y89.871 E0.5412
G1 X107.081 Y90.253 E0.5774
G1 X107.389 Y90.406 E0.5904
G1 X108.219 Y90.876 E0.6266
G1 X108.510 Y91.061 E0.6396
G1 X109.287 Y91.613 E0.6758
G1 X109.557 Y91.827 E0.6888
G1 X110.000 Y92.217 E0.7112
G1 X110.443 Y91.827 E0.7336
G1 X110.713 Y91.613 E0.7467
G1 X111.525 Y91.036 E0.7844
G1 X111.892 Y90.809 E0.8008
G1 X113.078 Y90.178 E0.8517
G1 X113.470 Y90.001 E0.8680
G1 X114.402 Y89.649 E0.9058
G1 X114.730 Y89.544 E0.9189
G1 X115.652 Y89.302 E0.9550
G1 X115.989 Y89.231 E0.9681
G1 X116.931 Y89.084 E1.0042
G1 X117.274 Y89.049 E1.0173
G1 X118.226 Y89.000 E1.0534
G1 X118.570 Y89.000 E1.0665
G1 X119.565 Y89.051 E1.1043
G1 X119.992 Y89.101 E1.1206
G1 X121.315 Y89.342 E1.1715
G1 X121.732 Y89.446 E1.1879
G1 X122.682 Y89.749 E1.2256
G1 X123.004 Y89.871 E1.2387
G1 X123.917 Y90.270 E1.2765
G1 X124.299 Y90.467 E1.2928
G1 X125.452 Y91.159 E1.3438
G1 X125.805 Y91.404 E1.3601
G1 X126.587 Y92.022 E1.3979
G1 X126.845 Y92.249 E1.4109
G1 X127.528 Y92.915 E1.4471
G1 X127.762 Y93.167 E1.4601
G1 X128.373 Y93.900 E1.4963
G1 X128.579 Y94.175 E1.5093
G1 X129.112 Y94.966 E1.5455
G1 X129.289 Y95.261 E1.5585
G1 X129.737 Y96.103 E1.5947
G1 X129.883 Y96.415 E1.6077
G1 X130.242 Y97.298 E1.6439
G1 X130.355 Y97.623 E1.6569
G1 X130.622 Y98.538 E1.6931
G1 X130.701 Y98.873 E1.7061
G1 X130.872 Y99.811 E1.7423
G1 X130.916 Y100.153 E1.7553
G1 X130.989 Y101.104 E1.7915
G1 X130.998 Y101.448 E1.8045
G1 X130.974 Y102.401 E1.8407
G1 X130.947 Y102.744 E1.8537
G1 X130.825 Y103.690 E1.8899
G1 X130.763 Y104.028 E1.9030
G1 X130.534 Y104.998 E1.9407
G1 X130.409 Y105.409 E1.9570
G1 X129.935 Y106.667 E2.0080
G1 X129.757 Y107.059 E2.0243
G1 X129.289 Y107.939 E2.0621
G1 X129.112 Y108.234 E2.0752
G1 X128.579 Y109.025 E2.1113
G1 X128.373 Y109.300 E2.1244
G1 X127.785 Y110.004 E2.1591
G1 X127.963 Y110.196 E2.1690
G1 X128.184 Y110.461 E2.1821
G1 X128.756 Y111.223 E2.2183
G1 X128.948 Y111.509 E2.2313
G1 X129.439 Y112.326 E2.2675
G1 X129.601 Y112.630 E2.2805
G1 X130.005 Y113.494 E2.3167
G1 X130.135 Y113.813 E2.3297
G1 X130.462 Y114.754 E2.3675
G1 X130.577 Y115.169 E2.3838
G1 X130.852 Y116.484 E2.4348
G1 X130.913 Y116.910 E2.4511
G1 X130.989 Y117.904 E2.4889
G1 X130.998 Y118.248 E2.5019
G1 X130.974 Y119.201 E2.5381
G1 X130.947 Y119.544 E2.5511
G1 X130.825 Y120.490 E2.5873
G1 X130.763 Y120.828 E2.6003
G1 X130.544 Y121.756 E2.6365
G1 X130.448 Y122.087 E2.6495
G1 X130.135 Y122.987 E2.6857
G1 X130.005 Y123.306 E2.6987
G1 X129.601 Y124.170 E2.7349
G1 X129.439 Y124.474 E2.7479
G1 X128.948 Y125.291 E2.7841
G1 X128.756 Y125.577 E2.7972
G1 X128.184 Y126.339 E2.8333
G1 X127.963 Y126.604 E2.8464
G1 X127.315 Y127.303 E2.8825
G1 X127.069 Y127.544 E2.8956
G1 X126.353 Y128.173 E2.9317
G1 X126.083 Y128.387 E2.9448
G1 X125.306 Y128.939 E2.9809
G1 X125.015 Y129.124 E2.9940
