; G-Code generated by Simplify3D(R) Version 4.1.2
; Jun 10, 2022 at 7:54:17 PM
; Settings Summary
;   processName,Process1
;   applyToModels,rad-felge
;   profileName,HSBot
;   profileVersion,2019-11-09 11:59:44
;   baseProfile,Default
;   printMaterial,pla
;   printQuality,Medium
;   printExtruders,
;   extruderName,Extruder 1,Extruder - Lite
;   extruderToolheadNumber,0,1
;   extruderDiameter,0.4,0.4
;   extruderAutoWidth,1,1
;   extruderWidth,0.48,0.48
;   extrusionMultiplier,1.1,0.93
;   extruderUseRetract,0,0
;   extruderRetractionDistance,1,1
;   extruderExtraRestartDistance,0,0
;   extruderRetractionZLift,0,0
;   extruderRetractionSpeed,4800,1800
;   extruderUseCoasting,0,0
;   extruderCoastingDistance,0.2,0.2
;   extruderUseWipe,0,0
;   extruderWipeDistance,2,5
;   primaryExtruder,0
;   layerHeight,0.2
;   topSolidLayers,3
;   bottomSolidLayers,3
;   perimeterOutlines,2
;   printPerimetersInsideOut,1
;   startPointOption,2
;   startPointOriginX,0
;   startPointOriginY,0
;   sequentialIslands,0
;   spiralVaseMode,0
;   firstLayerHeightPercentage,100
;   firstLayerWidthPercentage,100
;   firstLayerUnderspeed,0.25
;   useRaft,0
;   raftExtruder,0
;   raftTopLayers,3
;   raftBaseLayers,2
;   raftOffset,3
;   raftSeparationDistance,0.18
;   raftTopInfill,100
;   aboveRaftSpeedMultiplier,0.3
;   useSkirt,1
;   skirtExtruder,0
;   skirtLayers,1
;   skirtOutlines,5
;   skirtOffset,5
;   usePrimePillar,0
;   primePillarExtruder,999
;   primePillarWidth,12
;   primePillarLocation,7
;   primePillarSpeedMultiplier,1
;   useOozeShield,0
;   oozeShieldExtruder,999
;   oozeShieldOffset,2
;   oozeShieldOutlines,1
;   oozeShieldSidewallShape,1
;   oozeShieldSidewallAngle,30
;   oozeShieldSpeedMultiplier,1
;   infillExtruder,0
;   internalInfillPattern,Full Honeycomb
;   externalInfillPattern,Rectilinear
;   infillPercentage,30
;   outlineOverlapPercentage,20
;   infillExtrusionWidthPercentage,100
;   minInfillLength,3
;   infillLayerInterval,1
;   internalInfillAngles,0,120,-120
;   overlapInternalInfillAngles,0
;   externalInfillAngles,45,-45
;   generateSupport,0
;   supportExtruder,0
;   supportInfillPercentage,30
;   supportExtraInflation,0
;   supportBaseLayers,1
;   denseSupportExtruder,0
;   denseSupportLayers,0
;   denseSupportInfillPercentage,70
;   supportLayerInterval,1
;   supportHorizontalPartOffset,0.3
;   supportUpperSeparationLayers,1
;   supportLowerSeparationLayers,1
;   supportType,0
;   supportGridSpacing,2
;   maxOverhangAngle,45
;   supportAngles,0
;   temperatureName,Extruder 1,Bed
;   temperatureNumber,0,0
;   temperatureSetpointCount,1,1
;   temperatureSetpointLayers,1,1
;   temperatureSetpointTemperatures,217,55
;   temperatureStabilizeAtStartup,1,1
;   temperatureHeatedBed,0,1
;   fanLayers,1,2,5
;   fanSpeeds,0,15,50
;   blipFanToFullPower,1
;   adjustSpeedForCooling,1
;   minSpeedLayerTime,15
;   minCoolingSpeedSlowdown,20
;   increaseFanForCooling,1
;   minFanLayerTime,45
;   maxCoolingFanSpeed,40
;   increaseFanForBridging,1
;   bridgingFanSpeed,80
;   use5D,1
;   relativeEdistances,0
;   allowEaxisZeroing,1
;   independentExtruderAxes,0
;   includeM10123,0
;   stickySupport,1
;   applyToolheadOffsets,0
;   gcodeXoffset,0
;   gcodeYoffset,0
;   gcodeZoffset,0
;   overrideMachineDefinition,1
;   machineTypeOverride,0
;   strokeXoverride,220
;   strokeYoverride,220
;   strokeZoverride,150
;   originOffsetXoverride,0
;   originOffsetYoverride,0
;   originOffsetZoverride,0
;   homeXdirOverride,-1
;   homeYdirOverride,-1
;   homeZdirOverride,-1
;   flipXoverride,1
;   flipYoverride,-1
;   flipZoverride,1
;   toolheadOffsets,0,0|0,0|0,0|0,0|0,0|0,0
;   overrideFirmwareConfiguration,0
;   firmwareTypeOverride,RepRap (Marlin/Repetier/Sprinter)
;   GPXconfigOverride,r2
;   baudRateOverride,115200
;   overridePrinterModels,0
;   printerModelsOverride
;   startingGcode,G28 ; home all axes,G32 ; run bed.g -- probe bed and enable compensation
;   layerChangeGcode,
;   retractionGcode,
;   toolChangeGcode,
;   endingGcode,M0 ; call stop.g
;   exportFileFormat,gcode
;   celebration,0
;   celebrationSong,Random Song
;   postProcessing,|; 0.2mm layer, 8 bands 5mm each, total height 40mm|{REPLACE "; layer 25" "M572 D0 S0.69\n; layer 10"}|{REPLACE "; layer 50" "M572 D0 S0.70\n; layer 50"}|{REPLACE "; layer 75" "M572 D0 S0.71\n; layer 75"}|{REPLACE "; layer 100" "M572 D0 S0.72\n; layer 100"}|{REPLACE "; layer 125" "M572 D0 S0.73\n; layer 125"}|{REPLACE "; layer 150" "M572 D0 S0.74\n; layer 150"}|{REPLACE "; layer 175" "M572 D0 S0.75\n; layer 175"}|{REPLACE "; layer 200" "M572 D0 S0.76\n; layer 200"}
;   defaultSpeed,7200
;   outlineUnderspeed,0.8
;   solidInfillUnderspeed,0.75
;   supportUnderspeed,0.8
;   rapidXYspeed,18000
;   rapidZspeed,1200
;   minBridgingArea,50
;   bridgingExtraInflation,0
;   bridgingExtrusionMultiplier,0.96
;   bridgingSpeedMultiplier,1
;   useFixedBridgingAngle,0
;   fixedBridgingAngle,0
;   applyBridgingToPerimeters,0
;   filamentDiameters,1.75|1.75|1.75|1.75|1.75|1.75
;   filamentPricesPerKg,25|46|46|46|46|46
;   filamentDensities,1.29|1.25|1.25|1.25|1.25|1.25
;   useMinPrintHeight,0
;   minPrintHeight,0.3
;   useMaxPrintHeight,0
;   maxPrintHeight,5
;   useDiaphragm,0
;   diaphragmLayerInterval,20
;   robustSlicing,1
;   mergeAllIntoSolid,0
;   onlyRetractWhenCrossingOutline,1
;   retractBetweenLayers,0
;   useRetractionMinTravel,1
;   retractionMinTravel,5
;   retractWhileWiping,1
;   onlyWipeOutlines,1
;   avoidCrossingOutline,1
;   maxMovementDetourFactor,2
;   toolChangeRetractionDistance,12
;   toolChangeExtraRestartDistance,0
;   toolChangeRetractionSpeed,600
;   externalThinWallType,1
;   internalThinWallType,1
;   thinWallAllowedOverlapPercentage,10
;   singleExtrusionMinLength,0.1
;   singleExtrusionMinPrintingWidthPercentage,50
;   singleExtrusionMaxPrintingWidthPercentage,200
;   singleExtrusionEndpointExtension,0.2
;   horizontalSizeCompensation,-0.1
G90
M82
M106 S255
G4 P500
M106 S102
M140 S55
M190 S55
G10 S217 R{217-50} P0
M116 P0
G28 ; home all axes
G32 ; run bed.g -- probe bed and enable compensation
; process Process1
; layer 1, Z = 0.200
T0
; feature skirt
; tool H0.200 W0.480
G1 Z0.200 F1200
G1 X96.405 Y101.307 F18000
G92 E0.0000
G1 X101.307 Y96.405 E0.3043 F1002
G1 X104.369 Y96.405 E0.4388
G1 X106.534 Y94.240 E0.5732
G1 X113.466 Y94.240 E0.8775
G1 X115.631 Y96.405 E1.0120
G1 X118.693 Y96.405 E1.1464
G1 X123.595 Y101.307 E1.4507
G1 X123.595 Y104.369 E1.5852
G1 X125.760 Y106.534 E1.7196
G1 X125.760 Y113.466 E2.0239
G1 X123.595 Y115.631 E2.1584
G1 X123.595 Y118.693 E2.2928
G1 X118.693 Y123.595 E2.5971
G1 X115.631 Y123.595 E2.7316
G1 X113.466 Y125.760 E2.8660
G1 X106.534 Y125.760 E3.1703
G1 X104.369 Y123.595 E3.3048
G1 X101.307 Y123.595 E3.4392
G1 X96.405 Y118.693 E3.7435
G1 X96.405 Y115.631 E3.8780
G1 X94.240 Y113.466 E4.0124
G1 X94.240 Y106.534 E4.3167
G1 X96.405 Y104.369 E4.4512
G1 X96.405 Y101.307 E4.5856
G1 X96.885 Y101.505 F18000
G92 E0.0000
G1 X101.505 Y96.885 E0.2869 F1002
G1 X104.568 Y96.885 E0.4213
G1 X106.733 Y94.720 E0.5557
G1 X113.267 Y94.720 E0.8426
G1 X115.432 Y96.885 E0.9770
G1 X118.495 Y96.885 E1.1115
G1 X123.115 Y101.505 E1.3984
G1 X123.115 Y104.568 E1.5328
G1 X125.280 Y106.733 E1.6672
G1 X125.280 Y113.267 E1.9541
G1 X123.115 Y115.432 E2.0885
G1 X123.115 Y118.495 E2.2230
G1 X118.495 Y123.115 E2.5098
G1 X115.432 Y123.115 E2.6443
G1 X113.267 Y125.280 E2.7787
G1 X106.733 Y125.280 E3.0656
G1 X104.568 Y123.115 E3.2000
G1 X101.505 Y123.115 E3.3345
G1 X96.885 Y118.495 E3.6213
G1 X96.885 Y115.432 E3.7558
G1 X94.720 Y113.267 E3.8902
G1 X94.720 Y106.733 E4.1771
G1 X96.885 Y104.568 E4.3115
G1 X96.885 Y101.505 E4.4460
G1 X97.365 Y101.704 F18000
G92 E0.0000
G1 X101.704 Y97.365 E0.2694 F1002
G1 X104.767 Y97.365 E0.4038
G1 X106.932 Y95.200 E0.5383
G1 X113.068 Y95.200 E0.8077
G1 X115.233 Y97.365 E0.9421
G1 X118.296 Y97.365 E1.0766
G1 X122.635 Y101.704 E1.3460
G1 X122.635 Y104.767 E1.4804
G1 X124.800 Y106.932 E1.6149
G1 X124.800 Y113.068 E1.8843
G1 X122.635 Y115.233 E2.0187
G1 X122.635 Y118.296 E2.1531
G1 X118.296 Y122.635 E2.4226
G1 X115.233 Y122.635 E2.5570
G1 X113.068 Y124.800 E2.6914
G1 X106.932 Y124.800 E2.9608
G1 X104.767 Y122.635 E3.0953
G1 X101.704 Y122.635 E3.2297
G1 X97.365 Y118.296 E3.4991
G1 X97.365 Y115.233 E3.6336
G1 X95.200 Y113.068 E3.7680
G1 X95.200 Y106.932 E4.0374
G1 X97.365 Y104.767 E4.1719
G1 X97.365 Y101.704 E4.3063
G1 X97.845 Y101.903 F18000
G92 E0.0000
G1 X101.903 Y97.845 E0.2519 F1002
G1 X104.965 Y97.845 E0.3864
G1 X107.131 Y95.680 E0.5208
G1 X112.869 Y95.680 E0.7728
G1 X115.035 Y97.845 E0.9072
G1 X118.097 Y97.845 E1.0417
G1 X122.155 Y101.903 E1.2936
G1 X122.155 Y104.965 E1.4280
G1 X124.320 Y107.131 E1.5625
G1 X124.320 Y112.869 E1.8144
G1 X122.155 Y115.035 E1.9489
G1 X122.155 Y118.097 E2.0833
G1 X118.097 Y122.155 E2.3353
G1 X115.035 Y122.155 E2.4697
G1 X112.869 Y124.320 E2.6041
G1 X107.131 Y124.320 E2.8561
G1 X104.965 Y122.155 E2.9905
G1 X101.903 Y122.155 E3.1250
G1 X97.845 Y118.097 E3.3769
G1 X97.845 Y115.035 E3.5114
G1 X95.680 Y112.869 E3.6458
G1 X95.680 Y107.131 E3.8977
G1 X97.845 Y104.965 E4.0322
G1 X97.845 Y101.903 E4.1666
G1 X98.325 Y102.102 F18000
G92 E0.0000
G1 X102.102 Y98.325 E0.2345 F1002
G1 X105.164 Y98.325 E0.3689
G1 X107.330 Y96.160 E0.5034
G1 X112.670 Y96.160 E0.7379
G1 X114.836 Y98.325 E0.8723
G1 X117.898 Y98.325 E1.0067
G1 X121.675 Y102.102 E1.2412
G1 X121.675 Y105.164 E1.3757
G1 X123.840 Y107.330 E1.5101
G1 X123.840 Y112.670 E1.7446
G1 X121.675 Y114.836 E1.8790
G1 X121.675 Y117.898 E2.0135
G1 X117.898 Y121.675 E2.2480
G1 X114.836 Y121.675 E2.3824
G1 X112.670 Y123.840 E2.5169
G1 X107.330 Y123.840 E2.7513
G1 X105.164 Y121.675 E2.8858
G1 X102.102 Y121.675 E3.0202
G1 X98.325 Y117.898 E3.2547
G1 X98.325 Y114.836 E3.3892
G1 X96.160 Y112.670 E3.5236
G1 X96.160 Y107.330 E3.7581
G1 X98.325 Y105.164 E3.8925
G1 X98.325 Y102.102 E4.0270
; feature inner perimeter
G1 X103.905 Y104.272 F18000
G1 X106.443 Y106.811
G1 X106.030 Y107.375
G1 X106.427 Y107.646
G92 E0.0000
G1 X106.948 Y106.934 E0.0388 F902
G1 X107.690 Y106.398 E0.0789
G1 X107.866 Y106.291 E0.0880
G1 X108.290 Y106.077 E0.1088
G1 X108.482 Y105.999 E0.1180
G1 X108.882 Y105.870 E0.1364
G1 X109.138 Y105.809 E0.1479
G1 X110.010 Y105.674 E0.1867
G1 X110.914 Y105.820 E0.2269
G1 X111.114 Y105.868 E0.2359
G1 X111.565 Y106.017 E0.2568
G1 X111.756 Y106.098 E0.2659
G1 X112.130 Y106.289 E0.2843
G1 X112.354 Y106.426 E0.2958
G1 X113.066 Y106.948 E0.3346
G1 X113.602 Y107.690 E0.3748
G1 X113.709 Y107.866 E0.3838
G1 X113.923 Y108.290 E0.4047
G1 X114.001 Y108.482 E0.4138
G1 X114.130 Y108.882 E0.4322
G1 X114.191 Y109.138 E0.4438
G1 X114.326 Y110.010 E0.4825
G1 X114.180 Y110.914 E0.5227
G1 X114.132 Y111.113 E0.5317
G1 X113.983 Y111.565 E0.5526
G1 X113.902 Y111.756 E0.5617
G1 X113.711 Y112.130 E0.5802
G1 X113.574 Y112.354 E0.5917
G1 X113.052 Y113.066 E0.6305
G1 X112.310 Y113.602 E0.6706
G1 X112.134 Y113.709 E0.6797
G1 X111.710 Y113.923 E0.7005
G1 X111.518 Y114.001 E0.7096
G1 X111.118 Y114.130 E0.7281
G1 X110.862 Y114.191 E0.7396
G1 X109.990 Y114.326 E0.7784
G1 X109.086 Y114.180 E0.8186
G1 X108.887 Y114.132 E0.8276
G1 X108.435 Y113.983 E0.8485
G1 X108.244 Y113.902 E0.8576
G1 X107.870 Y113.711 E0.8760
G1 X107.646 Y113.574 E0.8875
G1 X106.934 Y113.052 E0.9263
G1 X106.398 Y112.310 E0.9665
G1 X106.291 Y112.134 E0.9755
G1 X106.077 Y111.710 E0.9964
G1 X105.999 Y111.518 E1.0055
G1 X105.870 Y111.118 E1.0239
G1 X105.809 Y110.862 E1.0355
G1 X105.674 Y109.990 E1.0742
G1 X105.820 Y109.086 E1.1144
G1 X105.868 Y108.886 E1.1234
G1 X106.017 Y108.435 E1.1443
G1 X106.098 Y108.244 E1.1534
G1 X106.289 Y107.870 E1.1719
G1 X106.427 Y107.646 E1.1834
; feature outer perimeter
G1 X106.028 Y107.378 F18000
G92 E0.0000
G1 X106.443 Y106.811 E0.0309 F802
G1 X103.905 Y104.272 E0.1885
G1 X104.272 Y103.905 E0.2113
G1 X106.809 Y106.442 E0.3688
G1 X107.425 Y105.998 E0.4021
G1 X107.633 Y105.871 E0.4128
G1 X108.091 Y105.640 E0.4354
G1 X108.318 Y105.548 E0.4461
G1 X108.752 Y105.407 E0.4662
G1 X109.045 Y105.337 E0.4794
G1 X109.740 Y105.230 E0.5103
G1 X109.740 Y101.640 E0.6679
G1 X110.260 Y101.640 E0.6907
G1 X110.260 Y105.228 E0.8482
G1 X111.009 Y105.349 E0.8815
G1 X111.246 Y105.407 E0.8922
G1 X111.734 Y105.567 E0.9148
G1 X111.959 Y105.662 E0.9255
G1 X112.366 Y105.870 E0.9456
G1 X112.622 Y106.028 E0.9588
G1 X113.189 Y106.443 E0.9896
G1 X115.728 Y103.905 E1.1472
G1 X116.095 Y104.272 E1.1701
G1 X113.558 Y106.809 E1.3276
G1 X114.002 Y107.425 E1.3609
G1 X114.129 Y107.633 E1.3716
G1 X114.360 Y108.092 E1.3942
G1 X114.452 Y108.318 E1.4049
G1 X114.593 Y108.752 E1.4249
G1 X114.663 Y109.045 E1.4381
G1 X114.770 Y109.740 E1.4690
G1 X118.360 Y109.740 E1.6266
G1 X118.360 Y110.260 E1.6495
G1 X114.772 Y110.260 E1.8070
G1 X114.651 Y111.009 E1.8403
G1 X114.593 Y111.246 E1.8510
G1 X114.433 Y111.733 E1.8735
G1 X114.338 Y111.959 E1.8843
G1 X114.130 Y112.366 E1.9043
G1 X113.972 Y112.622 E1.9175
G1 X113.557 Y113.189 E1.9484
G1 X116.095 Y115.728 E2.1060
G1 X115.728 Y116.095 E2.1288
G1 X113.191 Y113.558 E2.2864
G1 X112.575 Y114.002 E2.3197
G1 X112.367 Y114.129 E2.3304
G1 X111.908 Y114.360 E2.3529
G1 X111.682 Y114.452 E2.3636
G1 X111.248 Y114.593 E2.3837
G1 X110.955 Y114.663 E2.3969
G1 X110.260 Y114.770 E2.4278
G1 X110.260 Y118.360 E2.5854
G1 X109.740 Y118.360 E2.6082
G1 X109.740 Y114.772 E2.7657
G1 X108.991 Y114.651 E2.7991
G1 X108.754 Y114.593 E2.8097
G1 X108.267 Y114.433 E2.8323
G1 X108.041 Y114.338 E2.8430
G1 X107.634 Y114.130 E2.8631
G1 X107.378 Y113.972 E2.8763
G1 X106.811 Y113.557 E2.9072
G1 X104.272 Y116.095 E3.0648
G1 X103.905 Y115.728 E3.0876
G1 X106.442 Y113.191 E3.2451
G1 X105.997 Y112.575 E3.2784
G1 X105.871 Y112.367 E3.2891
G1 X105.640 Y111.908 E3.3117
G1 X105.548 Y111.682 E3.3224
G1 X105.407 Y111.248 E3.3425
G1 X105.337 Y110.955 E3.3557
G1 X105.230 Y110.260 E3.3865
G1 X101.640 Y110.260 E3.5441
G1 X101.640 Y109.740 E3.5670
G1 X105.228 Y109.740 E3.7245
G1 X105.349 Y108.991 E3.7578
G1 X105.406 Y108.754 E3.7685
G1 X105.567 Y108.266 E3.7911
G1 X105.662 Y108.041 E3.8018
G1 X105.870 Y107.634 E3.8218
G1 X106.028 Y107.378 E3.8351
; feature inner perimeter
G1 X107.534 Y108.625 F18000
G92 E0.0000
G1 X107.330 Y109.084 E0.0220 F902
G1 X107.217 Y109.545 E0.0429
G1 X107.186 Y109.792 E0.0538
G1 X107.191 Y110.277 E0.0751
G1 X107.281 Y110.752 E0.0963
G1 X107.370 Y111.020 E0.1087
G1 X107.561 Y111.422 E0.1283
G1 X107.839 Y111.815 E0.1494
G1 X108.029 Y112.018 E0.1616
G1 X108.257 Y112.214 E0.1748
G1 X108.619 Y112.461 E0.1940
G1 X109.023 Y112.647 E0.2136
G1 X109.295 Y112.732 E0.2261
G1 X109.754 Y112.811 E0.2465
G1 X110.041 Y112.821 E0.2592
G1 X110.518 Y112.774 E0.2802
G1 X110.965 Y112.653 E0.3005
G1 X111.417 Y112.442 E0.3224
G1 X111.827 Y112.152 E0.3445
G1 X112.166 Y111.807 E0.3657
G1 X112.336 Y111.581 E0.3781
G1 X112.558 Y111.195 E0.3976
G1 X112.728 Y110.725 E0.4196
G1 X112.813 Y110.231 E0.4416
G1 X112.809 Y109.734 E0.4634
G1 X112.732 Y109.296 E0.4830
G1 X112.647 Y109.023 E0.4955
G1 X112.451 Y108.602 E0.5159
G1 X112.305 Y108.375 E0.5278
G1 X112.144 Y108.167 E0.5393
G1 X111.663 Y107.680 E0.5694
G1 X108.334 Y107.680 E0.7155
G1 X107.816 Y108.211 E0.7481
G1 X107.534 Y108.625 E0.7701
; feature outer perimeter
G1 X107.956 Y108.860 F18000
G92 E0.0000
G1 X107.786 Y109.240 E0.0183 F802
G1 X107.690 Y109.633 E0.0360
G1 X107.666 Y109.820 E0.0443
G1 X107.670 Y110.229 E0.0623
G1 X107.746 Y110.631 E0.0802
G1 X107.816 Y110.841 E0.0899
G1 X107.977 Y111.178 E0.1063
G1 X108.212 Y111.511 E0.1242
G1 X108.362 Y111.671 E0.1339
G1 X108.549 Y111.833 E0.1447
G1 X108.856 Y112.042 E0.1610
G1 X109.196 Y112.198 E0.1774
G1 X109.408 Y112.265 E0.1872
G1 X109.803 Y112.332 E0.2048
G1 X110.026 Y112.340 E0.2146
G1 X110.431 Y112.300 E0.2325
G1 X110.799 Y112.201 E0.2492
G1 X111.175 Y112.025 E0.2674
G1 X111.515 Y111.785 E0.2857
G1 X111.802 Y111.493 E0.3037
G1 X111.934 Y111.316 E0.3134
G1 X112.121 Y110.992 E0.3298
G1 X112.263 Y110.602 E0.3480
G1 X112.333 Y110.192 E0.3663
G1 X112.330 Y109.778 E0.3845
G1 X112.265 Y109.409 E0.4009
G1 X112.199 Y109.197 E0.4106
G1 X112.029 Y108.834 E0.4282
G1 X111.913 Y108.652 E0.4377
G1 X111.782 Y108.483 E0.4471
G1 X111.463 Y108.160 E0.4670
