; G-Code generated by Simplify3D(R) Version 4.1.2
; Jun 10, 2022 at 12:03:57 PM
; Settings Summary
;   processName,Process1
;   applyToModels,rad
;   profileName,HSBot
;   profileVersion,2019-11-09 11:59:44
;   baseProfile,Default
;   printMaterial,Filaflex 82A
;   printQuality,High
;   printExtruders,
;   extruderName,Extruder 1,Extruder - Lite
;   extruderToolheadNumber,0,1
;   extruderDiameter,0.4,0.4
;   extruderAutoWidth,1,1
;   extruderWidth,0.48,0.48
;   extrusionMultiplier,1.2,0.93
;   extruderUseRetract,0,1
;   extruderRetractionDistance,6,1
;   extruderExtraRestartDistance,0,0
;   extruderRetractionZLift,0,0
;   extruderRetractionSpeed,2400,1800
;   extruderUseCoasting,0,0
;   extruderCoastingDistance,0.2,0.2
;   extruderUseWipe,0,0
;   extruderWipeDistance,1,5
;   primaryExtruder,0
;   layerHeight,0.2
;   topSolidLayers,4
;   bottomSolidLayers,4
;   perimeterOutlines,3
;   printPerimetersInsideOut,1
;   startPointOption,2
;   startPointOriginX,0
;   startPointOriginY,0
;   sequentialIslands,0
;   spiralVaseMode,0
;   firstLayerHeightPercentage,100
;   firstLayerWidthPercentage,100
;   firstLayerUnderspeed,0.25
;   useRaft,0
;   raftExtruder,0
;   raftTopLayers,3
;   raftBaseLayers,2
;   raftOffset,3
;   raftSeparationDistance,0.18
;   raftTopInfill,100
;   aboveRaftSpeedMultiplier,0.3
;   useSkirt,1
;   skirtExtruder,0
;   skirtLayers,1
;   skirtOutlines,5
;   skirtOffset,5
;   usePrimePillar,0
;   primePillarExtruder,999
;   primePillarWidth,12
;   primePillarLocation,7
;   primePillarSpeedMultiplier,1
;   useOozeShield,0
;   oozeShieldExtruder,999
;   oozeShieldOffset,2
;   oozeShieldOutlines,1
;   oozeShieldSidewallShape,1
;   oozeShieldSidewallAngle,30
;   oozeShieldSpeedMultiplier,1
;   infillExtruder,0
;   internalInfillPattern,Full Honeycomb
;   externalInfillPattern,Rectilinear
;   infillPercentage,20
;   outlineOverlapPercentage,20
;   infillExtrusionWidthPercentage,100
;   minInfillLength,3
;   infillLayerInterval,1
;   internalInfillAngles,0,120,-120
;   overlapInternalInfillAngles,0
;   externalInfillAngles,45,-45
;   generateSupport,0
;   supportExtruder,0
;   supportInfillPercentage,40
;   supportExtraInflation,0
;   supportBaseLayers,1
;   denseSupportExtruder,0
;   denseSupportLayers,0
;   denseSupportInfillPercentage,70
;   supportLayerInterval,1
;   supportHorizontalPartOffset,0.3
;   supportUpperSeparationLayers,1
;   supportLowerSeparationLayers,1
;   supportType,0
;   supportGridSpacing,2
;   maxOverhangAngle,45
;   supportAngles,0
;   temperatureName,Extruder 1,Bed
;   temperatureNumber,0,0
;   temperatureSetpointCount,1,1
;   temperatureSetpointLayers,1,1
;   temperatureSetpointTemperatures,245,55
;   temperatureStabilizeAtStartup,1,1
;   temperatureHeatedBed,0,1
;   fanLayers,1,2,3
;   fanSpeeds,0,15,30
;   blipFanToFullPower,1
;   adjustSpeedForCooling,1
;   minSpeedLayerTime,15
;   minCoolingSpeedSlowdown,20
;   increaseFanForCooling,1
;   minFanLayerTime,45
;   maxCoolingFanSpeed,40
;   increaseFanForBridging,1
;   bridgingFanSpeed,80
;   use5D,1
;   relativeEdistances,0
;   allowEaxisZeroing,1
;   independentExtruderAxes,0
;   includeM10123,0
;   stickySupport,1
;   applyToolheadOffsets,0
;   gcodeXoffset,0
;   gcodeYoffset,0
;   gcodeZoffset,0
;   overrideMachineDefinition,1
;   machineTypeOverride,0
;   strokeXoverride,220
;   strokeYoverride,220
;   strokeZoverride,150
;   originOffsetXoverride,0
;   originOffsetYoverride,0
;   originOffsetZoverride,0
;   homeXdirOverride,-1
;   homeYdirOverride,-1
;   homeZdirOverride,-1
;   flipXoverride,1
;   flipYoverride,-1
;   flipZoverride,1
;   toolheadOffsets,0,0|0,0|0,0|0,0|0,0|0,0
;   overrideFirmwareConfiguration,0
;   firmwareTypeOverride,RepRap (Marlin/Repetier/Sprinter)
;   GPXconfigOverride,r2
;   baudRateOverride,115200
;   overridePrinterModels,0
;   printerModelsOverride
;   startingGcode,G28 ; home all axes,G32 ; run bed.g -- probe bed and enable compensation
;   layerChangeGcode,
;   retractionGcode,
;   toolChangeGcode,
;   endingGcode,M0 ; call stop.g
;   exportFileFormat,gcode
;   celebration,0
;   celebrationSong,Random Song
;   postProcessing,|; 0.2mm layer, 8 bands 5mm each, total height 40mm|{REPLACE "; layer 25" "M572 D0 S0.69\n; layer 10"}|{REPLACE "; layer 50" "M572 D0 S0.70\n; layer 50"}|{REPLACE "; layer 75" "M572 D0 S0.71\n; layer 75"}|{REPLACE "; layer 100" "M572 D0 S0.72\n; layer 100"}|{REPLACE "; layer 125" "M572 D0 S0.73\n; layer 125"}|{REPLACE "; layer 150" "M572 D0 S0.74\n; layer 150"}|{REPLACE "; layer 175" "M572 D0 S0.75\n; layer 175"}|{REPLACE "; layer 200" "M572 D0 S0.76\n; layer 200"}
;   defaultSpeed,2400
;   outlineUnderspeed,0.8
;   solidInfillUnderspeed,0.8
;   supportUnderspeed,0.8
;   rapidXYspeed,18000
;   rapidZspeed,1200
;   minBridgingArea,50
;   bridgingExtraInflation,0
;   bridgingExtrusionMultiplier,0.96
;   bridgingSpeedMultiplier,1
;   useFixedBridgingAngle,0
;   fixedBridgingAngle,0
;   applyBridgingToPerimeters,0
;   filamentDiameters,1.75|1.75|1.75|1.75|1.75|1.75
;   filamentPricesPerKg,25|46|46|46|46|46
;   filamentDensities,1.29|1.25|1.25|1.25|1.25|1.25
;   useMinPrintHeight,0
;   minPrintHeight,0.3
;   useMaxPrintHeight,0
;   maxPrintHeight,5
;   useDiaphragm,0
;   diaphragmLayerInterval,20
;   robustSlicing,1
;   mergeAllIntoSolid,0
;   onlyRetractWhenCrossingOutline,1
;   retractBetweenLayers,0
;   useRetractionMinTravel,1
;   retractionMinTravel,5
;   retractWhileWiping,1
;   onlyWipeOutlines,1
;   avoidCrossingOutline,1
;   maxMovementDetourFactor,2
;   toolChangeRetractionDistance,12
;   toolChangeExtraRestartDistance,0
;   toolChangeRetractionSpeed,600
;   externalThinWallType,1
;   internalThinWallType,1
;   thinWallAllowedOverlapPercentage,10
;   singleExtrusionMinLength,0.1
;   singleExtrusionMinPrintingWidthPercentage,50
;   singleExtrusionMaxPrintingWidthPercentage,200
;   singleExtrusionEndpointExtension,0.2
;   horizontalSizeCompensation,0
G90
M82
M106 S0
M140 S55
M190 S55
G10 S245 R{245-50} P0
M116 P0
G28 ; home all axes
G32 ; run bed.g -- probe bed and enable compensation
; process Process1
; layer 1, Z = 0.200
T0
; feature skirt
; tool H0.200 W0.480
G1 Z0.200 F1200
G1 X85.057 Y85.057 F18000
G92 E0.0000
G1 X85.296 Y84.773 E0.0178 F600
G1 X85.408 Y84.763 E0.0232
G1 X86.237 Y84.068 E0.0750
G1 X87.002 Y83.302 E0.1268
G1 X87.022 Y83.191 E0.1322
G1 X87.326 Y82.979 E0.1500
G1 X87.589 Y82.716 E0.1678
G1 X87.701 Y82.716 E0.1732
G1 X88.588 Y82.095 E0.2250
G1 X89.417 Y81.399 E0.2769
G1 X89.446 Y81.291 E0.2822
G1 X89.767 Y81.105 E0.3000
G1 X90.052 Y80.866 E0.3178
G1 X90.164 Y80.876 E0.3232
G1 X91.101 Y80.335 E0.3750
G1 X91.988 Y79.714 E0.4269
G1 X92.026 Y79.609 E0.4323
G1 X92.363 Y79.452 E0.4500
G1 X92.667 Y79.238 E0.4678
G1 X92.778 Y79.258 E0.4732
G1 X93.758 Y78.801 E0.5250
G1 X94.696 Y78.260 E0.5769
G1 X94.743 Y78.158 E0.5823
G1 X95.092 Y78.031 E0.6000
G1 X95.414 Y77.845 E0.6178
G1 X95.523 Y77.874 E0.6232
G1 X96.540 Y77.504 E0.6751
G1 X97.520 Y77.047 E0.7269
G1 X97.577 Y76.949 E0.7323
G1 X97.936 Y76.853 E0.7501
G1 X98.272 Y76.696 E0.7679
G1 X98.378 Y76.735 E0.7732
G1 X99.423 Y76.454 E0.8251
G1 X100.440 Y76.084 E0.8769
G1 X100.505 Y75.992 E0.8823
G1 X100.870 Y75.928 E0.9001
G1 X101.220 Y75.800 E0.9179
G1 X101.322 Y75.848 E0.9233
G1 X102.387 Y75.660 E0.9751
G1 X103.432 Y75.380 E1.0269
G1 X103.505 Y75.294 E1.0323
G1 X103.874 Y75.262 E1.0501
G1 X104.233 Y75.166 E1.0679
G1 X104.331 Y75.222 E1.0733
G1 X105.408 Y75.127 E1.1251
G1 X106.475 Y74.940 E1.1769
G1 X106.554 Y74.860 E1.1823
G1 X106.926 Y74.860 E1.2001
G1 X107.291 Y74.796 E1.2179
G1 X107.383 Y74.860 E1.2233
G1 X108.466 Y74.860 E1.2751
G1 X109.544 Y74.766 E1.3270
G1 X109.630 Y74.693 E1.3323
G1 X110.000 Y74.726 E1.3501
G1 X110.370 Y74.693 E1.3679
G1 X110.456 Y74.766 E1.3733
G1 X111.534 Y74.860 E1.4251
G1 X112.617 Y74.860 E1.4770
G1 X112.709 Y74.796 E1.4824
G1 X113.074 Y74.860 E1.5001
G1 X113.446 Y74.860 E1.5179
G1 X113.525 Y74.940 E1.5233
G1 X114.592 Y75.127 E1.5752
G1 X115.669 Y75.222 E1.6270
G1 X115.767 Y75.166 E1.6324
G1 X116.126 Y75.262 E1.6502
G1 X116.495 Y75.294 E1.6679
G1 X116.568 Y75.380 E1.6733
G1 X117.613 Y75.660 E1.7251
G1 X118.678 Y75.848 E1.7770
G1 X118.780 Y75.800 E1.7824
G1 X119.130 Y75.928 E1.8002
G1 X119.495 Y75.992 E1.8180
G1 X119.560 Y76.084 E1.8233
G1 X120.577 Y76.454 E1.8752
G1 X121.622 Y76.735 E1.9270
G1 X121.728 Y76.696 E1.9324
G1 X122.064 Y76.853 E1.9502
G1 X122.423 Y76.949 E1.9680
G1 X122.480 Y77.047 E1.9734
G1 X123.460 Y77.504 E2.0252
G1 X124.477 Y77.874 E2.0770
G1 X124.586 Y77.845 E2.0824
G1 X124.908 Y78.031 E2.1002
G1 X125.257 Y78.158 E2.1180
G1 X125.304 Y78.260 E2.1234
G1 X126.241 Y78.801 E2.1752
G1 X127.222 Y79.258 E2.2270
G1 X127.333 Y79.239 E2.2324
G1 X127.637 Y79.452 E2.2502
G1 X127.974 Y79.609 E2.2680
G1 X128.012 Y79.714 E2.2734
G1 X128.899 Y80.335 E2.3252
G1 X129.836 Y80.876 E2.3771
G1 X129.948 Y80.867 E2.3824
G1 X130.233 Y81.105 E2.4002
G1 X130.554 Y81.291 E2.4180
G1 X130.583 Y81.399 E2.4234
G1 X131.412 Y82.095 E2.4752
G1 X132.299 Y82.716 E2.5271
G1 X132.411 Y82.716 E2.5324
G1 X132.674 Y82.978 E2.5502
G1 X132.978 Y83.192 E2.5680
G1 X132.998 Y83.302 E2.5734
G1 X133.763 Y84.067 E2.6252
G1 X134.592 Y84.763 E2.6771
G1 X134.704 Y84.773 E2.6825
G1 X134.942 Y85.057 E2.7002
G1 X135.227 Y85.296 E2.7180
G1 X135.237 Y85.408 E2.7234
G1 X135.932 Y86.237 E2.7752
G1 X136.698 Y87.002 E2.8271
G1 X136.809 Y87.022 E2.8325
G1 X137.021 Y87.326 E2.8502
G1 X137.284 Y87.589 E2.8680
G1 X137.284 Y87.701 E2.8734
G1 X137.905 Y88.587 E2.9252
G1 X138.601 Y89.417 E2.9771
G1 X138.709 Y89.446 E2.9825
G1 X138.895 Y89.767 E3.0003
G1 X139.134 Y90.052 E3.0180
G1 X139.124 Y90.164 E3.0234
G1 X139.665 Y91.101 E3.0753
G1 X140.286 Y91.988 E3.1271
G1 X140.391 Y92.026 E3.1325
G1 X140.548 Y92.363 E3.1503
G1 X140.761 Y92.667 E3.1681
G1 X140.742 Y92.778 E3.1735
G1 X141.199 Y93.759 E3.2253
G1 X141.740 Y94.696 E3.2771
G1 X141.842 Y94.743 E3.2825
G1 X141.969 Y95.093 E3.3003
G1 X142.155 Y95.414 E3.3181
G1 X142.126 Y95.523 E3.3235
G1 X142.496 Y96.540 E3.3753
G1 X142.953 Y97.520 E3.4271
G1 X143.051 Y97.577 E3.4325
G1 X143.147 Y97.935 E3.4503
G1 X143.304 Y98.272 E3.4681
G1 X143.265 Y98.378 E3.4735
G1 X143.545 Y99.423 E3.5253
G1 X143.916 Y100.440 E3.5771
G1 X144.008 Y100.504 E3.5825
G1 X144.072 Y100.870 E3.6003
G1 X144.199 Y101.219 E3.6181
G1 X144.152 Y101.321 E3.6235
G1 X144.340 Y102.387 E3.6753
G1 X144.620 Y103.433 E3.7272
G1 X144.706 Y103.505 E3.7326
G1 X144.738 Y103.875 E3.7504
G1 X144.834 Y104.233 E3.7681
G1 X144.778 Y104.331 E3.7735
G1 X144.873 Y105.409 E3.8254
G1 X145.060 Y106.475 E3.8772
G1 X145.140 Y106.554 E3.8826
G1 X145.140 Y106.926 E3.9004
G1 X145.204 Y107.291 E3.9181
G1 X145.140 Y107.383 E3.9235
G1 X145.140 Y108.466 E3.9754
G1 X145.234 Y109.544 E4.0272
G1 X145.306 Y109.630 E4.0326
G1 X145.274 Y110.000 E4.0504
G1 X145.306 Y110.370 E4.0681
G1 X145.234 Y110.456 E4.0735
G1 X145.140 Y111.534 E4.1253
G1 X145.140 Y112.617 E4.1772
G1 X145.204 Y112.709 E4.1826
G1 X145.140 Y113.074 E4.2004
G1 X145.140 Y113.446 E4.2182
G1 X145.060 Y113.525 E4.2235
G1 X144.873 Y114.591 E4.2754
G1 X144.778 Y115.670 E4.3272
G1 X144.834 Y115.767 E4.3326
G1 X144.738 Y116.125 E4.3504
G1 X144.706 Y116.495 E4.3682
G1 X144.620 Y116.568 E4.3736
G1 X144.340 Y117.613 E4.4254
G1 X144.152 Y118.679 E4.4772
G1 X144.199 Y118.781 E4.4826
G1 X144.072 Y119.130 E4.5004
G1 X144.008 Y119.496 E4.5182
G1 X143.916 Y119.560 E4.5236
G1 X143.545 Y120.577 E4.5754
G1 X143.265 Y121.622 E4.6272
G1 X143.304 Y121.728 E4.6326
G1 X143.147 Y122.065 E4.6504
G1 X143.051 Y122.423 E4.6682
G1 X142.953 Y122.480 E4.6736
G1 X142.496 Y123.460 E4.7254
G1 X142.126 Y124.478 E4.7773
G1 X142.155 Y124.586 E4.7827
G1 X141.969 Y124.907 E4.8004
G1 X141.842 Y125.256 E4.8182
G1 X141.740 Y125.304 E4.8236
G1 X141.199 Y126.241 E4.8754
G1 X140.742 Y127.222 E4.9273
G1 X140.761 Y127.333 E4.9326
G1 X140.548 Y127.637 E4.9504
G1 X140.391 Y127.974 E4.9682
G1 X140.286 Y128.012 E4.9736
G1 X139.665 Y128.899 E5.0254
G1 X139.124 Y129.836 E5.0773
G1 X139.134 Y129.948 E5.0827
G1 X138.895 Y130.232 E5.1004
G1 X138.709 Y130.554 E5.1182
G1 X138.601 Y130.583 E5.1236
G1 X137.905 Y131.412 E5.1755
G1 X137.284 Y132.299 E5.2273
G1 X137.284 Y132.411 E5.2327
G1 X137.022 Y132.674 E5.2505
G1 X136.809 Y132.978 E5.2683
G1 X136.698 Y132.998 E5.2736
G1 X135.933 Y133.763 E5.3255
G1 X135.237 Y134.592 E5.3773
G1 X135.227 Y134.704 E5.3827
G1 X134.943 Y134.943 E5.4005
G1 X134.704 Y135.227 E5.4183
G1 X134.592 Y135.237 E5.4237
G1 X133.763 Y135.933 E5.4755
G1 X132.998 Y136.698 E5.5273
G1 X132.978 Y136.809 E5.5327
G1 X132.674 Y137.022 E5.5505
G1 X132.411 Y137.284 E5.5683
G1 X132.299 Y137.284 E5.5737
G1 X131.412 Y137.905 E5.6255
G1 X130.583 Y138.600 E5.6773
G1 X130.554 Y138.709 E5.6827
G1 X130.232 Y138.895 E5.7005
G1 X129.948 Y139.134 E5.7183
G1 X129.836 Y139.124 E5.7237
G1 X128.899 Y139.665 E5.7755
G1 X128.012 Y140.286 E5.8274
G1 X127.974 Y140.392 E5.8327
G1 X127.637 Y140.548 E5.8505
G1 X127.333 Y140.761 E5.8683
G1 X127.222 Y140.742 E5.8737
G1 X126.241 Y141.199 E5.9255
G1 X125.304 Y141.740 E5.9774
G1 X125.257 Y141.842 E5.9828
G1 X124.908 Y141.969 E6.0005
G1 X124.586 Y142.155 E6.0183
G1 X124.477 Y142.126 E6.0237
G1 X123.461 Y142.496 E6.0755
G1 X122.479 Y142.953 E6.1274
G1 X122.423 Y143.051 E6.1328
G1 X122.065 Y143.147 E6.1505
G1 X121.728 Y143.304 E6.1683
G1 X121.622 Y143.265 E6.1737
G1 X120.577 Y143.545 E6.2255
G1 X119.560 Y143.916 E6.2774
G1 X119.495 Y144.008 E6.2828
G1 X119.130 Y144.072 E6.3006
G1 X118.780 Y144.199 E6.3184
G1 X118.679 Y144.152 E6.3237
G1 X117.613 Y144.340 E6.3756
G1 X116.568 Y144.620 E6.4274
G1 X116.495 Y144.706 E6.4328
G1 X116.126 Y144.738 E6.4506
G1 X115.767 Y144.835 E6.4684
G1 X115.669 Y144.778 E6.4738
G1 X114.591 Y144.873 E6.5256
G1 X113.525 Y145.060 E6.5774
G1 X113.446 Y145.140 E6.5828
G1 X113.074 Y145.140 E6.6006
G1 X112.709 Y145.204 E6.6184
G1 X112.617 Y145.140 E6.6238
G1 X111.534 Y145.140 E6.6756
G1 X110.456 Y145.234 E6.7274
G1 X110.370 Y145.307 E6.7328
G1 X110.000 Y145.274 E6.7506
G1 X109.630 Y145.307 E6.7684
G1 X109.544 Y145.234 E6.7738
G1 X108.466 Y145.140 E6.8256
G1 X107.383 Y145.140 E6.8775
G1 X107.291 Y145.204 E6.8828
G1 X106.926 Y145.140 E6.9006
G1 X106.554 Y145.140 E6.9184
G1 X106.475 Y145.060 E6.9238
G1 X105.409 Y144.873 E6.9756
G1 X104.331 Y144.778 E7.0275
G1 X104.233 Y144.835 E7.0329
G1 X103.874 Y144.738 E7.0507
G1 X103.505 Y144.706 E7.0684
G1 X103.432 Y144.620 E7.0738
G1 X102.387 Y144.340 E7.1256
G1 X101.321 Y144.152 E7.1775
G1 X101.220 Y144.199 E7.1829
G1 X100.870 Y144.072 E7.2007
G1 X100.505 Y144.008 E7.2184
G1 X100.440 Y143.916 E7.2238
G1 X99.423 Y143.545 E7.2757
G1 X98.378 Y143.265 E7.3275
G1 X98.272 Y143.304 E7.3329
G1 X97.935 Y143.147 E7.3507
G1 X97.577 Y143.051 E7.3685
G1 X97.520 Y142.953 E7.3738
G1 X96.539 Y142.496 E7.4257
G1 X95.523 Y142.126 E7.4775
G1 X95.414 Y142.155 E7.4829
G1 X95.092 Y141.969 E7.5007
G1 X94.743 Y141.842 E7.5185
G1 X94.696 Y141.740 E7.5238
G1 X93.759 Y141.199 E7.5757
G1 X92.778 Y140.742 E7.6275
G1 X92.667 Y140.761 E7.6329
G1 X92.363 Y140.548 E7.6507
G1 X92.026 Y140.392 E7.6685
G1 X91.988 Y140.286 E7.6739
G1 X91.101 Y139.665 E7.7257
G1 X90.164 Y139.124 E7.7775
G1 X90.052 Y139.134 E7.7829
G1 X89.767 Y138.895 E7.8007
G1 X89.446 Y138.709 E7.8185
G1 X89.417 Y138.601 E7.8239
G1 X88.588 Y137.905 E7.8757
G1 X87.701 Y137.284 E7.9276
G1 X87.589 Y137.284 E7.9329
G1 X87.326 Y137.021 E7.9507
G1 X87.022 Y136.808 E7.9685
G1 X87.002 Y136.698 E7.9739
G1 X86.237 Y135.932 E8.0257
G1 X85.408 Y135.237 E8.0775
G1 X85.296 Y135.227 E8.0829
G1 X85.057 Y134.943 E8.1007
G1 X84.773 Y134.704 E8.1185
G1 X84.763 Y134.592 E8.1239
G1 X84.067 Y133.763 E8.1758
G1 X83.302 Y132.998 E8.2276
G1 X83.191 Y132.978 E8.2330
G1 X82.978 Y132.673 E8.2508
G1 X82.716 Y132.411 E8.2685
G1 X82.716 Y132.299 E8.2739
G1 X82.095 Y131.412 E8.3258
G1 X81.399 Y130.583 E8.3776
G1 X81.291 Y130.554 E8.3830
G1 X81.105 Y130.233 E8.4008
G1 X80.866 Y129.948 E8.4186
G1 X80.876 Y129.836 E8.4240
G1 X80.335 Y128.899 E8.4758
G1 X79.714 Y128.012 E8.5276
G1 X79.609 Y127.974 E8.5330
G1 X79.452 Y127.637 E8.5508
G1 X79.239 Y127.333 E8.5686
G1 X79.258 Y127.222 E8.5739
G1 X78.801 Y126.241 E8.6258
G1 X78.260 Y125.304 E8.6776
