; G-Code generated by Simplify3D(R) Version 4.1.2
; Jun 24, 2022 at 8:51:03 AM
; Settings Summary
;   processName,Process1
;   applyToModels,rampe-halterung,rampe-halterung(2),rampe-halterung(3),rampe-halterung(4)
;   profileName,HSBot
;   profileVersion,2019-11-09 11:59:44
;   baseProfile,Default
;   printMaterial,pla
;   printQuality,Medium
;   printExtruders,
;   extruderName,Extruder - v6,Extruder - lgx ace
;   extruderToolheadNumber,0,1
;   extruderDiameter,0.4,0.4
;   extruderAutoWidth,1,1
;   extruderWidth,0.48,0.48
;   extrusionMultiplier,1.03,1.03
;   extruderUseRetract,0,0
;   extruderRetractionDistance,4,1
;   extruderExtraRestartDistance,0,0
;   extruderRetractionZLift,0,0
;   extruderRetractionSpeed,3600,3600
;   extruderUseCoasting,0,0
;   extruderCoastingDistance,0.2,0.2
;   extruderUseWipe,0,0
;   extruderWipeDistance,1,1
;   primaryExtruder,1
;   layerHeight,0.2
;   topSolidLayers,3
;   bottomSolidLayers,3
;   perimeterOutlines,3
;   printPerimetersInsideOut,1
;   startPointOption,2
;   startPointOriginX,0
;   startPointOriginY,0
;   sequentialIslands,0
;   spiralVaseMode,0
;   firstLayerHeightPercentage,100
;   firstLayerWidthPercentage,150
;   firstLayerUnderspeed,0.25
;   useRaft,0
;   raftExtruder,0
;   raftTopLayers,3
;   raftBaseLayers,2
;   raftOffset,3
;   raftSeparationDistance,0.18
;   raftTopInfill,100
;   aboveRaftSpeedMultiplier,0.3
;   useSkirt,1
;   skirtExtruder,1
;   skirtLayers,1
;   skirtOutlines,8
;   skirtOffset,0
;   usePrimePillar,0
;   primePillarExtruder,999
;   primePillarWidth,12
;   primePillarLocation,7
;   primePillarSpeedMultiplier,1
;   useOozeShield,0
;   oozeShieldExtruder,999
;   oozeShieldOffset,2
;   oozeShieldOutlines,1
;   oozeShieldSidewallShape,1
;   oozeShieldSidewallAngle,30
;   oozeShieldSpeedMultiplier,1
;   infillExtruder,1
;   internalInfillPattern,Fast Honeycomb
;   externalInfillPattern,Rectilinear
;   infillPercentage,15
;   outlineOverlapPercentage,20
;   infillExtrusionWidthPercentage,100
;   minInfillLength,3
;   infillLayerInterval,1
;   internalInfillAngles,0
;   overlapInternalInfillAngles,0
;   externalInfillAngles,45,-45
;   generateSupport,0
;   supportExtruder,1
;   supportInfillPercentage,30
;   supportExtraInflation,0
;   supportBaseLayers,1
;   denseSupportExtruder,0
;   denseSupportLayers,0
;   denseSupportInfillPercentage,70
;   supportLayerInterval,1
;   supportHorizontalPartOffset,0.3
;   supportUpperSeparationLayers,1
;   supportLowerSeparationLayers,1
;   supportType,0
;   supportGridSpacing,2
;   maxOverhangAngle,45
;   supportAngles,0
;   temperatureName,v6,Bed,lgx-ace
;   temperatureNumber,0,0,1
;   temperatureSetpointCount,1,1,1
;   temperatureSetpointLayers,1,1,1
;   temperatureSetpointTemperatures,0,55,217
;   temperatureStabilizeAtStartup,1,1,1
;   temperatureHeatedBed,0,1,0
;   fanLayers,1,2,5
;   fanSpeeds,0,0,0
;   blipFanToFullPower,0
;   adjustSpeedForCooling,1
;   minSpeedLayerTime,15
;   minCoolingSpeedSlowdown,50
;   increaseFanForCooling,0
;   minFanLayerTime,45
;   maxCoolingFanSpeed,70
;   increaseFanForBridging,0
;   bridgingFanSpeed,80
;   use5D,1
;   relativeEdistances,0
;   allowEaxisZeroing,1
;   independentExtruderAxes,0
;   includeM10123,0
;   stickySupport,1
;   applyToolheadOffsets,0
;   gcodeXoffset,0
;   gcodeYoffset,0
;   gcodeZoffset,0
;   overrideMachineDefinition,1
;   machineTypeOverride,0
;   strokeXoverride,220
;   strokeYoverride,220
;   strokeZoverride,150
;   originOffsetXoverride,0
;   originOffsetYoverride,0
;   originOffsetZoverride,0
;   homeXdirOverride,-1
;   homeYdirOverride,-1
;   homeZdirOverride,-1
;   flipXoverride,1
;   flipYoverride,-1
;   flipZoverride,1
;   toolheadOffsets,0,0|0,0|0,0|0,0|0,0|0,0
;   overrideFirmwareConfiguration,0
;   firmwareTypeOverride,RepRap (Marlin/Repetier/Sprinter)
;   GPXconfigOverride,r2
;   baudRateOverride,115200
;   overridePrinterModels,0
;   printerModelsOverride
;   startingGcode,G28 ; home all axes,G32 ; run bed.g -- probe bed and enable compensation
;   layerChangeGcode,
;   retractionGcode,
;   toolChangeGcode,
;   endingGcode,M0 ; call stop.g
;   exportFileFormat,gcode
;   celebration,0
;   celebrationSong,Random Song
;   postProcessing,|; 0.2mm layer, 8 bands 5mm each, total height 40mm|{REPLACE "; layer 25" "M572 D0 S0.69\n; layer 10"}|{REPLACE "; layer 50" "M572 D0 S0.70\n; layer 50"}|{REPLACE "; layer 75" "M572 D0 S0.71\n; layer 75"}|{REPLACE "; layer 100" "M572 D0 S0.72\n; layer 100"}|{REPLACE "; layer 125" "M572 D0 S0.73\n; layer 125"}|{REPLACE "; layer 150" "M572 D0 S0.74\n; layer 150"}|{REPLACE "; layer 175" "M572 D0 S0.75\n; layer 175"}|{REPLACE "; layer 200" "M572 D0 S0.76\n; layer 200"}
;   defaultSpeed,4800
;   outlineUnderspeed,0.8
;   solidInfillUnderspeed,0.75
;   supportUnderspeed,0.8
;   rapidXYspeed,18000
;   rapidZspeed,1200
;   minBridgingArea,50
;   bridgingExtraInflation,0
;   bridgingExtrusionMultiplier,0.96
;   bridgingSpeedMultiplier,1
;   useFixedBridgingAngle,0
;   fixedBridgingAngle,0
;   applyBridgingToPerimeters,0
;   filamentDiameters,1.75|1.75|1.75|1.75|1.75|1.75
;   filamentPricesPerKg,25|46|46|46|46|46
;   filamentDensities,1.29|1.25|1.25|1.25|1.25|1.25
;   useMinPrintHeight,0
;   minPrintHeight,0.3
;   useMaxPrintHeight,0
;   maxPrintHeight,5
;   useDiaphragm,1
;   diaphragmLayerInterval,20
;   robustSlicing,1
;   mergeAllIntoSolid,0
;   onlyRetractWhenCrossingOutline,1
;   retractBetweenLayers,0
;   useRetractionMinTravel,1
;   retractionMinTravel,5
;   retractWhileWiping,1
;   onlyWipeOutlines,1
;   avoidCrossingOutline,1
;   maxMovementDetourFactor,2
;   toolChangeRetractionDistance,12
;   toolChangeExtraRestartDistance,0
;   toolChangeRetractionSpeed,600
;   externalThinWallType,1
;   internalThinWallType,1
;   thinWallAllowedOverlapPercentage,10
;   singleExtrusionMinLength,0.1
;   singleExtrusionMinPrintingWidthPercentage,50
;   singleExtrusionMaxPrintingWidthPercentage,200
;   singleExtrusionEndpointExtension,0.2
;   horizontalSizeCompensation,0
G90
M82
M106 S0
M140 S55
M190 S55
G10 S0 R{0-50} P0
G10 S217 R{217-50} P1
M116 P1
G28 ; home all axes
G32 ; run bed.g -- probe bed and enable compensation
; process Process1
; layer 1, Z = 0.200
T1
; feature skirt
; tool H0.200 W0.720
G1 Z0.200 F1200
G1 X94.354 Y93.500 F18000
G92 E0.0000
G1 X98.846 Y93.500 E0.2769 F1200
G1 X99.900 Y94.554 E0.3689
G1 X99.900 Y101.237 E0.7810
G1 X99.918 Y101.494 E0.7969
G1 X99.952 Y101.654 E0.8069
G1 X100.085 Y101.982 E0.8288
G1 X100.154 Y102.094 E0.8369
G1 X100.391 Y102.357 E0.8587
G1 X100.520 Y102.457 E0.8688
G1 X100.688 Y102.554 E0.8808
G1 X100.869 Y102.627 E0.8928
G1 X101.058 Y102.674 E0.9048
G1 X101.251 Y102.695 E0.9168
G1 X101.414 Y102.689 E0.9268
G1 X101.761 Y102.615 E0.9487
G1 X101.912 Y102.554 E0.9587
G1 X102.080 Y102.457 E0.9707
G1 X102.234 Y102.337 E0.9827
G1 X102.347 Y102.220 E0.9928
G1 X102.545 Y101.926 E1.0146
G1 X102.599 Y101.806 E1.0227
G1 X102.684 Y101.463 E1.0446
G1 X102.700 Y101.237 E1.0585
G1 X102.700 Y94.554 E1.4706
G1 X103.754 Y93.500 E1.5625
G1 X108.246 Y93.500 E1.8395
G1 X109.301 Y94.556 E1.9316
G1 X109.292 Y101.662 E2.3697
G1 X109.287 Y101.752 E2.3753
G1 X109.215 Y102.466 E2.4196
G1 X109.201 Y102.556 E2.4252
G1 X109.056 Y103.261 E2.4696
G1 X109.033 Y103.349 E2.4752
G1 X108.818 Y104.036 E2.5196
G1 X108.786 Y104.121 E2.5252
G1 X108.502 Y104.782 E2.5695
G1 X108.462 Y104.864 E2.5752
G1 X108.113 Y105.493 E2.6195
G1 X108.065 Y105.570 E2.6251
G1 X107.654 Y106.161 E2.6695
G1 X107.598 Y106.233 E2.6751
G1 X107.130 Y106.779 E2.7195
G1 X107.067 Y106.845 E2.7251
G1 X106.545 Y107.341 E2.7695
G1 X106.476 Y107.400 E2.7751
G1 X105.908 Y107.840 E2.8194
G1 X105.833 Y107.892 E2.8250
G1 X105.222 Y108.273 E2.8694
G1 X105.142 Y108.317 E2.8750
G1 X104.497 Y108.634 E2.9194
G1 X104.413 Y108.670 E2.9250
G1 X103.738 Y108.919 E2.9694
G1 X103.651 Y108.947 E2.9750
G1 X102.955 Y109.127 E3.0193
G1 X102.866 Y109.145 E3.0249
G1 X102.155 Y109.254 E3.0693
G1 X102.064 Y109.264 E3.0749
G1 X101.346 Y109.300 E3.1193
G1 X101.254 Y109.300 E3.1249
G1 X100.536 Y109.264 E3.1693
G1 X100.445 Y109.254 E3.1749
G1 X99.734 Y109.145 E3.2193
G1 X99.645 Y109.127 E3.2249
G1 X98.949 Y108.947 E3.2692
G1 X98.862 Y108.919 E3.2748
G1 X98.187 Y108.670 E3.3192
G1 X98.103 Y108.634 E3.3248
G1 X97.458 Y108.317 E3.3692
G1 X97.378 Y108.273 E3.3748
G1 X96.767 Y107.892 E3.4192
G1 X96.692 Y107.840 E3.4248
G1 X96.124 Y107.400 E3.4691
G1 X96.054 Y107.340 E3.4748
G1 X95.525 Y106.837 E3.5198
G1 X95.447 Y106.753 E3.5269
G1 X94.780 Y105.935 E3.5920
G1 X94.714 Y105.842 E3.5990
G1 X94.327 Y105.222 E3.6441
G1 X94.283 Y105.142 E3.6497
G1 X93.966 Y104.497 E3.6940
G1 X93.930 Y104.413 E3.6997
G1 X93.681 Y103.738 E3.7440
G1 X93.653 Y103.651 E3.7496
G1 X93.473 Y102.955 E3.7940
G1 X93.455 Y102.866 E3.7996
G1 X93.346 Y102.155 E3.8440
G1 X93.336 Y102.064 E3.8496
G1 X93.301 Y101.368 E3.8925
G1 X93.300 Y101.323 E3.8954
G1 X93.300 Y94.554 E4.3127
G1 X94.354 Y93.500 E4.4047
G1 X94.653 Y94.220 F18000
G92 E0.0000
G1 X98.547 Y94.220 E0.2402 F1200
G1 X99.180 Y94.853 E0.2953
G1 X99.180 Y101.262 E0.6906
G1 X99.203 Y101.595 E0.7111
G1 X99.261 Y101.865 E0.7282
G1 X99.441 Y102.310 E0.7578
G1 X99.577 Y102.528 E0.7736
G1 X99.898 Y102.885 E0.8032
G1 X100.116 Y103.055 E0.8203
G1 X100.372 Y103.203 E0.8385
G1 X100.646 Y103.314 E0.8567
G1 X100.932 Y103.385 E0.8749
G1 X101.226 Y103.416 E0.8932
G1 X101.502 Y103.406 E0.9102
G1 X101.972 Y103.307 E0.9398
G1 X102.228 Y103.203 E0.9568
G1 X102.484 Y103.055 E0.9751
G1 X102.717 Y102.873 E0.9933
G1 X102.909 Y102.675 E1.0103
G1 X103.177 Y102.277 E1.0399
G1 X103.282 Y102.042 E1.0558
G1 X103.398 Y101.576 E1.0854
G1 X103.420 Y101.262 E1.1048
G1 X103.420 Y94.853 E1.5000
G1 X104.053 Y94.220 E1.5552
G1 X107.948 Y94.220 E1.7954
G1 X108.581 Y94.854 E1.8506
G1 X108.572 Y101.643 E2.2692
G1 X108.569 Y101.697 E2.2726
G1 X108.500 Y102.375 E2.3146
G1 X108.492 Y102.429 E2.3180
G1 X108.354 Y103.098 E2.3601
G1 X108.341 Y103.151 E2.3635
G1 X108.136 Y103.803 E2.4056
G1 X108.117 Y103.854 E2.4090
G1 X107.848 Y104.482 E2.4511
G1 X107.824 Y104.531 E2.4545
G1 X107.493 Y105.128 E2.4966
G1 X107.464 Y105.174 E2.4999
G1 X107.074 Y105.734 E2.5420
G1 X107.040 Y105.778 E2.5454
G1 X106.595 Y106.296 E2.5875
G1 X106.558 Y106.335 E2.5909
G1 X106.063 Y106.806 E2.6330
G1 X106.021 Y106.842 E2.6364
G1 X105.481 Y107.259 E2.6785
G1 X105.437 Y107.291 E2.6818
G1 X104.857 Y107.652 E2.7240
G1 X104.809 Y107.679 E2.7273
G1 X104.196 Y107.979 E2.7694
G1 X104.146 Y108.001 E2.7728
G1 X103.505 Y108.238 E2.8149
G1 X103.453 Y108.254 E2.8183
G1 X102.792 Y108.425 E2.8604
G1 X102.739 Y108.436 E2.8638
G1 X102.064 Y108.540 E2.9059
G1 X102.009 Y108.545 E2.9092
G1 X101.327 Y108.580 E2.9513
G1 X101.273 Y108.580 E2.9547
G1 X100.591 Y108.545 E2.9968
G1 X100.536 Y108.540 E3.0002
G1 X99.861 Y108.436 E3.0423
G1 X99.808 Y108.425 E3.0457
G1 X99.147 Y108.254 E3.0878
G1 X99.095 Y108.238 E3.0912
G1 X98.454 Y108.001 E3.1333
G1 X98.404 Y107.979 E3.1366
G1 X97.791 Y107.679 E3.1787
G1 X97.743 Y107.652 E3.1821
G1 X97.163 Y107.291 E3.2242
G1 X97.119 Y107.259 E3.2276
G1 X96.579 Y106.842 E3.2697
G1 X96.537 Y106.806 E3.2731
G1 X96.037 Y106.331 E3.3156
G1 X95.991 Y106.281 E3.3198
G1 X95.353 Y105.498 E3.3821
G1 X95.313 Y105.442 E3.3863
G1 X94.948 Y104.857 E3.4289
G1 X94.921 Y104.809 E3.4322
G1 X94.621 Y104.196 E3.4743
G1 X94.599 Y104.146 E3.4777
G1 X94.362 Y103.505 E3.5198
G1 X94.346 Y103.453 E3.5232
G1 X94.175 Y102.792 E3.5653
G1 X94.163 Y102.739 E3.5687
G1 X94.060 Y102.064 E3.6108
G1 X94.055 Y102.009 E3.6141
G1 X94.021 Y101.341 E3.6554
G1 X94.020 Y101.314 E3.6571
G1 X94.020 Y94.853 E4.0555
G1 X94.653 Y94.220 E4.1107
G1 X94.951 Y94.940 F18000
G92 E0.0000
G1 X98.249 Y94.940 E0.2034 F1200
G1 X98.460 Y95.151 E0.2218
G1 X98.460 Y101.287 E0.6002
G1 X98.489 Y101.695 E0.6254
G1 X98.570 Y102.076 E0.6494
G1 X98.797 Y102.638 E0.6868
G1 X99.000 Y102.963 E0.7104
G1 X99.405 Y103.414 E0.7478
G1 X99.712 Y103.654 E0.7718
G1 X100.055 Y103.852 E0.7963
G1 X100.423 Y104.000 E0.8207
G1 X100.807 Y104.096 E0.8451
G1 X101.201 Y104.137 E0.8695
G1 X101.590 Y104.124 E0.8936
G1 X102.183 Y103.998 E0.9309
G1 X102.545 Y103.852 E0.9550
G1 X102.888 Y103.654 E0.9794
G1 X103.200 Y103.410 E1.0038
G1 X103.470 Y103.130 E1.0279
G1 X103.809 Y102.627 E1.0652
G1 X103.965 Y102.277 E1.0889
G1 X104.112 Y101.689 E1.1262
G1 X104.140 Y101.287 E1.1510
G1 X104.140 Y95.151 E1.5295
G1 X104.351 Y94.940 E1.5478
G1 X107.649 Y94.940 E1.7512
G1 X107.860 Y95.151 E1.7696
G1 X107.852 Y101.623 E2.1688
G1 X107.851 Y101.641 E2.1699
G1 X107.786 Y102.284 E2.2097
G1 X107.783 Y102.302 E2.2108
G1 X107.653 Y102.935 E2.2507
G1 X107.648 Y102.953 E2.2518
G1 X107.455 Y103.570 E2.2917
G1 X107.448 Y103.587 E2.2928
G1 X107.194 Y104.181 E2.3326
G1 X107.186 Y104.197 E2.3338
G1 X106.872 Y104.762 E2.3736
G1 X106.862 Y104.778 E2.3747
G1 X106.493 Y105.308 E2.4146
G1 X106.482 Y105.323 E2.4157
G1 X106.061 Y105.813 E2.4556
G1 X106.048 Y105.826 E2.4567
G1 X105.580 Y106.272 E2.4966
G1 X105.566 Y106.283 E2.4977
G1 X105.055 Y106.679 E2.5375
G1 X105.040 Y106.689 E2.5387
G1 X104.492 Y107.031 E2.5785
G1 X104.476 Y107.040 E2.5796
G1 X103.895 Y107.325 E2.6195
G1 X103.879 Y107.332 E2.6206
G1 X103.273 Y107.556 E2.6605
G1 X103.255 Y107.562 E2.6616
G1 X102.629 Y107.724 E2.7015
G1 X102.612 Y107.728 E2.7026
G1 X101.973 Y107.825 E2.7424
G1 X101.955 Y107.827 E2.7436
G1 X101.309 Y107.860 E2.7834
G1 X101.291 Y107.860 E2.7845
G1 X100.645 Y107.827 E2.8244
G1 X100.627 Y107.825 E2.8255
G1 X99.988 Y107.728 E2.8654
G1 X99.971 Y107.724 E2.8665
G1 X99.345 Y107.562 E2.9063
G1 X99.327 Y107.556 E2.9075
G1 X98.721 Y107.332 E2.9473
G1 X98.705 Y107.325 E2.9484
G1 X98.124 Y107.040 E2.9883
G1 X98.108 Y107.031 E2.9894
G1 X97.560 Y106.689 E3.0293
G1 X97.545 Y106.679 E3.0304
G1 X97.034 Y106.283 E3.0703
G1 X97.020 Y106.272 E3.0714
G1 X96.550 Y105.825 E3.1114
G1 X96.534 Y105.808 E3.1128
G1 X95.925 Y105.061 E3.1723
G1 X95.912 Y105.042 E3.1737
G1 X95.569 Y104.492 E3.2137
G1 X95.560 Y104.476 E3.2148
G1 X95.275 Y103.895 E3.2546
G1 X95.268 Y103.879 E3.2558
G1 X95.044 Y103.273 E3.2956
G1 X95.038 Y103.255 E3.2967
G1 X94.876 Y102.629 E3.3366
G1 X94.872 Y102.612 E3.3377
G1 X94.775 Y101.973 E3.3776
G1 X94.773 Y101.955 E3.3787
G1 X94.740 Y101.314 E3.4183
G1 X94.740 Y101.305 E3.4188
G1 X94.740 Y95.151 E3.7983
G1 X94.951 Y94.940 E3.8167
G1 X92.863 Y89.900 F18000
G92 E0.0000
G1 X100.337 Y89.900 E0.4608 F1200
G1 X101.300 Y90.863 E0.5448
G1 X102.263 Y89.900 E0.6289
G1 X109.739 Y89.900 E1.0898
G1 X110.001 Y90.162 E1.1127
G1 X110.263 Y89.900 E1.1356
G1 X117.737 Y89.900 E1.5964
G1 X118.700 Y90.863 E1.6804
G1 X119.663 Y89.900 E1.7644
G1 X127.139 Y89.900 E2.2254
G1 X130.303 Y93.068 E2.5015
G1 X130.292 Y101.757 E3.0373
G1 X130.278 Y102.027 E3.0540
G1 X130.187 Y102.921 E3.1094
G1 X130.146 Y103.191 E3.1262
G1 X129.964 Y104.075 E3.1819
G1 X129.895 Y104.340 E3.1987
G1 X129.625 Y105.201 E3.2544
G1 X129.530 Y105.458 E3.2713
G1 X129.174 Y106.287 E3.3269
G1 X129.054 Y106.532 E3.3438
G1 X128.617 Y107.319 E3.3993
G1 X128.472 Y107.552 E3.4162
G1 X127.957 Y108.292 E3.4718
G1 X127.789 Y108.509 E3.4887
G1 X127.202 Y109.193 E3.5443
G1 X127.014 Y109.391 E3.5611
G1 X126.373 Y110.000 E3.6157
G1 X127.013 Y110.608 E3.6701
G1 X127.202 Y110.807 E3.6870
G1 X127.767 Y111.466 E3.7405
G1 X127.895 Y111.626 E3.7532
G1 X128.222 Y112.072 E3.7873
G1 X128.373 Y112.300 E3.8042
G1 X129.007 Y113.378 E3.8813
G1 X129.162 Y113.684 E3.9024
G1 X129.530 Y114.542 E3.9600
G1 X129.625 Y114.799 E3.9769
G1 X129.895 Y115.660 E4.0325
G1 X129.964 Y115.925 E4.0494
G1 X130.146 Y116.809 E4.1050
G1 X130.187 Y117.079 E4.1219
G1 X130.278 Y117.973 E4.1773
G1 X130.292 Y118.243 E4.1940
G1 X130.303 Y126.932 E4.7298
G1 X127.139 Y130.100 E5.0059
G1 X119.663 Y130.100 E5.4669
G1 X118.700 Y129.137 E5.5509
G1 X117.737 Y130.100 E5.6349
G1 X110.261 Y130.100 E6.0958
G1 X110.000 Y129.838 E6.1186
G1 X109.739 Y130.100 E6.1414
G1 X102.263 Y130.100 E6.6024
G1 X101.300 Y129.137 E6.6864
G1 X100.337 Y130.100 E6.7704
G1 X92.861 Y130.100 E7.2314
G1 X89.697 Y126.932 E7.5075
G1 X89.708 Y118.243 E8.0433
G1 X89.722 Y117.973 E8.0599
G1 X89.813 Y117.079 E8.1154
G1 X89.854 Y116.809 E8.1322
G1 X90.036 Y115.925 E8.1878
G1 X90.104 Y115.660 E8.2047
