; G-Code generated by Simplify3D(R) Version 4.1.2
; Jun 24, 2022 at 8:38:49 AM
; Settings Summary
;   processName,Process1
;   applyToModels,rampe-halterung,rampe-halterung(2),rampe-halterung(3),rampe-halterung(4)
;   profileName,HSBot
;   profileVersion,2019-11-09 11:59:44
;   baseProfile,Default
;   printMaterial,pla
;   printQuality,Medium
;   printExtruders,
;   extruderName,Extruder - v6,Extruder - lgx ace
;   extruderToolheadNumber,0,1
;   extruderDiameter,0.4,0.4
;   extruderAutoWidth,1,1
;   extruderWidth,0.48,0.48
;   extrusionMultiplier,1.03,1.03
;   extruderUseRetract,0,0
;   extruderRetractionDistance,4,1
;   extruderExtraRestartDistance,0,0
;   extruderRetractionZLift,0,0
;   extruderRetractionSpeed,3600,3600
;   extruderUseCoasting,0,0
;   extruderCoastingDistance,0.2,0.2
;   extruderUseWipe,0,0
;   extruderWipeDistance,1,1
;   primaryExtruder,1
;   layerHeight,0.2
;   topSolidLayers,3
;   bottomSolidLayers,3
;   perimeterOutlines,3
;   printPerimetersInsideOut,1
;   startPointOption,2
;   startPointOriginX,0
;   startPointOriginY,0
;   sequentialIslands,0
;   spiralVaseMode,0
;   firstLayerHeightPercentage,100
;   firstLayerWidthPercentage,150
;   firstLayerUnderspeed,0.25
;   useRaft,0
;   raftExtruder,0
;   raftTopLayers,3
;   raftBaseLayers,2
;   raftOffset,3
;   raftSeparationDistance,0.18
;   raftTopInfill,100
;   aboveRaftSpeedMultiplier,0.3
;   useSkirt,1
;   skirtExtruder,1
;   skirtLayers,1
;   skirtOutlines,5
;   skirtOffset,5
;   usePrimePillar,0
;   primePillarExtruder,999
;   primePillarWidth,12
;   primePillarLocation,7
;   primePillarSpeedMultiplier,1
;   useOozeShield,0
;   oozeShieldExtruder,999
;   oozeShieldOffset,2
;   oozeShieldOutlines,1
;   oozeShieldSidewallShape,1
;   oozeShieldSidewallAngle,30
;   oozeShieldSpeedMultiplier,1
;   infillExtruder,1
;   internalInfillPattern,Fast Honeycomb
;   externalInfillPattern,Rectilinear
;   infillPercentage,15
;   outlineOverlapPercentage,20
;   infillExtrusionWidthPercentage,100
;   minInfillLength,3
;   infillLayerInterval,1
;   internalInfillAngles,0
;   overlapInternalInfillAngles,0
;   externalInfillAngles,45,-45
;   generateSupport,0
;   supportExtruder,1
;   supportInfillPercentage,30
;   supportExtraInflation,0
;   supportBaseLayers,1
;   denseSupportExtruder,0
;   denseSupportLayers,0
;   denseSupportInfillPercentage,70
;   supportLayerInterval,1
;   supportHorizontalPartOffset,0.3
;   supportUpperSeparationLayers,1
;   supportLowerSeparationLayers,1
;   supportType,0
;   supportGridSpacing,2
;   maxOverhangAngle,45
;   supportAngles,0
;   temperatureName,v6,Bed,lgx-ace
;   temperatureNumber,0,0,1
;   temperatureSetpointCount,1,1,1
;   temperatureSetpointLayers,1,1,1
;   temperatureSetpointTemperatures,0,55,217
;   temperatureStabilizeAtStartup,1,1,1
;   temperatureHeatedBed,0,1,0
;   fanLayers,1,2,5
;   fanSpeeds,0,0,0
;   blipFanToFullPower,0
;   adjustSpeedForCooling,1
;   minSpeedLayerTime,15
;   minCoolingSpeedSlowdown,50
;   increaseFanForCooling,0
;   minFanLayerTime,45
;   maxCoolingFanSpeed,70
;   increaseFanForBridging,0
;   bridgingFanSpeed,80
;   use5D,1
;   relativeEdistances,0
;   allowEaxisZeroing,1
;   independentExtruderAxes,0
;   includeM10123,0
;   stickySupport,1
;   applyToolheadOffsets,0
;   gcodeXoffset,0
;   gcodeYoffset,0
;   gcodeZoffset,0
;   overrideMachineDefinition,1
;   machineTypeOverride,0
;   strokeXoverride,220
;   strokeYoverride,220
;   strokeZoverride,150
;   originOffsetXoverride,0
;   originOffsetYoverride,0
;   originOffsetZoverride,0
;   homeXdirOverride,-1
;   homeYdirOverride,-1
;   homeZdirOverride,-1
;   flipXoverride,1
;   flipYoverride,-1
;   flipZoverride,1
;   toolheadOffsets,0,0|0,0|0,0|0,0|0,0|0,0
;   overrideFirmwareConfiguration,0
;   firmwareTypeOverride,RepRap (Marlin/Repetier/Sprinter)
;   GPXconfigOverride,r2
;   baudRateOverride,115200
;   overridePrinterModels,0
;   printerModelsOverride
;   startingGcode,G28 ; home all axes,G32 ; run bed.g -- probe bed and enable compensation
;   layerChangeGcode,
;   retractionGcode,
;   toolChangeGcode,
;   endingGcode,M0 ; call stop.g
;   exportFileFormat,gcode
;   celebration,0
;   celebrationSong,Random Song
;   postProcessing,|; 0.2mm layer, 8 bands 5mm each, total height 40mm|{REPLACE "; layer 25" "M572 D0 S0.69\n; layer 10"}|{REPLACE "; layer 50" "M572 D0 S0.70\n; layer 50"}|{REPLACE "; layer 75" "M572 D0 S0.71\n; layer 75"}|{REPLACE "; layer 100" "M572 D0 S0.72\n; layer 100"}|{REPLACE "; layer 125" "M572 D0 S0.73\n; layer 125"}|{REPLACE "; layer 150" "M572 D0 S0.74\n; layer 150"}|{REPLACE "; layer 175" "M572 D0 S0.75\n; layer 175"}|{REPLACE "; layer 200" "M572 D0 S0.76\n; layer 200"}
;   defaultSpeed,4800
;   outlineUnderspeed,0.8
;   solidInfillUnderspeed,0.75
;   supportUnderspeed,0.8
;   rapidXYspeed,18000
;   rapidZspeed,1200
;   minBridgingArea,50
;   bridgingExtraInflation,0
;   bridgingExtrusionMultiplier,0.96
;   bridgingSpeedMultiplier,1
;   useFixedBridgingAngle,0
;   fixedBridgingAngle,0
;   applyBridgingToPerimeters,0
;   filamentDiameters,1.75|1.75|1.75|1.75|1.75|1.75
;   filamentPricesPerKg,25|46|46|46|46|46
;   filamentDensities,1.29|1.25|1.25|1.25|1.25|1.25
;   useMinPrintHeight,0
;   minPrintHeight,0.3
;   useMaxPrintHeight,0
;   maxPrintHeight,5
;   useDiaphragm,1
;   diaphragmLayerInterval,20
;   robustSlicing,1
;   mergeAllIntoSolid,0
;   onlyRetractWhenCrossingOutline,1
;   retractBetweenLayers,0
;   useRetractionMinTravel,1
;   retractionMinTravel,5
;   retractWhileWiping,1
;   onlyWipeOutlines,1
;   avoidCrossingOutline,1
;   maxMovementDetourFactor,2
;   toolChangeRetractionDistance,12
;   toolChangeExtraRestartDistance,0
;   toolChangeRetractionSpeed,600
;   externalThinWallType,1
;   internalThinWallType,1
;   thinWallAllowedOverlapPercentage,10
;   singleExtrusionMinLength,0.1
;   singleExtrusionMinPrintingWidthPercentage,50
;   singleExtrusionMaxPrintingWidthPercentage,200
;   singleExtrusionEndpointExtension,0.2
;   horizontalSizeCompensation,0
G90
M82
M106 S0
M140 S55
M190 S55
G10 S0 R{0-50} P0
G10 S217 R{217-50} P1
M116 P1
G28 ; home all axes
G32 ; run bed.g -- probe bed and enable compensation
; process Process1
; layer 1, Z = 0.200
T1
; feature skirt
; tool H0.200 W0.720
G1 Z0.200 F1200
G1 X91.687 Y87.060 F18000
G92 E0.0000
G1 X128.316 Y87.060 E2.2587 F1200
G1 X133.144 Y91.894 E2.6800
G1 X133.132 Y101.831 E3.2928
G1 X133.111 Y102.242 E3.3182
G1 X133.005 Y103.280 E3.3825
G1 X132.942 Y103.693 E3.4083
G1 X132.731 Y104.717 E3.4727
G1 X132.627 Y105.122 E3.4985
G1 X132.314 Y106.119 E3.5630
G1 X132.169 Y106.511 E3.5887
G1 X131.756 Y107.472 E3.6532
G1 X131.572 Y107.847 E3.6789
G1 X131.065 Y108.761 E3.7434
G1 X130.844 Y109.115 E3.7692
G1 X130.247 Y109.974 E3.8337
G1 X130.225 Y110.001 E3.8358
G1 X130.554 Y110.449 E3.8701
G1 X130.784 Y110.798 E3.8958
G1 X131.500 Y112.014 E3.9829
G1 X131.736 Y112.480 E4.0151
G1 X132.169 Y113.489 E4.0828
G1 X132.314 Y113.881 E4.1085
G1 X132.627 Y114.878 E4.1730
G1 X132.731 Y115.283 E4.1988
G1 X132.942 Y116.307 E4.2632
G1 X133.005 Y116.720 E4.2890
G1 X133.111 Y117.757 E4.3533
G1 X133.132 Y118.169 E4.3787
G1 X133.144 Y128.106 E4.9915
G1 X128.316 Y132.940 E5.4128
G1 X91.684 Y132.940 E7.6717
G1 X86.856 Y128.106 E8.0930
G1 X86.868 Y118.169 E8.7057
G1 X86.889 Y117.757 E8.7311
G1 X86.995 Y116.720 E8.7955
G1 X87.058 Y116.307 E8.8212
G1 X87.269 Y115.283 E8.8857
G1 X87.373 Y114.878 E8.9115
G1 X87.686 Y113.881 E8.9759
G1 X87.831 Y113.489 E9.0017
G1 X88.264 Y112.480 E9.0694
G1 X88.500 Y112.014 E9.1016
G1 X89.269 Y110.708 E9.1951
G1 X89.627 Y110.194 E9.2337
G1 X89.785 Y110.000 E9.2491
G1 X89.660 Y109.847 E9.2613
G1 X89.356 Y109.422 E9.2935
G1 X88.776 Y108.490 E9.3612
G1 X88.573 Y108.125 E9.3870
G1 X88.113 Y107.186 E9.4514
G1 X87.948 Y106.803 E9.4772
G1 X87.585 Y105.822 E9.5417
G1 X87.460 Y105.424 E9.5674
G1 X87.198 Y104.411 E9.6319
G1 X87.114 Y104.002 E9.6577
G1 X86.955 Y102.969 E9.7221
G1 X86.913 Y102.553 E9.7479
G1 X86.865 Y101.613 E9.8059
G1 X86.860 Y101.404 E9.8188
G1 X86.860 Y91.887 E10.4057
G1 X91.687 Y87.060 E10.8266
G1 X91.985 Y87.780 F18000
G92 E0.0000
G1 X101.215 Y87.780 E0.5691 F1200
G1 X101.300 Y87.865 E0.5766
G1 X101.385 Y87.780 E0.5840
G1 X118.615 Y87.780 E1.6465
G1 X118.700 Y87.865 E1.6539
G1 X118.785 Y87.780 E1.6613
G1 X128.018 Y87.780 E2.2306
G1 X132.424 Y92.192 E2.6151
G1 X132.412 Y101.812 E3.2083
G1 X132.393 Y102.188 E3.2315
G1 X132.291 Y103.189 E3.2936
G1 X132.233 Y103.566 E3.3171
G1 X132.030 Y104.555 E3.3794
G1 X131.934 Y104.923 E3.4028
G1 X131.632 Y105.886 E3.4651
G1 X131.500 Y106.244 E3.4886
G1 X131.102 Y107.171 E3.5508
G1 X130.934 Y107.513 E3.5743
G1 X130.444 Y108.396 E3.6365
G1 X130.243 Y108.719 E3.6600
G1 X129.666 Y109.547 E3.7223
G1 X129.433 Y109.849 E3.7458
G1 X129.303 Y110.000 E3.7581
G1 X129.402 Y110.115 E3.7674
G1 X129.580 Y110.339 E3.7850
G1 X129.963 Y110.861 E3.8250
G1 X130.173 Y111.179 E3.8485
G1 X130.868 Y112.360 E3.9330
G1 X131.083 Y112.785 E3.9624
G1 X131.500 Y113.756 E4.0275
G1 X131.632 Y114.114 E4.0510
G1 X131.934 Y115.077 E4.1133
G1 X132.030 Y115.445 E4.1368
G1 X132.233 Y116.434 E4.1990
G1 X132.291 Y116.811 E4.2225
G1 X132.392 Y117.812 E4.2846
G1 X132.412 Y118.188 E4.3078
G1 X132.424 Y127.808 E4.9010
G1 X128.018 Y132.220 E5.2855
G1 X118.785 Y132.220 E5.8548
G1 X118.700 Y132.135 E5.8622
G1 X118.615 Y132.220 E5.8697
G1 X101.385 Y132.220 E6.9321
G1 X101.300 Y132.135 E6.9395
G1 X101.215 Y132.220 E6.9470
G1 X91.982 Y132.220 E7.5163
G1 X87.576 Y127.808 E7.9008
G1 X87.588 Y118.188 E8.4940
G1 X87.607 Y117.812 E8.5172
G1 X87.709 Y116.811 E8.5793
G1 X87.767 Y116.434 E8.6028
G1 X87.970 Y115.445 E8.6650
G1 X88.066 Y115.077 E8.6885
G1 X88.368 Y114.114 E8.7507
G1 X88.500 Y113.756 E8.7742
G1 X88.917 Y112.785 E8.8394
G1 X89.132 Y112.360 E8.8688
G1 X89.876 Y111.097 E8.9592
G1 X90.202 Y110.628 E8.9944
G1 X90.714 Y110.000 E9.0444
G1 X90.233 Y109.409 E9.0913
G1 X89.955 Y109.022 E9.1207
G1 X89.396 Y108.125 E9.1859
G1 X89.211 Y107.792 E9.2094
G1 X88.767 Y106.886 E9.2716
G1 X88.617 Y106.535 E9.2951
G1 X88.266 Y105.589 E9.3574
G1 X88.152 Y105.225 E9.3809
G1 X87.899 Y104.248 E9.4431
G1 X87.822 Y103.875 E9.4666
G1 X87.670 Y102.878 E9.5288
G1 X87.631 Y102.499 E9.5523
G1 X87.585 Y101.586 E9.6087
G1 X87.580 Y101.395 E9.6204
G1 X87.580 Y92.185 E10.1884
G1 X91.985 Y87.780 E10.5725
G1 X92.283 Y88.500 F18000
G92 E0.0000
G1 X100.917 Y88.500 E0.5324 F1200
G1 X101.300 Y88.883 E0.5658
G1 X101.683 Y88.500 E0.5992
G1 X118.317 Y88.500 E1.6249
G1 X118.700 Y88.883 E1.6583
G1 X119.083 Y88.500 E1.6918
G1 X127.719 Y88.500 E2.2243
G1 X131.704 Y92.489 E2.5720
G1 X131.692 Y101.793 E3.1457
G1 X131.674 Y102.133 E3.1666
G1 X131.576 Y103.098 E3.2265
G1 X131.524 Y103.439 E3.2478
G1 X131.328 Y104.392 E3.3077
G1 X131.242 Y104.725 E3.3290
G1 X130.951 Y105.653 E3.3890
G1 X130.831 Y105.977 E3.4102
G1 X130.447 Y106.870 E3.4702
G1 X130.296 Y107.180 E3.4914
G1 X129.824 Y108.030 E3.5514
G1 X129.641 Y108.323 E3.5727
G1 X129.086 Y109.121 E3.6327
G1 X128.875 Y109.394 E3.6539
G1 X128.354 Y110.000 E3.7032
G1 X128.847 Y110.574 E3.7498
G1 X129.007 Y110.776 E3.7657
G1 X129.372 Y111.272 E3.8037
G1 X129.561 Y111.560 E3.8250
G1 X130.236 Y112.706 E3.9069
G1 X130.430 Y113.090 E3.9335
G1 X130.831 Y114.023 E3.9961
G1 X130.951 Y114.347 E4.0174
G1 X131.242 Y115.275 E4.0774
G1 X131.328 Y115.608 E4.0986
G1 X131.524 Y116.561 E4.1586
G1 X131.576 Y116.902 E4.1798
G1 X131.674 Y117.867 E4.2397
G1 X131.692 Y118.207 E4.2607
G1 X131.704 Y127.511 E4.8344
G1 X127.719 Y131.500 E5.1821
G1 X119.083 Y131.500 E5.7146
G1 X118.700 Y131.117 E5.7480
G1 X118.317 Y131.500 E5.7814
G1 X101.683 Y131.500 E6.8071
G1 X101.300 Y131.117 E6.8405
G1 X100.917 Y131.500 E6.8740
G1 X92.281 Y131.500 E7.4065
G1 X88.296 Y127.511 E7.7542
G1 X88.308 Y118.207 E8.3279
G1 X88.326 Y117.867 E8.3489
G1 X88.424 Y116.902 E8.4087
G1 X88.476 Y116.561 E8.4300
G1 X88.672 Y115.608 E8.4899
G1 X88.758 Y115.275 E8.5112
G1 X89.049 Y114.347 E8.5712
G1 X89.169 Y114.023 E8.5924
G1 X89.570 Y113.090 E8.6551
G1 X89.764 Y112.706 E8.6816
G1 X90.482 Y111.486 E8.7689
G1 X90.778 Y111.061 E8.8008
G1 X91.643 Y110.000 E8.8852
G1 X90.805 Y108.972 E8.9670
G1 X90.554 Y108.622 E8.9936
G1 X90.017 Y107.760 E9.0562
G1 X89.850 Y107.458 E9.0775
G1 X89.421 Y106.585 E9.1375
G1 X89.286 Y106.268 E9.1587
G1 X88.948 Y105.356 E9.2187
G1 X88.845 Y105.027 E9.2399
G1 X88.601 Y104.086 E9.2999
G1 X88.531 Y103.748 E9.3212
G1 X88.384 Y102.787 E9.3812
G1 X88.349 Y102.444 E9.4024
G1 X88.304 Y101.559 E9.4571
G1 X88.300 Y101.386 E9.4677
G1 X88.300 Y92.483 E10.0167
G1 X92.283 Y88.500 E10.3641
G1 X92.582 Y89.220 F18000
G92 E0.0000
G1 X100.618 Y89.220 E0.4956 F1200
G1 X101.300 Y89.902 E0.5550
G1 X101.982 Y89.220 E0.6145
G1 X118.018 Y89.220 E1.6034
G1 X118.700 Y89.902 E1.6628
G1 X119.382 Y89.220 E1.7222
G1 X127.421 Y89.220 E2.2180
G1 X130.983 Y92.787 E2.5288
G1 X130.972 Y101.774 E3.0830
G1 X130.956 Y102.078 E3.1018
G1 X130.862 Y103.007 E3.1594
G1 X130.815 Y103.312 E3.1784
G1 X130.627 Y104.229 E3.2361
G1 X130.549 Y104.527 E3.2551
G1 X130.269 Y105.420 E3.3128
G1 X130.162 Y105.709 E3.3318
G1 X129.793 Y106.570 E3.3896
G1 X129.657 Y106.846 E3.4086
G1 X129.203 Y107.665 E3.4663
G1 X129.040 Y107.926 E3.4853
G1 X128.505 Y108.695 E3.5430
G1 X128.316 Y108.938 E3.5620
G1 X127.707 Y109.649 E3.6198
G1 X127.494 Y109.872 E3.6388
G1 X127.360 Y110.000 E3.6502
G1 X127.494 Y110.128 E3.6616
G1 X127.707 Y110.351 E3.6806
G1 X128.291 Y111.032 E3.7360
G1 X128.435 Y111.213 E3.7502
G1 X128.781 Y111.684 E3.7862
G1 X128.950 Y111.941 E3.8052
G1 X129.604 Y113.051 E3.8847
G1 X129.778 Y113.395 E3.9084
G1 X130.162 Y114.291 E3.9686
G1 X130.269 Y114.580 E3.9875
G1 X130.549 Y115.473 E4.0453
G1 X130.627 Y115.771 E4.0643
G1 X130.815 Y116.688 E4.1220
G1 X130.862 Y116.993 E4.1410
G1 X130.956 Y117.922 E4.1986
G1 X130.972 Y118.226 E4.2174
G1 X130.983 Y127.213 E4.7716
G1 X127.421 Y130.780 E5.0824
G1 X119.382 Y130.780 E5.5782
G1 X118.700 Y130.098 E5.6376
G1 X118.018 Y130.780 E5.6970
G1 X101.982 Y130.780 E6.6859
G1 X101.300 Y130.098 E6.7454
G1 X100.618 Y130.780 E6.8048
G1 X92.579 Y130.780 E7.3005
G1 X89.017 Y127.213 E7.6114
G1 X89.028 Y118.226 E8.1656
G1 X89.044 Y117.922 E8.1843
G1 X89.138 Y116.993 E8.2419
G1 X89.185 Y116.688 E8.2609
G1 X89.373 Y115.771 E8.3187
G1 X89.451 Y115.473 E8.3377
G1 X89.731 Y114.580 E8.3954
G1 X89.838 Y114.291 E8.4144
G1 X90.222 Y113.395 E8.4745
G1 X90.396 Y113.051 E8.4983
G1 X91.089 Y111.875 E8.5825
G1 X91.353 Y111.495 E8.6110
G1 X92.216 Y110.437 E8.6952
G1 X92.478 Y110.154 E8.7189
G1 X92.640 Y110.000 E8.7327
G1 X92.478 Y109.846 E8.7466
G1 X92.216 Y109.563 E8.7703
G1 X91.377 Y108.535 E8.8521
G1 X91.153 Y108.221 E8.8759
G1 X90.638 Y107.394 E8.9360
G1 X90.488 Y107.125 E8.9550
G1 X90.076 Y106.284 E9.0127
G1 X89.954 Y106.001 E9.0317
G1 X89.629 Y105.123 E9.0894
G1 X89.537 Y104.829 E9.1084
G1 X89.302 Y103.923 E9.1662
G1 X89.240 Y103.621 E9.1852
G1 X89.099 Y102.696 E9.2429
G1 X89.067 Y102.389 E9.2619
G1 X89.024 Y101.531 E9.3149
G1 X89.020 Y101.377 E9.3244
G1 X89.020 Y92.782 E9.8544
G1 X92.582 Y89.220 E10.1650
G1 X92.880 Y89.940 F18000
G92 E0.0000
G1 X100.320 Y89.940 E0.4588 F1200
G1 X101.300 Y90.920 E0.5443
G1 X102.280 Y89.940 E0.6297
G1 X109.722 Y89.940 E1.0886
G1 X110.001 Y90.219 E1.1129
G1 X110.280 Y89.940 E1.1373
G1 X117.720 Y89.940 E1.5961
G1 X118.700 Y90.920 E1.6815
G1 X119.680 Y89.940 E1.7670
G1 X127.122 Y89.940 E2.2259
G1 X130.263 Y93.085 E2.5000
G1 X130.252 Y101.755 E3.0346
G1 X130.238 Y102.023 E3.0511
G1 X130.147 Y102.916 E3.1065
G1 X130.106 Y103.185 E3.1233
G1 X129.925 Y104.066 E3.1788
G1 X129.857 Y104.329 E3.1955
G1 X129.588 Y105.188 E3.2510
G1 X129.493 Y105.442 E3.2677
G1 X129.138 Y106.269 E3.3232
G1 X129.019 Y106.513 E3.3400
G1 X128.582 Y107.299 E3.3954
G1 X128.438 Y107.530 E3.4122
G1 X127.924 Y108.269 E3.4677
G1 X127.758 Y108.483 E3.4844
G1 X127.172 Y109.166 E3.5399
G1 X126.985 Y109.363 E3.5567
G1 X126.333 Y109.983 E3.6121
G1 X126.313 Y110.000 E3.6138
G1 X126.333 Y110.017 E3.6154
G1 X126.985 Y110.637 E3.6709
G1 X127.172 Y110.834 E3.6876
G1 X127.736 Y111.491 E3.7410
G1 X127.863 Y111.650 E3.7536
G1 X128.189 Y112.095 E3.7876
G1 X128.339 Y112.322 E3.8044
G1 X128.972 Y113.397 E3.8813
G1 X129.125 Y113.700 E3.9022
