; G-Code generated by Simplify3D(R) Version 4.1.2
; Jun 20, 2022 at 12:20:56 PM
; Settings Summary
;   processName,Process1
;   applyToModels,Seitenplatte L
;   profileName,HSBot (modified)
;   profileVersion,2019-11-09 11:59:44
;   baseProfile,Default
;   printMaterial,Filaflex 82A
;   printQuality,Medium
;   printExtruders,
;   extruderName,Extruder - v6,Extruder - lgx ace
;   extruderToolheadNumber,0,1
;   extruderDiameter,0.4,0.4
;   extruderAutoWidth,1,1
;   extruderWidth,0.48,0.48
;   extrusionMultiplier,1.03,1.03
;   extruderUseRetract,0,0
;   extruderRetractionDistance,4,1
;   extruderExtraRestartDistance,0,0
;   extruderRetractionZLift,0,0
;   extruderRetractionSpeed,3600,1800
;   extruderUseCoasting,0,0
;   extruderCoastingDistance,0.2,0.2
;   extruderUseWipe,0,0
;   extruderWipeDistance,1,1
;   primaryExtruder,1
;   layerHeight,0.2
;   topSolidLayers,3
;   bottomSolidLayers,3
;   perimeterOutlines,3
;   printPerimetersInsideOut,1
;   startPointOption,2
;   startPointOriginX,0
;   startPointOriginY,0
;   sequentialIslands,0
;   spiralVaseMode,0
;   firstLayerHeightPercentage,100
;   firstLayerWidthPercentage,150
;   firstLayerUnderspeed,0.25
;   useRaft,0
;   raftExtruder,0
;   raftTopLayers,3
;   raftBaseLayers,2
;   raftOffset,3
;   raftSeparationDistance,0.18
;   raftTopInfill,100
;   aboveRaftSpeedMultiplier,0.3
;   useSkirt,0
;   skirtExtruder,1
;   skirtLayers,1
;   skirtOutlines,5
;   skirtOffset,5
;   usePrimePillar,0
;   primePillarExtruder,999
;   primePillarWidth,12
;   primePillarLocation,7
;   primePillarSpeedMultiplier,1
;   useOozeShield,0
;   oozeShieldExtruder,999
;   oozeShieldOffset,2
;   oozeShieldOutlines,1
;   oozeShieldSidewallShape,1
;   oozeShieldSidewallAngle,30
;   oozeShieldSpeedMultiplier,1
;   infillExtruder,1
;   internalInfillPattern,Fast Honeycomb
;   externalInfillPattern,Rectilinear
;   infillPercentage,15
;   outlineOverlapPercentage,20
;   infillExtrusionWidthPercentage,100
;   minInfillLength,3
;   infillLayerInterval,1
;   internalInfillAngles,0
;   overlapInternalInfillAngles,0
;   externalInfillAngles,45,-45
;   generateSupport,0
;   supportExtruder,1
;   supportInfillPercentage,30
;   supportExtraInflation,0
;   supportBaseLayers,1
;   denseSupportExtruder,0
;   denseSupportLayers,0
;   denseSupportInfillPercentage,70
;   supportLayerInterval,1
;   supportHorizontalPartOffset,0.3
;   supportUpperSeparationLayers,1
;   supportLowerSeparationLayers,1
;   supportType,0
;   supportGridSpacing,2
;   maxOverhangAngle,45
;   supportAngles,0
;   temperatureName,v6,Bed,lgx-ace
;   temperatureNumber,0,0,1
;   temperatureSetpointCount,1,1,1
;   temperatureSetpointLayers,1,1,1
;   temperatureSetpointTemperatures,0,55,245
;   temperatureStabilizeAtStartup,1,1,1
;   temperatureHeatedBed,0,1,0
;   fanLayers,1,2,3
;   fanSpeeds,0,15,30
;   blipFanToFullPower,0
;   adjustSpeedForCooling,1
;   minSpeedLayerTime,15
;   minCoolingSpeedSlowdown,50
;   increaseFanForCooling,0
;   minFanLayerTime,45
;   maxCoolingFanSpeed,70
;   increaseFanForBridging,0
;   bridgingFanSpeed,80
;   use5D,1
;   relativeEdistances,0
;   allowEaxisZeroing,1
;   independentExtruderAxes,0
;   includeM10123,0
;   stickySupport,1
;   applyToolheadOffsets,0
;   gcodeXoffset,0
;   gcodeYoffset,0
;   gcodeZoffset,0
;   overrideMachineDefinition,1
;   machineTypeOverride,0
;   strokeXoverride,220
;   strokeYoverride,220
;   strokeZoverride,150
;   originOffsetXoverride,0
;   originOffsetYoverride,0
;   originOffsetZoverride,0
;   homeXdirOverride,-1
;   homeYdirOverride,-1
;   homeZdirOverride,-1
;   flipXoverride,1
;   flipYoverride,-1
;   flipZoverride,1
;   toolheadOffsets,0,0|0,0|0,0|0,0|0,0|0,0
;   overrideFirmwareConfiguration,0
;   firmwareTypeOverride,RepRap (Marlin/Repetier/Sprinter)
;   GPXconfigOverride,r2
;   baudRateOverride,115200
;   overridePrinterModels,0
;   printerModelsOverride
;   startingGcode,G28 ; home all axes,G32 ; run bed.g -- probe bed and enable compensation
;   layerChangeGcode,
;   retractionGcode,
;   toolChangeGcode,
;   endingGcode,M0 ; call stop.g
;   exportFileFormat,gcode
;   celebration,0
;   celebrationSong,Random Song
;   postProcessing,|; 0.2mm layer, 8 bands 5mm each, total height 40mm|{REPLACE "; layer 25" "M572 D0 S0.69\n; layer 10"}|{REPLACE "; layer 50" "M572 D0 S0.70\n; layer 50"}|{REPLACE "; layer 75" "M572 D0 S0.71\n; layer 75"}|{REPLACE "; layer 100" "M572 D0 S0.72\n; layer 100"}|{REPLACE "; layer 125" "M572 D0 S0.73\n; layer 125"}|{REPLACE "; layer 150" "M572 D0 S0.74\n; layer 150"}|{REPLACE "; layer 175" "M572 D0 S0.75\n; layer 175"}|{REPLACE "; layer 200" "M572 D0 S0.76\n; layer 200"}
;   defaultSpeed,1800
;   outlineUnderspeed,0.8
;   solidInfillUnderspeed,0.75
;   supportUnderspeed,0.8
;   rapidXYspeed,18000
;   rapidZspeed,1200
;   minBridgingArea,50
;   bridgingExtraInflation,0
;   bridgingExtrusionMultiplier,0.96
;   bridgingSpeedMultiplier,1
;   useFixedBridgingAngle,0
;   fixedBridgingAngle,0
;   applyBridgingToPerimeters,0
;   filamentDiameters,1.75|1.75|1.75|1.75|1.75|1.75
;   filamentPricesPerKg,25|46|46|46|46|46
;   filamentDensities,1.29|1.25|1.25|1.25|1.25|1.25
;   useMinPrintHeight,0
;   minPrintHeight,0.3
;   useMaxPrintHeight,0
;   maxPrintHeight,5
;   useDiaphragm,1
;   diaphragmLayerInterval,20
;   robustSlicing,1
;   mergeAllIntoSolid,0
;   onlyRetractWhenCrossingOutline,1
;   retractBetweenLayers,0
;   useRetractionMinTravel,1
;   retractionMinTravel,5
;   retractWhileWiping,1
;   onlyWipeOutlines,1
;   avoidCrossingOutline,1
;   maxMovementDetourFactor,2
;   toolChangeRetractionDistance,12
;   toolChangeExtraRestartDistance,0
;   toolChangeRetractionSpeed,600
;   externalThinWallType,1
;   internalThinWallType,1
;   thinWallAllowedOverlapPercentage,10
;   singleExtrusionMinLength,0.1
;   singleExtrusionMinPrintingWidthPercentage,50
;   singleExtrusionMaxPrintingWidthPercentage,200
;   singleExtrusionEndpointExtension,0.2
;   horizontalSizeCompensation,0
G90
M82
M106 S0
M140 S55
M190 S55
G10 S0 R{0-50} P0
G10 S245 R{245-50} P1
M116 P1
G28 ; home all axes
G32 ; run bed.g -- probe bed and enable compensation
; process Process1
; layer 1, Z = 0.200
T1
; feature inner perimeter
; tool H0.200 W0.720
G1 Z0.200 F1200
G1 X74.789 Y87.207 F18000
G92 E0.0000
G1 X145.374 Y87.200 E4.3525 F405
G1 X144.708 Y87.866 E4.4106
G1 X144.446 Y88.185 E4.4360
G1 X144.087 Y88.723 E4.4760
G1 X143.906 Y89.061 E4.4996
G1 X143.748 Y89.410 E4.5232
G1 X143.530 Y90.051 E4.5650
G1 X143.398 Y90.716 E4.6067
G1 X143.361 Y91.097 E4.6303
G1 X143.348 Y91.479 E4.6539
G1 X143.390 Y92.126 E4.6939
G1 X143.458 Y92.533 E4.7193
G1 X143.625 Y93.158 E4.7593
G1 X143.771 Y93.544 E4.7847
G1 X144.070 Y94.152 E4.8265
G1 X144.446 Y94.715 E4.8682
G1 X144.708 Y95.034 E4.8937
G1 X145.166 Y95.492 E4.9336
G1 X145.485 Y95.754 E4.9590
G1 X146.023 Y96.113 E4.9990
G1 X146.387 Y96.308 E5.0244
G1 X146.986 Y96.556 E5.0644
G1 X147.352 Y96.667 E5.0880
G1 X147.725 Y96.754 E5.1116
G1 X148.367 Y96.838 E5.1515
G1 X148.779 Y96.852 E5.1770
G1 X149.426 Y96.810 E5.2169
G1 X149.833 Y96.742 E5.2423
G1 X150.458 Y96.575 E5.2823
G1 X150.844 Y96.429 E5.3077
G1 X151.452 Y96.130 E5.3495
G1 X152.015 Y95.754 E5.3912
G1 X152.311 Y95.511 E5.4149
G1 X152.591 Y95.249 E5.4385
G1 X153.037 Y94.740 E5.4802
G1 X153.183 Y94.521 E5.4964
G1 X153.643 Y94.661 E5.5261
G1 X153.649 Y125.060 E7.4007
G1 X152.762 Y124.282 E7.4734
G1 X152.427 Y124.042 E7.4989
G1 X151.866 Y123.718 E7.5388
G1 X151.490 Y123.548 E7.5642
G1 X150.849 Y123.330 E7.6060
G1 X150.184 Y123.198 E7.6478
G1 X149.774 Y123.158 E7.6732
G1 X149.126 Y123.158 E7.7131
G1 X148.745 Y123.195 E7.7367
G1 X148.367 Y123.258 E7.7604
G1 X147.741 Y123.425 E7.8003
G1 X147.356 Y123.571 E7.8257
G1 X146.748 Y123.870 E7.8675
G1 X146.185 Y124.246 E7.9093
G1 X145.889 Y124.489 E7.9329
G1 X145.609 Y124.751 E7.9565
G1 X145.182 Y125.238 E7.9964
G1 X144.942 Y125.573 E8.0219
G1 X144.618 Y126.134 E8.0618
G1 X144.448 Y126.510 E8.0872
G1 X144.230 Y127.151 E8.1290
G1 X144.098 Y127.816 E8.1708
G1 X144.058 Y128.226 E8.1962
G1 X144.058 Y128.874 E8.2362
G1 X144.095 Y129.255 E8.2598
G1 X144.158 Y129.633 E8.2834
G1 X144.325 Y130.258 E8.3233
G1 X144.471 Y130.644 E8.3488
G1 X144.770 Y131.252 E8.3905
G1 X145.146 Y131.815 E8.4323
G1 X145.408 Y132.134 E8.4577
G1 X146.074 Y132.800 E8.5158
G1 X73.926 Y132.800 E12.9648
G1 X74.592 Y132.134 E13.0229
G1 X74.854 Y131.815 E13.0483
G1 X75.213 Y131.277 E13.0882
G1 X75.394 Y130.939 E13.1119
G1 X75.552 Y130.590 E13.1355
G1 X75.770 Y129.949 E13.1772
G1 X75.902 Y129.284 E13.2190
G1 X75.939 Y128.903 E13.2426
G1 X75.952 Y128.521 E13.2662
G1 X75.910 Y127.874 E13.3062
G1 X75.842 Y127.467 E13.3316
G1 X75.675 Y126.842 E13.3716
G1 X75.529 Y126.455 E13.3970
G1 X75.243 Y125.875 E13.4369
G1 X75.025 Y125.524 E13.4624
G1 X74.631 Y125.010 E13.5023
G1 X74.349 Y124.709 E13.5277
G1 X73.862 Y124.282 E13.5677
G1 X73.527 Y124.042 E13.5931
G1 X72.966 Y123.718 E13.6331
G1 X72.590 Y123.548 E13.6585
G1 X71.977 Y123.340 E13.6984
G1 X71.575 Y123.246 E13.7239
G1 X70.903 Y123.158 E13.7656
G1 X70.226 Y123.158 E13.8074
G1 X69.816 Y123.198 E13.8328
G1 X69.180 Y123.325 E13.8728
G1 X68.814 Y123.436 E13.8964
G1 X68.456 Y123.571 E13.9200
G1 X67.875 Y123.857 E13.9599
G1 X67.524 Y124.075 E13.9854
G1 X67.010 Y124.469 E14.0253
G1 X66.357 Y125.081 E14.0805
G1 X66.351 Y94.552 E15.9631
G1 X66.811 Y94.412 E15.9928
G1 X66.963 Y94.640 E16.0096
G1 X67.410 Y95.149 E16.0514
G1 X67.710 Y95.431 E16.0768
G1 X68.224 Y95.825 E16.1168
G1 X68.575 Y96.043 E16.1422
G1 X69.156 Y96.329 E16.1822
G1 X69.542 Y96.475 E16.2076
G1 X70.167 Y96.642 E16.2475
G1 X70.574 Y96.710 E16.2730
G1 X71.221 Y96.752 E16.3129
G1 X71.603 Y96.739 E16.3365
G1 X71.984 Y96.702 E16.3601
G1 X72.649 Y96.570 E16.4019
G1 X73.290 Y96.352 E16.4437
G1 X73.666 Y96.182 E16.4691
G1 X74.227 Y95.858 E16.5091
G1 X74.562 Y95.618 E16.5345
G1 X75.049 Y95.191 E16.5744
G1 X75.311 Y94.911 E16.5980
G1 X75.554 Y94.615 E16.6217
G1 X75.930 Y94.052 E16.6634
G1 X76.230 Y93.444 E16.7052
G1 X76.375 Y93.059 E16.7306
G1 X76.542 Y92.433 E16.7706
G1 X76.610 Y92.026 E16.7960
G1 X76.652 Y91.379 E16.8359
G1 X76.638 Y90.967 E16.8614
G1 X76.554 Y90.325 E16.9013
G1 X76.460 Y89.923 E16.9268
G1 X76.252 Y89.310 E16.9667
G1 X76.082 Y88.934 E16.9921
G1 X75.758 Y88.373 E17.0321
G1 X75.518 Y88.038 E17.0575
G1 X74.789 Y87.207 E17.1256
G1 X74.086 Y87.625 F18000
G92 E0.0000
G1 X73.591 Y87.295 E0.0367 F405
G1 X72.969 Y86.988 E0.0794
G1 X73.086 Y86.487 E0.1111
G1 X147.163 Y86.480 E4.6791
G1 X147.260 Y87.012 E4.7124
G1 X146.942 Y87.132 E4.7333
G1 X146.409 Y87.395 E4.7700
G1 X145.914 Y87.725 E4.8067
G1 X145.650 Y87.942 E4.8278
G1 X145.242 Y88.350 E4.8633
G1 X145.025 Y88.614 E4.8844
G1 X144.705 Y89.094 E4.9200
G1 X144.552 Y89.380 E4.9400
G1 X144.418 Y89.675 E4.9599
G1 X144.227 Y90.238 E4.9966
G1 X144.111 Y90.821 E5.0333
G1 X144.079 Y91.144 E5.0533
G1 X144.069 Y91.468 E5.0733
G1 X144.107 Y92.044 E5.1088
G1 X144.162 Y92.381 E5.1299
G1 X144.312 Y92.938 E5.1655
G1 X144.432 Y93.258 E5.1866
G1 X144.695 Y93.791 E5.2232
G1 X145.025 Y94.286 E5.2599
G1 X145.242 Y94.550 E5.2810
G1 X145.650 Y94.958 E5.3166
G1 X145.914 Y95.175 E5.3376
G1 X146.394 Y95.495 E5.3732
G1 X146.696 Y95.656 E5.3943
G1 X147.229 Y95.877 E5.4299
G1 X147.539 Y95.971 E5.4498
G1 X147.854 Y96.045 E5.4698
G1 X148.426 Y96.120 E5.5054
G1 X148.768 Y96.131 E5.5265
G1 X149.344 Y96.093 E5.5621
G1 X149.681 Y96.038 E5.5831
G1 X150.238 Y95.888 E5.6187
G1 X150.558 Y95.768 E5.6398
G1 X151.091 Y95.505 E5.6764
G1 X151.586 Y95.175 E5.7131
G1 X151.836 Y94.969 E5.7331
G1 X152.073 Y94.748 E5.7531
G1 X152.465 Y94.300 E5.7898
G1 X152.795 Y93.806 E5.8264
G1 X152.956 Y93.505 E5.8475
G1 X153.177 Y92.971 E5.8831
G1 X153.276 Y92.644 E5.9042
G1 X153.389 Y92.079 E5.9397
G1 X153.421 Y91.756 E5.9597
G1 X153.431 Y91.432 E5.9797
G1 X153.393 Y90.856 E6.0153
G1 X153.338 Y90.519 E6.0363
G1 X153.188 Y89.962 E6.0719
G1 X153.068 Y89.642 E6.0930
G1 X152.805 Y89.109 E6.1297
G1 X152.475 Y88.614 E6.1663
G1 X152.258 Y88.350 E6.1874
G1 X151.850 Y87.942 E6.2230
G1 X151.586 Y87.725 E6.2441
G1 X151.106 Y87.405 E6.2796
G1 X150.820 Y87.252 E6.2996
G1 X150.266 Y87.001 E6.3371
G1 X150.395 Y86.479 E6.3703
G1 X150.889 Y86.506 E6.4008
G1 X151.322 Y86.580 E6.4279
G1 X151.744 Y86.702 E6.4550
G1 X152.150 Y86.870 E6.4821
G1 X152.535 Y87.082 E6.5092
G1 X152.905 Y87.345 E6.5372
G1 X153.062 Y87.477 E6.5498
G1 X153.211 Y87.618 E6.5625
G1 X153.513 Y87.957 E6.5905
G1 X153.768 Y88.315 E6.6176
G1 X153.980 Y88.700 E6.6447
G1 X154.154 Y89.120 E6.6727
G1 X154.212 Y89.300 E6.6844
G1 X154.313 Y89.744 E6.7124
G1 X154.362 Y90.180 E6.7395
G1 X154.369 Y126.829 E8.9994
G1 X153.869 Y126.946 E9.0312
G1 X153.513 Y126.225 E9.0808
G1 X153.332 Y125.935 E9.1018
G1 X152.981 Y125.477 E9.1374
G1 X152.748 Y125.227 E9.1585
G1 X152.314 Y124.847 E9.1941
G1 X152.036 Y124.648 E9.2151
G1 X151.536 Y124.359 E9.2507
G1 X151.225 Y124.218 E9.2718
G1 X150.662 Y124.027 E9.3085
G1 X150.079 Y123.911 E9.3451
G1 X149.738 Y123.878 E9.3662
G1 X149.162 Y123.878 E9.4018
G1 X148.839 Y123.909 E9.4218
G1 X148.519 Y123.962 E9.4417
G1 X147.962 Y124.112 E9.4773
G1 X147.642 Y124.232 E9.4984
G1 X147.109 Y124.495 E9.5351
G1 X146.614 Y124.825 E9.5717
G1 X146.364 Y125.031 E9.5917
G1 X146.127 Y125.252 E9.6117
G1 X145.747 Y125.686 E9.6473
G1 X145.548 Y125.964 E9.6684
G1 X145.259 Y126.464 E9.7039
G1 X145.118 Y126.775 E9.7250
G1 X144.927 Y127.338 E9.7617
G1 X144.811 Y127.921 E9.7984
G1 X144.778 Y128.262 E9.8194
G1 X144.778 Y128.839 E9.8550
G1 X144.809 Y129.161 E9.8750
G1 X144.862 Y129.481 E9.8950
G1 X145.012 Y130.038 E9.9305
G1 X145.132 Y130.358 E9.9516
G1 X145.395 Y130.891 E9.9883
G1 X145.725 Y131.386 E10.0250
G1 X145.942 Y131.650 E10.0460
G1 X146.350 Y132.058 E10.0816
G1 X146.614 Y132.275 E10.1027
G1 X147.094 Y132.595 E10.1383
G1 X147.380 Y132.748 E10.1582
G1 X147.675 Y132.882 E10.1782
G1 X147.958 Y132.978 E10.1966
G1 X147.868 Y133.520 E10.2305
G1 X72.136 Y133.520 E14.9005
G1 X72.039 Y132.988 E14.9338
G1 X72.358 Y132.868 E14.9548
G1 X72.891 Y132.605 E14.9915
G1 X73.386 Y132.275 E15.0282
G1 X73.650 Y132.058 E15.0493
G1 X74.058 Y131.650 E15.0848
G1 X74.275 Y131.386 E15.1059
G1 X74.595 Y130.906 E15.1415
G1 X74.748 Y130.620 E15.1615
G1 X74.882 Y130.325 E15.1814
G1 X75.073 Y129.762 E15.2181
G1 X75.189 Y129.179 E15.2548
G1 X75.221 Y128.856 E15.2748
G1 X75.231 Y128.532 E15.2948
G1 X75.193 Y127.956 E15.3303
G1 X75.138 Y127.619 E15.3514
G1 X74.988 Y127.062 E15.3870
G1 X74.868 Y126.742 E15.4081
G1 X74.613 Y126.225 E15.4436
G1 X74.432 Y125.935 E15.4647
G1 X74.081 Y125.477 E15.5003
G1 X73.848 Y125.227 E15.5214
G1 X73.414 Y124.847 E15.5569
G1 X73.136 Y124.648 E15.5780
G1 X72.636 Y124.359 E15.6136
G1 X72.325 Y124.218 E15.6347
G1 X71.779 Y124.033 E15.6703
G1 X71.446 Y123.955 E15.6913
G1 X70.856 Y123.878 E15.7280
G1 X70.261 Y123.878 E15.7647
G1 X69.921 Y123.911 E15.7857
G1 X69.356 Y124.024 E15.8213
G1 X69.045 Y124.118 E15.8413
G1 X68.742 Y124.232 E15.8613
G1 X68.225 Y124.487 E15.8969
G1 X67.935 Y124.668 E15.9179
G1 X67.477 Y125.019 E15.9535
G1 X67.227 Y125.252 E15.9746
G1 X66.847 Y125.686 E16.0102
G1 X66.648 Y125.964 E16.0312
G1 X66.359 Y126.464 E16.0668
G1 X66.148 Y126.929 E16.0983
G1 X65.637 Y126.819 E16.1306
G1 X65.630 Y90.430 E18.3745
G1 X65.657 Y89.946 E18.4044
G1 X65.684 Y89.758 E18.4161
G1 X65.785 Y89.315 E18.4441
G1 X65.930 Y88.901 E18.4712
G1 X66.121 Y88.505 E18.4983
G1 X66.362 Y88.120 E18.5263
G1 X66.476 Y87.968 E18.5380
G1 X66.790 Y87.618 E18.5670
G1 X66.927 Y87.488 E18.5787
G1 X67.283 Y87.204 E18.6067
G1 X67.668 Y86.962 E18.6347
G1 X67.836 Y86.876 E18.6464
G1 X68.270 Y86.696 E18.6754
G1 X68.450 Y86.638 E18.6871
G1 X68.894 Y86.537 E18.7151
G1 X69.319 Y86.489 E18.7415
G1 X69.460 Y87.034 E18.7762
G1 X69.195 Y87.144 E18.7939
G1 X68.894 Y87.305 E18.8150
G1 X68.400 Y87.635 E18.8516
G1 X67.953 Y88.027 E18.8883
G1 X67.731 Y88.264 E18.9083
G1 X67.525 Y88.514 E18.9283
G1 X67.195 Y89.009 E18.9649
G1 X66.932 Y89.542 E19.0016
G1 X66.812 Y89.862 E19.0227
G1 X66.662 Y90.419 E19.0583
G1 X66.610 Y90.739 E19.0782
G1 X66.578 Y91.062 E19.0982
G1 X66.578 Y91.638 E19.1338
G1 X66.611 Y91.979 E19.1549
G1 X66.724 Y92.544 E19.1905
G1 X66.823 Y92.871 E19.2115
G1 X67.044 Y93.405 E19.2471
