; G-Code generated by Simplify3D(R) Version 4.1.2
; Jun 18, 2022 at 10:58:44 PM
; Settings Summary
;   processName,Process1
;   applyToModels,seitenplatte-gummi-lager,seitenplatte-gummi-lager(2),seitenplatte-gummi-lager(3),seitenplatte-gummi-lager(4),seitenplatte-gummi-lager(5),seitenplatte-gummi-lager(6),seitenplatte-gummi-lager(7),seitenplatte-gummi-lager(8),seitenplatte-gummi-lager(9),seitenplatte-gummi-lager(10)
;   profileName,HSBot
;   profileVersion,2019-11-09 11:59:44
;   baseProfile,Default
;   printMaterial,Filaflex 82A
;   printQuality,Medium
;   printExtruders,
;   extruderName,Extruder - v6,Extruder - lgx ace
;   extruderToolheadNumber,0,1
;   extruderDiameter,0.4,0.4
;   extruderAutoWidth,1,1
;   extruderWidth,0.48,0.48
;   extrusionMultiplier,1.03,1.03
;   extruderUseRetract,0,0
;   extruderRetractionDistance,4,1
;   extruderExtraRestartDistance,0,0
;   extruderRetractionZLift,0,0
;   extruderRetractionSpeed,3600,1800
;   extruderUseCoasting,0,0
;   extruderCoastingDistance,0.2,0.2
;   extruderUseWipe,0,0
;   extruderWipeDistance,1,1
;   primaryExtruder,1
;   layerHeight,0.2
;   topSolidLayers,3
;   bottomSolidLayers,3
;   perimeterOutlines,3
;   printPerimetersInsideOut,1
;   startPointOption,2
;   startPointOriginX,0
;   startPointOriginY,0
;   sequentialIslands,0
;   spiralVaseMode,0
;   firstLayerHeightPercentage,100
;   firstLayerWidthPercentage,150
;   firstLayerUnderspeed,0.25
;   useRaft,0
;   raftExtruder,0
;   raftTopLayers,3
;   raftBaseLayers,2
;   raftOffset,3
;   raftSeparationDistance,0.18
;   raftTopInfill,100
;   aboveRaftSpeedMultiplier,0.3
;   useSkirt,1
;   skirtExtruder,1
;   skirtLayers,1
;   skirtOutlines,5
;   skirtOffset,5
;   usePrimePillar,0
;   primePillarExtruder,999
;   primePillarWidth,12
;   primePillarLocation,7
;   primePillarSpeedMultiplier,1
;   useOozeShield,0
;   oozeShieldExtruder,999
;   oozeShieldOffset,2
;   oozeShieldOutlines,1
;   oozeShieldSidewallShape,1
;   oozeShieldSidewallAngle,30
;   oozeShieldSpeedMultiplier,1
;   infillExtruder,1
;   internalInfillPattern,Fast Honeycomb
;   externalInfillPattern,Rectilinear
;   infillPercentage,15
;   outlineOverlapPercentage,20
;   infillExtrusionWidthPercentage,100
;   minInfillLength,3
;   infillLayerInterval,1
;   internalInfillAngles,0
;   overlapInternalInfillAngles,0
;   externalInfillAngles,45,-45
;   generateSupport,0
;   supportExtruder,1
;   supportInfillPercentage,30
;   supportExtraInflation,0
;   supportBaseLayers,1
;   denseSupportExtruder,0
;   denseSupportLayers,0
;   denseSupportInfillPercentage,70
;   supportLayerInterval,1
;   supportHorizontalPartOffset,0.3
;   supportUpperSeparationLayers,1
;   supportLowerSeparationLayers,1
;   supportType,0
;   supportGridSpacing,2
;   maxOverhangAngle,45
;   supportAngles,0
;   temperatureName,v6,Bed,lgx-ace
;   temperatureNumber,0,0,1
;   temperatureSetpointCount,1,1,1
;   temperatureSetpointLayers,1,1,1
;   temperatureSetpointTemperatures,0,55,245
;   temperatureStabilizeAtStartup,1,1,1
;   temperatureHeatedBed,0,1,0
;   fanLayers,1,2,3
;   fanSpeeds,0,15,30
;   blipFanToFullPower,0
;   adjustSpeedForCooling,1
;   minSpeedLayerTime,15
;   minCoolingSpeedSlowdown,50
;   increaseFanForCooling,0
;   minFanLayerTime,45
;   maxCoolingFanSpeed,70
;   increaseFanForBridging,0
;   bridgingFanSpeed,80
;   use5D,1
;   relativeEdistances,0
;   allowEaxisZeroing,1
;   independentExtruderAxes,0
;   includeM10123,0
;   stickySupport,1
;   applyToolheadOffsets,0
;   gcodeXoffset,0
;   gcodeYoffset,0
;   gcodeZoffset,0
;   overrideMachineDefinition,1
;   machineTypeOverride,0
;   strokeXoverride,220
;   strokeYoverride,220
;   strokeZoverride,150
;   originOffsetXoverride,0
;   originOffsetYoverride,0
;   originOffsetZoverride,0
;   homeXdirOverride,-1
;   homeYdirOverride,-1
;   homeZdirOverride,-1
;   flipXoverride,1
;   flipYoverride,-1
;   flipZoverride,1
;   toolheadOffsets,0,0|0,0|0,0|0,0|0,0|0,0
;   overrideFirmwareConfiguration,0
;   firmwareTypeOverride,RepRap (Marlin/Repetier/Sprinter)
;   GPXconfigOverride,r2
;   baudRateOverride,115200
;   overridePrinterModels,0
;   printerModelsOverride
;   startingGcode,G28 ; home all axes,G32 ; run bed.g -- probe bed and enable compensation
;   layerChangeGcode,
;   retractionGcode,
;   toolChangeGcode,
;   endingGcode,M0 ; call stop.g
;   exportFileFormat,gcode
;   celebration,0
;   celebrationSong,Random Song
;   postProcessing,|; 0.2mm layer, 8 bands 5mm each, total height 40mm|{REPLACE "; layer 25" "M572 D0 S0.69\n; layer 10"}|{REPLACE "; layer 50" "M572 D0 S0.70\n; layer 50"}|{REPLACE "; layer 75" "M572 D0 S0.71\n; layer 75"}|{REPLACE "; layer 100" "M572 D0 S0.72\n; layer 100"}|{REPLACE "; layer 125" "M572 D0 S0.73\n; layer 125"}|{REPLACE "; layer 150" "M572 D0 S0.74\n; layer 150"}|{REPLACE "; layer 175" "M572 D0 S0.75\n; layer 175"}|{REPLACE "; layer 200" "M572 D0 S0.76\n; layer 200"}
;   defaultSpeed,1800
;   outlineUnderspeed,0.8
;   solidInfillUnderspeed,0.75
;   supportUnderspeed,0.8
;   rapidXYspeed,18000
;   rapidZspeed,1200
;   minBridgingArea,50
;   bridgingExtraInflation,0
;   bridgingExtrusionMultiplier,0.96
;   bridgingSpeedMultiplier,1
;   useFixedBridgingAngle,0
;   fixedBridgingAngle,0
;   applyBridgingToPerimeters,0
;   filamentDiameters,1.75|1.75|1.75|1.75|1.75|1.75
;   filamentPricesPerKg,25|46|46|46|46|46
;   filamentDensities,1.29|1.25|1.25|1.25|1.25|1.25
;   useMinPrintHeight,0
;   minPrintHeight,0.3
;   useMaxPrintHeight,0
;   maxPrintHeight,5
;   useDiaphragm,1
;   diaphragmLayerInterval,20
;   robustSlicing,1
;   mergeAllIntoSolid,0
;   onlyRetractWhenCrossingOutline,1
;   retractBetweenLayers,0
;   useRetractionMinTravel,1
;   retractionMinTravel,5
;   retractWhileWiping,1
;   onlyWipeOutlines,1
;   avoidCrossingOutline,1
;   maxMovementDetourFactor,2
;   toolChangeRetractionDistance,12
;   toolChangeExtraRestartDistance,0
;   toolChangeRetractionSpeed,600
;   externalThinWallType,1
;   internalThinWallType,1
;   thinWallAllowedOverlapPercentage,10
;   singleExtrusionMinLength,0.1
;   singleExtrusionMinPrintingWidthPercentage,50
;   singleExtrusionMaxPrintingWidthPercentage,200
;   singleExtrusionEndpointExtension,0.2
;   horizontalSizeCompensation,0
G90
M82
M106 S0
M140 S55
M190 S55
G10 S0 R{0-50} P0
G10 S245 R{245-50} P1
M116 P1
G28 ; home all axes
G32 ; run bed.g -- probe bed and enable compensation
; process Process1
; layer 1, Z = 0.200
T1
; feature skirt
; tool H0.200 W0.720
G1 Z0.200 F1200
G1 X84.492 Y90.241 F18000
G92 E0.0000
G1 X85.636 Y89.244 E0.0936 F450
G1 X86.326 Y88.757 E0.1457
G1 X87.587 Y88.047 E0.2349
G1 X88.228 Y87.756 E0.2783
G1 X89.248 Y87.394 E0.3451
G1 X89.790 Y87.242 E0.3798
G1 X90.781 Y87.036 E0.4422
G1 X91.339 Y86.959 E0.4769
G1 X92.348 Y86.890 E0.5393
G1 X92.912 Y86.890 E0.5740
G1 X93.991 Y86.964 E0.6408
G1 X94.687 Y87.072 E0.6842
G1 X96.093 Y87.414 E0.7734
G1 X96.889 Y87.697 E0.8255
G1 X98.196 Y88.319 E0.9148
G1 X98.414 Y88.446 E0.9303
G1 X99.358 Y87.957 E0.9959
G1 X99.875 Y87.732 E1.0306
G1 X100.828 Y87.394 E1.0930
G1 X101.370 Y87.242 E1.1278
G1 X102.361 Y87.036 E1.1902
G1 X102.919 Y86.959 E1.2249
G1 X103.928 Y86.890 E1.2873
G1 X104.492 Y86.890 E1.3220
G1 X105.572 Y86.964 E1.3887
G1 X106.267 Y87.072 E1.4322
G1 X107.673 Y87.414 E1.5214
G1 X108.469 Y87.697 E1.5735
G1 X109.840 Y88.349 E1.6671
G1 X109.997 Y88.444 E1.6784
G1 X110.938 Y87.957 E1.7438
G1 X111.455 Y87.732 E1.7785
G1 X112.408 Y87.394 E1.8409
G1 X112.950 Y87.242 E1.8756
G1 X113.941 Y87.036 E1.9380
G1 X114.499 Y86.959 E1.9727
G1 X115.508 Y86.890 E2.0351
G1 X116.072 Y86.890 E2.0699
G1 X117.152 Y86.964 E2.1366
G1 X117.847 Y87.072 E2.1800
G1 X119.253 Y87.414 E2.2693
G1 X120.049 Y87.697 E2.3214
G1 X121.420 Y88.349 E2.4149
G1 X121.580 Y88.446 E2.4265
G1 X121.620 Y88.422 E2.4294
G1 X122.518 Y87.957 E2.4918
G1 X123.035 Y87.732 E2.5265
G1 X123.988 Y87.394 E2.5889
G1 X124.530 Y87.242 E2.6236
G1 X125.521 Y87.036 E2.6860
G1 X126.079 Y86.959 E2.7207
G1 X127.088 Y86.890 E2.7831
G1 X127.652 Y86.890 E2.8179
G1 X128.732 Y86.964 E2.8846
G1 X129.427 Y87.072 E2.9280
G1 X130.833 Y87.414 E3.0173
G1 X131.629 Y87.697 E3.0694
G1 X132.936 Y88.319 E3.1586
G1 X133.544 Y88.674 E3.2020
G1 X134.486 Y89.339 E3.2731
G1 X135.024 Y89.792 E3.3165
G1 X136.047 Y90.816 E3.4057
G1 X136.581 Y91.471 E3.4578
G1 X137.413 Y92.741 E3.5514
G1 X137.802 Y93.491 E3.6035
G1 X138.358 Y94.902 E3.6971
G1 X138.586 Y95.716 E3.7492
G1 X138.832 Y97.142 E3.8385
G1 X138.892 Y97.843 E3.8819
G1 X138.892 Y98.996 E3.9530
G1 X138.832 Y99.698 E3.9964
G1 X138.598 Y101.055 E4.0813
G1 X138.420 Y101.735 E4.1247
G1 X138.058 Y102.755 E4.1914
G1 X137.833 Y103.271 E4.2261
G1 X137.368 Y104.170 E4.2885
G1 X137.342 Y104.212 E4.2916
G1 X137.413 Y104.320 E4.2995
G1 X137.802 Y105.070 E4.3516
G1 X138.358 Y106.482 E4.4452
G1 X138.586 Y107.296 E4.4973
G1 X138.832 Y108.722 E4.5866
G1 X138.892 Y109.423 E4.6300
G1 X138.892 Y110.577 E4.7011
G1 X138.832 Y111.278 E4.7445
G1 X138.586 Y112.704 E4.8337
G1 X138.358 Y113.518 E4.8858
G1 X137.802 Y114.930 E4.9794
G1 X137.413 Y115.680 E5.0315
G1 X136.581 Y116.949 E5.1251
G1 X136.047 Y117.604 E5.1772
G1 X134.974 Y118.677 E5.2708
G1 X134.319 Y119.211 E5.3229
G1 X133.049 Y120.043 E5.4165
G1 X132.299 Y120.432 E5.4686
G1 X130.953 Y120.963 E5.5578
G1 X130.279 Y121.164 E5.6012
G1 X129.150 Y121.399 E5.6723
G1 X128.451 Y121.483 E5.7157
G1 X127.005 Y121.532 E5.8050
G1 X126.162 Y121.474 E5.8571
G1 X124.666 Y121.216 E5.9507
G1 X123.852 Y120.988 E6.0028
G1 X122.441 Y120.432 E6.0964
G1 X121.690 Y120.043 E6.1484
G1 X121.582 Y119.972 E6.1564
G1 X121.420 Y120.071 E6.1682
G1 X120.049 Y120.723 E6.2617
G1 X119.253 Y121.006 E6.3138
G1 X117.847 Y121.348 E6.4031
G1 X117.151 Y121.456 E6.4465
G1 X116.071 Y121.530 E6.5132
G1 X115.740 Y121.530 E6.5337
G1 X115.740 Y122.002 E6.5628
G1 X115.585 Y123.512 E6.6564
G1 X115.413 Y124.340 E6.7085
G1 X114.954 Y125.786 E6.8021
G1 X114.617 Y126.561 E6.8542
G1 X113.873 Y127.884 E6.9478
G1 X113.386 Y128.574 E6.9999
G1 X112.389 Y129.718 E7.0935
G1 X111.771 Y130.295 E7.1456
G1 X110.562 Y131.212 E7.2392
G1 X109.840 Y131.651 E7.2913
G1 X108.469 Y132.303 E7.3849
G1 X107.673 Y132.586 E7.4369
G1 X106.267 Y132.928 E7.5262
G1 X105.571 Y133.036 E7.5696
G1 X104.491 Y133.110 E7.6363
G1 X103.929 Y133.110 E7.6711
G1 X102.849 Y133.036 E7.7378
G1 X102.153 Y132.928 E7.7812
G1 X100.747 Y132.586 E7.8705
G1 X99.951 Y132.303 E7.9226
G1 X98.580 Y131.651 E8.0161
G1 X98.420 Y131.554 E8.0277
G1 X98.380 Y131.578 E8.0306
G1 X97.482 Y132.043 E8.0930
G1 X96.965 Y132.268 E8.1277
G1 X95.946 Y132.630 E8.1944
G1 X95.265 Y132.808 E8.2378
G1 X93.908 Y133.042 E8.3227
G1 X93.206 Y133.102 E8.3661
G1 X92.124 Y133.102 E8.4329
G1 X91.562 Y133.064 E8.4676
G1 X90.490 Y132.917 E8.5344
G1 X89.803 Y132.762 E8.5778
G1 X88.491 Y132.345 E8.6627
G1 X87.841 Y132.076 E8.7061
G1 X86.880 Y131.578 E8.7728
G1 X86.399 Y131.285 E8.8075
G1 X85.514 Y130.661 E8.8743
G1 X84.976 Y130.208 E8.9177
G1 X83.953 Y129.184 E9.0069
G1 X83.419 Y128.529 E9.0590
G1 X82.587 Y127.260 E9.1526
G1 X82.198 Y126.509 E9.2047
G1 X81.642 Y125.097 E9.2983
G1 X81.414 Y124.284 E9.3504
G1 X81.168 Y122.858 E9.4396
G1 X81.108 Y122.156 E9.4831
G1 X81.108 Y121.003 E9.5542
G1 X81.168 Y120.302 E9.5976
G1 X81.390 Y119.015 E9.6781
G1 X81.523 Y118.468 E9.7128
G1 X81.761 Y117.717 E9.7614
G1 X81.968 Y117.194 E9.7961
G1 X82.529 Y116.014 E9.8767
G1 X82.660 Y115.790 E9.8926
G1 X82.587 Y115.680 E9.9008
G1 X82.198 Y114.929 E9.9529
G1 X81.642 Y113.518 E10.0465
G1 X81.414 Y112.704 E10.0986
G1 X81.168 Y111.278 E10.1878
G1 X81.108 Y110.576 E10.2312
G1 X81.108 Y109.423 E10.3023
G1 X81.168 Y108.722 E10.3457
G1 X81.402 Y107.365 E10.4306
G1 X81.580 Y106.685 E10.4740
G1 X81.942 Y105.665 E10.5408
G1 X82.167 Y105.148 E10.5755
G1 X82.656 Y104.204 E10.6410
G1 X82.587 Y104.100 E10.6488
G1 X82.198 Y103.349 E10.7009
G1 X81.642 Y101.938 E10.7945
G1 X81.414 Y101.124 E10.8465
G1 X81.168 Y99.698 E10.9358
G1 X81.108 Y98.996 E10.9792
G1 X81.108 Y97.843 E11.0503
G1 X81.168 Y97.142 E11.0937
G1 X81.402 Y95.785 E11.1786
G1 X81.580 Y95.105 E11.2220
G1 X81.942 Y94.085 E11.2887
G1 X82.167 Y93.568 E11.3235
G1 X82.665 Y92.607 E11.3902
G1 X83.041 Y92.012 E11.4336
G1 X83.915 Y90.859 E11.5229
G1 X84.492 Y90.241 E11.5750
G1 X84.993 Y90.760 F18000
G92 E0.0000
G1 X86.081 Y89.811 E0.0890 F450
G1 X86.711 Y89.366 E0.1366
G1 X87.913 Y88.690 E0.2216
G1 X88.498 Y88.424 E0.2613
G1 X89.466 Y88.080 E0.3246
G1 X89.961 Y87.942 E0.3563
G1 X90.904 Y87.746 E0.4157
G1 X91.412 Y87.676 E0.4473
G1 X92.373 Y87.610 E0.5067
G1 X92.887 Y87.610 E0.5384
G1 X93.912 Y87.680 E0.6017
G1 X94.546 Y87.778 E0.6413
G1 X95.887 Y88.105 E0.7264
G1 X96.613 Y88.363 E0.7740
G1 X97.859 Y88.956 E0.8590
G1 X98.414 Y89.280 E0.8986
G1 X98.425 Y89.288 E0.8995
G1 X98.756 Y89.080 E0.9236
G1 X99.668 Y88.607 E0.9870
G1 X100.139 Y88.403 E1.0186
G1 X101.046 Y88.080 E1.0780
G1 X101.541 Y87.942 E1.1097
G1 X102.484 Y87.746 E1.1691
G1 X102.992 Y87.676 E1.2007
G1 X103.953 Y87.610 E1.2601
G1 X104.467 Y87.610 E1.2918
G1 X105.492 Y87.680 E1.3551
G1 X106.126 Y87.778 E1.3947
G1 X107.467 Y88.105 E1.4798
G1 X108.193 Y88.363 E1.5274
G1 X109.497 Y88.983 E1.6164
G1 X110.002 Y89.290 E1.6528
G1 X110.336 Y89.080 E1.6772
G1 X111.248 Y88.607 E1.7405
G1 X111.719 Y88.403 E1.7722
G1 X112.626 Y88.080 E1.8315
G1 X113.121 Y87.942 E1.8632
G1 X114.064 Y87.746 E1.9226
G1 X114.573 Y87.676 E1.9543
G1 X115.533 Y87.610 E2.0137
G1 X116.047 Y87.610 E2.0453
G1 X117.072 Y87.680 E2.1087
G1 X117.706 Y87.778 E2.1483
G1 X119.047 Y88.105 E2.2334
G1 X119.773 Y88.363 E2.2809
G1 X121.077 Y88.983 E2.3699
G1 X121.580 Y89.289 E2.4062
G1 X121.973 Y89.050 E2.4346
G1 X122.828 Y88.607 E2.4939
G1 X123.299 Y88.403 E2.5256
G1 X124.206 Y88.080 E2.5850
G1 X124.701 Y87.942 E2.6167
G1 X125.644 Y87.746 E2.6761
G1 X126.153 Y87.676 E2.7077
G1 X127.113 Y87.610 E2.7671
G1 X127.627 Y87.610 E2.7988
G1 X128.652 Y87.680 E2.8621
G1 X129.286 Y87.778 E2.9017
G1 X130.627 Y88.105 E2.9868
G1 X131.353 Y88.363 E3.0344
G1 X132.599 Y88.956 E3.1194
G1 X133.154 Y89.280 E3.1590
G1 X134.045 Y89.910 E3.2263
G1 X134.537 Y90.323 E3.2659
G1 X135.512 Y91.299 E3.3510
G1 X135.999 Y91.897 E3.3986
G1 X136.791 Y93.105 E3.4876
G1 X137.145 Y93.789 E3.5352
G1 X137.675 Y95.132 E3.6242
G1 X137.883 Y95.875 E3.6717
G1 X138.118 Y97.234 E3.7568
G1 X138.172 Y97.874 E3.7964
G1 X138.172 Y98.966 E3.8637
G1 X138.118 Y99.606 E3.9033
G1 X137.894 Y100.902 E3.9844
G1 X137.731 Y101.523 E4.0241
G1 X137.387 Y102.491 E4.0874
G1 X137.183 Y102.962 E4.1191
G1 X136.740 Y103.817 E4.1784
G1 X136.491 Y104.227 E4.2080
G1 X136.791 Y104.684 E4.2417
G1 X137.145 Y105.369 E4.2893
G1 X137.675 Y106.712 E4.3783
G1 X137.883 Y107.455 E4.4259
G1 X138.118 Y108.814 E4.5109
G1 X138.172 Y109.454 E4.5506
G1 X138.172 Y110.546 E4.6179
G1 X138.118 Y111.186 E4.6575
G1 X137.883 Y112.545 E4.7426
G1 X137.675 Y113.288 E4.7901
G1 X137.145 Y114.631 E4.8791
G1 X136.791 Y115.316 E4.9267
G1 X135.999 Y116.523 E5.0157
G1 X135.512 Y117.121 E5.0633
G1 X134.491 Y118.142 E5.1523
G1 X133.893 Y118.629 E5.1999
G1 X132.685 Y119.421 E5.2889
G1 X132.001 Y119.775 E5.3364
G1 X130.718 Y120.281 E5.4215
G1 X130.102 Y120.465 E5.4611
G1 X129.034 Y120.687 E5.5284
G1 X128.396 Y120.764 E5.5680
G1 X127.017 Y120.811 E5.6531
G1 X126.248 Y120.758 E5.7007
G1 X124.825 Y120.513 E5.7897
G1 X124.082 Y120.305 E5.8372
G1 X122.739 Y119.775 E5.9263
G1 X122.054 Y119.421 E5.9738
G1 X121.597 Y119.121 E6.0076
G1 X121.077 Y119.437 E6.0451
G1 X119.773 Y120.057 E6.1341
G1 X119.047 Y120.315 E6.1816
G1 X117.707 Y120.642 E6.2667
G1 X117.072 Y120.740 E6.3063
G1 X116.047 Y120.810 E6.3697
G1 X115.533 Y120.810 E6.4013
G1 X114.977 Y120.772 E6.4357
G1 X115.020 Y121.194 E6.4619
G1 X115.020 Y121.966 E6.5095
G1 X114.872 Y123.402 E6.5985
G1 X114.715 Y124.157 E6.6461
G1 X114.279 Y125.533 E6.7351
G1 X113.971 Y126.240 E6.7827
G1 X113.264 Y127.499 E6.8717
G1 X112.819 Y128.129 E6.9192
G1 X111.870 Y129.217 E7.0083
G1 X111.307 Y129.743 E7.0558
G1 X110.156 Y130.616 E7.1449
G1 X109.497 Y131.017 E7.1924
G1 X108.193 Y131.637 E7.2815
G1 X107.467 Y131.895 E7.3290
G1 X106.126 Y132.222 E7.4141
G1 X105.492 Y132.320 E7.4537
G1 X104.467 Y132.390 E7.5170
G1 X103.953 Y132.390 E7.5487
G1 X102.928 Y132.320 E7.6120
