; G-Code generated by Simplify3D(R) Version 4.1.2
; Jun 4, 2022 at 12:47:31 AM
; Settings Summary
;   processName,Process1
;   applyToModels,seitenplatte,seitenplatte(2)
;   profileName,HSBot (modified)
;   profileVersion,2019-11-09 11:59:44
;   baseProfile,Default
;   printMaterial,pla
;   printQuality,Medium
;   printExtruders,
;   extruderName,Extruder 1,Extruder - Lite
;   extruderToolheadNumber,0,1
;   extruderDiameter,0.4,0.4
;   extruderAutoWidth,1,1
;   extruderWidth,0.48,0.48
;   extrusionMultiplier,1.1,0.93
;   extruderUseRetract,1,0
;   extruderRetractionDistance,2,1
;   extruderExtraRestartDistance,0,0
;   extruderRetractionZLift,0,0
;   extruderRetractionSpeed,4800,1800
;   extruderUseCoasting,0,0
;   extruderCoastingDistance,0.2,0.2
;   extruderUseWipe,0,0
;   extruderWipeDistance,2,5
;   primaryExtruder,0
;   layerHeight,0.2
;   topSolidLayers,3
;   bottomSolidLayers,3
;   perimeterOutlines,4
;   printPerimetersInsideOut,1
;   startPointOption,2
;   startPointOriginX,0
;   startPointOriginY,0
;   sequentialIslands,0
;   spiralVaseMode,0
;   firstLayerHeightPercentage,100
;   firstLayerWidthPercentage,150
;   firstLayerUnderspeed,0.25
;   useRaft,0
;   raftExtruder,0
;   raftTopLayers,3
;   raftBaseLayers,2
;   raftOffset,3
;   raftSeparationDistance,0.18
;   raftTopInfill,100
;   aboveRaftSpeedMultiplier,0.3
;   useSkirt,1
;   skirtExtruder,0
;   skirtLayers,1
;   skirtOutlines,5
;   skirtOffset,5
;   usePrimePillar,0
;   primePillarExtruder,999
;   primePillarWidth,12
;   primePillarLocation,7
;   primePillarSpeedMultiplier,1
;   useOozeShield,0
;   oozeShieldExtruder,999
;   oozeShieldOffset,2
;   oozeShieldOutlines,1
;   oozeShieldSidewallShape,1
;   oozeShieldSidewallAngle,30
;   oozeShieldSpeedMultiplier,1
;   infillExtruder,0
;   internalInfillPattern,Full Honeycomb
;   externalInfillPattern,Rectilinear
;   infillPercentage,20
;   outlineOverlapPercentage,20
;   infillExtrusionWidthPercentage,100
;   minInfillLength,3
;   infillLayerInterval,1
;   internalInfillAngles,0,120,-120
;   overlapInternalInfillAngles,0
;   externalInfillAngles,45,-45
;   generateSupport,0
;   supportExtruder,0
;   supportInfillPercentage,30
;   supportExtraInflation,0
;   supportBaseLayers,1
;   denseSupportExtruder,0
;   denseSupportLayers,0
;   denseSupportInfillPercentage,70
;   supportLayerInterval,1
;   supportHorizontalPartOffset,0.3
;   supportUpperSeparationLayers,1
;   supportLowerSeparationLayers,1
;   supportType,0
;   supportGridSpacing,2
;   maxOverhangAngle,45
;   supportAngles,0
;   temperatureName,Extruder 1,Bed
;   temperatureNumber,0,0
;   temperatureSetpointCount,1,1
;   temperatureSetpointLayers,1,1
;   temperatureSetpointTemperatures,217,55
;   temperatureStabilizeAtStartup,1,1
;   temperatureHeatedBed,0,1
;   fanLayers,1,2,5
;   fanSpeeds,0,15,50
;   blipFanToFullPower,1
;   adjustSpeedForCooling,1
;   minSpeedLayerTime,15
;   minCoolingSpeedSlowdown,20
;   increaseFanForCooling,1
;   minFanLayerTime,45
;   maxCoolingFanSpeed,40
;   increaseFanForBridging,1
;   bridgingFanSpeed,80
;   use5D,1
;   relativeEdistances,0
;   allowEaxisZeroing,1
;   independentExtruderAxes,0
;   includeM10123,0
;   stickySupport,1
;   applyToolheadOffsets,0
;   gcodeXoffset,0
;   gcodeYoffset,0
;   gcodeZoffset,0
;   overrideMachineDefinition,1
;   machineTypeOverride,0
;   strokeXoverride,220
;   strokeYoverride,220
;   strokeZoverride,150
;   originOffsetXoverride,0
;   originOffsetYoverride,0
;   originOffsetZoverride,0
;   homeXdirOverride,-1
;   homeYdirOverride,-1
;   homeZdirOverride,-1
;   flipXoverride,1
;   flipYoverride,-1
;   flipZoverride,1
;   toolheadOffsets,0,0|0,0|0,0|0,0|0,0|0,0
;   overrideFirmwareConfiguration,0
;   firmwareTypeOverride,RepRap (Marlin/Repetier/Sprinter)
;   GPXconfigOverride,r2
;   baudRateOverride,115200
;   overridePrinterModels,0
;   printerModelsOverride
;   startingGcode,G28 ; home all axes,G32 ; run bed.g -- probe bed and enable compensation
;   layerChangeGcode,
;   retractionGcode,
;   toolChangeGcode,
;   endingGcode,M0 ; call stop.g
;   exportFileFormat,gcode
;   celebration,0
;   celebrationSong,Random Song
;   postProcessing,|; 0.2mm layer, 8 bands 5mm each, total height 40mm|{REPLACE "; layer 25" "M572 D0 S0.69\n; layer 10"}|{REPLACE "; layer 50" "M572 D0 S0.70\n; layer 50"}|{REPLACE "; layer 75" "M572 D0 S0.71\n; layer 75"}|{REPLACE "; layer 100" "M572 D0 S0.72\n; layer 100"}|{REPLACE "; layer 125" "M572 D0 S0.73\n; layer 125"}|{REPLACE "; layer 150" "M572 D0 S0.74\n; layer 150"}|{REPLACE "; layer 175" "M572 D0 S0.75\n; layer 175"}|{REPLACE "; layer 200" "M572 D0 S0.76\n; layer 200"}
;   defaultSpeed,6600
;   outlineUnderspeed,0.8
;   solidInfillUnderspeed,0.75
;   supportUnderspeed,0.8
;   rapidXYspeed,18000
;   rapidZspeed,1200
;   minBridgingArea,50
;   bridgingExtraInflation,0
;   bridgingExtrusionMultiplier,0.96
;   bridgingSpeedMultiplier,1
;   useFixedBridgingAngle,0
;   fixedBridgingAngle,0
;   applyBridgingToPerimeters,0
;   filamentDiameters,1.75|1.75|1.75|1.75|1.75|1.75
;   filamentPricesPerKg,25|46|46|46|46|46
;   filamentDensities,1.29|1.25|1.25|1.25|1.25|1.25
;   useMinPrintHeight,0
;   minPrintHeight,0.3
;   useMaxPrintHeight,0
;   maxPrintHeight,5
;   useDiaphragm,0
;   diaphragmLayerInterval,20
;   robustSlicing,1
;   mergeAllIntoSolid,0
;   onlyRetractWhenCrossingOutline,1
;   retractBetweenLayers,0
;   useRetractionMinTravel,1
;   retractionMinTravel,5
;   retractWhileWiping,1
;   onlyWipeOutlines,1
;   avoidCrossingOutline,1
;   maxMovementDetourFactor,2
;   toolChangeRetractionDistance,12
;   toolChangeExtraRestartDistance,0
;   toolChangeRetractionSpeed,600
;   externalThinWallType,0
;   internalThinWallType,1
;   thinWallAllowedOverlapPercentage,10
;   singleExtrusionMinLength,0.1
;   singleExtrusionMinPrintingWidthPercentage,50
;   singleExtrusionMaxPrintingWidthPercentage,200
;   singleExtrusionEndpointExtension,0.2
;   horizontalSizeCompensation,-0.1
G90
M82
M106 S0
M140 S55
M190 S55
G10 S217 R{217-50} P0
M116 P0
G28 ; home all axes
G32 ; run bed.g -- probe bed and enable compensation
; process Process1
; layer 1, Z = 0.200
T0
G92 E0.0000
G1 E-2.0000 F4800
; feature skirt
; tool H0.200 W0.720
G1 Z0.200 F1200
G1 X60.608 Y54.909 F18000
G1 E0.0000 F4800
G92 E0.0000
G1 X60.895 Y54.607 E0.0275 F1650
G1 X61.631 Y53.907 E0.0944
G1 X61.948 Y53.635 E0.1219
G1 X62.751 Y53.014 E0.1887
G1 X63.094 Y52.775 E0.2162
G1 X63.955 Y52.238 E0.2831
G1 X64.320 Y52.035 E0.3106
G1 X65.232 Y51.588 E0.3775
G1 X65.616 Y51.424 E0.4050
G1 X66.568 Y51.071 E0.4718
G1 X66.966 Y50.946 E0.4993
G1 X67.999 Y50.679 E0.5696
G1 X68.511 Y50.580 E0.6039
G1 X69.916 Y50.401 E0.6972
G1 X70.438 Y50.368 E0.7316
G1 X149.101 Y50.360 E5.9120
G1 X149.310 Y50.365 E5.9258
G1 X150.223 Y50.412 E5.9859
G1 X150.638 Y50.454 E6.0134
G1 X151.642 Y50.608 E6.0803
G1 X152.051 Y50.692 E6.1078
G1 X153.034 Y50.946 E6.1747
G1 X153.432 Y51.071 E6.2022
G1 X154.435 Y51.442 E6.2726
G1 X154.913 Y51.655 E6.3070
G1 X156.168 Y52.311 E6.4003
G1 X156.614 Y52.581 E6.4346
G1 X157.491 Y53.192 E6.5050
G1 X157.821 Y53.447 E6.5325
G1 X158.590 Y54.107 E6.5992
G1 X158.892 Y54.394 E6.6267
G1 X159.593 Y55.131 E6.6936
G1 X159.865 Y55.448 E6.7212
G1 X160.486 Y56.251 E6.7880
G1 X160.725 Y56.594 E6.8155
G1 X161.262 Y57.455 E6.8824
G1 X161.464 Y57.820 E6.9099
G1 X161.889 Y58.686 E6.9734
G1 X162.016 Y58.972 E6.9940
G1 X162.262 Y59.586 E7.0375
G1 X162.396 Y59.981 E7.0650
G1 X162.787 Y61.344 E7.1584
G1 X162.913 Y61.957 E7.1996
G1 X163.099 Y63.416 E7.2965
G1 X163.132 Y63.937 E7.3308
G1 X163.140 Y101.601 E9.8112
G1 X163.135 Y101.810 E9.8250
G1 X163.088 Y102.723 E9.8851
G1 X163.046 Y103.138 E9.9126
G1 X162.892 Y104.142 E9.9795
G1 X162.808 Y104.551 E10.0070
G1 X162.554 Y105.534 E10.0739
G1 X162.429 Y105.932 E10.1014
G1 X162.058 Y106.935 E10.1718
G1 X161.845 Y107.413 E10.2062
G1 X161.189 Y108.668 E10.2995
G1 X160.919 Y109.114 E10.3339
G1 X160.297 Y110.007 E10.4055
G1 X160.486 Y110.251 E10.4258
G1 X160.725 Y110.594 E10.4533
G1 X161.262 Y111.455 E10.5202
G1 X161.464 Y111.820 E10.5477
G1 X161.889 Y112.686 E10.6112
G1 X162.016 Y112.972 E10.6318
G1 X162.262 Y113.586 E10.6753
G1 X162.396 Y113.981 E10.7028
G1 X162.787 Y115.344 E10.7962
G1 X162.913 Y115.957 E10.8374
G1 X163.099 Y117.416 E10.9343
G1 X163.132 Y117.937 E10.9686
G1 X163.140 Y155.601 E13.4490
G1 X163.135 Y155.810 E13.4628
G1 X163.088 Y156.723 E13.5229
G1 X163.046 Y157.138 E13.5504
G1 X162.892 Y158.142 E13.6173
G1 X162.808 Y158.551 E13.6448
G1 X162.554 Y159.534 E13.7117
G1 X162.429 Y159.932 E13.7392
G1 X162.058 Y160.935 E13.8096
G1 X161.845 Y161.412 E13.8440
G1 X161.189 Y162.668 E13.9373
G1 X160.919 Y163.114 E13.9717
G1 X160.280 Y164.033 E14.0454
G1 X159.955 Y164.441 E14.0797
G1 X159.006 Y165.492 E14.1730
G1 X158.632 Y165.857 E14.2074
G1 X157.819 Y166.554 E14.2779
G1 X157.489 Y166.810 E14.3054
G1 X156.658 Y167.389 E14.3721
G1 X156.303 Y167.610 E14.3996
G1 X155.367 Y168.129 E14.4701
G1 X154.895 Y168.353 E14.5045
G1 X153.579 Y168.879 E14.5978
G1 X153.084 Y169.041 E14.6322
G1 X151.999 Y169.322 E14.7060
G1 X151.485 Y169.421 E14.7404
G1 X150.080 Y169.599 E14.8337
G1 X149.560 Y169.632 E14.8680
G1 X70.899 Y169.640 E20.0483
G1 X70.690 Y169.635 E20.0620
G1 X69.777 Y169.588 E20.1222
G1 X69.362 Y169.546 E20.1497
G1 X68.358 Y169.392 E20.2166
G1 X67.949 Y169.308 E20.2441
G1 X66.966 Y169.054 E20.3109
G1 X66.568 Y168.929 E20.3384
G1 X65.565 Y168.558 E20.4088
G1 X65.087 Y168.345 E20.4433
G1 X63.832 Y167.689 E20.5366
G1 X63.386 Y167.419 E20.5709
G1 X62.467 Y166.780 E20.6446
G1 X62.059 Y166.455 E20.6789
G1 X61.008 Y165.506 E20.7722
G1 X60.643 Y165.132 E20.8067
G1 X59.946 Y164.320 E20.8771
G1 X59.691 Y163.990 E20.9046
G1 X59.111 Y163.157 E20.9714
G1 X58.890 Y162.802 E20.9990
G1 X58.396 Y161.913 E21.0659
G1 X58.213 Y161.539 E21.0934
G1 X57.813 Y160.608 E21.1601
G1 X57.668 Y160.216 E21.1876
G1 X57.348 Y159.197 E21.2580
G1 X57.224 Y158.691 E21.2923
G1 X56.974 Y157.296 E21.3856
G1 X56.914 Y156.776 E21.4200
G1 X56.865 Y155.810 E21.4837
G1 X56.860 Y155.602 E21.4975
G1 X56.860 Y118.390 E23.9481
G1 X56.866 Y118.180 E23.9619
G1 X56.912 Y117.275 E24.0215
G1 X56.954 Y116.861 E24.0490
G1 X57.108 Y115.858 E24.1158
G1 X57.192 Y115.449 E24.1433
G1 X57.446 Y114.466 E24.2101
G1 X57.571 Y114.068 E24.2376
G1 X57.942 Y113.065 E24.3080
G1 X58.155 Y112.587 E24.3425
G1 X58.811 Y111.332 E24.4358
G1 X59.081 Y110.886 E24.4701
G1 X59.691 Y110.010 E24.5404
G1 X59.698 Y110.000 E24.5412
G1 X59.691 Y109.990 E24.5421
G1 X59.111 Y109.157 E24.6089
G1 X58.890 Y108.802 E24.6364
G1 X58.396 Y107.913 E24.7034
G1 X58.213 Y107.539 E24.7309
G1 X57.793 Y106.561 E24.8010
G1 X57.618 Y106.069 E24.8353
G1 X57.227 Y104.706 E24.9287
G1 X57.116 Y104.195 E24.9631
G1 X56.954 Y103.138 E25.0335
G1 X56.912 Y102.723 E25.0610
G1 X56.865 Y101.811 E25.1212
G1 X56.860 Y101.602 E25.1349
G1 X56.860 Y64.390 E27.5855
G1 X56.866 Y64.180 E27.5994
G1 X56.912 Y63.275 E27.6590
G1 X56.954 Y62.861 E27.6864
G1 X57.108 Y61.858 E27.7533
G1 X57.192 Y61.449 E27.7808
G1 X57.446 Y60.466 E27.8476
G1 X57.571 Y60.068 E27.8751
G1 X57.942 Y59.065 E27.9455
G1 X58.155 Y58.587 E27.9800
G1 X58.811 Y57.332 E28.0733
G1 X59.081 Y56.886 E28.1076
G1 X59.691 Y56.010 E28.1779
G1 X59.946 Y55.680 E28.2054
G1 X60.608 Y54.909 E28.2722
G1 X61.142 Y55.392 F18000
G92 E0.0000
G1 X61.405 Y55.116 E0.0251 F1650
G1 X62.114 Y54.442 E0.0896
G1 X62.403 Y54.193 E0.1147
G1 X63.177 Y53.594 E0.1791
G1 X63.490 Y53.377 E0.2042
G1 X64.321 Y52.859 E0.2687
G1 X64.654 Y52.674 E0.2938
G1 X65.533 Y52.243 E0.3582
G1 X65.883 Y52.093 E0.3833
G1 X66.801 Y51.753 E0.4478
G1 X67.164 Y51.639 E0.4729
G1 X68.158 Y51.381 E0.5404
G1 X68.625 Y51.291 E0.5718
G1 X69.985 Y51.118 E0.6621
G1 X70.461 Y51.088 E0.6935
G1 X149.092 Y51.080 E5.8718
G1 X149.283 Y51.085 E5.8843
G1 X150.168 Y51.130 E5.9427
G1 X150.547 Y51.168 E5.9678
G1 X151.515 Y51.316 E6.0322
G1 X151.888 Y51.393 E6.0573
G1 X152.836 Y51.639 E6.1218
G1 X153.199 Y51.753 E6.1469
G1 X154.163 Y52.110 E6.2146
G1 X154.599 Y52.303 E6.2460
G1 X155.815 Y52.938 E6.3363
G1 X156.222 Y53.185 E6.3677
G1 X157.065 Y53.772 E6.4353
G1 X157.366 Y54.005 E6.4604
G1 X158.107 Y54.641 E6.5247
G1 X158.383 Y54.904 E6.5498
G1 X159.058 Y55.614 E6.6143
G1 X159.307 Y55.903 E6.6394
G1 X159.906 Y56.677 E6.7039
G1 X160.123 Y56.990 E6.7290
G1 X160.641 Y57.821 E6.7934
G1 X160.826 Y58.154 E6.8185
G1 X161.237 Y58.991 E6.8800
G1 X161.353 Y59.252 E6.8988
G1 X161.586 Y59.837 E6.9402
G1 X161.709 Y60.197 E6.9653
G1 X162.087 Y61.516 E7.0556
G1 X162.202 Y62.076 E7.0933
G1 X162.382 Y63.485 E7.1868
G1 X162.412 Y63.960 E7.2182
G1 X162.420 Y101.592 E9.6964
G1 X162.415 Y101.783 E9.7090
G1 X162.370 Y102.668 E9.7674
G1 X162.332 Y103.047 E9.7925
G1 X162.184 Y104.015 E9.8570
G1 X162.107 Y104.388 E9.8821
G1 X161.861 Y105.336 E9.9465
G1 X161.747 Y105.699 E9.9716
G1 X161.390 Y106.663 E10.0393
G1 X161.197 Y107.099 E10.0707
G1 X160.562 Y108.315 E10.1610
G1 X160.315 Y108.721 E10.1924
G1 X159.702 Y109.603 E10.2631
G1 X159.406 Y109.975 E10.2944
G1 X159.382 Y110.001 E10.2967
G1 X159.906 Y110.677 E10.3530
G1 X160.123 Y110.990 E10.3781
G1 X160.641 Y111.821 E10.4425
G1 X160.826 Y112.154 E10.4677
G1 X161.237 Y112.991 E10.5291
G1 X161.353 Y113.252 E10.5479
G1 X161.586 Y113.837 E10.5893
G1 X161.709 Y114.197 E10.6144
G1 X162.087 Y115.516 E10.7047
G1 X162.202 Y116.076 E10.7424
G1 X162.382 Y117.485 E10.8359
G1 X162.412 Y117.960 E10.8673
G1 X162.420 Y155.592 E13.3455
G1 X162.415 Y155.783 E13.3581
G1 X162.370 Y156.668 E13.4165
G1 X162.332 Y157.047 E13.4416
G1 X162.184 Y158.015 E13.5061
G1 X162.107 Y158.388 E13.5312
G1 X161.861 Y159.336 E13.5956
G1 X161.747 Y159.699 E13.6207
G1 X161.390 Y160.663 E13.6884
G1 X161.197 Y161.099 E13.7198
G1 X160.562 Y162.315 E13.8101
G1 X160.315 Y162.721 E13.8415
G1 X159.702 Y163.603 E13.9122
G1 X159.406 Y163.975 E13.9435
G1 X158.487 Y164.993 E14.0338
G1 X158.145 Y165.326 E14.0652
G1 X157.364 Y165.996 E14.1330
G1 X157.063 Y166.230 E14.1581
G1 X156.262 Y166.787 E14.2224
G1 X155.938 Y166.989 E14.2475
G1 X155.038 Y167.489 E14.3153
G1 X154.607 Y167.693 E14.3467
G1 X153.334 Y168.201 E14.4370
G1 X152.881 Y168.350 E14.4683
G1 X151.840 Y168.619 E14.5392
G1 X151.372 Y168.709 E14.5706
G1 X150.012 Y168.882 E14.6609
G1 X149.537 Y168.912 E14.6922
G1 X70.908 Y168.920 E19.8703
G1 X70.717 Y168.915 E19.8829
G1 X69.832 Y168.870 E19.9412
G1 X69.453 Y168.832 E19.9663
G1 X68.485 Y168.684 E20.0308
G1 X68.112 Y168.607 E20.0559
G1 X67.164 Y168.361 E20.1204
G1 X66.801 Y168.247 E20.1455
G1 X65.837 Y167.890 E20.2132
G1 X65.401 Y167.697 E20.2446
G1 X64.185 Y167.062 E20.3349
G1 X63.778 Y166.815 E20.3662
G1 X62.897 Y166.202 E20.4369
G1 X62.525 Y165.906 E20.4682
G1 X61.507 Y164.987 E20.5585
G1 X61.174 Y164.645 E20.5900
G1 X60.505 Y163.865 E20.6577
G1 X60.271 Y163.564 E20.6828
G1 X59.712 Y162.760 E20.7472
G1 X59.510 Y162.437 E20.7723
G1 X59.035 Y161.580 E20.8369
G1 X58.867 Y161.238 E20.8620
G1 X58.482 Y160.341 E20.9262
G1 X58.350 Y159.983 E20.9514
G1 X58.042 Y159.003 E21.0190
G1 X57.929 Y158.541 E21.0503
G1 X57.686 Y157.191 E21.1406
G1 X57.632 Y156.717 E21.1721
G1 X57.585 Y155.783 E21.2337
G1 X57.580 Y155.593 E21.2462
G1 X57.580 Y118.399 E23.6956
G1 X57.585 Y118.207 E23.7082
G1 X57.630 Y117.330 E23.7661
G1 X57.668 Y116.952 E23.7911
G1 X57.816 Y115.985 E23.8555
G1 X57.893 Y115.612 E23.8806
G1 X58.139 Y114.664 E23.9451
G1 X58.253 Y114.301 E23.9702
G1 X58.610 Y113.337 E24.0379
G1 X58.803 Y112.901 E24.0693
G1 X59.438 Y111.685 E24.1596
G1 X59.685 Y111.278 E24.1909
G1 X60.271 Y110.436 E24.2585
G1 X60.505 Y110.135 E24.2836
G1 X60.620 Y110.000 E24.2953
G1 X60.505 Y109.865 E24.3070
G1 X60.271 Y109.564 E24.3321
G1 X59.712 Y108.760 E24.3966
G1 X59.510 Y108.437 E24.4217
G1 X59.035 Y107.580 E24.4862
G1 X58.867 Y107.238 E24.5113
G1 X58.463 Y106.297 E24.5787
G1 X58.304 Y105.849 E24.6100
G1 X57.926 Y104.530 E24.7004
G1 X57.824 Y104.064 E24.7319
G1 X57.668 Y103.047 E24.7996
G1 X57.630 Y102.668 E24.8247
G1 X57.585 Y101.783 E24.8830
G1 X57.580 Y101.593 E24.8956
G1 X57.580 Y64.399 E27.3450
G1 X57.585 Y64.207 E27.3576
G1 X57.630 Y63.330 E27.4154
G1 X57.668 Y62.952 E27.4404
G1 X57.816 Y61.985 E27.5049
G1 X57.893 Y61.612 E27.5300
G1 X58.139 Y60.664 E27.5944
