; G-Code generated by Simplify3D(R) Version 4.1.2
; Jun 18, 2022 at 6:00:55 PM
; Settings Summary
;   processName,Process1
;   applyToModels,Seitenplatte R
;   profileName,HSBot (modified)
;   profileVersion,2019-11-09 11:59:44
;   baseProfile,Default
;   printMaterial,pla
;   printQuality,Medium
;   printExtruders,
;   extruderName,Extruder - v6,Extruder - lgx ace
;   extruderToolheadNumber,0,1
;   extruderDiameter,0.4,0.4
;   extruderAutoWidth,1,1
;   extruderWidth,0.48,0.48
;   extrusionMultiplier,1.03,1.03
;   extruderUseRetract,0,0
;   extruderRetractionDistance,4,1
;   extruderExtraRestartDistance,0,0
;   extruderRetractionZLift,0,0
;   extruderRetractionSpeed,3600,1800
;   extruderUseCoasting,0,0
;   extruderCoastingDistance,0.2,0.2
;   extruderUseWipe,0,0
;   extruderWipeDistance,1,5
;   primaryExtruder,1
;   layerHeight,0.2
;   topSolidLayers,3
;   bottomSolidLayers,3
;   perimeterOutlines,3
;   printPerimetersInsideOut,1
;   startPointOption,2
;   startPointOriginX,0
;   startPointOriginY,0
;   sequentialIslands,0
;   spiralVaseMode,0
;   firstLayerHeightPercentage,100
;   firstLayerWidthPercentage,150
;   firstLayerUnderspeed,0.25
;   useRaft,0
;   raftExtruder,0
;   raftTopLayers,3
;   raftBaseLayers,2
;   raftOffset,3
;   raftSeparationDistance,0.18
;   raftTopInfill,100
;   aboveRaftSpeedMultiplier,0.3
;   useSkirt,1
;   skirtExtruder,1
;   skirtLayers,1
;   skirtOutlines,10
;   skirtOffset,0
;   usePrimePillar,0
;   primePillarExtruder,999
;   primePillarWidth,12
;   primePillarLocation,7
;   primePillarSpeedMultiplier,1
;   useOozeShield,0
;   oozeShieldExtruder,999
;   oozeShieldOffset,2
;   oozeShieldOutlines,1
;   oozeShieldSidewallShape,1
;   oozeShieldSidewallAngle,30
;   oozeShieldSpeedMultiplier,1
;   infillExtruder,1
;   internalInfillPattern,Fast Honeycomb
;   externalInfillPattern,Rectilinear
;   infillPercentage,15
;   outlineOverlapPercentage,20
;   infillExtrusionWidthPercentage,100
;   minInfillLength,3
;   infillLayerInterval,1
;   internalInfillAngles,0
;   overlapInternalInfillAngles,0
;   externalInfillAngles,45,-45
;   generateSupport,0
;   supportExtruder,1
;   supportInfillPercentage,30
;   supportExtraInflation,0
;   supportBaseLayers,1
;   denseSupportExtruder,0
;   denseSupportLayers,0
;   denseSupportInfillPercentage,70
;   supportLayerInterval,1
;   supportHorizontalPartOffset,0.3
;   supportUpperSeparationLayers,1
;   supportLowerSeparationLayers,1
;   supportType,0
;   supportGridSpacing,2
;   maxOverhangAngle,45
;   supportAngles,0
;   temperatureName,v6,Bed,lgx-ace
;   temperatureNumber,0,0,1
;   temperatureSetpointCount,1,1,1
;   temperatureSetpointLayers,1,1,1
;   temperatureSetpointTemperatures,0,55,217
;   temperatureStabilizeAtStartup,1,1,1
;   temperatureHeatedBed,0,1,0
;   fanLayers,1,2,5
;   fanSpeeds,0,0,0
;   blipFanToFullPower,0
;   adjustSpeedForCooling,1
;   minSpeedLayerTime,15
;   minCoolingSpeedSlowdown,50
;   increaseFanForCooling,0
;   minFanLayerTime,45
;   maxCoolingFanSpeed,70
;   increaseFanForBridging,0
;   bridgingFanSpeed,80
;   use5D,1
;   relativeEdistances,0
;   allowEaxisZeroing,1
;   independentExtruderAxes,0
;   includeM10123,0
;   stickySupport,1
;   applyToolheadOffsets,0
;   gcodeXoffset,0
;   gcodeYoffset,0
;   gcodeZoffset,0
;   overrideMachineDefinition,1
;   machineTypeOverride,0
;   strokeXoverride,220
;   strokeYoverride,220
;   strokeZoverride,150
;   originOffsetXoverride,0
;   originOffsetYoverride,0
;   originOffsetZoverride,0
;   homeXdirOverride,-1
;   homeYdirOverride,-1
;   homeZdirOverride,-1
;   flipXoverride,1
;   flipYoverride,-1
;   flipZoverride,1
;   toolheadOffsets,0,0|0,0|0,0|0,0|0,0|0,0
;   overrideFirmwareConfiguration,0
;   firmwareTypeOverride,RepRap (Marlin/Repetier/Sprinter)
;   GPXconfigOverride,r2
;   baudRateOverride,115200
;   overridePrinterModels,0
;   printerModelsOverride
;   startingGcode,G28 ; home all axes,G32 ; run bed.g -- probe bed and enable compensation
;   layerChangeGcode,
;   retractionGcode,
;   toolChangeGcode,
;   endingGcode,M0 ; call stop.g
;   exportFileFormat,gcode
;   celebration,0
;   celebrationSong,Random Song
;   postProcessing,|; 0.2mm layer, 8 bands 5mm each, total height 40mm|{REPLACE "; layer 25" "M572 D0 S0.69\n; layer 10"}|{REPLACE "; layer 50" "M572 D0 S0.70\n; layer 50"}|{REPLACE "; layer 75" "M572 D0 S0.71\n; layer 75"}|{REPLACE "; layer 100" "M572 D0 S0.72\n; layer 100"}|{REPLACE "; layer 125" "M572 D0 S0.73\n; layer 125"}|{REPLACE "; layer 150" "M572 D0 S0.74\n; layer 150"}|{REPLACE "; layer 175" "M572 D0 S0.75\n; layer 175"}|{REPLACE "; layer 200" "M572 D0 S0.76\n; layer 200"}
;   defaultSpeed,3600
;   outlineUnderspeed,0.8
;   solidInfillUnderspeed,0.75
;   supportUnderspeed,0.8
;   rapidXYspeed,18000
;   rapidZspeed,1200
;   minBridgingArea,50
;   bridgingExtraInflation,0
;   bridgingExtrusionMultiplier,0.96
;   bridgingSpeedMultiplier,1
;   useFixedBridgingAngle,0
;   fixedBridgingAngle,0
;   applyBridgingToPerimeters,0
;   filamentDiameters,1.75|1.75|1.75|1.75|1.75|1.75
;   filamentPricesPerKg,25|46|46|46|46|46
;   filamentDensities,1.29|1.25|1.25|1.25|1.25|1.25
;   useMinPrintHeight,0
;   minPrintHeight,0.3
;   useMaxPrintHeight,0
;   maxPrintHeight,5
;   useDiaphragm,1
;   diaphragmLayerInterval,20
;   robustSlicing,1
;   mergeAllIntoSolid,0
;   onlyRetractWhenCrossingOutline,1
;   retractBetweenLayers,0
;   useRetractionMinTravel,1
;   retractionMinTravel,5
;   retractWhileWiping,1
;   onlyWipeOutlines,1
;   avoidCrossingOutline,1
;   maxMovementDetourFactor,2
;   toolChangeRetractionDistance,12
;   toolChangeExtraRestartDistance,0
;   toolChangeRetractionSpeed,600
;   externalThinWallType,0
;   internalThinWallType,1
;   thinWallAllowedOverlapPercentage,10
;   singleExtrusionMinLength,0.1
;   singleExtrusionMinPrintingWidthPercentage,50
;   singleExtrusionMaxPrintingWidthPercentage,200
;   singleExtrusionEndpointExtension,0.2
;   horizontalSizeCompensation,-0.1
G90
M82
M106 S0
M140 S55
M190 S55
G10 S0 R{0-50} P0
G10 S217 R{217-50} P1
M116 P1
G28 ; home all axes
G32 ; run bed.g -- probe bed and enable compensation
; process Process1
; layer 1, Z = 0.200
T1
; feature skirt
; tool H0.200 W0.720
G1 Z0.200 F1200
G1 X61.943 Y81.453 F18000
G92 E0.0000
G1 X63.025 Y80.640 E0.0835 F900
G1 X63.431 Y80.377 E0.1133
G1 X64.297 Y79.899 E0.1743
G1 X64.640 Y79.734 E0.1978
G1 X65.492 Y79.382 E0.2546
G1 X65.853 Y79.256 E0.2782
G1 X66.751 Y78.997 E0.3358
G1 X67.125 Y78.912 E0.3595
G1 X68.045 Y78.755 E0.4170
G1 X68.427 Y78.712 E0.4407
G1 X69.266 Y78.665 E0.4926
G1 X69.458 Y78.660 E0.5044
G1 X150.593 Y78.660 E5.5075
G1 X150.881 Y78.672 E5.5253
G1 X152.085 Y78.774 E5.5998
G1 X152.559 Y78.847 E5.6294
G1 X153.516 Y79.066 E5.6899
G1 X153.885 Y79.172 E5.7136
G1 X154.765 Y79.480 E5.7711
G1 X155.119 Y79.627 E5.7947
G1 X155.961 Y80.032 E5.8524
G1 X156.297 Y80.218 E5.8760
G1 X157.126 Y80.739 E5.9364
G1 X157.513 Y81.022 E5.9660
G1 X158.509 Y81.862 E6.0463
G1 X158.853 Y82.197 E6.0759
G1 X159.509 Y82.930 E6.1366
G1 X159.748 Y83.231 E6.1603
G1 X160.289 Y83.992 E6.2178
G1 X160.493 Y84.317 E6.2415
G1 X160.967 Y85.175 E6.3019
G1 X161.169 Y85.609 E6.3315
G1 X161.633 Y86.826 E6.4118
G1 X161.773 Y87.286 E6.4414
G1 X161.992 Y88.245 E6.5021
G1 X162.056 Y88.623 E6.5258
G1 X162.161 Y89.551 E6.5833
G1 X162.182 Y89.934 E6.6070
G1 X162.182 Y130.066 E9.0817
G1 X162.161 Y130.450 E9.1054
G1 X162.056 Y131.376 E9.1629
G1 X161.992 Y131.755 E9.1866
G1 X161.784 Y132.667 E9.2443
G1 X161.678 Y133.035 E9.2679
G1 X161.369 Y133.916 E9.3254
G1 X161.222 Y134.270 E9.3491
G1 X160.818 Y135.110 E9.4066
G1 X160.633 Y135.446 E9.4302
G1 X160.136 Y136.237 E9.4878
G1 X159.914 Y136.550 E9.5115
G1 X159.331 Y137.281 E9.5691
G1 X159.075 Y137.567 E9.5928
G1 X158.380 Y138.261 E9.6534
G1 X158.017 Y138.577 E9.6830
G1 X156.976 Y139.360 E9.7634
G1 X156.574 Y139.620 E9.7929
G1 X155.718 Y140.093 E9.8532
G1 X155.372 Y140.260 E9.8769
G1 X154.462 Y140.637 E9.9376
G1 X154.006 Y140.789 E9.9672
G1 X152.700 Y141.126 E10.0504
G1 X152.133 Y141.222 E10.0859
G1 X150.881 Y141.328 E10.1634
G1 X150.593 Y141.340 E10.1811
G1 X69.407 Y141.340 E15.1875
G1 X69.119 Y141.328 E15.2052
G1 X67.915 Y141.226 E15.2797
G1 X67.441 Y141.152 E15.3093
G1 X66.484 Y140.934 E15.3698
G1 X66.116 Y140.828 E15.3935
G1 X65.235 Y140.520 E15.4510
G1 X64.880 Y140.373 E15.4747
G1 X64.039 Y139.968 E15.5323
G1 X63.703 Y139.782 E15.5559
G1 X62.873 Y139.260 E15.6164
G1 X62.486 Y138.978 E15.6459
G1 X61.491 Y138.138 E15.7262
G1 X61.146 Y137.803 E15.7558
G1 X60.492 Y137.070 E15.8164
G1 X60.252 Y136.770 E15.8401
G1 X59.711 Y136.008 E15.8978
G1 X59.507 Y135.683 E15.9214
G1 X59.033 Y134.825 E15.9819
G1 X58.831 Y134.390 E16.0114
G1 X58.367 Y133.174 E16.0917
G1 X58.227 Y132.714 E16.1213
G1 X58.009 Y131.758 E16.1818
G1 X57.944 Y131.380 E16.2055
G1 X57.839 Y130.450 E16.2632
G1 X57.818 Y130.067 E16.2868
G1 X57.810 Y90.309 E18.7385
G1 X57.815 Y90.116 E18.7504
G1 X57.865 Y89.228 E18.8052
G1 X57.926 Y88.751 E18.8349
G1 X58.190 Y87.423 E18.9184
G1 X58.350 Y86.870 E18.9539
G1 X58.831 Y85.610 E19.0371
G1 X59.033 Y85.175 E19.0666
G1 X59.507 Y84.317 E19.1271
G1 X59.711 Y83.992 E19.1507
G1 X60.280 Y83.190 E19.2113
G1 X60.584 Y82.820 E19.2409
G1 X61.513 Y81.838 E19.3242
G1 X61.943 Y81.453 E19.3598
G1 X62.400 Y82.011 F18000
G92 E0.0000
G1 X63.437 Y81.230 E0.0800 F900
G1 X63.801 Y80.995 E0.1067
G1 X64.627 Y80.540 E0.1649
G1 X64.934 Y80.392 E0.1859
G1 X65.749 Y80.055 E0.2403
G1 X66.072 Y79.942 E0.2614
G1 X66.931 Y79.695 E0.3165
G1 X67.265 Y79.618 E0.3377
G1 X68.146 Y79.469 E0.3927
G1 X68.487 Y79.430 E0.4139
G1 X69.296 Y79.385 E0.4639
G1 X69.468 Y79.380 E0.4745
G1 X150.578 Y79.380 E5.4761
G1 X150.835 Y79.391 E5.4920
G1 X151.999 Y79.489 E5.5640
G1 X152.423 Y79.555 E5.5905
G1 X153.336 Y79.763 E5.6482
G1 X153.666 Y79.859 E5.6694
G1 X154.508 Y80.153 E5.7244
G1 X154.825 Y80.284 E5.7456
G1 X155.631 Y80.672 E5.8007
G1 X155.931 Y80.839 E5.8219
G1 X156.722 Y81.336 E5.8795
G1 X157.068 Y81.588 E5.9059
G1 X158.025 Y82.396 E5.9831
G1 X158.333 Y82.695 E6.0096
G1 X158.959 Y83.395 E6.0675
G1 X159.173 Y83.664 E6.0886
G1 X159.690 Y84.392 E6.1437
G1 X159.872 Y84.683 E6.1649
G1 X160.325 Y85.501 E6.2225
G1 X160.505 Y85.890 E6.2490
G1 X160.952 Y87.059 E6.3262
G1 X161.077 Y87.471 E6.3527
G1 X161.286 Y88.385 E6.4105
G1 X161.343 Y88.724 E6.4317
G1 X161.443 Y89.611 E6.4868
G1 X161.462 Y89.954 E6.5079
G1 X161.462 Y130.046 E8.9802
G1 X161.443 Y130.389 E9.0014
G1 X161.343 Y131.276 E9.0564
G1 X161.286 Y131.614 E9.0776
G1 X161.086 Y132.487 E9.1328
G1 X160.991 Y132.817 E9.1539
G1 X160.697 Y133.659 E9.2090
G1 X160.565 Y133.976 E9.2301
G1 X160.178 Y134.779 E9.2851
G1 X160.012 Y135.080 E9.3063
G1 X159.537 Y135.836 E9.3614
G1 X159.338 Y136.117 E9.3826
G1 X158.781 Y136.816 E9.4377
G1 X158.552 Y137.072 E9.4589
G1 X157.889 Y137.734 E9.5167
G1 X157.564 Y138.016 E9.5432
G1 X156.564 Y138.769 E9.6204
G1 X156.204 Y139.002 E9.6468
G1 X155.387 Y139.453 E9.7044
G1 X155.078 Y139.602 E9.7255
G1 X154.210 Y139.962 E9.7834
G1 X153.802 Y140.098 E9.8100
G1 X152.550 Y140.421 E9.8897
G1 X152.042 Y140.507 E9.9215
G1 X150.835 Y140.609 E9.9962
G1 X150.578 Y140.620 E10.0120
G1 X69.422 Y140.620 E15.0165
G1 X69.164 Y140.609 E15.0324
G1 X68.001 Y140.511 E15.1044
G1 X67.576 Y140.445 E15.1309
G1 X66.664 Y140.237 E15.1886
G1 X66.334 Y140.142 E15.2097
G1 X65.492 Y139.847 E15.2648
G1 X65.175 Y139.715 E15.2859
G1 X64.369 Y139.328 E15.3411
G1 X64.069 Y139.162 E15.3622
G1 X63.277 Y138.664 E15.4199
G1 X62.931 Y138.411 E15.4463
G1 X61.975 Y137.604 E15.5235
G1 X61.666 Y137.304 E15.5500
G1 X61.042 Y136.605 E15.6078
G1 X60.827 Y136.337 E15.6290
G1 X60.310 Y135.608 E15.6841
G1 X60.128 Y135.317 E15.7053
G1 X59.675 Y134.499 E15.7629
G1 X59.495 Y134.110 E15.7894
G1 X59.048 Y132.941 E15.8665
G1 X58.923 Y132.530 E15.8931
G1 X58.715 Y131.617 E15.9507
G1 X58.657 Y131.279 E15.9719
G1 X58.557 Y130.389 E16.0271
G1 X58.538 Y130.047 E16.0483
G1 X58.530 Y90.319 E18.4981
G1 X58.535 Y90.147 E18.5087
G1 X58.583 Y89.293 E18.5614
G1 X58.637 Y88.866 E18.5879
G1 X58.890 Y87.594 E18.6680
G1 X59.033 Y87.099 E18.6997
G1 X59.495 Y85.890 E18.7795
G1 X59.675 Y85.501 E18.8059
G1 X60.128 Y84.683 E18.8636
G1 X60.310 Y84.392 E18.8848
G1 X60.853 Y83.628 E18.9426
G1 X61.125 Y83.296 E18.9690
G1 X62.015 Y82.354 E19.0489
G1 X62.400 Y82.011 E19.0808
G1 X62.857 Y82.568 F18000
G92 E0.0000
G1 X63.849 Y81.821 E0.0766 F900
G1 X64.170 Y81.614 E0.1001
G1 X64.957 Y81.180 E0.1555
G1 X65.228 Y81.050 E0.1741
G1 X66.006 Y80.728 E0.2260
G1 X66.291 Y80.628 E0.2446
G1 X67.111 Y80.392 E0.2972
G1 X67.406 Y80.325 E0.3159
G1 X68.246 Y80.182 E0.3685
G1 X68.548 Y80.148 E0.3872
G1 X69.326 Y80.104 E0.4353
G1 X69.478 Y80.100 E0.4446
G1 X150.563 Y80.100 E5.4446
G1 X150.790 Y80.110 E5.4586
G1 X151.913 Y80.204 E5.5282
G1 X152.288 Y80.263 E5.5515
G1 X153.156 Y80.461 E5.6065
G1 X153.447 Y80.545 E5.6252
G1 X154.251 Y80.826 E5.6777
G1 X154.531 Y80.942 E5.6964
G1 X155.300 Y81.312 E5.7490
G1 X155.565 Y81.459 E5.7677
G1 X156.318 Y81.932 E5.8225
G1 X156.623 Y82.155 E5.8458
G1 X157.541 Y82.930 E5.9199
G1 X157.813 Y83.194 E5.9433
G1 X158.408 Y83.860 E5.9983
G1 X158.597 Y84.097 E6.0170
G1 X159.091 Y84.792 E6.0696
G1 X159.252 Y85.049 E6.0883
G1 X159.682 Y85.827 E6.1431
G1 X159.842 Y86.170 E6.1665
G1 X160.270 Y87.292 E6.2405
G1 X160.380 Y87.655 E6.2639
G1 X160.579 Y88.526 E6.3190
G1 X160.630 Y88.825 E6.3377
G1 X160.725 Y89.672 E6.3902
G1 X160.742 Y89.974 E6.4089
G1 X160.742 Y130.026 E8.8787
G1 X160.725 Y130.328 E8.8973
G1 X160.630 Y131.175 E8.9499
G1 X160.579 Y131.474 E8.9686
G1 X160.389 Y132.307 E9.0213
G1 X160.305 Y132.598 E9.0399
G1 X160.024 Y133.402 E9.0925
G1 X159.908 Y133.682 E9.1112
G1 X159.538 Y134.449 E9.1637
G1 X159.392 Y134.714 E9.1824
G1 X158.938 Y135.436 E9.2349
G1 X158.763 Y135.684 E9.2536
G1 X158.230 Y136.351 E9.3063
G1 X158.028 Y136.577 E9.3250
G1 X157.398 Y137.207 E9.3799
G1 X157.111 Y137.456 E9.4033
G1 X156.151 Y138.178 E9.4774
G1 X155.834 Y138.384 E9.5008
G1 X155.057 Y138.813 E9.5555
G1 X154.784 Y138.945 E9.5742
G1 X153.958 Y139.287 E9.6293
G1 X153.598 Y139.407 E9.6527
G1 X152.399 Y139.716 E9.7290
G1 X151.952 Y139.792 E9.7570
G1 X150.790 Y139.890 E9.8289
G1 X150.563 Y139.900 E9.8429
G1 X69.437 Y139.900 E14.8455
G1 X69.210 Y139.890 E14.8595
G1 X68.086 Y139.796 E14.9291
G1 X67.712 Y139.737 E14.9524
G1 X66.844 Y139.539 E15.0073
G1 X66.553 Y139.455 E15.0260
G1 X65.749 Y139.174 E15.0785
G1 X65.469 Y139.058 E15.0972
G1 X64.700 Y138.688 E15.1498
G1 X64.435 Y138.541 E15.1685
G1 X63.681 Y138.068 E15.2234
G1 X63.376 Y137.845 E15.2467
G1 X62.459 Y137.070 E15.3207
G1 X62.186 Y136.806 E15.3441
G1 X61.592 Y136.141 E15.3991
G1 X61.403 Y135.904 E15.4178
G1 X60.909 Y135.208 E15.4705
G1 X60.748 Y134.951 E15.4891
G1 X60.318 Y134.173 E15.5440
G1 X60.158 Y133.829 E15.5673
G1 X59.730 Y132.708 E15.6414
G1 X59.620 Y132.345 E15.6648
G1 X59.421 Y131.477 E15.7197
G1 X59.370 Y131.178 E15.7384
G1 X59.275 Y130.329 E15.7911
G1 X59.258 Y130.027 E15.8097
G1 X59.250 Y90.329 E18.2577
G1 X59.254 Y90.177 E18.2670
G1 X59.300 Y89.359 E18.3176
G1 X59.348 Y88.982 E18.3410
G1 X59.590 Y87.764 E18.4175
G1 X59.716 Y87.327 E18.4456
G1 X60.158 Y86.171 E18.5219
G1 X60.318 Y85.827 E18.5453
G1 X60.748 Y85.049 E18.6001
G1 X60.909 Y84.792 E18.6188
G1 X61.425 Y84.065 E18.6738
G1 X61.665 Y83.773 E18.6971
G1 X62.517 Y82.871 E18.7736
G1 X62.857 Y82.568 E18.8017
G1 X63.314 Y83.125 F18000
G92 E0.0000
G1 X64.262 Y82.412 E0.0731 F900
G1 X64.540 Y82.232 E0.0936
G1 X65.287 Y81.820 E0.1462
G1 X65.522 Y81.707 E0.1622
G1 X66.263 Y81.401 E0.2117
G1 X66.510 Y81.314 E0.2278
G1 X67.291 Y81.089 E0.2779
G1 X67.546 Y81.031 E0.2941
G1 X68.347 Y80.895 E0.3442
G1 X68.608 Y80.866 E0.3604
G1 X69.357 Y80.824 E0.4066
G1 X69.488 Y80.820 E0.4147
G1 X150.547 Y80.820 E5.4132
G1 X150.744 Y80.828 E5.4253
G1 X151.828 Y80.920 E5.4924
G1 X152.152 Y80.970 E5.5126
G1 X152.976 Y81.158 E5.5647
G1 X153.229 Y81.231 E5.5809
G1 X153.994 Y81.499 E5.6310
G1 X154.237 Y81.599 E5.6472
G1 X154.969 Y81.952 E5.6973
G1 X155.199 Y82.079 E5.7135
G1 X155.914 Y82.528 E5.7655
G1 X156.178 Y82.721 E5.7857
G1 X157.058 Y83.464 E5.8567
G1 X157.294 Y83.693 E5.8770
G1 X157.858 Y84.324 E5.9292
G1 X158.022 Y84.530 E5.9454
