; G-Code generated by Simplify3D(R) Version 4.1.2
; Jun 18, 2022 at 6:00:27 PM
; Settings Summary
;   processName,Process1
;   applyToModels,Seitenplatte L
;   profileName,HSBot (modified)
;   profileVersion,2019-11-09 11:59:44
;   baseProfile,Default
;   printMaterial,pla
;   printQuality,Medium
;   printExtruders,
;   extruderName,Extruder - v6,Extruder - lgx ace
;   extruderToolheadNumber,0,1
;   extruderDiameter,0.4,0.4
;   extruderAutoWidth,1,1
;   extruderWidth,0.48,0.48
;   extrusionMultiplier,1.03,1.03
;   extruderUseRetract,0,0
;   extruderRetractionDistance,4,1
;   extruderExtraRestartDistance,0,0
;   extruderRetractionZLift,0,0
;   extruderRetractionSpeed,3600,1800
;   extruderUseCoasting,0,0
;   extruderCoastingDistance,0.2,0.2
;   extruderUseWipe,0,0
;   extruderWipeDistance,1,5
;   primaryExtruder,1
;   layerHeight,0.2
;   topSolidLayers,3
;   bottomSolidLayers,3
;   perimeterOutlines,3
;   printPerimetersInsideOut,1
;   startPointOption,2
;   startPointOriginX,0
;   startPointOriginY,0
;   sequentialIslands,0
;   spiralVaseMode,0
;   firstLayerHeightPercentage,100
;   firstLayerWidthPercentage,150
;   firstLayerUnderspeed,0.25
;   useRaft,0
;   raftExtruder,0
;   raftTopLayers,3
;   raftBaseLayers,2
;   raftOffset,3
;   raftSeparationDistance,0.18
;   raftTopInfill,100
;   aboveRaftSpeedMultiplier,0.3
;   useSkirt,1
;   skirtExtruder,1
;   skirtLayers,1
;   skirtOutlines,10
;   skirtOffset,0
;   usePrimePillar,0
;   primePillarExtruder,999
;   primePillarWidth,12
;   primePillarLocation,7
;   primePillarSpeedMultiplier,1
;   useOozeShield,0
;   oozeShieldExtruder,999
;   oozeShieldOffset,2
;   oozeShieldOutlines,1
;   oozeShieldSidewallShape,1
;   oozeShieldSidewallAngle,30
;   oozeShieldSpeedMultiplier,1
;   infillExtruder,1
;   internalInfillPattern,Fast Honeycomb
;   externalInfillPattern,Rectilinear
;   infillPercentage,15
;   outlineOverlapPercentage,20
;   infillExtrusionWidthPercentage,100
;   minInfillLength,3
;   infillLayerInterval,1
;   internalInfillAngles,0
;   overlapInternalInfillAngles,0
;   externalInfillAngles,45,-45
;   generateSupport,0
;   supportExtruder,1
;   supportInfillPercentage,30
;   supportExtraInflation,0
;   supportBaseLayers,1
;   denseSupportExtruder,0
;   denseSupportLayers,0
;   denseSupportInfillPercentage,70
;   supportLayerInterval,1
;   supportHorizontalPartOffset,0.3
;   supportUpperSeparationLayers,1
;   supportLowerSeparationLayers,1
;   supportType,0
;   supportGridSpacing,2
;   maxOverhangAngle,45
;   supportAngles,0
;   temperatureName,v6,Bed,lgx-ace
;   temperatureNumber,0,0,1
;   temperatureSetpointCount,1,1,1
;   temperatureSetpointLayers,1,1,1
;   temperatureSetpointTemperatures,0,55,217
;   temperatureStabilizeAtStartup,1,1,1
;   temperatureHeatedBed,0,1,0
;   fanLayers,1,2,5
;   fanSpeeds,0,0,0
;   blipFanToFullPower,0
;   adjustSpeedForCooling,1
;   minSpeedLayerTime,15
;   minCoolingSpeedSlowdown,50
;   increaseFanForCooling,0
;   minFanLayerTime,45
;   maxCoolingFanSpeed,70
;   increaseFanForBridging,0
;   bridgingFanSpeed,80
;   use5D,1
;   relativeEdistances,0
;   allowEaxisZeroing,1
;   independentExtruderAxes,0
;   includeM10123,0
;   stickySupport,1
;   applyToolheadOffsets,0
;   gcodeXoffset,0
;   gcodeYoffset,0
;   gcodeZoffset,0
;   overrideMachineDefinition,1
;   machineTypeOverride,0
;   strokeXoverride,220
;   strokeYoverride,220
;   strokeZoverride,150
;   originOffsetXoverride,0
;   originOffsetYoverride,0
;   originOffsetZoverride,0
;   homeXdirOverride,-1
;   homeYdirOverride,-1
;   homeZdirOverride,-1
;   flipXoverride,1
;   flipYoverride,-1
;   flipZoverride,1
;   toolheadOffsets,0,0|0,0|0,0|0,0|0,0|0,0
;   overrideFirmwareConfiguration,0
;   firmwareTypeOverride,RepRap (Marlin/Repetier/Sprinter)
;   GPXconfigOverride,r2
;   baudRateOverride,115200
;   overridePrinterModels,0
;   printerModelsOverride
;   startingGcode,G28 ; home all axes,G32 ; run bed.g -- probe bed and enable compensation
;   layerChangeGcode,
;   retractionGcode,
;   toolChangeGcode,
;   endingGcode,M0 ; call stop.g
;   exportFileFormat,gcode
;   celebration,0
;   celebrationSong,Random Song
;   postProcessing,|; 0.2mm layer, 8 bands 5mm each, total height 40mm|{REPLACE "; layer 25" "M572 D0 S0.69\n; layer 10"}|{REPLACE "; layer 50" "M572 D0 S0.70\n; layer 50"}|{REPLACE "; layer 75" "M572 D0 S0.71\n; layer 75"}|{REPLACE "; layer 100" "M572 D0 S0.72\n; layer 100"}|{REPLACE "; layer 125" "M572 D0 S0.73\n; layer 125"}|{REPLACE "; layer 150" "M572 D0 S0.74\n; layer 150"}|{REPLACE "; layer 175" "M572 D0 S0.75\n; layer 175"}|{REPLACE "; layer 200" "M572 D0 S0.76\n; layer 200"}
;   defaultSpeed,3600
;   outlineUnderspeed,0.8
;   solidInfillUnderspeed,0.75
;   supportUnderspeed,0.8
;   rapidXYspeed,18000
;   rapidZspeed,1200
;   minBridgingArea,50
;   bridgingExtraInflation,0
;   bridgingExtrusionMultiplier,0.96
;   bridgingSpeedMultiplier,1
;   useFixedBridgingAngle,0
;   fixedBridgingAngle,0
;   applyBridgingToPerimeters,0
;   filamentDiameters,1.75|1.75|1.75|1.75|1.75|1.75
;   filamentPricesPerKg,25|46|46|46|46|46
;   filamentDensities,1.29|1.25|1.25|1.25|1.25|1.25
;   useMinPrintHeight,0
;   minPrintHeight,0.3
;   useMaxPrintHeight,0
;   maxPrintHeight,5
;   useDiaphragm,1
;   diaphragmLayerInterval,20
;   robustSlicing,1
;   mergeAllIntoSolid,0
;   onlyRetractWhenCrossingOutline,1
;   retractBetweenLayers,0
;   useRetractionMinTravel,1
;   retractionMinTravel,5
;   retractWhileWiping,1
;   onlyWipeOutlines,1
;   avoidCrossingOutline,1
;   maxMovementDetourFactor,2
;   toolChangeRetractionDistance,12
;   toolChangeExtraRestartDistance,0
;   toolChangeRetractionSpeed,600
;   externalThinWallType,0
;   internalThinWallType,1
;   thinWallAllowedOverlapPercentage,10
;   singleExtrusionMinLength,0.1
;   singleExtrusionMinPrintingWidthPercentage,50
;   singleExtrusionMaxPrintingWidthPercentage,200
;   singleExtrusionEndpointExtension,0.2
;   horizontalSizeCompensation,-0.1
G90
M82
M106 S0
M140 S55
M190 S55
G10 S0 R{0-50} P0
G10 S217 R{217-50} P1
M116 P1
G28 ; home all axes
G32 ; run bed.g -- probe bed and enable compensation
; process Process1
; layer 1, Z = 0.200
T1
; feature skirt
; tool H0.200 W0.720
G1 Z0.200 F1200
G1 X62.486 Y81.022 F18000
G92 E0.0000
G1 X62.873 Y80.739 E0.0295 F900
G1 X63.663 Y80.243 E0.0871
G1 X63.913 Y80.100 E0.1048
G1 X64.453 Y79.821 E0.1423
G1 X64.802 Y79.665 E0.1659
G1 X65.976 Y79.216 E0.2434
G1 X66.436 Y79.077 E0.2730
G1 X67.393 Y78.858 E0.3336
G1 X67.772 Y78.794 E0.3572
G1 X68.700 Y78.689 E0.4149
G1 X69.083 Y78.668 E0.4385
G1 X150.541 Y78.660 E5.4616
G1 X150.733 Y78.665 E5.4734
G1 X151.573 Y78.712 E5.5253
G1 X151.955 Y78.755 E5.5490
G1 X152.875 Y78.912 E5.6065
G1 X153.249 Y78.997 E5.6302
G1 X154.147 Y79.256 E5.6878
G1 X154.510 Y79.383 E5.7115
G1 X155.371 Y79.739 E5.7690
G1 X155.717 Y79.906 E5.7926
G1 X156.533 Y80.357 E5.8501
G1 X156.858 Y80.561 E5.8738
G1 X157.620 Y81.102 E5.9314
G1 X157.920 Y81.341 E5.9551
G1 X158.615 Y81.962 E6.0126
G1 X158.886 Y82.233 E6.0362
G1 X159.510 Y82.931 E6.0939
G1 X159.749 Y83.231 E6.1176
G1 X160.288 Y83.992 E6.1751
G1 X160.493 Y84.317 E6.1988
G1 X160.967 Y85.175 E6.2592
G1 X161.169 Y85.609 E6.2888
G1 X161.633 Y86.826 E6.3690
G1 X161.773 Y87.285 E6.3987
G1 X161.992 Y88.245 E6.4594
G1 X162.056 Y88.623 E6.4830
G1 X162.161 Y89.550 E6.5405
G1 X162.182 Y89.933 E6.5642
G1 X162.190 Y129.691 E9.0159
G1 X162.185 Y129.884 E9.0277
G1 X162.137 Y130.727 E9.0798
G1 X162.094 Y131.108 E9.1035
G1 X161.938 Y132.024 E9.1607
G1 X161.853 Y132.398 E9.1844
G1 X161.595 Y133.295 E9.2420
G1 X161.468 Y133.658 E9.2657
G1 X161.111 Y134.519 E9.3232
G1 X160.945 Y134.865 E9.3468
G1 X160.470 Y135.724 E9.4073
G1 X160.210 Y136.126 E9.4369
G1 X159.427 Y137.167 E9.5172
G1 X159.112 Y137.530 E9.5468
G1 X158.380 Y138.261 E9.6106
G1 X158.017 Y138.577 E9.6403
G1 X156.976 Y139.360 E9.7206
G1 X156.574 Y139.620 E9.7501
G1 X155.674 Y140.117 E9.8135
G1 X155.240 Y140.319 E9.8431
G1 X154.023 Y140.784 E9.9234
G1 X153.563 Y140.923 E9.9530
G1 X152.559 Y141.153 E10.0166
G1 X152.084 Y141.227 E10.0462
G1 X150.877 Y141.328 E10.1209
G1 X150.590 Y141.340 E10.1386
G1 X69.458 Y141.340 E15.1415
G1 X69.266 Y141.335 E15.1534
G1 X68.425 Y141.287 E15.2053
G1 X68.044 Y141.244 E15.2290
G1 X67.125 Y141.088 E15.2864
G1 X66.751 Y141.003 E15.3101
G1 X65.853 Y140.744 E15.3677
G1 X65.491 Y140.617 E15.3914
G1 X64.630 Y140.261 E15.4489
G1 X64.284 Y140.094 E15.4725
G1 X63.423 Y139.619 E15.5332
G1 X63.021 Y139.358 E15.5627
G1 X61.983 Y138.577 E15.6429
G1 X61.620 Y138.261 E15.6725
G1 X60.888 Y137.530 E15.7363
G1 X60.573 Y137.167 E15.7659
G1 X59.791 Y136.126 E15.8462
G1 X59.530 Y135.724 E15.8757
G1 X59.032 Y134.823 E15.9393
G1 X58.829 Y134.387 E15.9689
G1 X58.366 Y133.171 E16.0492
G1 X58.226 Y132.712 E16.0787
G1 X58.009 Y131.758 E16.1391
G1 X57.944 Y131.380 E16.1627
G1 X57.839 Y130.450 E16.2204
G1 X57.818 Y130.067 E16.2441
G1 X57.810 Y90.309 E18.6957
G1 X57.815 Y90.117 E18.7076
G1 X57.865 Y89.226 E18.7626
G1 X57.926 Y88.749 E18.7922
G1 X58.180 Y87.472 E18.8725
G1 X58.306 Y87.010 E18.9021
G1 X58.630 Y86.084 E18.9626
G1 X58.777 Y85.730 E18.9862
G1 X59.203 Y84.846 E19.0467
G1 X59.440 Y84.430 E19.0762
G1 X60.163 Y83.348 E19.1565
G1 X60.457 Y82.968 E19.1861
G1 X61.146 Y82.197 E19.2499
G1 X61.491 Y81.862 E19.2795
G1 X62.486 Y81.022 E19.3598
G1 X62.931 Y81.588 F18000
G92 E0.0000
G1 X63.278 Y81.336 E0.0264 F900
G1 X64.034 Y80.861 E0.0815
G1 X64.257 Y80.733 E0.0974
G1 X64.765 Y80.470 E0.1326
G1 X65.078 Y80.330 E0.1538
G1 X66.209 Y79.898 E0.2284
G1 X66.621 Y79.773 E0.2550
G1 X67.534 Y79.565 E0.3127
G1 X67.873 Y79.507 E0.3339
G1 X68.761 Y79.407 E0.3890
G1 X69.103 Y79.388 E0.4102
G1 X150.532 Y79.380 E5.4314
G1 X150.703 Y79.385 E5.4420
G1 X151.513 Y79.430 E5.4920
G1 X151.854 Y79.469 E5.5132
G1 X152.734 Y79.618 E5.5682
G1 X153.069 Y79.695 E5.5894
G1 X153.928 Y79.942 E5.6445
G1 X154.253 Y80.056 E5.6657
G1 X155.077 Y80.397 E5.7207
G1 X155.386 Y80.546 E5.7419
G1 X156.167 Y80.978 E5.7969
G1 X156.458 Y81.160 E5.8181
G1 X157.187 Y81.678 E5.8732
G1 X157.455 Y81.892 E5.8944
G1 X158.120 Y82.485 E5.9493
G1 X158.363 Y82.728 E5.9705
G1 X158.959 Y83.396 E6.0257
G1 X159.173 Y83.664 E6.0469
G1 X159.690 Y84.392 E6.1019
G1 X159.872 Y84.683 E6.1231
G1 X160.325 Y85.501 E6.1808
G1 X160.505 Y85.890 E6.2072
G1 X160.952 Y87.059 E6.2843
G1 X161.077 Y87.470 E6.3109
G1 X161.286 Y88.385 E6.3687
G1 X161.343 Y88.724 E6.3899
G1 X161.443 Y89.611 E6.4449
G1 X161.462 Y89.953 E6.4661
G1 X161.470 Y129.681 E8.9159
G1 X161.465 Y129.853 E8.9265
G1 X161.420 Y130.666 E8.9767
G1 X161.381 Y131.007 E8.9979
G1 X161.232 Y131.883 E9.0527
G1 X161.156 Y132.218 E9.0739
G1 X160.908 Y133.077 E9.1290
G1 X160.795 Y133.401 E9.1502
G1 X160.454 Y134.225 E9.2051
G1 X160.305 Y134.534 E9.2263
G1 X159.852 Y135.354 E9.2840
G1 X159.619 Y135.714 E9.3105
G1 X158.867 Y136.714 E9.3877
G1 X158.585 Y137.039 E9.4142
G1 X157.889 Y137.734 E9.4748
G1 X157.564 Y138.016 E9.5014
G1 X156.564 Y138.769 E9.5786
G1 X156.204 Y139.002 E9.6050
G1 X155.348 Y139.475 E9.6653
G1 X154.960 Y139.655 E9.6917
G1 X153.790 Y140.102 E9.7689
G1 X153.378 Y140.227 E9.7954
G1 X152.423 Y140.445 E9.8559
G1 X151.998 Y140.511 E9.8824
G1 X150.831 Y140.609 E9.9546
G1 X150.575 Y140.620 E9.9704
G1 X69.468 Y140.620 E14.9718
G1 X69.296 Y140.615 E14.9824
G1 X68.486 Y140.570 E15.0325
G1 X68.144 Y140.531 E15.0536
G1 X67.266 Y140.382 E15.1086
G1 X66.931 Y140.305 E15.1298
G1 X66.072 Y140.058 E15.1849
G1 X65.748 Y139.944 E15.2061
G1 X64.924 Y139.603 E15.2611
G1 X64.614 Y139.454 E15.2823
G1 X63.794 Y139.001 E15.3401
G1 X63.434 Y138.768 E15.3665
G1 X62.436 Y138.016 E15.4436
G1 X62.111 Y137.734 E15.4701
G1 X61.415 Y137.039 E15.5308
G1 X61.133 Y136.714 E15.5573
G1 X60.381 Y135.714 E15.6344
G1 X60.148 Y135.354 E15.6609
G1 X59.674 Y134.497 E15.7213
G1 X59.493 Y134.107 E15.7478
G1 X59.047 Y132.938 E15.8249
G1 X58.923 Y132.527 E15.8514
G1 X58.715 Y131.617 E15.9089
G1 X58.657 Y131.279 E15.9301
G1 X58.557 Y130.389 E15.9853
G1 X58.538 Y130.047 E16.0065
G1 X58.530 Y90.319 E18.4563
G1 X58.535 Y90.147 E18.4669
G1 X58.583 Y89.292 E18.5197
G1 X58.637 Y88.865 E18.5462
G1 X58.881 Y87.638 E18.6234
G1 X58.994 Y87.224 E18.6498
G1 X59.303 Y86.341 E18.7075
G1 X59.435 Y86.024 E18.7287
G1 X59.841 Y85.181 E18.7863
G1 X60.053 Y84.809 E18.8128
G1 X60.748 Y83.769 E18.8899
G1 X61.011 Y83.429 E18.9164
G1 X61.666 Y82.696 E18.9771
G1 X61.975 Y82.396 E19.0036
G1 X62.931 Y81.588 E19.0808
G1 X63.377 Y82.155 F18000
G92 E0.0000
G1 X63.682 Y81.932 E0.0233 F900
G1 X64.404 Y81.478 E0.0759
G1 X64.601 Y81.365 E0.0899
G1 X65.078 Y81.119 E0.1230
G1 X65.354 Y80.996 E0.1416
G1 X66.442 Y80.580 E0.2135
G1 X66.806 Y80.470 E0.2369
G1 X67.675 Y80.271 E0.2919
G1 X67.973 Y80.220 E0.3106
G1 X68.821 Y80.125 E0.3632
G1 X69.124 Y80.108 E0.3819
G1 X150.522 Y80.100 E5.4012
G1 X150.673 Y80.104 E5.4106
G1 X151.452 Y80.148 E5.4587
G1 X151.754 Y80.182 E5.4774
G1 X152.594 Y80.325 E5.5299
G1 X152.889 Y80.392 E5.5486
G1 X153.710 Y80.628 E5.6012
G1 X153.996 Y80.729 E5.6199
G1 X154.782 Y81.054 E5.6724
G1 X155.055 Y81.186 E5.6911
G1 X155.801 Y81.598 E5.7437
G1 X156.058 Y81.759 E5.7624
G1 X156.754 Y82.253 E5.8150
G1 X156.991 Y82.442 E5.8337
G1 X157.625 Y83.009 E5.8861
G1 X157.839 Y83.223 E5.9048
G1 X158.409 Y83.860 E5.9575
G1 X158.598 Y84.097 E5.9762
G1 X159.091 Y84.792 E6.0287
G1 X159.252 Y85.049 E6.0474
G1 X159.682 Y85.827 E6.1023
G1 X159.842 Y86.170 E6.1256
G1 X160.270 Y87.292 E6.1997
G1 X160.380 Y87.655 E6.2231
G1 X160.579 Y88.526 E6.2781
G1 X160.630 Y88.825 E6.2968
G1 X160.725 Y89.671 E6.3493
G1 X160.742 Y89.973 E6.3680
G1 X160.750 Y129.671 E8.8160
G1 X160.746 Y129.823 E8.8253
G1 X160.702 Y130.605 E8.8736
G1 X160.668 Y130.906 E8.8923
G1 X160.525 Y131.743 E8.9446
G1 X160.458 Y132.038 E8.9633
G1 X160.222 Y132.858 E9.0159
G1 X160.122 Y133.144 E9.0346
G1 X159.796 Y133.931 E9.0871
G1 X159.665 Y134.204 E9.1058
G1 X159.234 Y134.984 E9.1607
G1 X159.028 Y135.301 E9.1841
G1 X158.306 Y136.261 E9.2581
G1 X158.058 Y136.548 E9.2815
G1 X157.398 Y137.207 E9.3391
G1 X157.111 Y137.456 E9.3625
G1 X156.151 Y138.178 E9.4366
G1 X155.834 Y138.384 E9.4599
G1 X155.022 Y138.832 E9.5170
G1 X154.679 Y138.992 E9.5404
G1 X153.557 Y139.420 E9.6145
G1 X153.194 Y139.531 E9.6379
G1 X152.287 Y139.737 E9.6952
G1 X151.912 Y139.796 E9.7186
G1 X150.786 Y139.891 E9.7883
G1 X150.560 Y139.900 E9.8022
G1 X69.478 Y139.900 E14.8021
G1 X69.326 Y139.896 E14.8115
G1 X68.547 Y139.852 E14.8596
G1 X68.245 Y139.818 E14.8783
G1 X67.406 Y139.675 E14.9308
G1 X67.111 Y139.608 E14.9495
G1 X66.291 Y139.372 E15.0021
G1 X66.005 Y139.272 E15.0208
G1 X65.218 Y138.946 E15.0733
G1 X64.945 Y138.814 E15.0920
G1 X64.164 Y138.383 E15.1470
G1 X63.847 Y138.177 E15.1703
G1 X62.889 Y137.456 E15.2443
G1 X62.602 Y137.207 E15.2677
G1 X61.942 Y136.548 E15.3252
G1 X61.694 Y136.261 E15.3486
G1 X60.972 Y135.301 E15.4226
G1 X60.766 Y134.984 E15.4460
G1 X60.317 Y134.171 E15.5033
G1 X60.157 Y133.826 E15.5267
G1 X59.729 Y132.705 E15.6007
G1 X59.619 Y132.343 E15.6240
G1 X59.421 Y131.477 E15.6788
G1 X59.370 Y131.178 E15.6975
G1 X59.275 Y130.329 E15.7502
G1 X59.258 Y130.027 E15.7688
G1 X59.250 Y90.329 E18.2168
G1 X59.254 Y90.177 E18.2262
G1 X59.300 Y89.358 E18.2767
G1 X59.348 Y88.981 E18.3002
G1 X59.583 Y87.803 E18.3742
G1 X59.682 Y87.438 E18.3975
G1 X59.976 Y86.598 E18.4524
G1 X60.092 Y86.318 E18.4711
G1 X60.478 Y85.516 E18.5260
G1 X60.666 Y85.188 E18.5493
G1 X61.332 Y84.190 E18.6233
G1 X61.565 Y83.890 E18.6467
G1 X62.186 Y83.194 E18.7042
G1 X62.458 Y82.930 E18.7276
G1 X63.377 Y82.155 E18.8017
G1 X63.822 Y82.721 F18000
G92 E0.0000
G1 X64.086 Y82.528 E0.0202 F900
G1 X64.774 Y82.096 E0.0703
G1 X64.945 Y81.998 E0.0825
G1 X65.390 Y81.768 E0.1134
G1 X65.630 Y81.661 E0.1295
G1 X66.676 Y81.261 E0.1986
G1 X66.990 Y81.166 E0.2189
G1 X67.815 Y80.978 E0.2710
G1 X68.074 Y80.934 E0.2872
G1 X68.882 Y80.843 E0.3373
G1 X69.144 Y80.828 E0.3535
G1 X150.512 Y80.820 E5.3710
G1 X150.643 Y80.824 E5.3791
G1 X151.392 Y80.866 E5.4254
G1 X151.653 Y80.895 E5.4416
G1 X152.453 Y81.031 E5.4916
G1 X152.709 Y81.089 E5.5078
G1 X153.491 Y81.315 E5.5580
G1 X153.739 Y81.401 E5.5742
G1 X154.488 Y81.712 E5.6242
G1 X154.725 Y81.826 E5.6404
G1 X155.435 Y82.218 E5.6904
