; G-Code generated by Simplify3D(R) Version 4.1.2
; Jun 24, 2022 at 8:18:59 AM
; Settings Summary
;   processName,Process1
;   applyToModels,servo-stange-halterung,servo-stange-halterung(2)
;   profileName,HSBot (modified)
;   profileVersion,2019-11-09 11:59:44
;   baseProfile,Default
;   printMaterial,pla
;   printQuality,Medium
;   printExtruders,
;   extruderName,Extruder - v6,Extruder - lgx ace
;   extruderToolheadNumber,0,1
;   extruderDiameter,0.4,0.4
;   extruderAutoWidth,1,1
;   extruderWidth,0.48,0.48
;   extrusionMultiplier,1.03,1.03
;   extruderUseRetract,0,0
;   extruderRetractionDistance,4,1
;   extruderExtraRestartDistance,0,0
;   extruderRetractionZLift,0,0
;   extruderRetractionSpeed,3600,3600
;   extruderUseCoasting,0,0
;   extruderCoastingDistance,0.2,0.2
;   extruderUseWipe,0,0
;   extruderWipeDistance,1,1
;   primaryExtruder,1
;   layerHeight,0.2
;   topSolidLayers,3
;   bottomSolidLayers,3
;   perimeterOutlines,3
;   printPerimetersInsideOut,1
;   startPointOption,2
;   startPointOriginX,0
;   startPointOriginY,0
;   sequentialIslands,0
;   spiralVaseMode,0
;   firstLayerHeightPercentage,100
;   firstLayerWidthPercentage,150
;   firstLayerUnderspeed,0.25
;   useRaft,0
;   raftExtruder,0
;   raftTopLayers,3
;   raftBaseLayers,2
;   raftOffset,3
;   raftSeparationDistance,0.18
;   raftTopInfill,100
;   aboveRaftSpeedMultiplier,0.3
;   useSkirt,1
;   skirtExtruder,1
;   skirtLayers,1
;   skirtOutlines,5
;   skirtOffset,5
;   usePrimePillar,0
;   primePillarExtruder,999
;   primePillarWidth,12
;   primePillarLocation,7
;   primePillarSpeedMultiplier,1
;   useOozeShield,0
;   oozeShieldExtruder,999
;   oozeShieldOffset,2
;   oozeShieldOutlines,1
;   oozeShieldSidewallShape,1
;   oozeShieldSidewallAngle,30
;   oozeShieldSpeedMultiplier,1
;   infillExtruder,1
;   internalInfillPattern,Fast Honeycomb
;   externalInfillPattern,Rectilinear
;   infillPercentage,15
;   outlineOverlapPercentage,20
;   infillExtrusionWidthPercentage,100
;   minInfillLength,3
;   infillLayerInterval,1
;   internalInfillAngles,0
;   overlapInternalInfillAngles,0
;   externalInfillAngles,45,-45
;   generateSupport,0
;   supportExtruder,1
;   supportInfillPercentage,30
;   supportExtraInflation,0
;   supportBaseLayers,1
;   denseSupportExtruder,0
;   denseSupportLayers,0
;   denseSupportInfillPercentage,70
;   supportLayerInterval,1
;   supportHorizontalPartOffset,0.3
;   supportUpperSeparationLayers,1
;   supportLowerSeparationLayers,1
;   supportType,0
;   supportGridSpacing,2
;   maxOverhangAngle,45
;   supportAngles,0
;   temperatureName,v6,Bed,lgx-ace
;   temperatureNumber,0,0,1
;   temperatureSetpointCount,1,1,1
;   temperatureSetpointLayers,1,1,1
;   temperatureSetpointTemperatures,0,55,217
;   temperatureStabilizeAtStartup,1,1,1
;   temperatureHeatedBed,0,1,0
;   fanLayers,1,2,5
;   fanSpeeds,0,0,0
;   blipFanToFullPower,0
;   adjustSpeedForCooling,1
;   minSpeedLayerTime,15
;   minCoolingSpeedSlowdown,50
;   increaseFanForCooling,0
;   minFanLayerTime,45
;   maxCoolingFanSpeed,70
;   increaseFanForBridging,0
;   bridgingFanSpeed,80
;   use5D,1
;   relativeEdistances,0
;   allowEaxisZeroing,1
;   independentExtruderAxes,0
;   includeM10123,0
;   stickySupport,1
;   applyToolheadOffsets,0
;   gcodeXoffset,0
;   gcodeYoffset,0
;   gcodeZoffset,0
;   overrideMachineDefinition,1
;   machineTypeOverride,0
;   strokeXoverride,220
;   strokeYoverride,220
;   strokeZoverride,150
;   originOffsetXoverride,0
;   originOffsetYoverride,0
;   originOffsetZoverride,0
;   homeXdirOverride,-1
;   homeYdirOverride,-1
;   homeZdirOverride,-1
;   flipXoverride,1
;   flipYoverride,-1
;   flipZoverride,1
;   toolheadOffsets,0,0|0,0|0,0|0,0|0,0|0,0
;   overrideFirmwareConfiguration,0
;   firmwareTypeOverride,RepRap (Marlin/Repetier/Sprinter)
;   GPXconfigOverride,r2
;   baudRateOverride,115200
;   overridePrinterModels,0
;   printerModelsOverride
;   startingGcode,G28 ; home all axes,G32 ; run bed.g -- probe bed and enable compensation
;   layerChangeGcode,
;   retractionGcode,
;   toolChangeGcode,
;   endingGcode,M0 ; call stop.g
;   exportFileFormat,gcode
;   celebration,0
;   celebrationSong,Random Song
;   postProcessing,|; 0.2mm layer, 8 bands 5mm each, total height 40mm|{REPLACE "; layer 25" "M572 D0 S0.69\n; layer 10"}|{REPLACE "; layer 50" "M572 D0 S0.70\n; layer 50"}|{REPLACE "; layer 75" "M572 D0 S0.71\n; layer 75"}|{REPLACE "; layer 100" "M572 D0 S0.72\n; layer 100"}|{REPLACE "; layer 125" "M572 D0 S0.73\n; layer 125"}|{REPLACE "; layer 150" "M572 D0 S0.74\n; layer 150"}|{REPLACE "; layer 175" "M572 D0 S0.75\n; layer 175"}|{REPLACE "; layer 200" "M572 D0 S0.76\n; layer 200"}
;   defaultSpeed,4800
;   outlineUnderspeed,0.8
;   solidInfillUnderspeed,0.75
;   supportUnderspeed,0.8
;   rapidXYspeed,18000
;   rapidZspeed,1200
;   minBridgingArea,50
;   bridgingExtraInflation,0
;   bridgingExtrusionMultiplier,0.96
;   bridgingSpeedMultiplier,1
;   useFixedBridgingAngle,0
;   fixedBridgingAngle,0
;   applyBridgingToPerimeters,0
;   filamentDiameters,1.75|1.75|1.75|1.75|1.75|1.75
;   filamentPricesPerKg,25|46|46|46|46|46
;   filamentDensities,1.29|1.25|1.25|1.25|1.25|1.25
;   useMinPrintHeight,0
;   minPrintHeight,0.3
;   useMaxPrintHeight,1
;   maxPrintHeight,5
;   useDiaphragm,1
;   diaphragmLayerInterval,20
;   robustSlicing,1
;   mergeAllIntoSolid,0
;   onlyRetractWhenCrossingOutline,1
;   retractBetweenLayers,0
;   useRetractionMinTravel,1
;   retractionMinTravel,5
;   retractWhileWiping,1
;   onlyWipeOutlines,1
;   avoidCrossingOutline,1
;   maxMovementDetourFactor,2
;   toolChangeRetractionDistance,12
;   toolChangeExtraRestartDistance,0
;   toolChangeRetractionSpeed,600
;   externalThinWallType,1
;   internalThinWallType,1
;   thinWallAllowedOverlapPercentage,10
;   singleExtrusionMinLength,0.1
;   singleExtrusionMinPrintingWidthPercentage,50
;   singleExtrusionMaxPrintingWidthPercentage,200
;   singleExtrusionEndpointExtension,0.2
;   horizontalSizeCompensation,0
G90
M82
M106 S0
M140 S55
M190 S55
G10 S0 R{0-50} P0
G10 S217 R{217-50} P1
M116 P1
G28 ; home all axes
G32 ; run bed.g -- probe bed and enable compensation
; process Process1
; layer 1, Z = 0.200
T1
; feature skirt
; tool H0.200 W0.720
G1 Z0.200 F1200
G1 X97.177 Y95.135 F18000
G92 E0.0000
G1 X97.635 Y94.677 E0.0399 F1200
G1 X98.487 Y93.949 E0.1090
G1 X99.151 Y93.486 E0.1590
G1 X100.441 Y92.764 E0.2501
G1 X101.339 Y92.392 E0.3101
G1 X102.840 Y91.968 E0.4062
G1 X103.800 Y91.816 E0.4662
G1 X105.277 Y91.758 E0.5573
G1 X106.085 Y91.806 E0.6072
G1 X107.272 Y91.994 E0.6814
G1 X108.056 Y92.198 E0.7313
G1 X109.367 Y92.682 E0.8175
G1 X110.020 Y92.999 E0.8623
G1 X110.441 Y92.764 E0.8920
G1 X111.339 Y92.392 E0.9519
G1 X112.840 Y91.968 E1.0481
G1 X113.800 Y91.816 E1.1080
G1 X115.277 Y91.758 E1.1992
G1 X116.085 Y91.806 E1.2491
G1 X117.272 Y91.994 E1.3232
G1 X118.056 Y92.198 E1.3731
G1 X119.367 Y92.682 E1.4593
G1 X120.095 Y93.035 E1.5092
G1 X121.051 Y93.621 E1.5783
G1 X121.575 Y94.001 E1.6183
G1 X122.365 Y94.677 E1.6824
G1 X122.823 Y95.135 E1.7223
G1 X123.551 Y95.987 E1.7914
G1 X124.014 Y96.651 E1.8413
G1 X124.736 Y97.941 E1.9325
G1 X125.108 Y98.839 E1.9925
G1 X125.510 Y100.262 E2.0836
G1 X125.652 Y101.059 E2.1335
G1 X125.727 Y102.016 E2.1927
G1 X125.740 Y102.341 E2.2128
G1 X125.732 Y118.023 E3.1798
G1 X125.681 Y118.666 E3.2196
G1 X125.519 Y119.692 E3.2837
G1 X125.368 Y120.322 E3.3236
G1 X125.021 Y121.388 E3.3927
G1 X124.697 Y122.130 E3.4426
G1 X124.014 Y123.349 E3.5288
G1 X123.551 Y124.013 E3.5787
G1 X122.823 Y124.865 E3.6479
G1 X122.365 Y125.323 E3.6878
G1 X121.575 Y125.999 E3.7519
G1 X121.051 Y126.379 E3.7918
G1 X120.164 Y126.922 E3.8559
G1 X119.587 Y127.216 E3.8959
G1 X118.627 Y127.614 E3.9600
G1 X118.011 Y127.814 E3.9999
G1 X116.921 Y128.076 E4.0690
G1 X116.119 Y128.187 E4.1189
G1 X114.723 Y128.242 E4.2051
G1 X113.915 Y128.194 E4.2550
G1 X112.808 Y128.019 E4.3242
G1 X112.178 Y127.868 E4.3641
G1 X111.112 Y127.521 E4.4332
G1 X110.370 Y127.197 E4.4831
G1 X110.016 Y126.998 E4.5082
G1 X109.587 Y127.216 E4.5378
G1 X108.627 Y127.614 E4.6019
G1 X108.011 Y127.814 E4.6419
G1 X106.921 Y128.076 E4.7110
G1 X106.119 Y128.187 E4.7609
G1 X104.723 Y128.242 E4.8471
G1 X103.915 Y128.194 E4.8970
G1 X102.808 Y128.019 E4.9661
G1 X102.178 Y127.868 E5.0060
G1 X101.112 Y127.521 E5.0752
G1 X100.370 Y127.197 E5.1251
G1 X99.151 Y126.514 E5.2113
G1 X98.487 Y126.051 E5.2612
G1 X97.635 Y125.323 E5.3303
G1 X97.177 Y124.865 E5.3702
G1 X96.449 Y124.013 E5.4393
G1 X95.986 Y123.349 E5.4893
G1 X95.264 Y122.059 E5.5804
G1 X94.892 Y121.161 E5.6404
G1 X94.490 Y119.738 E5.7315
G1 X94.348 Y118.941 E5.7815
G1 X94.273 Y117.984 E5.8406
G1 X94.260 Y117.659 E5.8607
G1 X94.268 Y101.977 E6.8277
G1 X94.319 Y101.334 E6.8675
G1 X94.481 Y100.308 E6.9316
G1 X94.632 Y99.678 E6.9715
G1 X94.979 Y98.612 E7.0406
G1 X95.303 Y97.870 E7.0905
G1 X95.986 Y96.651 E7.1767
G1 X96.449 Y95.987 E7.2266
G1 X97.177 Y95.135 E7.2958
G1 X97.706 Y95.624 F18000
G92 E0.0000
G1 X98.124 Y95.206 E0.0364 F1200
G1 X98.928 Y94.519 E0.1016
G1 X99.534 Y94.097 E0.1472
G1 X100.756 Y93.412 E0.2335
G1 X101.575 Y93.073 E0.2882
G1 X102.995 Y92.673 E0.3792
G1 X103.871 Y92.534 E0.4339
G1 X105.270 Y92.479 E0.5202
G1 X106.008 Y92.522 E0.5658
G1 X107.125 Y92.699 E0.6356
G1 X107.840 Y92.886 E0.6811
G1 X109.084 Y93.345 E0.7629
G1 X109.749 Y93.668 E0.8085
G1 X110.012 Y93.829 E0.8275
G1 X110.756 Y93.412 E0.8800
G1 X111.575 Y93.073 E0.9347
G1 X112.995 Y92.673 E1.0257
G1 X113.871 Y92.534 E1.0804
G1 X115.270 Y92.479 E1.1667
G1 X116.008 Y92.522 E1.2123
G1 X117.125 Y92.699 E1.2821
G1 X117.840 Y92.886 E1.3276
G1 X119.084 Y93.345 E1.4094
G1 X119.749 Y93.668 E1.4550
G1 X120.651 Y94.220 E1.5202
G1 X121.129 Y94.567 E1.5566
G1 X121.876 Y95.206 E1.6172
G1 X122.294 Y95.624 E1.6537
G1 X122.981 Y96.428 E1.7189
G1 X123.403 Y97.034 E1.7644
G1 X124.088 Y98.256 E1.8508
G1 X124.427 Y99.075 E1.9055
G1 X124.807 Y100.423 E1.9919
G1 X124.937 Y101.151 E2.0374
G1 X125.008 Y102.058 E2.0936
G1 X125.020 Y102.355 E2.1119
G1 X125.012 Y117.995 E3.0763
G1 X124.966 Y118.582 E3.1126
G1 X124.812 Y119.552 E3.1732
G1 X124.674 Y120.126 E3.2096
G1 X124.348 Y121.132 E3.2748
G1 X124.051 Y121.809 E3.3204
G1 X123.403 Y122.966 E3.4022
G1 X122.981 Y123.572 E3.4477
G1 X122.294 Y124.376 E3.5129
G1 X121.876 Y124.794 E3.5494
G1 X121.129 Y125.433 E3.6100
G1 X120.651 Y125.780 E3.6464
G1 X119.812 Y126.294 E3.7070
G1 X119.286 Y126.562 E3.7435
G1 X118.377 Y126.938 E3.8041
G1 X117.815 Y127.121 E3.8405
G1 X116.787 Y127.368 E3.9057
G1 X116.055 Y127.469 E3.9513
G1 X114.730 Y127.521 E4.0331
G1 X113.992 Y127.478 E4.0787
G1 X112.948 Y127.312 E4.1439
G1 X112.374 Y127.174 E4.1803
G1 X111.368 Y126.847 E4.2455
G1 X110.691 Y126.551 E4.2911
G1 X110.012 Y126.171 E4.3390
G1 X109.812 Y126.294 E4.3535
G1 X109.286 Y126.562 E4.3899
G1 X108.377 Y126.938 E4.4506
G1 X107.815 Y127.121 E4.4870
G1 X106.787 Y127.368 E4.5522
G1 X106.055 Y127.469 E4.5978
G1 X104.730 Y127.521 E4.6796
G1 X103.992 Y127.478 E4.7251
G1 X102.948 Y127.312 E4.7903
G1 X102.374 Y127.174 E4.8267
G1 X101.368 Y126.847 E4.8919
G1 X100.691 Y126.551 E4.9375
G1 X99.534 Y125.903 E5.0193
G1 X98.928 Y125.481 E5.0649
G1 X98.124 Y124.794 E5.1301
G1 X97.706 Y124.376 E5.1665
G1 X97.019 Y123.572 E5.2317
G1 X96.597 Y122.966 E5.2772
G1 X95.912 Y121.744 E5.3636
G1 X95.573 Y120.925 E5.4183
G1 X95.193 Y119.577 E5.5047
G1 X95.063 Y118.849 E5.5502
G1 X94.992 Y117.942 E5.6064
G1 X94.980 Y117.645 E5.6247
G1 X94.988 Y102.005 E6.5891
G1 X95.034 Y101.418 E6.6254
G1 X95.188 Y100.448 E6.6860
G1 X95.326 Y99.874 E6.7224
G1 X95.652 Y98.868 E6.7876
G1 X95.949 Y98.191 E6.8332
G1 X96.597 Y97.034 E6.9150
G1 X97.019 Y96.428 E6.9605
G1 X97.706 Y95.624 E7.0257
G1 X98.235 Y96.113 F18000
G92 E0.0000
G1 X98.613 Y95.735 E0.0329 F1200
G1 X99.368 Y95.090 E0.0942
G1 X99.916 Y94.708 E0.1354
G1 X101.070 Y94.061 E0.2170
G1 X101.812 Y93.754 E0.2664
G1 X103.149 Y93.377 E0.3521
G1 X103.941 Y93.252 E0.4016
G1 X105.263 Y93.200 E0.4832
G1 X105.930 Y93.239 E0.5244
G1 X106.977 Y93.405 E0.5897
G1 X107.624 Y93.574 E0.6309
G1 X108.802 Y94.008 E0.7084
G1 X109.403 Y94.300 E0.7496
G1 X109.996 Y94.663 E0.7925
G1 X111.070 Y94.061 E0.8684
G1 X111.812 Y93.754 E0.9179
G1 X113.149 Y93.377 E1.0036
G1 X113.941 Y93.252 E1.0530
G1 X115.263 Y93.200 E1.1346
G1 X115.930 Y93.239 E1.1758
G1 X116.977 Y93.405 E1.2412
G1 X117.624 Y93.574 E1.2824
G1 X118.802 Y94.008 E1.3598
G1 X119.403 Y94.300 E1.4010
G1 X120.250 Y94.819 E1.4623
G1 X120.683 Y95.133 E1.4952
G1 X121.387 Y95.735 E1.5524
G1 X121.765 Y96.113 E1.5853
G1 X122.410 Y96.868 E1.6466
G1 X122.792 Y97.416 E1.6878
G1 X123.439 Y98.570 E1.7693
G1 X123.746 Y99.312 E1.8188
G1 X124.105 Y100.585 E1.9004
G1 X124.222 Y101.242 E1.9416
G1 X124.290 Y102.100 E1.9946
G1 X124.300 Y102.369 E2.0112
G1 X124.292 Y117.966 E2.9730
G1 X124.250 Y118.497 E3.0058
G1 X124.105 Y119.411 E3.0629
G1 X123.981 Y119.931 E3.0959
G1 X123.674 Y120.876 E3.1571
G1 X123.406 Y121.488 E3.1983
G1 X122.792 Y122.584 E3.2758
G1 X122.410 Y123.132 E3.3170
G1 X121.765 Y123.887 E3.3782
G1 X121.387 Y124.265 E3.4112
G1 X120.683 Y124.867 E3.4683
G1 X120.250 Y125.181 E3.5013
G1 X119.460 Y125.665 E3.5584
G1 X118.984 Y125.908 E3.5914
G1 X118.128 Y126.262 E3.6485
G1 X117.620 Y126.427 E3.6815
G1 X116.654 Y126.659 E3.7427
G1 X115.992 Y126.751 E3.7839
G1 X114.737 Y126.800 E3.8614
G1 X114.070 Y126.761 E3.9026
G1 X113.089 Y126.605 E3.9638
G1 X112.569 Y126.481 E3.9968
G1 X111.624 Y126.174 E4.0580
G1 X111.012 Y125.906 E4.0993
G1 X109.996 Y125.337 E4.1711
G1 X109.460 Y125.665 E4.2098
G1 X108.984 Y125.908 E4.2428
G1 X108.128 Y126.262 E4.2999
G1 X107.620 Y126.427 E4.3329
G1 X106.654 Y126.659 E4.3941
G1 X105.992 Y126.751 E4.4353
G1 X104.737 Y126.800 E4.5128
G1 X104.070 Y126.761 E4.5540
G1 X103.089 Y126.605 E4.6152
G1 X102.569 Y126.481 E4.6482
G1 X101.624 Y126.174 E4.7094
G1 X101.012 Y125.906 E4.7506
G1 X99.916 Y125.292 E4.8281
G1 X99.368 Y124.910 E4.8693
G1 X98.613 Y124.265 E4.9305
G1 X98.235 Y123.887 E4.9635
G1 X97.590 Y123.132 E5.0248
G1 X97.208 Y122.584 E5.0660
G1 X96.561 Y121.429 E5.1475
G1 X96.254 Y120.688 E5.1970
G1 X95.895 Y119.415 E5.2786
G1 X95.778 Y118.758 E5.3198
G1 X95.710 Y117.899 E5.3728
G1 X95.700 Y117.631 E5.3894
G1 X95.708 Y102.034 E6.3512
G1 X95.750 Y101.503 E6.3840
G1 X95.895 Y100.589 E6.4411
G1 X96.019 Y100.069 E6.4740
G1 X96.326 Y99.124 E6.5353
G1 X96.594 Y98.512 E6.5765
G1 X97.208 Y97.416 E6.6540
G1 X97.590 Y96.868 E6.6952
G1 X98.235 Y96.113 E6.7564
G1 X98.764 Y96.602 F18000
G92 E0.0000
G1 X99.102 Y96.264 E0.0295 F1200
G1 X99.809 Y95.660 E0.0868
G1 X100.299 Y95.319 E0.1236
G1 X101.385 Y94.710 E0.2004
G1 X102.048 Y94.436 E0.2446
G1 X103.304 Y94.082 E0.3251
G1 X104.012 Y93.970 E0.3693
G1 X105.256 Y93.921 E0.4461
G1 X105.852 Y93.956 E0.4829
G1 X106.830 Y94.111 E0.5439
G1 X107.408 Y94.261 E0.5808
G1 X108.520 Y94.672 E0.6539
G1 X109.057 Y94.932 E0.6907
G1 X109.850 Y95.418 E0.7480
G1 X110.000 Y95.527 E0.7595
G1 X110.299 Y95.319 E0.7819
G1 X111.385 Y94.710 E0.8587
G1 X112.048 Y94.436 E0.9029
G1 X113.304 Y94.082 E0.9834
G1 X114.012 Y93.970 E1.0276
G1 X115.256 Y93.921 E1.1044
G1 X115.852 Y93.956 E1.1412
G1 X116.830 Y94.111 E1.2022
G1 X117.408 Y94.261 E1.2391
G1 X118.520 Y94.672 E1.3122
G1 X119.057 Y94.932 E1.3490
G1 X119.850 Y95.418 E1.4063
G1 X120.236 Y95.699 E1.4358
G1 X120.898 Y96.264 E1.4894
G1 X121.236 Y96.602 E1.5189
G1 X121.840 Y97.309 E1.5762
G1 X122.181 Y97.799 E1.6131
G1 X122.790 Y98.885 E1.6899
G1 X123.064 Y99.548 E1.7341
G1 X123.402 Y100.746 E1.8108
G1 X123.507 Y101.334 E1.8477
G1 X123.571 Y102.143 E1.8977
G1 X123.580 Y102.383 E1.9125
G1 X123.572 Y117.937 E2.8717
G1 X123.535 Y118.412 E2.9010
G1 X123.399 Y119.271 E2.9546
G1 X123.287 Y119.735 E2.9841
G1 X123.000 Y120.620 E3.0414
G1 X122.760 Y121.167 E3.0783
G1 X122.181 Y122.201 E3.1514
G1 X121.840 Y122.691 E3.1882
G1 X121.236 Y123.398 E3.2455
G1 X120.898 Y123.736 E3.2750
G1 X120.236 Y124.301 E3.3287
G1 X119.850 Y124.582 E3.3581
G1 X119.108 Y125.036 E3.4118
G1 X118.682 Y125.253 E3.4412
G1 X117.879 Y125.586 E3.4949
G1 X117.424 Y125.734 E3.5243
G1 X116.520 Y125.951 E3.5817
G1 X115.928 Y126.033 E3.6185
G1 X114.744 Y126.079 E3.6916
G1 X114.148 Y126.044 E3.7284
G1 X113.229 Y125.899 E3.7858
