; G-Code generated by Simplify3D(R) Version 4.1.2
; Apr 20, 2020 at 9:28:37 PM
; Settings Summary
;   processName,Process1
;   applyToModels,Better_Temperature_Tower_v5_240-180
;   profileName,HBot (modified)
;   profileVersion,2019-10-26 23:38:43
;   baseProfile,Default
;   printMaterial,PETG - ERYONE
;   printQuality,Medium
;   printExtruders,
;   extruderName,Extruder 1
;   extruderToolheadNumber,0
;   extruderDiameter,0.4
;   extruderAutoWidth,1
;   extruderWidth,0.48
;   extrusionMultiplier,1
;   extruderUseRetract,1
;   extruderRetractionDistance,3
;   extruderExtraRestartDistance,-0.1
;   extruderRetractionZLift,0
;   extruderRetractionSpeed,3600
;   extruderUseCoasting,1
;   extruderCoastingDistance,0.2
;   extruderUseWipe,1
;   extruderWipeDistance,5
;   primaryExtruder,0
;   layerHeight,0.2
;   topSolidLayers,3
;   bottomSolidLayers,3
;   perimeterOutlines,3
;   printPerimetersInsideOut,1
;   startPointOption,3
;   startPointOriginX,200
;   startPointOriginY,100
;   sequentialIslands,0
;   spiralVaseMode,0
;   firstLayerHeightPercentage,100
;   firstLayerWidthPercentage,150
;   firstLayerUnderspeed,0.5
;   useRaft,0
;   raftExtruder,0
;   raftTopLayers,3
;   raftBaseLayers,2
;   raftOffset,3
;   raftSeparationDistance,0.18
;   raftTopInfill,100
;   aboveRaftSpeedMultiplier,0.3
;   useSkirt,1
;   skirtExtruder,0
;   skirtLayers,1
;   skirtOutlines,8
;   skirtOffset,0
;   usePrimePillar,0
;   primePillarExtruder,999
;   primePillarWidth,12
;   primePillarLocation,7
;   primePillarSpeedMultiplier,1
;   useOozeShield,0
;   oozeShieldExtruder,999
;   oozeShieldOffset,2
;   oozeShieldOutlines,1
;   oozeShieldSidewallShape,1
;   oozeShieldSidewallAngle,30
;   oozeShieldSpeedMultiplier,1
;   infillExtruder,0
;   internalInfillPattern,Rectilinear
;   externalInfillPattern,Rectilinear
;   infillPercentage,20
;   outlineOverlapPercentage,25
;   infillExtrusionWidthPercentage,150
;   minInfillLength,5
;   infillLayerInterval,1
;   internalInfillAngles,45,-45
;   overlapInternalInfillAngles,0
;   externalInfillAngles,45,-45
;   generateSupport,0
;   supportExtruder,0
;   supportInfillPercentage,30
;   supportExtraInflation,0
;   supportBaseLayers,1
;   denseSupportExtruder,0
;   denseSupportLayers,0
;   denseSupportInfillPercentage,70
;   supportLayerInterval,1
;   supportHorizontalPartOffset,0.3
;   supportUpperSeparationLayers,1
;   supportLowerSeparationLayers,1
;   supportType,0
;   supportGridSpacing,4
;   maxOverhangAngle,25
;   supportAngles,0
;   temperatureName,Extruder 1,Heated Bed
;   temperatureNumber,0,1
;   temperatureSetpointCount,1,1
;   temperatureSetpointLayers,1,1
;   temperatureSetpointTemperatures,240,75
;   temperatureStabilizeAtStartup,1,1
;   temperatureHeatedBed,0,1
;   fanLayers,1,2,4
;   fanSpeeds,0,20,30
;   blipFanToFullPower,1
;   adjustSpeedForCooling,1
;   minSpeedLayerTime,15
;   minCoolingSpeedSlowdown,20
;   increaseFanForCooling,0
;   minFanLayerTime,45
;   maxCoolingFanSpeed,40
;   increaseFanForBridging,1
;   bridgingFanSpeed,80
;   use5D,1
;   relativeEdistances,0
;   allowEaxisZeroing,1
;   independentExtruderAxes,0
;   includeM10123,0
;   stickySupport,1
;   applyToolheadOffsets,0
;   gcodeXoffset,0
;   gcodeYoffset,0
;   gcodeZoffset,0
;   overrideMachineDefinition,1
;   machineTypeOverride,0
;   strokeXoverride,200
;   strokeYoverride,200
;   strokeZoverride,150
;   originOffsetXoverride,0
;   originOffsetYoverride,0
;   originOffsetZoverride,0
;   homeXdirOverride,-1
;   homeYdirOverride,-1
;   homeZdirOverride,-1
;   flipXoverride,1
;   flipYoverride,-1
;   flipZoverride,1
;   toolheadOffsets,0,0|0,0|0,0|0,0|0,0|0,0
;   overrideFirmwareConfiguration,1
;   firmwareTypeOverride,RepRap (Marlin/Repetier/Sprinter)
;   GPXconfigOverride,r2
;   baudRateOverride,115200
;   overridePrinterModels,0
;   printerModelsOverride
;   startingGcode,G28 ; home all axes,G32 ; run bed.g -- probe bed and enable compensation
;   layerChangeGcode,
;   retractionGcode,
;   toolChangeGcode,
;   endingGcode,M0 ; call stop.g
;   exportFileFormat,gcode
;   celebration,0
;   celebrationSong,Random Song
;   postProcessing,
;   defaultSpeed,3600
;   outlineUnderspeed,0.5
;   solidInfillUnderspeed,0.8
;   supportUnderspeed,0.8
;   rapidXYspeed,18000
;   rapidZspeed,1200
;   minBridgingArea,50
;   bridgingExtraInflation,0
;   bridgingExtrusionMultiplier,0.96
;   bridgingSpeedMultiplier,1
;   useFixedBridgingAngle,0
;   fixedBridgingAngle,0
;   applyBridgingToPerimeters,0
;   filamentDiameters,1.75|1.75|1.75|1.75|1.75|1.75
;   filamentPricesPerKg,46|46|46|46|46|46
;   filamentDensities,1.25|1.25|1.25|1.25|1.25|1.25
;   useMinPrintHeight,1
;   minPrintHeight,0
;   useMaxPrintHeight,1
;   maxPrintHeight,9
;   useDiaphragm,0
;   diaphragmLayerInterval,20
;   robustSlicing,1
;   mergeAllIntoSolid,0
;   onlyRetractWhenCrossingOutline,1
;   retractBetweenLayers,0
;   useRetractionMinTravel,1
;   retractionMinTravel,3
;   retractWhileWiping,1
;   onlyWipeOutlines,1
;   avoidCrossingOutline,1
;   maxMovementDetourFactor,5
;   toolChangeRetractionDistance,12
;   toolChangeExtraRestartDistance,-0.5
;   toolChangeRetractionSpeed,600
;   externalThinWallType,0
;   internalThinWallType,2
;   thinWallAllowedOverlapPercentage,10
;   singleExtrusionMinLength,1
;   singleExtrusionMinPrintingWidthPercentage,50
;   singleExtrusionMaxPrintingWidthPercentage,200
;   singleExtrusionEndpointExtension,0.2
;   horizontalSizeCompensation,-0.1
G90
M82
M106 S0
M140 S75
M190 S75
M104 S240 T0
M109 S240 T0
G28 ; home all axes
G32 ; run bed.g -- probe bed and enable compensation
; process Process1
; layer 1, Z = 0.200
T0
G92 E0.0000
G1 E-3.0000 F3600
; feature skirt
; tool H0.200 W0.720
G1 Z0.200 F1200
G1 X128.300 Y90.863 F18000
G1 E-0.1000 F3600
G92 E0.0000
G1 X128.300 Y109.137 E1.0940 F1800
G1 X125.137 Y112.300 E1.3618
G1 X74.863 Y112.300 E4.3716
G1 X71.700 Y109.137 E4.6394
G1 X71.700 Y90.863 E5.7334
G1 X74.863 Y87.700 E6.0013
G1 X125.137 Y87.700 E9.0110
G1 X128.300 Y90.863 E9.2789
G1 X127.580 Y91.162 F18000
G92 E0.0000
G1 X127.580 Y108.838 E1.0583 F1800
G1 X124.838 Y111.580 E1.2904
G1 X75.161 Y111.580 E4.2645
G1 X72.420 Y108.838 E4.4966
G1 X72.420 Y91.162 E5.5549
G1 X75.161 Y88.420 E5.7870
G1 X124.838 Y88.420 E8.7611
G1 X127.580 Y91.162 E8.9932
G1 X126.860 Y91.460 F18000
G92 E0.0000
G1 X126.860 Y108.540 E1.0226 F1800
G1 X124.540 Y110.860 E1.2190
G1 X75.460 Y110.860 E4.1574
G1 X73.140 Y108.540 E4.3538
G1 X73.140 Y91.460 E5.3763
G1 X75.460 Y89.140 E5.5727
G1 X124.540 Y89.140 E8.5111
G1 X126.860 Y91.460 E8.7075
G1 X126.140 Y91.758 F18000
G92 E0.0000
G1 X126.140 Y108.242 E0.9869 F1800
G1 X124.242 Y110.140 E1.1476
G1 X75.758 Y110.140 E4.0502
G1 X73.860 Y108.242 E4.2109
G1 X73.860 Y91.758 E5.1978
G1 X75.758 Y89.860 E5.3585
G1 X124.242 Y89.860 E8.2611
G1 X126.140 Y91.758 E8.4218
G1 X125.420 Y92.056 F18000
G92 E0.0000
G1 X125.420 Y107.944 E0.9512 F1800
G1 X123.944 Y109.420 E1.0761
G1 X76.056 Y109.420 E3.9431
G1 X74.580 Y107.944 E4.0681
G1 X74.580 Y92.056 E5.0192
G1 X76.056 Y90.580 E5.1442
G1 X123.944 Y90.580 E8.0112
G1 X125.420 Y92.056 E8.1362
G1 X124.700 Y92.354 F18000
G92 E0.0000
G1 X124.700 Y107.646 E0.9155 F1800
G1 X123.646 Y108.700 E1.0047
G1 X76.354 Y108.700 E3.8360
G1 X75.300 Y107.646 E3.9252
G1 X75.300 Y92.354 E4.8407
G1 X76.354 Y91.300 E4.9300
G1 X123.646 Y91.300 E7.7612
G1 X124.700 Y92.354 E7.8505
G1 X123.980 Y92.653 F18000
G92 E0.0000
G1 X123.980 Y107.347 E0.8797 F1800
G1 X123.347 Y107.980 E0.9333
G1 X76.653 Y107.980 E3.7288
G1 X76.020 Y107.347 E3.7824
G1 X76.020 Y92.653 E4.6622
G1 X76.653 Y92.020 E4.7157
G1 X123.347 Y92.020 E7.5112
G1 X123.980 Y92.653 E7.5648
G1 X123.260 Y92.951 F18000
G92 E0.0000
G1 X123.260 Y107.049 E0.8440 F1800
G1 X123.049 Y107.260 E0.8619
G1 X76.951 Y107.260 E3.6217
G1 X76.740 Y107.049 E3.6396
G1 X76.740 Y92.951 E4.4836
G1 X76.951 Y92.740 E4.5015
G1 X123.049 Y92.740 E7.2613
G1 X123.260 Y92.951 E7.2791
G92 E0.0000
G1 E-3.0000 F3600
; feature inner perimeter
G1 X122.540 Y93.460 F18000
G1 X122.540 Y97.001
G1 X121.100 Y105.100
G1 E-0.1000 F3600
G92 E0.0000
G1 X78.900 Y105.100 E2.5264 F1350
G1 X78.900 Y94.900 E3.1371
G1 X121.100 Y94.900 E5.6635
G1 X121.100 Y104.900 E6.2622
G1 X121.100 Y105.100 F1350
G1 X121.820 Y105.820 F18000
G92 E0.0000
G1 X78.180 Y105.820 E2.6127 F1350
G1 X78.180 Y94.180 E3.3095
G1 X121.820 Y94.180 E5.9222
G1 X121.820 Y105.620 E6.6071
G1 X121.820 Y105.820 F1350
; feature outer perimeter
G1 X122.540 Y106.540 F18000
G92 E0.0000
G1 X77.460 Y106.540 E2.6989 F900
G1 X77.460 Y93.460 E3.4819
G1 X122.540 Y93.460 E6.1808
G1 X122.540 Y106.340 E6.9519
G1 X122.540 Y106.540 F900
G1 X117.540 Y106.540 F900
; feature solid layer
G1 X119.878 Y95.440 F18000
G92 E0.0000
G1 X120.560 Y96.122 E0.0578 F1440
G1 X120.560 Y97.141 E0.1187
G1 X118.859 Y95.440 E0.2627
G1 X117.841 Y95.440 E0.3237
G1 X120.560 Y98.159 E0.5539
G1 X120.560 Y99.177 E0.6148
G1 X116.823 Y95.440 E0.9312
G1 X115.805 Y95.440 E0.9922
G1 X120.560 Y100.195 E1.3948
G1 X120.560 Y101.214 E1.4558
G1 X114.786 Y95.440 E1.9446
G1 X113.768 Y95.440 E2.0056
G1 X120.560 Y102.232 E2.5806
G1 X120.560 Y103.250 E2.6416
G1 X112.750 Y95.440 E3.3028
G1 X111.732 Y95.440 E3.3638
G1 X120.560 Y104.268 E4.1112
G1 X120.560 Y104.560 E4.1287
G1 X119.834 Y104.560 E4.1722
G1 X110.714 Y95.440 E4.9443
G1 X109.695 Y95.440 E5.0053
G1 X118.815 Y104.560 E5.7775
G1 X117.797 Y104.560 E5.8384
G1 X108.677 Y95.440 E6.6106
G1 X107.659 Y95.440 E6.6715
G1 X116.779 Y104.560 E7.4437
G1 X115.761 Y104.560 E7.5047
G1 X106.641 Y95.440 E8.2768
G1 X105.622 Y95.440 E8.3378
G1 X114.742 Y104.560 E9.1099
G1 X113.724 Y104.560 E9.1709
G1 X104.604 Y95.440 E9.9430
G1 X103.586 Y95.440 E10.0040
G1 X112.706 Y104.560 E10.7762
G1 X111.688 Y104.560 E10.8371
G1 X102.568 Y95.440 E11.6093
G1 X101.549 Y95.440 E11.6702
G1 X110.669 Y104.560 E12.4424
G1 X109.651 Y104.560 E12.5034
G1 X100.531 Y95.440 E13.2755
G1 X99.513 Y95.440 E13.3365
G1 X108.633 Y104.560 E14.1086
G1 X107.615 Y104.560 E14.1696
G1 X98.495 Y95.440 E14.9418
G1 X97.476 Y95.440 E15.0027
G1 X106.596 Y104.560 E15.7749
G1 X105.578 Y104.560 E15.8358
G1 X96.458 Y95.440 E16.6080
G1 X95.440 Y95.440 E16.6690
G1 X104.560 Y104.560 E17.4411
G1 X103.542 Y104.560 E17.5021
G1 X94.422 Y95.440 E18.2742
G1 X93.404 Y95.440 E18.3352
G1 X102.524 Y104.560 E19.1073
G1 X101.505 Y104.560 E19.1683
G1 X92.385 Y95.440 E19.9405
G1 X91.367 Y95.440 E20.0014
G1 X100.487 Y104.560 E20.7736
G1 X99.469 Y104.560 E20.8345
G1 X90.349 Y95.440 E21.6067
G1 X89.331 Y95.440 E21.6677
G1 X98.451 Y104.560 E22.4398
G1 X97.432 Y104.560 E22.5008
G1 X88.312 Y95.440 E23.2729
G1 X87.294 Y95.440 E23.3339
G1 X96.414 Y104.560 E24.1061
G1 X95.396 Y104.560 E24.1670
G1 X86.276 Y95.440 E24.9392
G1 X85.258 Y95.440 E25.0001
G1 X94.378 Y104.560 E25.7723
G1 X93.359 Y104.560 E25.8333
G1 X84.239 Y95.440 E26.6054
G1 X83.221 Y95.440 E26.6664
G1 X92.341 Y104.560 E27.4385
G1 X91.323 Y104.560 E27.4995
G1 X82.203 Y95.440 E28.2716
G1 X81.185 Y95.440 E28.3326
G1 X90.305 Y104.560 E29.1048
G1 X89.287 Y104.560 E29.1657
G1 X80.167 Y95.440 E29.9379
G1 X79.440 Y95.440 E29.9814
G1 X79.440 Y95.732 E29.9988
G1 X88.268 Y104.560 E30.7463
G1 X87.250 Y104.560 E30.8073
G1 X79.440 Y96.750 E31.4685
G1 X79.440 Y97.768 E31.5295
G1 X86.232 Y104.560 E32.1045
G1 X85.214 Y104.560 E32.1655
G1 X79.440 Y98.786 E32.6543
G1 X79.440 Y99.805 E32.7153
G1 X84.195 Y104.560 E33.1179
G1 X83.177 Y104.560 E33.1788
G1 X79.440 Y100.823 E33.4952
G1 X79.440 Y101.841 E33.5562
G1 X82.159 Y104.560 E33.7864
G1 X81.141 Y104.560 E33.8474
G1 X79.440 Y102.859 E33.9913
G1 X79.440 Y103.878 E34.0523
G1 X79.981 Y104.419 E34.0981
G1 X80.122 Y104.560 F1440
; layer 2, Z = 0.400
M106 S255
G4 P500
M106 S51
; feature inner perimeter
; tool H0.200 W0.480
G1 Z0.400 F1200
G1 X121.700 Y105.700 F18000
G92 E0.0000
G1 X78.300 Y105.700 E1.7322 F2700
G1 X78.300 Y94.300 E2.1872
G1 X121.700 Y94.300 E3.9194
G1 X121.700 Y105.500 E4.3664
G1 X121.700 Y105.700 F2700
G1 X122.180 Y106.180 F18000
G92 E0.0000
G1 X77.820 Y106.180 E1.7705 F2700
G1 X77.820 Y93.820 E2.2638
G1 X122.180 Y93.820 E4.0343
G1 X122.180 Y105.980 E4.5197
G1 X122.180 Y106.180 F2700
; feature outer perimeter
G1 X122.660 Y106.660 F18000
G92 E0.0000
G1 X77.340 Y106.660 E1.8088 F1800
G1 X77.340 Y93.340 E2.3404
G1 X122.660 Y93.340 E4.1493
G1 X122.660 Y106.460 E4.6729
G1 X122.660 Y106.660 F1800
G1 X117.660 Y106.660 F1800
; feature solid layer
G1 X121.340 Y105.134 F18000
G92 E0.0000
G1 X121.134 Y105.340 E0.0116 F2880
G1 X120.455 Y105.340 E0.0387
G1 X121.340 Y104.455 E0.0887
G1 X121.340 Y103.776 E0.1157
G1 X119.776 Y105.340 E0.2040
G1 X119.098 Y105.340 E0.2311
G1 X121.340 Y103.098 E0.3577
G1 X121.340 Y102.419 E0.3848
G1 X118.419 Y105.340 E0.5496
G1 X117.740 Y105.340 E0.5767
G1 X121.340 Y101.740 E0.7799
G1 X121.340 Y101.061 E0.8070
G1 X117.061 Y105.340 E1.0485
G1 X116.382 Y105.340 E1.0756
G1 X121.340 Y100.382 E1.3555
G1 X121.340 Y99.704 E1.3826
G1 X115.704 Y105.340 E1.7007
G1 X115.025 Y105.340 E1.7278
G1 X121.340 Y99.025 E2.0843
G1 X121.340 Y98.346 E2.1114
G1 X114.346 Y105.340 E2.5061
G1 X113.667 Y105.340 E2.5332
G1 X121.340 Y97.667 E2.9663
G1 X121.340 Y96.988 E2.9934
G1 X112.988 Y105.340 E3.4648
G1 X112.309 Y105.340 E3.4919
G1 X121.340 Y96.309 E4.0016
G1 X121.340 Y95.631 E4.0287
G1 X111.631 Y105.340 E4.5768
G1 X110.952 Y105.340 E4.6039
G1 X121.340 Y94.952 E5.1902
G1 X121.340 Y94.660 E5.2019
G1 X120.953 Y94.660 E5.2173
G1 X110.273 Y105.340 E5.8201
G1 X109.594 Y105.340 E5.8472
G1 X120.274 Y94.660 E6.4501
G1 X119.595 Y94.660 E6.4772
G1 X108.915 Y105.340 E7.0800
G1 X108.236 Y105.340 E7.1071
G1 X118.916 Y94.660 E7.7099
G1 X118.238 Y94.660 E7.7370
G1 X107.558 Y105.340 E8.3398
G1 X106.879 Y105.340 E8.3669
G1 X117.559 Y94.660 E8.9697
G1 X116.880 Y94.660 E8.9968
G1 X106.200 Y105.340 E9.5997
G1 X105.521 Y105.340 E9.6267
G1 X116.201 Y94.660 E10.2296
G1 X115.522 Y94.660 E10.2567
G1 X104.842 Y105.340 E10.8595
G1 X104.164 Y105.340 E10.8866
G1 X114.844 Y94.660 E11.4894
G1 X114.165 Y94.660 E11.5165
G1 X103.485 Y105.340 E12.1193
G1 X102.806 Y105.340 E12.1464
G1 X113.486 Y94.660 E12.7492
G1 X112.807 Y94.660 E12.7763
G1 X102.127 Y105.340 E13.3792
G1 X101.448 Y105.340 E13.4063
G1 X112.128 Y94.660 E14.0091
G1 X111.449 Y94.660 E14.0362
G1 X100.769 Y105.340 E14.6390
G1 X100.091 Y105.340 E14.6661
G1 X110.771 Y94.660 E15.2689
G1 X110.092 Y94.660 E15.2960
G1 X99.412 Y105.340 E15.8988
G1 X98.733 Y105.340 E15.9259
G1 X109.413 Y94.660 E16.5288
G1 X108.734 Y94.660 E16.5558
G1 X98.054 Y105.340 E17.1587
G1 X97.375 Y105.340 E17.1858
G1 X108.055 Y94.660 E17.7886
G1 X107.377 Y94.660 E17.8157
G1 X96.697 Y105.340 E18.4185
G1 X96.018 Y105.340 E18.4456
G1 X106.698 Y94.660 E19.0484
G1 X106.019 Y94.660 E19.0755
G1 X95.339 Y105.340 E19.6783
G1 X94.660 Y105.340 E19.7054
G1 X105.340 Y94.660 E20.3083
G1 X104.661 Y94.660 E20.3354
G1 X93.981 Y105.340 E20.9382
G1 X93.302 Y105.340 E20.9653
G1 X103.982 Y94.660 E21.5681
G1 X103.304 Y94.660 E21.5952
G1 X92.624 Y105.340 E22.1980
G1 X91.945 Y105.340 E22.2251
G1 X102.625 Y94.660 E22.8279
G1 X101.946 Y94.660 E22.8550
G1 X91.266 Y105.340 E23.4579
G1 X90.587 Y105.340 E23.4850
G1 X101.267 Y94.660 E24.0878
G1 X100.588 Y94.660 E24.1149
G1 X89.908 Y105.340 E24.7177
G1 X89.229 Y105.340 E24.7448
G1 X99.909 Y94.660 E25.3476
G1 X99.231 Y94.660 E25.3747
G1 X88.551 Y105.340 E25.9775
G1 X87.872 Y105.340 E26.0046
G1 X98.552 Y94.660 E26.6075
G1 X97.873 Y94.660 E26.6345
G1 X87.193 Y105.340 E27.2374
G1 X86.514 Y105.340 E27.2645
G1 X97.194 Y94.660 E27.8673
G1 X96.515 Y94.660 E27.8944
G1 X85.835 Y105.340 E28.4972
G1 X85.157 Y105.340 E28.5243
G1 X95.837 Y94.660 E29.1271
G1 X95.158 Y94.660 E29.1542
G1 X84.478 Y105.340 E29.7570
G1 X83.799 Y105.340 E29.7841
G1 X94.479 Y94.660 E30.3870
G1 X93.800 Y94.660 E30.4141
G1 X83.120 Y105.340 E31.0169
G1 X82.441 Y105.340 E31.0440
G1 X93.121 Y94.660 E31.6468
G1 X92.442 Y94.660 E31.6739
G1 X81.762 Y105.340 E32.2767
G1 X81.084 Y105.340 E32.3038
G1 X91.764 Y94.660 E32.9066
G1 X91.085 Y94.660 E32.9337
G1 X80.405 Y105.340 E33.5366
G1 X79.726 Y105.340 E33.5637
G1 X90.406 Y94.660 E34.1665
G1 X89.727 Y94.660 E34.1936
G1 X79.047 Y105.340 E34.7964
G1 X78.660 Y105.340 E34.8118
G1 X78.660 Y105.048 E34.8235
