; G-Code generated by Simplify3D(R) Version 4.1.2
; Apr 1, 2022 at 2:35:39 PM
; Settings Summary
;   processName,Process1
;   applyToModels,Part1-thin
;   profileName,HSBot
;   profileVersion,2019-11-09 11:59:44
;   baseProfile,Default
;   printMaterial,PETG - Eryone
;   printQuality,Medium
;   printExtruders,
;   extruderName,Extruder 1,Extruder - Lite
;   extruderToolheadNumber,0,1
;   extruderDiameter,0.4,0.4
;   extruderAutoWidth,1,1
;   extruderWidth,0.48,0.48
;   extrusionMultiplier,0.98,0.93
;   extruderUseRetract,1,1
;   extruderRetractionDistance,3,1
;   extruderExtraRestartDistance,0,0
;   extruderRetractionZLift,0,0
;   extruderRetractionSpeed,3600,1800
;   extruderUseCoasting,1,0
;   extruderCoastingDistance,0.2,0.2
;   extruderUseWipe,1,0
;   extruderWipeDistance,3,5
;   primaryExtruder,0
;   layerHeight,0.2
;   topSolidLayers,3
;   bottomSolidLayers,3
;   perimeterOutlines,3
;   printPerimetersInsideOut,1
;   startPointOption,2
;   startPointOriginX,0
;   startPointOriginY,0
;   sequentialIslands,0
;   spiralVaseMode,0
;   firstLayerHeightPercentage,150
;   firstLayerWidthPercentage,150
;   firstLayerUnderspeed,0.5
;   useRaft,0
;   raftExtruder,0
;   raftTopLayers,3
;   raftBaseLayers,2
;   raftOffset,3
;   raftSeparationDistance,0.18
;   raftTopInfill,100
;   aboveRaftSpeedMultiplier,0.3
;   useSkirt,1
;   skirtExtruder,0
;   skirtLayers,1
;   skirtOutlines,3
;   skirtOffset,5
;   usePrimePillar,0
;   primePillarExtruder,999
;   primePillarWidth,12
;   primePillarLocation,7
;   primePillarSpeedMultiplier,1
;   useOozeShield,0
;   oozeShieldExtruder,999
;   oozeShieldOffset,2
;   oozeShieldOutlines,1
;   oozeShieldSidewallShape,1
;   oozeShieldSidewallAngle,30
;   oozeShieldSpeedMultiplier,1
;   infillExtruder,0
;   internalInfillPattern,Fast Honeycomb
;   externalInfillPattern,Rectilinear
;   infillPercentage,15
;   outlineOverlapPercentage,15
;   infillExtrusionWidthPercentage,100
;   minInfillLength,5
;   infillLayerInterval,1
;   internalInfillAngles,0
;   overlapInternalInfillAngles,0
;   externalInfillAngles,45,-45
;   generateSupport,0
;   supportExtruder,0
;   supportInfillPercentage,30
;   supportExtraInflation,0
;   supportBaseLayers,1
;   denseSupportExtruder,0
;   denseSupportLayers,0
;   denseSupportInfillPercentage,70
;   supportLayerInterval,1
;   supportHorizontalPartOffset,0.3
;   supportUpperSeparationLayers,1
;   supportLowerSeparationLayers,1
;   supportType,1
;   supportGridSpacing,3
;   maxOverhangAngle,45
;   supportAngles,0
;   temperatureName,Extruder 1,Bed
;   temperatureNumber,0,0
;   temperatureSetpointCount,1,1
;   temperatureSetpointLayers,1,1
;   temperatureSetpointTemperatures,225,85
;   temperatureStabilizeAtStartup,1,1
;   temperatureHeatedBed,0,1
;   fanLayers,1,2,3
;   fanSpeeds,0,15,15
;   blipFanToFullPower,1
;   adjustSpeedForCooling,1
;   minSpeedLayerTime,15
;   minCoolingSpeedSlowdown,20
;   increaseFanForCooling,0
;   minFanLayerTime,45
;   maxCoolingFanSpeed,40
;   increaseFanForBridging,0
;   bridgingFanSpeed,80
;   use5D,1
;   relativeEdistances,0
;   allowEaxisZeroing,1
;   independentExtruderAxes,0
;   includeM10123,0
;   stickySupport,1
;   applyToolheadOffsets,0
;   gcodeXoffset,0
;   gcodeYoffset,0
;   gcodeZoffset,0
;   overrideMachineDefinition,1
;   machineTypeOverride,0
;   strokeXoverride,210
;   strokeYoverride,210
;   strokeZoverride,150
;   originOffsetXoverride,0
;   originOffsetYoverride,0
;   originOffsetZoverride,0
;   homeXdirOverride,-1
;   homeYdirOverride,-1
;   homeZdirOverride,-1
;   flipXoverride,1
;   flipYoverride,-1
;   flipZoverride,1
;   toolheadOffsets,0,0|0,0|0,0|0,0|0,0|0,0
;   overrideFirmwareConfiguration,0
;   firmwareTypeOverride,RepRap (Marlin/Repetier/Sprinter)
;   GPXconfigOverride,r2
;   baudRateOverride,115200
;   overridePrinterModels,0
;   printerModelsOverride
;   startingGcode,G28 ; home all axes,G32 ; run bed.g -- probe bed and enable compensation
;   layerChangeGcode,
;   retractionGcode,
;   toolChangeGcode,
;   endingGcode,M0 ; call stop.g
;   exportFileFormat,gcode
;   celebration,0
;   celebrationSong,Random Song
;   postProcessing,
;   defaultSpeed,3600
;   outlineUnderspeed,0.5
;   solidInfillUnderspeed,0.8
;   supportUnderspeed,0.8
;   rapidXYspeed,18000
;   rapidZspeed,1200
;   minBridgingArea,50
;   bridgingExtraInflation,0
;   bridgingExtrusionMultiplier,0.96
;   bridgingSpeedMultiplier,1
;   useFixedBridgingAngle,0
;   fixedBridgingAngle,0
;   applyBridgingToPerimeters,0
;   filamentDiameters,1.75|1.75|1.75|1.75|1.75|1.75
;   filamentPricesPerKg,25|46|46|46|46|46
;   filamentDensities,1.25|1.25|1.25|1.25|1.25|1.25
;   useMinPrintHeight,0
;   minPrintHeight,0
;   useMaxPrintHeight,0
;   maxPrintHeight,0
;   useDiaphragm,1
;   diaphragmLayerInterval,20
;   robustSlicing,1
;   mergeAllIntoSolid,0
;   onlyRetractWhenCrossingOutline,1
;   retractBetweenLayers,0
;   useRetractionMinTravel,1
;   retractionMinTravel,5
;   retractWhileWiping,1
;   onlyWipeOutlines,0
;   avoidCrossingOutline,1
;   maxMovementDetourFactor,3
;   toolChangeRetractionDistance,12
;   toolChangeExtraRestartDistance,-0.5
;   toolChangeRetractionSpeed,600
;   externalThinWallType,1
;   internalThinWallType,1
;   thinWallAllowedOverlapPercentage,10
;   singleExtrusionMinLength,0.1
;   singleExtrusionMinPrintingWidthPercentage,50
;   singleExtrusionMaxPrintingWidthPercentage,200
;   singleExtrusionEndpointExtension,0.2
;   horizontalSizeCompensation,-0.1
G90
M82
M106 S0
M140 S85
M190 S85
G10 S225 R{225-50} P0
M116 P0
G28 ; home all axes
G32 ; run bed.g -- probe bed and enable compensation
; process Process1
; layer 1, Z = 0.300
T0
G92 E0.0000
G1 E-3.0000 F3600
; feature skirt
; tool H0.300 W0.720
G1 Z0.300 F1200
G1 X77.743 Y44.947 F18000
G1 E0.0000 F3600
G92 E0.0000
G1 X78.385 Y44.576 E0.0652 F1800
G1 X79.565 Y42.532 E0.2730
G1 X85.871 Y38.891 E0.9138
G1 X88.020 Y38.891 E1.1029
G1 X88.226 Y38.685 E1.1286
G1 X94.160 Y38.685 E1.6508
G1 X94.366 Y38.891 E1.6764
G1 X95.020 Y38.891 E1.7340
G1 X95.226 Y38.685 E1.7597
G1 X101.160 Y38.685 E2.2818
G1 X101.366 Y38.891 E2.3075
G1 X102.020 Y38.891 E2.3651
G1 X102.226 Y38.685 E2.3907
G1 X108.160 Y38.685 E2.9129
G1 X108.366 Y38.891 E2.9385
G1 X109.020 Y38.891 E2.9961
G1 X109.226 Y38.685 E3.0218
G1 X115.160 Y38.685 E3.5440
G1 X115.366 Y38.891 E3.5696
G1 X116.020 Y38.891 E3.6272
G1 X116.226 Y38.685 E3.6529
G1 X122.160 Y38.685 E4.1750
G1 X122.366 Y38.891 E4.2007
G1 X124.515 Y38.891 E4.3898
G1 X130.821 Y42.532 E5.0306
G1 X132.002 Y44.576 E5.2384
G1 X132.643 Y44.947 E5.3036
G1 X132.643 Y81.577 E8.5273
G1 X125.843 Y85.503 E9.2183
G1 X124.599 Y84.785 E9.3447
G1 X119.726 Y84.785 E9.7736
G1 X119.595 Y84.653 E9.7900
G1 X118.792 Y84.653 E9.8607
G1 X118.660 Y84.785 E9.8771
G1 X112.726 Y84.785 E10.3992
G1 X112.595 Y84.653 E10.4156
G1 X111.792 Y84.653 E10.4863
G1 X111.660 Y84.785 E10.5027
G1 X105.726 Y84.785 E11.0249
G1 X105.595 Y84.653 E11.0413
G1 X104.792 Y84.653 E11.1120
G1 X104.660 Y84.785 E11.1284
G1 X98.726 Y84.785 E11.6505
G1 X98.595 Y84.653 E11.6669
G1 X97.792 Y84.653 E11.7376
G1 X97.660 Y84.785 E11.7540
G1 X91.726 Y84.785 E12.2762
G1 X91.595 Y84.653 E12.2926
G1 X90.792 Y84.653 E12.3633
G1 X90.660 Y84.785 E12.3797
G1 X85.787 Y84.785 E12.8085
G1 X84.543 Y85.503 E12.9349
G1 X77.743 Y81.577 E13.6259
G1 X77.743 Y44.947 E16.8496
G1 X78.463 Y45.363 F18000
G92 E0.0000
G1 X78.912 Y45.104 E0.0456 F1800
G1 X80.092 Y43.059 E0.2534
G1 X86.064 Y39.611 E0.8602
G1 X88.319 Y39.611 E1.0587
G1 X88.525 Y39.405 E1.0843
G1 X93.862 Y39.405 E1.5540
G1 X94.068 Y39.611 E1.5796
G1 X95.319 Y39.611 E1.6897
G1 X95.525 Y39.405 E1.7154
G1 X100.862 Y39.405 E2.1850
G1 X101.068 Y39.611 E2.2107
G1 X102.319 Y39.611 E2.3208
G1 X102.525 Y39.405 E2.3464
G1 X107.862 Y39.405 E2.8161
G1 X108.068 Y39.611 E2.8418
G1 X109.319 Y39.611 E2.9519
G1 X109.525 Y39.405 E2.9775
G1 X114.862 Y39.405 E3.4472
G1 X115.068 Y39.611 E3.4728
G1 X116.319 Y39.611 E3.5829
G1 X116.525 Y39.405 E3.6086
G1 X121.862 Y39.405 E4.0782
G1 X122.068 Y39.611 E4.1039
G1 X124.322 Y39.611 E4.3023
G1 X130.294 Y43.059 E4.9092
G1 X131.475 Y45.104 E5.1170
G1 X131.923 Y45.363 E5.1625
G1 X131.923 Y75.202 E7.7886
G1 X131.718 Y75.321 E7.8095
G1 X131.923 Y75.676 E7.8455
G1 X131.923 Y81.161 E8.3283
G1 X125.843 Y84.672 E8.9462
G1 X124.792 Y84.065 E9.0530
G1 X120.025 Y84.065 E9.4725
G1 X119.893 Y83.933 E9.4889
G1 X118.493 Y83.933 E9.6121
G1 X118.362 Y84.065 E9.6285
G1 X113.025 Y84.065 E10.0982
G1 X112.893 Y83.933 E10.1146
G1 X111.493 Y83.933 E10.2378
G1 X111.362 Y84.065 E10.2542
G1 X106.025 Y84.065 E10.7238
G1 X105.893 Y83.933 E10.7402
G1 X104.493 Y83.933 E10.8634
G1 X104.362 Y84.065 E10.8798
G1 X99.025 Y84.065 E11.3495
G1 X98.893 Y83.933 E11.3659
G1 X97.493 Y83.933 E11.4891
G1 X97.362 Y84.065 E11.5055
G1 X92.025 Y84.065 E11.9751
G1 X91.893 Y83.933 E11.9915
G1 X90.493 Y83.933 E12.1147
G1 X90.362 Y84.065 E12.1311
G1 X85.594 Y84.065 E12.5507
G1 X84.543 Y84.672 E12.6575
G1 X78.463 Y81.161 E13.2753
G1 X78.463 Y75.676 E13.7581
G1 X78.668 Y75.321 E13.7942
G1 X78.463 Y75.202 E13.8150
G1 X78.463 Y45.363 E16.4411
G1 X79.183 Y45.778 F18000
G92 E0.0000
G1 X79.439 Y45.631 E0.0260 F1800
G1 X80.619 Y43.586 E0.2338
G1 X86.257 Y40.331 E0.8067
G1 X88.617 Y40.331 E1.0144
G1 X88.823 Y40.125 E1.0400
G1 X93.563 Y40.125 E1.4572
G1 X93.769 Y40.331 E1.4828
G1 X95.617 Y40.331 E1.6454
G1 X95.823 Y40.125 E1.6711
G1 X100.563 Y40.125 E2.0883
G1 X100.769 Y40.331 E2.1139
G1 X102.617 Y40.331 E2.2765
G1 X102.823 Y40.125 E2.3021
G1 X107.563 Y40.125 E2.7193
G1 X107.769 Y40.331 E2.7450
G1 X109.617 Y40.331 E2.9076
G1 X109.823 Y40.125 E2.9332
G1 X114.563 Y40.125 E3.3504
G1 X114.769 Y40.331 E3.3760
G1 X116.617 Y40.331 E3.5386
G1 X116.823 Y40.125 E3.5643
G1 X121.563 Y40.125 E3.9815
G1 X121.769 Y40.331 E4.0071
G1 X124.129 Y40.331 E4.2148
G1 X129.767 Y43.586 E4.7877
G1 X130.947 Y45.631 E4.9955
G1 X131.203 Y45.778 E5.0215
G1 X131.203 Y50.951 E5.4767
G1 X130.947 Y51.098 E5.5027
G1 X130.806 Y51.344 E5.5276
G1 X130.947 Y51.590 E5.5526
G1 X131.203 Y51.737 E5.5786
G1 X131.203 Y56.910 E6.0338
G1 X130.947 Y57.057 E6.0598
G1 X130.806 Y57.303 E6.0847
G1 X130.947 Y57.549 E6.1097
G1 X131.203 Y57.696 E6.1357
G1 X131.203 Y62.869 E6.5909
G1 X130.947 Y63.016 E6.6169
G1 X130.806 Y63.262 E6.6418
G1 X130.947 Y63.508 E6.6668
G1 X131.203 Y63.655 E6.6928
G1 X131.203 Y68.828 E7.1480
G1 X130.947 Y68.975 E7.1740
G1 X130.806 Y69.221 E7.1989
G1 X130.947 Y69.467 E7.2239
G1 X131.203 Y69.614 E7.2499
G1 X131.203 Y74.787 E7.7051
G1 X130.947 Y74.934 E7.7311
G1 X130.806 Y75.180 E7.7560
G1 X131.203 Y75.869 E7.8260
G1 X131.203 Y80.746 E8.2552
G1 X125.843 Y83.840 E8.7999
G1 X124.985 Y83.345 E8.8871
G1 X120.323 Y83.345 E9.2974
G1 X120.191 Y83.213 E9.3138
G1 X118.195 Y83.213 E9.4895
G1 X118.063 Y83.345 E9.5059
G1 X113.323 Y83.345 E9.9231
G1 X113.191 Y83.213 E9.9395
G1 X111.195 Y83.213 E10.1151
G1 X111.063 Y83.345 E10.1315
G1 X106.323 Y83.345 E10.5487
G1 X106.191 Y83.213 E10.5651
G1 X104.195 Y83.213 E10.7408
G1 X104.063 Y83.345 E10.7572
G1 X99.323 Y83.345 E11.1744
G1 X99.191 Y83.213 E11.1908
G1 X97.195 Y83.213 E11.3664
G1 X97.063 Y83.345 E11.3828
G1 X92.323 Y83.345 E11.8000
G1 X92.191 Y83.213 E11.8164
G1 X90.195 Y83.213 E11.9921
G1 X90.063 Y83.345 E12.0085
G1 X85.401 Y83.345 E12.4188
G1 X84.543 Y83.840 E12.5060
G1 X79.183 Y80.746 E13.0507
G1 X79.183 Y75.869 E13.4799
G1 X79.581 Y75.180 E13.5499
G1 X79.439 Y74.934 E13.5748
G1 X79.183 Y74.787 E13.6008
G1 X79.183 Y69.614 E14.0560
G1 X79.439 Y69.467 E14.0820
G1 X79.581 Y69.221 E14.1070
G1 X79.439 Y68.975 E14.1319
G1 X79.183 Y68.828 E14.1579
G1 X79.183 Y63.655 E14.6131
G1 X79.439 Y63.508 E14.6391
G1 X79.581 Y63.262 E14.6641
G1 X79.439 Y63.016 E14.6890
G1 X79.183 Y62.869 E14.7150
G1 X79.183 Y57.696 E15.1702
G1 X79.439 Y57.549 E15.1962
G1 X79.581 Y57.303 E15.2212
G1 X79.439 Y57.057 E15.2461
G1 X79.183 Y56.910 E15.2721
G1 X79.183 Y51.737 E15.7273
G1 X79.439 Y51.590 E15.7533
G1 X79.581 Y51.344 E15.7783
G1 X79.439 Y51.098 E15.8032
G1 X79.183 Y50.951 E15.8292
G1 X79.183 Y45.778 E16.2844
G92 E0.0000
G1 E-3.0000 F3600
; feature external single extrusion
; tool H0.300 W0.300
G1 X84.593 Y47.770 F18000
G1 E0.0000 F3600
G92 E0.0000
; tool H0.300 W0.240
G1 X84.597 Y47.763 E0.0002 F900
G1 X84.651 Y47.669 E0.0034
; tool H0.300 W0.258
G1 X84.711 Y47.586 E0.0066
; tool H0.300 W0.300
G1 X87.387 Y46.041 E0.1199
G1 X87.468 Y45.994 E0.1234
; tool H0.300 W0.303
G1 X87.504 Y45.977 E0.1248
; tool H0.300 W0.313
G1 X87.543 Y45.963 E0.1264
; tool H0.300 W0.337
G1 X87.589 Y45.954 E0.1283
; tool H0.300 W0.376
G1 X87.643 Y45.951 E0.1309
; tool H0.300 W0.412
G1 X87.693 Y45.974 E0.1336
; tool H0.300 W0.385
G1 X87.693 Y46.037 E0.1366
; tool H0.300 W0.328
G1 X87.693 Y46.084 E0.1385
; tool H0.300 W0.305
G1 X87.693 Y46.124 E0.1400
; tool H0.300 W0.300
G1 X87.693 Y46.219 E0.1435
G1 X87.693 Y50.510 E0.3008
G1 X87.693 Y50.710 F900
G1 X87.693 Y47.710 F900
G1 X87.772 Y45.910 F18000
G92 E0.0000
G1 X90.886 Y47.708 E0.1362 F900
G1 X90.968 Y47.755 E0.1398
; tool H0.300 W0.303
G1 X91.004 Y47.773 E0.1413
; tool H0.300 W0.313
G1 X91.043 Y47.786 E0.1429
; tool H0.300 W0.337
G1 X91.089 Y47.795 E0.1449
; tool H0.300 W0.376
G1 X91.143 Y47.798 E0.1475
; tool H0.300 W0.412
G1 X91.193 Y47.775 E0.1504
; tool H0.300 W0.385
G1 X91.193 Y47.712 E0.1535
; tool H0.300 W0.328
G1 X91.193 Y47.665 E0.1554
; tool H0.300 W0.305
G1 X91.193 Y47.625 E0.1569
; tool H0.300 W0.300
G1 X91.193 Y47.532 E0.1605
G1 X91.193 Y45.671 E0.2309
G1 X91.193 Y45.471 F900
G1 X91.193 Y45.671 F900
G1 X91.193 Y47.532
G1 X91.193 Y47.625
G1 X91.193 Y47.665
G1 X91.193 Y47.712
G1 X91.193 Y47.775
G1 X91.143 Y47.798
G1 X91.089 Y47.795
G1 X91.043 Y47.786
G1 X91.004 Y47.773
G1 X90.968 Y47.755
G1 X90.886 Y47.708
G1 X90.571 Y47.526
G1 X91.245 Y47.855 F18000
G92 E0.0000
G1 X91.500 Y47.708 E0.0110 F900
G1 X94.441 Y46.010 E0.1380
; tool H0.300 W0.307
G1 X94.526 Y45.968 E0.1416
; tool H0.300 W0.348
G1 X94.625 Y45.951 E0.1460
; tool H0.300 W0.383
G1 X94.761 Y45.951 E0.1524
; tool H0.300 W0.348
G1 X94.860 Y45.968 E0.1568
; tool H0.300 W0.307
G1 X94.945 Y46.010 E0.1604
; tool H0.300 W0.300
G1 X97.886 Y47.708 E0.2874
G1 X97.968 Y47.755 E0.2909
; tool H0.300 W0.303
G1 X98.004 Y47.773 E0.2924
; tool H0.300 W0.313
G1 X98.043 Y47.786 E0.2941
; tool H0.300 W0.337
G1 X98.089 Y47.795 E0.2960
; tool H0.300 W0.376
G1 X98.143 Y47.798 E0.2986
; tool H0.300 W0.412
G1 X98.193 Y47.775 E0.3014
; tool H0.300 W0.385
G1 X98.193 Y47.712 E0.3044
; tool H0.300 W0.328
G1 X98.193 Y47.665 E0.3063
; tool H0.300 W0.305
G1 X98.193 Y47.625 E0.3079
; tool H0.300 W0.300
G1 X98.193 Y47.532 E0.3113
G1 X98.193 Y45.671 E0.3809
G1 X98.193 Y45.471 F900
G1 X98.193 Y45.671 F900
G1 X98.193 Y47.532
G1 X98.193 Y47.625
G1 X98.193 Y47.665
G1 X98.193 Y47.712
G1 X98.193 Y47.775
G1 X98.143 Y47.798
G1 X98.089 Y47.795
G1 X98.043 Y47.786
G1 X98.004 Y47.773
G1 X97.968 Y47.755
G1 X97.886 Y47.708
G1 X97.571 Y47.526
G1 X98.245 Y47.855 F18000
G92 E0.0000
G1 X98.500 Y47.708 E0.0110 F900
G1 X101.441 Y46.010 E0.1380
; tool H0.300 W0.307
G1 X101.526 Y45.968 E0.1416
; tool H0.300 W0.348
G1 X101.625 Y45.951 E0.1460
; tool H0.300 W0.383
G1 X101.761 Y45.951 E0.1524
; tool H0.300 W0.348
G1 X101.860 Y45.968 E0.1568
; tool H0.300 W0.307
G1 X101.945 Y46.010 E0.1604
; tool H0.300 W0.300
G1 X104.886 Y47.708 E0.2874
G1 X104.968 Y47.755 E0.2909
; tool H0.300 W0.303
G1 X105.004 Y47.773 E0.2924
; tool H0.300 W0.313
G1 X105.043 Y47.786 E0.2941
; tool H0.300 W0.337
G1 X105.089 Y47.795 E0.2960
; tool H0.300 W0.376
G1 X105.143 Y47.798 E0.2986
; tool H0.300 W0.412
G1 X105.193 Y47.775 E0.3014
; tool H0.300 W0.385
G1 X105.193 Y47.712 E0.3044
; tool H0.300 W0.328
G1 X105.193 Y47.665 E0.3063
; tool H0.300 W0.305
G1 X105.193 Y47.625 E0.3079
; tool H0.300 W0.300
G1 X105.193 Y47.532 E0.3113
G1 X105.193 Y45.671 E0.3809
G1 X105.193 Y45.471 F900
G1 X105.193 Y45.671 F900
G1 X105.193 Y47.532
G1 X105.193 Y47.625
G1 X105.193 Y47.665
G1 X105.193 Y47.712
G1 X105.193 Y47.775
G1 X105.143 Y47.798
G1 X105.089 Y47.795
G1 X105.043 Y47.786
G1 X105.004 Y47.773
G1 X104.968 Y47.755
G1 X104.886 Y47.708
G1 X104.571 Y47.526
G1 X105.245 Y47.855 F18000
G92 E0.0000
G1 X105.500 Y47.708 E0.0110 F900
