; G-Code generated by Simplify3D(R) Version 4.1.2
; Apr 2, 2022 at 7:36:46 PM
; Settings Summary
;   processName,Process1
;   applyToModels,Part1-v2
;   profileName,HSBot
;   profileVersion,2019-11-09 11:59:44
;   baseProfile,Default
;   printMaterial,PETG - Eryone
;   printQuality,Medium
;   printExtruders,
;   extruderName,Extruder 1,Extruder - Lite
;   extruderToolheadNumber,0,1
;   extruderDiameter,0.4,0.4
;   extruderAutoWidth,0,1
;   extruderWidth,0.5,0.48
;   extrusionMultiplier,0.98,0.93
;   extruderUseRetract,0,1
;   extruderRetractionDistance,1,1
;   extruderExtraRestartDistance,0,0
;   extruderRetractionZLift,0,0
;   extruderRetractionSpeed,3600,1800
;   extruderUseCoasting,1,0
;   extruderCoastingDistance,0.2,0.2
;   extruderUseWipe,0,0
;   extruderWipeDistance,1,5
;   primaryExtruder,0
;   layerHeight,0.2
;   topSolidLayers,3
;   bottomSolidLayers,3
;   perimeterOutlines,3
;   printPerimetersInsideOut,1
;   startPointOption,2
;   startPointOriginX,0
;   startPointOriginY,0
;   sequentialIslands,0
;   spiralVaseMode,0
;   firstLayerHeightPercentage,150
;   firstLayerWidthPercentage,150
;   firstLayerUnderspeed,0.5
;   useRaft,0
;   raftExtruder,0
;   raftTopLayers,3
;   raftBaseLayers,2
;   raftOffset,3
;   raftSeparationDistance,0.18
;   raftTopInfill,100
;   aboveRaftSpeedMultiplier,0.3
;   useSkirt,1
;   skirtExtruder,0
;   skirtLayers,1
;   skirtOutlines,3
;   skirtOffset,5
;   usePrimePillar,0
;   primePillarExtruder,999
;   primePillarWidth,12
;   primePillarLocation,7
;   primePillarSpeedMultiplier,1
;   useOozeShield,0
;   oozeShieldExtruder,999
;   oozeShieldOffset,2
;   oozeShieldOutlines,1
;   oozeShieldSidewallShape,1
;   oozeShieldSidewallAngle,30
;   oozeShieldSpeedMultiplier,1
;   infillExtruder,0
;   internalInfillPattern,Fast Honeycomb
;   externalInfillPattern,Rectilinear
;   infillPercentage,15
;   outlineOverlapPercentage,15
;   infillExtrusionWidthPercentage,100
;   minInfillLength,5
;   infillLayerInterval,1
;   internalInfillAngles,0
;   overlapInternalInfillAngles,0
;   externalInfillAngles,45,-45
;   generateSupport,0
;   supportExtruder,0
;   supportInfillPercentage,30
;   supportExtraInflation,0
;   supportBaseLayers,1
;   denseSupportExtruder,0
;   denseSupportLayers,0
;   denseSupportInfillPercentage,70
;   supportLayerInterval,1
;   supportHorizontalPartOffset,0.3
;   supportUpperSeparationLayers,1
;   supportLowerSeparationLayers,1
;   supportType,1
;   supportGridSpacing,3
;   maxOverhangAngle,45
;   supportAngles,0
;   temperatureName,Extruder 1,Bed
;   temperatureNumber,0,0
;   temperatureSetpointCount,1,1
;   temperatureSetpointLayers,1,1
;   temperatureSetpointTemperatures,225,85
;   temperatureStabilizeAtStartup,1,1
;   temperatureHeatedBed,0,1
;   fanLayers,1,2,3
;   fanSpeeds,0,15,15
;   blipFanToFullPower,1
;   adjustSpeedForCooling,1
;   minSpeedLayerTime,15
;   minCoolingSpeedSlowdown,20
;   increaseFanForCooling,0
;   minFanLayerTime,45
;   maxCoolingFanSpeed,40
;   increaseFanForBridging,0
;   bridgingFanSpeed,80
;   use5D,1
;   relativeEdistances,0
;   allowEaxisZeroing,1
;   independentExtruderAxes,0
;   includeM10123,0
;   stickySupport,1
;   applyToolheadOffsets,0
;   gcodeXoffset,0
;   gcodeYoffset,0
;   gcodeZoffset,0
;   overrideMachineDefinition,1
;   machineTypeOverride,0
;   strokeXoverride,210
;   strokeYoverride,210
;   strokeZoverride,150
;   originOffsetXoverride,0
;   originOffsetYoverride,0
;   originOffsetZoverride,0
;   homeXdirOverride,-1
;   homeYdirOverride,-1
;   homeZdirOverride,-1
;   flipXoverride,1
;   flipYoverride,-1
;   flipZoverride,1
;   toolheadOffsets,0,0|0,0|0,0|0,0|0,0|0,0
;   overrideFirmwareConfiguration,0
;   firmwareTypeOverride,RepRap (Marlin/Repetier/Sprinter)
;   GPXconfigOverride,r2
;   baudRateOverride,115200
;   overridePrinterModels,0
;   printerModelsOverride
;   startingGcode,G28 ; home all axes,G32 ; run bed.g -- probe bed and enable compensation
;   layerChangeGcode,
;   retractionGcode,
;   toolChangeGcode,
;   endingGcode,M0 ; call stop.g
;   exportFileFormat,gcode
;   celebration,0
;   celebrationSong,Random Song
;   postProcessing,
;   defaultSpeed,2400
;   outlineUnderspeed,0.5
;   solidInfillUnderspeed,0.8
;   supportUnderspeed,0.8
;   rapidXYspeed,18000
;   rapidZspeed,1200
;   minBridgingArea,50
;   bridgingExtraInflation,0
;   bridgingExtrusionMultiplier,0.96
;   bridgingSpeedMultiplier,1
;   useFixedBridgingAngle,0
;   fixedBridgingAngle,0
;   applyBridgingToPerimeters,0
;   filamentDiameters,1.75|1.75|1.75|1.75|1.75|1.75
;   filamentPricesPerKg,25|46|46|46|46|46
;   filamentDensities,1.25|1.25|1.25|1.25|1.25|1.25
;   useMinPrintHeight,0
;   minPrintHeight,0
;   useMaxPrintHeight,0
;   maxPrintHeight,0
;   useDiaphragm,1
;   diaphragmLayerInterval,20
;   robustSlicing,1
;   mergeAllIntoSolid,0
;   onlyRetractWhenCrossingOutline,1
;   retractBetweenLayers,0
;   useRetractionMinTravel,1
;   retractionMinTravel,5
;   retractWhileWiping,1
;   onlyWipeOutlines,0
;   avoidCrossingOutline,0
;   maxMovementDetourFactor,5
;   toolChangeRetractionDistance,12
;   toolChangeExtraRestartDistance,-0.5
;   toolChangeRetractionSpeed,600
;   externalThinWallType,1
;   internalThinWallType,1
;   thinWallAllowedOverlapPercentage,10
;   singleExtrusionMinLength,0.1
;   singleExtrusionMinPrintingWidthPercentage,50
;   singleExtrusionMaxPrintingWidthPercentage,200
;   singleExtrusionEndpointExtension,0.2
;   horizontalSizeCompensation,-0.1
G90
M82
M106 S0
M140 S85
M190 S85
G10 S225 R{225-50} P0
M116 P0
G28 ; home all axes
G32 ; run bed.g -- probe bed and enable compensation
; process Process1
; layer 1, Z = 0.300
T0
; feature skirt
; tool H0.300 W0.750
G1 Z0.300 F1200
G1 X67.044 Y122.639 F18000
G92 E0.0000
G1 X70.398 Y122.639 E0.3075 F1200
G1 X70.888 Y122.149 E0.3710
G1 X76.883 Y122.149 E0.9207
G1 X77.373 Y122.639 E0.9842
G1 X80.398 Y122.639 E1.2615
G1 X80.888 Y122.149 E1.3250
G1 X86.883 Y122.149 E1.8746
G1 X87.373 Y122.639 E1.9381
G1 X90.398 Y122.639 E2.2154
G1 X90.888 Y122.149 E2.2789
G1 X96.883 Y122.149 E2.8286
G1 X97.373 Y122.639 E2.8921
G1 X100.398 Y122.639 E3.1694
G1 X100.888 Y122.149 E3.2329
G1 X106.883 Y122.149 E3.7825
G1 X107.373 Y122.639 E3.8460
G1 X110.398 Y122.639 E4.1233
G1 X110.888 Y122.149 E4.1868
G1 X116.883 Y122.149 E4.7365
G1 X117.373 Y122.639 E4.8000
G1 X120.398 Y122.639 E5.0773
G1 X120.888 Y122.149 E5.1408
G1 X126.883 Y122.149 E5.6904
G1 X127.373 Y122.639 E5.7539
G1 X130.398 Y122.639 E6.0312
G1 X130.888 Y122.149 E6.0947
G1 X136.883 Y122.149 E6.6444
G1 X137.373 Y122.639 E6.7079
G1 X140.728 Y122.639 E7.0154
G1 X148.569 Y127.166 E7.8454
G1 X149.980 Y129.611 E8.1042
G1 X150.411 Y129.860 E8.1498
G1 X150.411 Y136.514 E8.7598
G1 X149.980 Y136.763 E8.8054
G1 X149.584 Y137.450 E8.8781
G1 X149.980 Y138.137 E8.9509
G1 X150.411 Y138.386 E8.9964
G1 X150.411 Y145.041 E9.6065
G1 X149.980 Y145.289 E9.6521
G1 X149.584 Y145.976 E9.7248
G1 X149.980 Y146.663 E9.7975
G1 X150.411 Y146.911 E9.8431
G1 X150.411 Y153.567 E10.4532
G1 X149.980 Y153.815 E10.4987
G1 X149.584 Y154.502 E10.5715
G1 X149.980 Y155.189 E10.6442
G1 X150.411 Y155.438 E10.6897
G1 X150.411 Y162.093 E11.2998
G1 X149.980 Y162.341 E11.3454
G1 X149.584 Y163.028 E11.4181
G1 X149.980 Y163.715 E11.4908
G1 X150.411 Y163.964 E11.5364
G1 X150.411 Y170.619 E12.1465
G1 X149.980 Y170.867 E12.1920
G1 X149.584 Y171.554 E12.2648
G1 X150.411 Y172.987 E12.4164
G1 X150.411 Y179.145 E12.9809
G1 X143.536 Y183.114 E13.7087
G1 X142.225 Y182.357 E13.8474
G1 X141.883 Y182.699 E13.8917
G1 X135.888 Y182.699 E14.4413
G1 X135.441 Y182.252 E14.4993
G1 X132.330 Y182.252 E14.7845
G1 X131.883 Y182.699 E14.8424
G1 X125.888 Y182.699 E15.3920
G1 X125.441 Y182.252 E15.4499
G1 X122.330 Y182.252 E15.7351
G1 X121.883 Y182.699 E15.7930
G1 X115.888 Y182.699 E16.3427
G1 X115.441 Y182.252 E16.4006
G1 X112.330 Y182.252 E16.6858
G1 X111.883 Y182.699 E16.7437
G1 X105.888 Y182.699 E17.2933
G1 X105.441 Y182.252 E17.3513
G1 X102.330 Y182.252 E17.6365
G1 X101.883 Y182.699 E17.6944
G1 X95.888 Y182.699 E18.2440
G1 X95.441 Y182.252 E18.3019
G1 X92.330 Y182.252 E18.5871
G1 X91.883 Y182.699 E18.6450
G1 X85.888 Y182.699 E19.1947
G1 X85.441 Y182.252 E19.2526
G1 X82.330 Y182.252 E19.5378
G1 X81.883 Y182.699 E19.5957
G1 X75.888 Y182.699 E20.1453
G1 X75.441 Y182.252 E20.2033
G1 X72.330 Y182.252 E20.4884
G1 X71.883 Y182.699 E20.5464
G1 X65.888 Y182.699 E21.0960
G1 X65.546 Y182.357 E21.1403
G1 X64.236 Y183.114 E21.2790
G1 X57.361 Y179.145 E22.0068
G1 X57.361 Y172.987 E22.5713
G1 X58.188 Y171.554 E22.7229
G1 X57.791 Y170.867 E22.7957
G1 X57.361 Y170.619 E22.8412
G1 X57.361 Y163.964 E23.4513
G1 X57.791 Y163.715 E23.4969
G1 X58.188 Y163.028 E23.5696
G1 X57.791 Y162.341 E23.6423
G1 X57.361 Y162.093 E23.6879
G1 X57.361 Y155.438 E24.2980
G1 X57.791 Y155.189 E24.3435
G1 X58.188 Y154.502 E24.4163
G1 X57.791 Y153.815 E24.4890
G1 X57.361 Y153.566 E24.5346
G1 X57.361 Y146.912 E25.1446
G1 X57.791 Y146.663 E25.1902
G1 X58.188 Y145.976 E25.2629
G1 X57.791 Y145.289 E25.3356
G1 X57.361 Y145.041 E25.3812
G1 X57.361 Y138.386 E25.9913
G1 X57.791 Y138.137 E26.0368
G1 X58.188 Y137.450 E26.1096
G1 X57.791 Y136.763 E26.1823
G1 X57.361 Y136.514 E26.2279
G1 X57.361 Y129.860 E26.8379
G1 X57.791 Y129.611 E26.8835
G1 X59.203 Y127.166 E27.1423
G1 X67.044 Y122.639 E27.9723
G1 X67.245 Y123.389 F18000
G92 E0.0000
G1 X70.527 Y123.389 E0.3009 F1200
G1 X70.642 Y123.456 E0.3131
G1 X71.199 Y122.899 E0.3853
G1 X76.573 Y122.899 E0.8779
G1 X77.129 Y123.456 E0.9501
G1 X77.244 Y123.389 E0.9623
G1 X80.527 Y123.389 E1.2632
G1 X80.642 Y123.456 E1.2754
G1 X81.199 Y122.899 E1.3475
G1 X86.573 Y122.899 E1.8402
G1 X87.129 Y123.456 E1.9123
G1 X87.244 Y123.389 E1.9245
G1 X90.527 Y123.389 E2.2254
G1 X90.642 Y123.456 E2.2376
G1 X91.199 Y122.899 E2.3098
G1 X96.573 Y122.899 E2.8025
G1 X97.129 Y123.456 E2.8746
G1 X97.244 Y123.389 E2.8868
G1 X100.527 Y123.389 E3.1877
G1 X100.642 Y123.456 E3.1999
G1 X101.199 Y122.899 E3.2721
G1 X106.573 Y122.899 E3.7647
G1 X107.129 Y123.456 E3.8369
G1 X107.244 Y123.389 E3.8491
G1 X110.527 Y123.389 E4.1500
G1 X110.642 Y123.456 E4.1622
G1 X111.199 Y122.899 E4.2343
G1 X116.573 Y122.899 E4.7270
G1 X117.129 Y123.456 E4.7991
G1 X117.244 Y123.389 E4.8113
G1 X120.527 Y123.389 E5.1122
G1 X120.642 Y123.456 E5.1244
G1 X121.199 Y122.899 E5.1966
G1 X126.573 Y122.899 E5.6893
G1 X127.129 Y123.456 E5.7614
G1 X127.245 Y123.389 E5.7736
G1 X130.527 Y123.389 E6.0745
G1 X130.642 Y123.456 E6.0867
G1 X131.199 Y122.899 E6.1589
G1 X136.573 Y122.899 E6.6515
G1 X137.129 Y123.456 E6.7237
G1 X137.244 Y123.389 E6.7359
G1 X140.527 Y123.389 E7.0368
G1 X148.019 Y127.715 E7.8299
G1 X149.431 Y130.160 E8.0888
G1 X149.661 Y130.293 E8.1130
G1 X149.661 Y136.081 E8.6437
G1 X149.431 Y136.214 E8.6680
G1 X148.718 Y137.450 E8.7989
G1 X149.431 Y138.686 E8.9297
G1 X149.661 Y138.819 E8.9540
G1 X149.661 Y144.608 E9.4847
G1 X149.431 Y144.740 E9.5090
G1 X148.718 Y145.976 E9.6398
G1 X149.431 Y147.212 E9.7706
G1 X149.661 Y147.345 E9.7949
G1 X149.661 Y153.134 E10.3256
G1 X149.431 Y153.266 E10.3499
G1 X148.718 Y154.502 E10.4808
G1 X149.431 Y155.738 E10.6116
G1 X149.661 Y155.871 E10.6359
G1 X149.661 Y161.660 E11.1666
G1 X149.431 Y161.792 E11.1909
G1 X148.718 Y163.028 E11.3217
G1 X149.431 Y164.264 E11.4526
G1 X149.661 Y164.397 E11.4769
G1 X149.661 Y170.186 E12.0076
G1 X149.431 Y170.318 E12.0318
G1 X148.718 Y171.554 E12.1627
G1 X149.661 Y173.188 E12.3356
G1 X149.661 Y178.712 E12.8420
G1 X143.536 Y182.248 E13.4904
G1 X142.102 Y181.420 E13.6421
G1 X141.573 Y181.949 E13.7107
G1 X136.199 Y181.949 E14.2034
G1 X135.669 Y181.420 E14.2720
G1 X135.527 Y181.502 E14.2871
G1 X132.244 Y181.502 E14.5880
G1 X132.102 Y181.420 E14.6031
G1 X131.573 Y181.949 E14.6717
G1 X126.199 Y181.949 E15.1644
G1 X125.669 Y181.420 E15.2330
G1 X125.527 Y181.502 E15.2481
G1 X122.244 Y181.502 E15.5490
G1 X122.102 Y181.420 E15.5641
G1 X121.573 Y181.949 E15.6327
G1 X116.199 Y181.949 E16.1253
G1 X115.669 Y181.420 E16.1939
G1 X115.527 Y181.502 E16.2090
G1 X112.244 Y181.502 E16.5099
G1 X112.102 Y181.420 E16.5250
G1 X111.573 Y181.949 E16.5936
G1 X106.199 Y181.949 E17.0863
G1 X105.669 Y181.420 E17.1549
G1 X105.527 Y181.502 E17.1700
G1 X102.244 Y181.502 E17.4709
G1 X102.102 Y181.420 E17.4860
G1 X101.573 Y181.949 E17.5546
G1 X96.199 Y181.949 E18.0472
G1 X95.669 Y181.420 E18.1158
G1 X95.527 Y181.502 E18.1309
G1 X92.244 Y181.502 E18.4318
G1 X92.102 Y181.420 E18.4469
G1 X91.573 Y181.949 E18.5155
G1 X86.199 Y181.949 E19.0082
G1 X85.669 Y181.420 E19.0768
G1 X85.527 Y181.502 E19.0919
G1 X82.244 Y181.502 E19.3928
G1 X82.102 Y181.420 E19.4079
G1 X81.573 Y181.949 E19.4765
G1 X76.199 Y181.949 E19.9692
G1 X75.669 Y181.420 E20.0378
G1 X75.527 Y181.502 E20.0529
G1 X72.244 Y181.502 E20.3538
G1 X72.102 Y181.420 E20.3689
G1 X71.573 Y181.949 E20.4375
G1 X66.199 Y181.949 E20.9301
G1 X65.669 Y181.420 E20.9987
G1 X64.236 Y182.248 E21.1505
G1 X58.111 Y178.712 E21.7989
G1 X58.111 Y173.188 E22.3053
G1 X59.054 Y171.554 E22.4782
G1 X58.340 Y170.318 E22.6090
G1 X58.111 Y170.186 E22.6333
G1 X58.111 Y164.397 E23.1640
G1 X58.340 Y164.264 E23.1883
G1 X59.054 Y163.028 E23.3191
G1 X58.340 Y161.792 E23.4500
G1 X58.111 Y161.660 E23.4743
G1 X58.111 Y155.871 E24.0050
G1 X58.340 Y155.738 E24.0292
G1 X59.054 Y154.502 E24.1601
G1 X58.340 Y153.266 E24.2909
G1 X58.111 Y153.133 E24.3152
G1 X58.111 Y147.345 E24.8459
G1 X58.340 Y147.212 E24.8702
G1 X59.054 Y145.976 E25.0011
G1 X58.340 Y144.740 E25.1319
G1 X58.111 Y144.608 E25.1562
G1 X58.111 Y138.819 E25.6869
G1 X58.340 Y138.686 E25.7111
G1 X59.054 Y137.450 E25.8420
G1 X58.340 Y136.214 E25.9729
G1 X58.111 Y136.081 E25.9972
G1 X58.111 Y130.293 E26.5278
G1 X58.340 Y130.160 E26.5521
G1 X59.752 Y127.715 E26.8109
G1 X67.245 Y123.389 E27.6041
G1 X67.445 Y124.139 F18000
G92 E0.0000
G1 X70.326 Y124.139 E0.2641 F1200
G1 X70.765 Y124.393 E0.3106
G1 X71.509 Y123.649 E0.4070
G1 X76.262 Y123.649 E0.8427
G1 X77.006 Y124.393 E0.9392
G1 X77.445 Y124.139 E0.9857
G1 X80.326 Y124.139 E1.2497
G1 X80.765 Y124.393 E1.2963
G1 X81.509 Y123.649 E1.3927
G1 X86.262 Y123.649 E1.8284
G1 X87.006 Y124.393 E1.9249
G1 X87.445 Y124.139 E1.9714
G1 X90.326 Y124.139 E2.2354
G1 X90.765 Y124.393 E2.2820
G1 X91.509 Y123.649 E2.3784
G1 X96.262 Y123.649 E2.8141
G1 X97.006 Y124.393 E2.9105
G1 X97.445 Y124.139 E2.9571
G1 X100.326 Y124.139 E3.2211
G1 X100.765 Y124.393 E3.2677
G1 X101.509 Y123.649 E3.3641
G1 X106.262 Y123.649 E3.7998
G1 X107.006 Y124.393 E3.8962
G1 X107.445 Y124.139 E3.9428
G1 X110.326 Y124.139 E4.2068
G1 X110.765 Y124.393 E4.2533
G1 X111.509 Y123.649 E4.3498
G1 X116.262 Y123.649 E4.7855
G1 X117.006 Y124.393 E4.8819
G1 X117.445 Y124.139 E4.9285
G1 X120.326 Y124.139 E5.1925
G1 X120.765 Y124.393 E5.2390
G1 X121.509 Y123.649 E5.3355
G1 X126.262 Y123.649 E5.7712
G1 X127.006 Y124.393 E5.8676
G1 X127.445 Y124.139 E5.9141
G1 X130.326 Y124.139 E6.1782
G1 X130.765 Y124.393 E6.2247
G1 X131.509 Y123.649 E6.3212
G1 X136.262 Y123.649 E6.7569
G1 X137.006 Y124.393 E6.8533
G1 X137.445 Y124.139 E6.8998
G1 X140.326 Y124.139 E7.1639
G1 X147.470 Y128.264 E7.9202
G1 X148.882 Y130.709 E8.1790
G1 X148.911 Y130.726 E8.1820
G1 X148.911 Y135.649 E8.6333
G1 X148.882 Y135.665 E8.6363
G1 X147.852 Y137.450 E8.8253
G1 X148.882 Y139.235 E9.0143
G1 X148.911 Y139.252 E9.0173
G1 X148.911 Y144.175 E9.4686
G1 X148.882 Y144.191 E9.4716
G1 X147.852 Y145.976 E9.6606
G1 X148.882 Y147.761 E9.8495
G1 X148.911 Y147.778 E9.8525
G1 X148.911 Y152.701 E10.3038
G1 X148.882 Y152.717 E10.3068
G1 X147.852 Y154.502 E10.4958
G1 X148.882 Y156.287 E10.6848
G1 X148.911 Y156.304 E10.6878
G1 X148.911 Y161.227 E11.1391
G1 X148.882 Y161.243 E11.1421
G1 X147.852 Y163.028 E11.3311
G1 X148.882 Y164.813 E11.5200
G1 X148.911 Y164.830 E11.5231
G1 X148.911 Y169.753 E11.9743
G1 X148.882 Y169.769 E11.9774
G1 X147.852 Y171.554 E12.1663
G1 X148.911 Y173.389 E12.3605
G1 X148.911 Y178.279 E12.8088
G1 X143.536 Y181.382 E13.3778
G1 X141.978 Y180.483 E13.5426
G1 X141.262 Y181.199 E13.6355
G1 X136.509 Y181.199 E14.0712
G1 X135.793 Y180.483 E14.1641
G1 X135.326 Y180.752 E14.2135
G1 X132.445 Y180.752 E14.4775
G1 X131.978 Y180.483 E14.5270
G1 X131.262 Y181.199 E14.6199
G1 X126.509 Y181.199 E15.0556
