; G-Code generated by Simplify3D(R) Version 4.1.2
; Apr 1, 2022 at 3:46:15 PM
; Settings Summary
;   processName,Process1
;   applyToModels,Part1-large-thin
;   profileName,HSBot (modified)
;   profileVersion,2019-11-09 11:59:44
;   baseProfile,Default
;   printMaterial,PETG - Eryone
;   printQuality,Medium
;   printExtruders,
;   extruderName,Extruder 1,Extruder - Lite
;   extruderToolheadNumber,0,1
;   extruderDiameter,0.4,0.4
;   extruderAutoWidth,1,1
;   extruderWidth,0.48,0.48
;   extrusionMultiplier,0.98,0.93
;   extruderUseRetract,1,1
;   extruderRetractionDistance,3,1
;   extruderExtraRestartDistance,0,0
;   extruderRetractionZLift,0,0
;   extruderRetractionSpeed,3600,1800
;   extruderUseCoasting,1,0
;   extruderCoastingDistance,0,0.2
;   extruderUseWipe,1,0
;   extruderWipeDistance,1,5
;   primaryExtruder,0
;   layerHeight,0.2
;   topSolidLayers,3
;   bottomSolidLayers,3
;   perimeterOutlines,3
;   printPerimetersInsideOut,1
;   startPointOption,2
;   startPointOriginX,0
;   startPointOriginY,0
;   sequentialIslands,0
;   spiralVaseMode,0
;   firstLayerHeightPercentage,150
;   firstLayerWidthPercentage,150
;   firstLayerUnderspeed,0.5
;   useRaft,0
;   raftExtruder,0
;   raftTopLayers,3
;   raftBaseLayers,2
;   raftOffset,3
;   raftSeparationDistance,0.18
;   raftTopInfill,100
;   aboveRaftSpeedMultiplier,0.3
;   useSkirt,1
;   skirtExtruder,0
;   skirtLayers,1
;   skirtOutlines,3
;   skirtOffset,5
;   usePrimePillar,0
;   primePillarExtruder,999
;   primePillarWidth,12
;   primePillarLocation,7
;   primePillarSpeedMultiplier,1
;   useOozeShield,0
;   oozeShieldExtruder,999
;   oozeShieldOffset,2
;   oozeShieldOutlines,1
;   oozeShieldSidewallShape,1
;   oozeShieldSidewallAngle,30
;   oozeShieldSpeedMultiplier,1
;   infillExtruder,0
;   internalInfillPattern,Fast Honeycomb
;   externalInfillPattern,Rectilinear
;   infillPercentage,15
;   outlineOverlapPercentage,15
;   infillExtrusionWidthPercentage,100
;   minInfillLength,5
;   infillLayerInterval,1
;   internalInfillAngles,0
;   overlapInternalInfillAngles,0
;   externalInfillAngles,45,-45
;   generateSupport,0
;   supportExtruder,0
;   supportInfillPercentage,30
;   supportExtraInflation,0
;   supportBaseLayers,1
;   denseSupportExtruder,0
;   denseSupportLayers,0
;   denseSupportInfillPercentage,70
;   supportLayerInterval,1
;   supportHorizontalPartOffset,0.3
;   supportUpperSeparationLayers,1
;   supportLowerSeparationLayers,1
;   supportType,1
;   supportGridSpacing,3
;   maxOverhangAngle,45
;   supportAngles,0
;   temperatureName,Extruder 1,Bed
;   temperatureNumber,0,0
;   temperatureSetpointCount,1,1
;   temperatureSetpointLayers,1,1
;   temperatureSetpointTemperatures,225,85
;   temperatureStabilizeAtStartup,1,1
;   temperatureHeatedBed,0,1
;   fanLayers,1,2,3
;   fanSpeeds,0,15,15
;   blipFanToFullPower,1
;   adjustSpeedForCooling,1
;   minSpeedLayerTime,15
;   minCoolingSpeedSlowdown,20
;   increaseFanForCooling,0
;   minFanLayerTime,45
;   maxCoolingFanSpeed,40
;   increaseFanForBridging,0
;   bridgingFanSpeed,80
;   use5D,1
;   relativeEdistances,0
;   allowEaxisZeroing,1
;   independentExtruderAxes,0
;   includeM10123,0
;   stickySupport,1
;   applyToolheadOffsets,0
;   gcodeXoffset,0
;   gcodeYoffset,0
;   gcodeZoffset,0
;   overrideMachineDefinition,1
;   machineTypeOverride,0
;   strokeXoverride,210
;   strokeYoverride,210
;   strokeZoverride,150
;   originOffsetXoverride,0
;   originOffsetYoverride,0
;   originOffsetZoverride,0
;   homeXdirOverride,-1
;   homeYdirOverride,-1
;   homeZdirOverride,-1
;   flipXoverride,1
;   flipYoverride,-1
;   flipZoverride,1
;   toolheadOffsets,0,0|0,0|0,0|0,0|0,0|0,0
;   overrideFirmwareConfiguration,0
;   firmwareTypeOverride,RepRap (Marlin/Repetier/Sprinter)
;   GPXconfigOverride,r2
;   baudRateOverride,115200
;   overridePrinterModels,0
;   printerModelsOverride
;   startingGcode,G28 ; home all axes,G32 ; run bed.g -- probe bed and enable compensation
;   layerChangeGcode,
;   retractionGcode,
;   toolChangeGcode,
;   endingGcode,M0 ; call stop.g
;   exportFileFormat,gcode
;   celebration,0
;   celebrationSong,Random Song
;   postProcessing,
;   defaultSpeed,3600
;   outlineUnderspeed,0.5
;   solidInfillUnderspeed,0.8
;   supportUnderspeed,0.8
;   rapidXYspeed,18000
;   rapidZspeed,1200
;   minBridgingArea,50
;   bridgingExtraInflation,0
;   bridgingExtrusionMultiplier,0.96
;   bridgingSpeedMultiplier,1
;   useFixedBridgingAngle,0
;   fixedBridgingAngle,0
;   applyBridgingToPerimeters,0
;   filamentDiameters,1.75|1.75|1.75|1.75|1.75|1.75
;   filamentPricesPerKg,25|46|46|46|46|46
;   filamentDensities,1.25|1.25|1.25|1.25|1.25|1.25
;   useMinPrintHeight,0
;   minPrintHeight,0
;   useMaxPrintHeight,0
;   maxPrintHeight,0
;   useDiaphragm,1
;   diaphragmLayerInterval,20
;   robustSlicing,1
;   mergeAllIntoSolid,0
;   onlyRetractWhenCrossingOutline,1
;   retractBetweenLayers,0
;   useRetractionMinTravel,1
;   retractionMinTravel,5
;   retractWhileWiping,1
;   onlyWipeOutlines,0
;   avoidCrossingOutline,1
;   maxMovementDetourFactor,3
;   toolChangeRetractionDistance,12
;   toolChangeExtraRestartDistance,-0.5
;   toolChangeRetractionSpeed,600
;   externalThinWallType,1
;   internalThinWallType,1
;   thinWallAllowedOverlapPercentage,10
;   singleExtrusionMinLength,0.1
;   singleExtrusionMinPrintingWidthPercentage,50
;   singleExtrusionMaxPrintingWidthPercentage,200
;   singleExtrusionEndpointExtension,0.2
;   horizontalSizeCompensation,-0.1
G90
M82
M106 S0
M140 S85
M190 S85
G10 S225 R{225-50} P0
M116 P0
G28 ; home all axes
G32 ; run bed.g -- probe bed and enable compensation
; process Process1
; layer 1, Z = 0.300
T0
G92 E0.0000
G1 E-3.0000 F3600
; feature skirt
; tool H0.300 W0.720
G1 Z0.300 F1200
G1 X68.723 Y30.200 F18000
G1 E0.0000 F3600
G92 E0.0000
G1 X69.133 Y29.963 E0.0417 F1800
G1 X70.545 Y27.518 E0.2902
G1 X78.351 Y23.011 E1.0834
G1 X81.866 Y23.011 E1.3928
G1 X82.206 Y22.671 E1.4351
G1 X88.140 Y22.671 E1.9573
G1 X88.480 Y23.011 E1.9996
G1 X91.866 Y23.011 E2.2976
G1 X92.206 Y22.671 E2.3400
G1 X98.140 Y22.671 E2.8621
G1 X98.480 Y23.011 E2.9045
G1 X101.866 Y23.011 E3.2025
G1 X102.206 Y22.671 E3.2448
G1 X108.140 Y22.671 E3.7670
G1 X108.480 Y23.011 E3.8093
G1 X111.866 Y23.011 E4.1074
G1 X112.206 Y22.671 E4.1497
G1 X118.140 Y22.671 E4.6718
G1 X118.480 Y23.011 E4.7142
G1 X121.866 Y23.011 E5.0122
G1 X122.206 Y22.671 E5.0545
G1 X128.140 Y22.671 E5.5767
G1 X128.480 Y23.011 E5.6190
G1 X131.995 Y23.011 E5.9284
G1 X139.801 Y27.518 E6.7216
G1 X141.212 Y29.963 E6.9701
G1 X141.623 Y30.200 E7.0118
G1 X141.623 Y36.769 E7.5899
G1 X141.213 Y37.005 E7.6316
G1 X140.871 Y37.597 E7.6917
G1 X141.213 Y38.190 E7.7519
G1 X141.623 Y38.427 E7.7936
G1 X141.623 Y44.995 E8.3716
G1 X141.213 Y45.231 E8.4133
G1 X140.871 Y45.823 E8.4735
G1 X141.212 Y46.415 E8.5336
G1 X141.623 Y46.652 E8.5753
G1 X141.623 Y53.220 E9.1534
G1 X141.213 Y53.457 E9.1951
G1 X140.871 Y54.049 E9.2552
G1 X141.213 Y54.641 E9.3154
G1 X141.623 Y54.878 E9.3571
G1 X141.623 Y61.446 E9.9351
G1 X141.213 Y61.683 E9.9768
G1 X140.871 Y62.275 E10.0370
G1 X141.213 Y62.867 E10.0972
G1 X141.623 Y63.104 E10.1389
G1 X141.623 Y69.672 E10.7169
G1 X141.213 Y69.909 E10.7586
G1 X140.871 Y70.501 E10.8187
G1 X141.623 Y71.804 E10.9511
G1 X141.623 Y77.898 E11.4875
G1 X134.823 Y81.824 E12.1785
G1 X133.278 Y80.933 E12.3355
G1 X133.140 Y81.071 E12.3527
G1 X127.206 Y81.071 E12.8749
G1 X127.068 Y80.933 E12.8922
G1 X126.995 Y80.975 E12.8995
G1 X123.351 Y80.975 E13.2202
G1 X123.278 Y80.933 E13.2276
G1 X123.140 Y81.071 E13.2449
G1 X117.206 Y81.071 E13.7670
G1 X117.068 Y80.933 E13.7843
G1 X116.995 Y80.975 E13.7917
G1 X113.351 Y80.975 E14.1124
G1 X113.278 Y80.933 E14.1198
G1 X113.140 Y81.071 E14.1370
G1 X107.206 Y81.071 E14.6592
G1 X107.068 Y80.933 E14.6765
G1 X106.995 Y80.975 E14.6838
G1 X103.351 Y80.975 E15.0045
G1 X103.278 Y80.933 E15.0119
G1 X103.140 Y81.071 E15.0292
G1 X97.206 Y81.071 E15.5514
G1 X97.068 Y80.933 E15.5686
G1 X96.995 Y80.975 E15.5760
G1 X93.351 Y80.975 E15.8967
G1 X93.278 Y80.933 E15.9041
G1 X93.140 Y81.071 E15.9213
G1 X87.206 Y81.071 E16.4435
G1 X87.068 Y80.933 E16.4608
G1 X86.995 Y80.975 E16.4682
G1 X83.351 Y80.975 E16.7889
G1 X83.278 Y80.933 E16.7962
G1 X83.140 Y81.071 E16.8135
G1 X77.206 Y81.071 E17.3357
G1 X77.068 Y80.933 E17.3529
G1 X75.523 Y81.824 E17.5099
G1 X68.723 Y77.898 E18.2009
G1 X68.723 Y71.804 E18.7373
G1 X69.475 Y70.501 E18.8696
G1 X69.133 Y69.909 E18.9298
G1 X68.723 Y69.672 E18.9715
G1 X68.723 Y63.105 E19.5495
G1 X69.133 Y62.868 E19.5912
G1 X69.475 Y62.275 E19.6514
G1 X69.133 Y61.683 E19.7116
G1 X68.723 Y61.446 E19.7532
G1 X68.723 Y54.878 E20.3313
G1 X69.133 Y54.641 E20.3730
G1 X69.475 Y54.049 E20.4331
G1 X69.133 Y53.457 E20.4933
G1 X68.723 Y53.220 E20.5350
G1 X68.723 Y46.652 E21.1130
G1 X69.133 Y46.415 E21.1547
G1 X69.475 Y45.823 E21.2149
G1 X69.133 Y45.231 E21.2750
G1 X68.723 Y44.995 E21.3167
G1 X68.723 Y38.427 E21.8947
G1 X69.133 Y38.190 E21.9364
G1 X69.475 Y37.597 E21.9966
G1 X69.133 Y37.005 E22.0568
G1 X68.723 Y36.769 E22.0985
G1 X68.723 Y30.200 E22.6765
G1 X69.443 Y30.616 F18000
G92 E0.0000
G1 X69.660 Y30.490 E0.0221 F1800
G1 X71.072 Y28.045 E0.2706
G1 X78.544 Y23.731 E1.0299
G1 X81.802 Y23.731 E1.3166
G1 X82.032 Y23.864 E1.3400
G1 X82.504 Y23.391 E1.3988
G1 X87.841 Y23.391 E1.8685
G1 X88.314 Y23.864 E1.9273
G1 X88.544 Y23.731 E1.9506
G1 X91.802 Y23.731 E2.2374
G1 X92.032 Y23.864 E2.2607
G1 X92.504 Y23.391 E2.3196
G1 X97.841 Y23.391 E2.7892
G1 X98.314 Y23.864 E2.8481
G1 X98.544 Y23.731 E2.8714
G1 X101.802 Y23.731 E3.1582
G1 X102.032 Y23.864 E3.1815
G1 X102.504 Y23.391 E3.2404
G1 X107.841 Y23.391 E3.7100
G1 X108.314 Y23.864 E3.7689
G1 X108.544 Y23.731 E3.7922
G1 X111.802 Y23.731 E4.0790
G1 X112.032 Y23.864 E4.1023
G1 X112.504 Y23.391 E4.1611
G1 X117.841 Y23.391 E4.6308
G1 X118.314 Y23.864 E4.6896
G1 X118.544 Y23.731 E4.7130
G1 X121.802 Y23.731 E4.9997
G1 X122.032 Y23.864 E5.0231
G1 X122.504 Y23.391 E5.0819
G1 X127.841 Y23.391 E5.5516
G1 X128.314 Y23.864 E5.6104
G1 X128.544 Y23.731 E5.6338
G1 X131.802 Y23.731 E5.9205
G1 X139.274 Y28.045 E6.6798
G1 X140.685 Y30.490 E6.9283
G1 X140.903 Y30.616 E6.9504
G1 X140.903 Y36.353 E7.4553
G1 X140.685 Y36.478 E7.4774
G1 X140.039 Y37.597 E7.5911
G1 X140.686 Y38.717 E7.7048
G1 X140.903 Y38.842 E7.7269
G1 X140.903 Y44.579 E8.2318
G1 X140.685 Y44.704 E8.2539
G1 X140.039 Y45.823 E8.3676
G1 X140.685 Y46.942 E8.4813
G1 X140.903 Y47.068 E8.5034
G1 X140.903 Y52.805 E9.0083
G1 X140.685 Y52.930 E9.0304
G1 X140.039 Y54.049 E9.1441
G1 X140.685 Y55.168 E9.2578
G1 X140.903 Y55.294 E9.2799
G1 X140.903 Y61.031 E9.7848
G1 X140.686 Y61.156 E9.8069
G1 X140.039 Y62.275 E9.9206
G1 X140.685 Y63.394 E10.0343
G1 X140.903 Y63.520 E10.0564
G1 X140.903 Y69.257 E10.5613
G1 X140.686 Y69.382 E10.5834
G1 X140.039 Y70.501 E10.6971
G1 X140.903 Y71.997 E10.8491
G1 X140.903 Y77.483 E11.3319
G1 X134.823 Y80.993 E11.9497
G1 X133.160 Y80.033 E12.1187
G1 X132.841 Y80.351 E12.1584
G1 X127.504 Y80.351 E12.6280
G1 X127.186 Y80.033 E12.6677
G1 X126.802 Y80.255 E12.7067
G1 X123.544 Y80.255 E12.9934
G1 X123.160 Y80.033 E13.0325
G1 X122.841 Y80.351 E13.0721
G1 X117.504 Y80.351 E13.5418
G1 X117.186 Y80.033 E13.5814
G1 X116.802 Y80.255 E13.6204
G1 X113.544 Y80.255 E13.9072
G1 X113.160 Y80.033 E13.9462
G1 X112.841 Y80.351 E13.9858
G1 X107.504 Y80.351 E14.4555
G1 X107.186 Y80.033 E14.4951
G1 X106.802 Y80.255 E14.5342
G1 X103.544 Y80.255 E14.8209
G1 X103.160 Y80.033 E14.8599
G1 X102.841 Y80.351 E14.8996
G1 X97.504 Y80.351 E15.3692
G1 X97.186 Y80.033 E15.4089
G1 X96.802 Y80.255 E15.4479
G1 X93.544 Y80.255 E15.7346
G1 X93.160 Y80.033 E15.7737
G1 X92.841 Y80.351 E15.8133
G1 X87.504 Y80.351 E16.2830
G1 X87.186 Y80.033 E16.3226
G1 X86.802 Y80.255 E16.3616
G1 X83.544 Y80.255 E16.6484
G1 X83.160 Y80.033 E16.6874
G1 X82.841 Y80.351 E16.7270
G1 X77.504 Y80.351 E17.1967
G1 X77.186 Y80.033 E17.2364
G1 X75.523 Y80.993 E17.4054
G1 X69.443 Y77.483 E18.0232
G1 X69.443 Y71.997 E18.5060
G1 X70.306 Y70.501 E18.6580
G1 X69.660 Y69.382 E18.7717
G1 X69.443 Y69.257 E18.7938
G1 X69.443 Y63.520 E19.2987
G1 X69.660 Y63.395 E19.3208
G1 X70.306 Y62.275 E19.4345
G1 X69.660 Y61.156 E19.5482
G1 X69.443 Y61.031 E19.5703
G1 X69.443 Y55.294 E20.0752
G1 X69.660 Y55.168 E20.0973
G1 X70.306 Y54.049 E20.2110
G1 X69.660 Y52.930 E20.3247
G1 X69.443 Y52.805 E20.3468
G1 X69.443 Y47.068 E20.8517
G1 X69.660 Y46.942 E20.8738
G1 X70.306 Y45.823 E20.9875
G1 X69.660 Y44.704 E21.1012
G1 X69.443 Y44.579 E21.1233
G1 X69.443 Y38.842 E21.6281
G1 X69.660 Y38.717 E21.6502
G1 X70.306 Y37.597 E21.7640
G1 X69.660 Y36.478 E21.8777
G1 X69.443 Y36.353 E21.8998
G1 X69.443 Y30.616 E22.4047
G1 X70.163 Y31.032 F18000
G92 E0.0000
G1 X70.187 Y31.018 E0.0025 F1800
G1 X71.599 Y28.572 E0.2510
G1 X78.737 Y24.451 E0.9763
G1 X81.609 Y24.451 E1.2291
G1 X82.150 Y24.764 E1.2841
G1 X82.803 Y24.111 E1.3653
G1 X87.543 Y24.111 E1.7825
G1 X88.196 Y24.764 E1.8637
G1 X88.737 Y24.451 E1.9187
G1 X91.609 Y24.451 E2.1715
G1 X92.150 Y24.764 E2.2264
G1 X92.803 Y24.111 E2.3077
G1 X97.543 Y24.111 E2.7248
G1 X98.196 Y24.764 E2.8060
G1 X98.737 Y24.451 E2.8610
G1 X101.609 Y24.451 E3.1138
G1 X102.150 Y24.764 E3.1688
G1 X102.803 Y24.111 E3.2500
G1 X107.543 Y24.111 E3.6672
G1 X108.196 Y24.764 E3.7484
G1 X108.737 Y24.451 E3.8034
G1 X111.609 Y24.451 E4.0562
G1 X112.150 Y24.764 E4.1112
G1 X112.803 Y24.111 E4.1924
G1 X117.543 Y24.111 E4.6096
G1 X118.196 Y24.764 E4.6908
G1 X118.737 Y24.451 E4.7458
G1 X121.609 Y24.451 E4.9986
G1 X122.150 Y24.764 E5.0536
G1 X122.803 Y24.111 E5.1348
G1 X127.543 Y24.111 E5.5519
G1 X128.196 Y24.764 E5.6331
G1 X128.737 Y24.451 E5.6881
G1 X131.609 Y24.451 E5.9409
G1 X138.747 Y28.572 E6.6663
G1 X140.158 Y31.018 E6.9147
G1 X140.183 Y31.032 E6.9172
G1 X140.183 Y35.937 E7.3489
G1 X140.158 Y35.951 E7.3514
G1 X139.208 Y37.597 E7.5187
G1 X140.158 Y39.244 E7.6860
G1 X140.183 Y39.258 E7.6885
G1 X140.183 Y44.163 E8.1202
G1 X140.158 Y44.177 E8.1227
G1 X139.208 Y45.823 E8.2900
G1 X140.158 Y47.470 E8.4572
G1 X140.183 Y47.484 E8.4597
G1 X140.183 Y52.389 E8.8914
G1 X140.158 Y52.403 E8.8939
G1 X139.208 Y54.049 E9.0612
G1 X140.158 Y55.696 E9.2285
G1 X140.183 Y55.710 E9.2310
G1 X140.183 Y60.615 E9.6627
G1 X140.158 Y60.629 E9.6652
G1 X139.208 Y62.275 E9.8325
G1 X140.158 Y63.922 E9.9997
G1 X140.183 Y63.936 E10.0022
G1 X140.183 Y68.841 E10.4339
G1 X140.158 Y68.855 E10.4364
G1 X139.208 Y70.501 E10.6037
G1 X140.183 Y72.190 E10.7753
G1 X140.183 Y77.067 E11.2045
G1 X134.823 Y80.162 E11.7492
G1 X133.041 Y79.133 E11.9302
G1 X132.543 Y79.631 E11.9923
G1 X127.803 Y79.631 E12.4094
G1 X127.304 Y79.133 E12.4715
G1 X126.609 Y79.535 E12.5421
G1 X123.737 Y79.535 E12.7949
G1 X123.041 Y79.133 E12.8656
G1 X122.543 Y79.631 E12.9276
G1 X117.803 Y79.631 E13.3448
G1 X117.304 Y79.133 E13.4068
G1 X116.609 Y79.535 E13.4774
G1 X113.737 Y79.535 E13.7302
G1 X113.041 Y79.133 E13.8009
G1 X112.543 Y79.631 E13.8629
G1 X107.803 Y79.631 E14.2801
G1 X107.304 Y79.133 E14.3421
G1 X106.609 Y79.535 E14.4128
G1 X103.737 Y79.535 E14.6656
G1 X103.041 Y79.133 E14.7362
G1 X102.543 Y79.631 E14.7982
G1 X97.803 Y79.631 E15.2154
G1 X97.304 Y79.133 E15.2774
G1 X96.609 Y79.535 E15.3481
G1 X93.737 Y79.535 E15.6009
G1 X93.041 Y79.133 E15.6715
G1 X92.543 Y79.631 E15.7336
G1 X87.803 Y79.631 E16.1507
G1 X87.304 Y79.133 E16.2128
G1 X86.609 Y79.535 E16.2834
G1 X83.737 Y79.535 E16.5362
G1 X83.041 Y79.133 E16.6069
G1 X82.543 Y79.631 E16.6689
G1 X77.803 Y79.631 E17.0861
G1 X77.304 Y79.133 E17.1481
G1 X75.523 Y80.162 E17.3291
G1 X70.163 Y77.067 E17.8738
G1 X70.163 Y72.190 E18.3030
G1 X71.138 Y70.501 E18.4746
G1 X70.187 Y68.855 E18.6419
G1 X70.163 Y68.841 E18.6444
G1 X70.163 Y63.936 E19.0761
G1 X70.187 Y63.922 E19.0786
G1 X71.138 Y62.275 E19.2459
G1 X70.187 Y60.629 E19.4132
G1 X70.163 Y60.615 E19.4156
G1 X70.163 Y55.710 E19.8474
G1 X70.187 Y55.696 E19.8498
G1 X71.138 Y54.049 E20.0171
G1 X70.187 Y52.403 E20.1844
G1 X70.163 Y52.389 E20.1869
G1 X70.163 Y47.484 E20.6186
G1 X70.187 Y47.470 E20.6211
G1 X71.138 Y45.823 E20.7884
G1 X70.187 Y44.177 E20.9557
G1 X70.163 Y44.163 E20.9581
G1 X70.163 Y39.258 E21.3899
G1 X70.187 Y39.244 E21.3923
G1 X71.138 Y37.597 E21.5596
G1 X70.187 Y35.951 E21.7269
