; G-Code generated by Simplify3D(R) Version 4.1.2
; Apr 3, 2022 at 11:17:46 PM
; Settings Summary
;   processName,Process1
;   applyToModels,Part1-petg
;   profileName,HSBot (modified)
;   profileVersion,2019-11-09 11:59:44
;   baseProfile,Default
;   printMaterial,PETG - Eryone
;   printQuality,Medium
;   printExtruders,
;   extruderName,Extruder 1,Extruder - Lite
;   extruderToolheadNumber,0,1
;   extruderDiameter,0.4,0.4
;   extruderAutoWidth,1,1
;   extruderWidth,0.48,0.48
;   extrusionMultiplier,1.03,0.93
;   extruderUseRetract,0,0
;   extruderRetractionDistance,4,1
;   extruderExtraRestartDistance,0,0
;   extruderRetractionZLift,0,0
;   extruderRetractionSpeed,3600,1800
;   extruderUseCoasting,1,0
;   extruderCoastingDistance,0.2,0.2
;   extruderUseWipe,0,0
;   extruderWipeDistance,1,5
;   primaryExtruder,0
;   layerHeight,0.2
;   topSolidLayers,3
;   bottomSolidLayers,3
;   perimeterOutlines,3
;   printPerimetersInsideOut,1
;   startPointOption,2
;   startPointOriginX,0
;   startPointOriginY,0
;   sequentialIslands,0
;   spiralVaseMode,0
;   firstLayerHeightPercentage,150
;   firstLayerWidthPercentage,150
;   firstLayerUnderspeed,0.5
;   useRaft,0
;   raftExtruder,0
;   raftTopLayers,3
;   raftBaseLayers,2
;   raftOffset,3
;   raftSeparationDistance,0.18
;   raftTopInfill,100
;   aboveRaftSpeedMultiplier,0.3
;   useSkirt,1
;   skirtExtruder,0
;   skirtLayers,1
;   skirtOutlines,3
;   skirtOffset,5
;   usePrimePillar,0
;   primePillarExtruder,999
;   primePillarWidth,12
;   primePillarLocation,7
;   primePillarSpeedMultiplier,1
;   useOozeShield,0
;   oozeShieldExtruder,999
;   oozeShieldOffset,2
;   oozeShieldOutlines,1
;   oozeShieldSidewallShape,1
;   oozeShieldSidewallAngle,30
;   oozeShieldSpeedMultiplier,1
;   infillExtruder,0
;   internalInfillPattern,Fast Honeycomb
;   externalInfillPattern,Rectilinear
;   infillPercentage,15
;   outlineOverlapPercentage,15
;   infillExtrusionWidthPercentage,100
;   minInfillLength,5
;   infillLayerInterval,1
;   internalInfillAngles,0
;   overlapInternalInfillAngles,0
;   externalInfillAngles,45,-45
;   generateSupport,0
;   supportExtruder,0
;   supportInfillPercentage,30
;   supportExtraInflation,0
;   supportBaseLayers,1
;   denseSupportExtruder,0
;   denseSupportLayers,0
;   denseSupportInfillPercentage,70
;   supportLayerInterval,1
;   supportHorizontalPartOffset,0.3
;   supportUpperSeparationLayers,1
;   supportLowerSeparationLayers,1
;   supportType,0
;   supportGridSpacing,2
;   maxOverhangAngle,45
;   supportAngles,0
;   temperatureName,Extruder 1,Bed
;   temperatureNumber,0,0
;   temperatureSetpointCount,1,1
;   temperatureSetpointLayers,1,1
;   temperatureSetpointTemperatures,225,85
;   temperatureStabilizeAtStartup,1,1
;   temperatureHeatedBed,0,1
;   fanLayers,1,2,3
;   fanSpeeds,0,15,15
;   blipFanToFullPower,1
;   adjustSpeedForCooling,1
;   minSpeedLayerTime,15
;   minCoolingSpeedSlowdown,20
;   increaseFanForCooling,1
;   minFanLayerTime,45
;   maxCoolingFanSpeed,40
;   increaseFanForBridging,1
;   bridgingFanSpeed,80
;   use5D,1
;   relativeEdistances,0
;   allowEaxisZeroing,1
;   independentExtruderAxes,0
;   includeM10123,0
;   stickySupport,1
;   applyToolheadOffsets,0
;   gcodeXoffset,0
;   gcodeYoffset,0
;   gcodeZoffset,0
;   overrideMachineDefinition,1
;   machineTypeOverride,0
;   strokeXoverride,210
;   strokeYoverride,210
;   strokeZoverride,150
;   originOffsetXoverride,0
;   originOffsetYoverride,0
;   originOffsetZoverride,0
;   homeXdirOverride,-1
;   homeYdirOverride,-1
;   homeZdirOverride,-1
;   flipXoverride,1
;   flipYoverride,-1
;   flipZoverride,1
;   toolheadOffsets,0,0|0,0|0,0|0,0|0,0|0,0
;   overrideFirmwareConfiguration,0
;   firmwareTypeOverride,RepRap (Marlin/Repetier/Sprinter)
;   GPXconfigOverride,r2
;   baudRateOverride,115200
;   overridePrinterModels,0
;   printerModelsOverride
;   startingGcode,G28 ; home all axes,G32 ; run bed.g -- probe bed and enable compensation
;   layerChangeGcode,
;   retractionGcode,
;   toolChangeGcode,
;   endingGcode,M0 ; call stop.g
;   exportFileFormat,gcode
;   celebration,0
;   celebrationSong,Random Song
;   postProcessing,
;   defaultSpeed,4800
;   outlineUnderspeed,0.5
;   solidInfillUnderspeed,0.8
;   supportUnderspeed,0.8
;   rapidXYspeed,18000
;   rapidZspeed,1200
;   minBridgingArea,50
;   bridgingExtraInflation,0
;   bridgingExtrusionMultiplier,0.96
;   bridgingSpeedMultiplier,1
;   useFixedBridgingAngle,0
;   fixedBridgingAngle,0
;   applyBridgingToPerimeters,0
;   filamentDiameters,1.75|1.75|1.75|1.75|1.75|1.75
;   filamentPricesPerKg,25|46|46|46|46|46
;   filamentDensities,1.25|1.25|1.25|1.25|1.25|1.25
;   useMinPrintHeight,0
;   minPrintHeight,0
;   useMaxPrintHeight,0
;   maxPrintHeight,0
;   useDiaphragm,1
;   diaphragmLayerInterval,20
;   robustSlicing,1
;   mergeAllIntoSolid,0
;   onlyRetractWhenCrossingOutline,1
;   retractBetweenLayers,0
;   useRetractionMinTravel,1
;   retractionMinTravel,5
;   retractWhileWiping,1
;   onlyWipeOutlines,1
;   avoidCrossingOutline,1
;   maxMovementDetourFactor,5
;   toolChangeRetractionDistance,12
;   toolChangeExtraRestartDistance,0
;   toolChangeRetractionSpeed,600
;   externalThinWallType,1
;   internalThinWallType,2
;   thinWallAllowedOverlapPercentage,10
;   singleExtrusionMinLength,0.1
;   singleExtrusionMinPrintingWidthPercentage,50
;   singleExtrusionMaxPrintingWidthPercentage,200
;   singleExtrusionEndpointExtension,0.2
;   horizontalSizeCompensation,0
G90
M82
M106 S0
M140 S85
M190 S85
G10 S225 R{225-50} P0
M116 P0
G28 ; home all axes
G32 ; run bed.g -- probe bed and enable compensation
; process Process1
; layer 1, Z = 0.300
T0
; feature skirt
; tool H0.300 W0.720
G1 Z0.300 F1200
G1 X66.520 Y126.938 F18000
G92 E0.0000
G1 X70.164 Y126.938 E0.3371 F2400
G1 X73.342 Y128.773 E0.6765
G1 X76.520 Y126.938 E1.0159
G1 X80.165 Y126.938 E1.3530
G1 X83.342 Y128.773 E1.6924
G1 X86.520 Y126.938 E2.0318
G1 X90.165 Y126.938 E2.3689
G1 X93.342 Y128.773 E2.7083
G1 X96.520 Y126.938 E3.0478
G1 X100.165 Y126.938 E3.3848
G1 X103.342 Y128.773 E3.7242
G1 X106.520 Y126.938 E4.0637
G1 X110.165 Y126.938 E4.4007
G1 X113.342 Y128.773 E4.7402
G1 X116.520 Y126.938 E5.0796
G1 X120.165 Y126.938 E5.4166
G1 X123.342 Y128.773 E5.7561
G1 X126.520 Y126.938 E6.0955
G1 X130.165 Y126.938 E6.4326
G1 X133.342 Y128.773 E6.7720
G1 X136.520 Y126.938 E7.1114
G1 X140.165 Y126.938 E7.4485
G1 X143.571 Y128.905 E7.8123
G1 X145.392 Y132.061 E8.1493
G1 X145.392 Y185.623 E13.1036
G1 X143.571 Y188.779 E13.4407
G1 X140.165 Y190.745 E13.8044
G1 X136.520 Y190.745 E14.1415
G1 X133.342 Y188.911 E14.4809
G1 X130.165 Y190.745 E14.8204
G1 X126.520 Y190.745 E15.1574
G1 X123.342 Y188.911 E15.4969
G1 X120.165 Y190.745 E15.8363
G1 X116.520 Y190.745 E16.1733
G1 X113.342 Y188.911 E16.5128
G1 X110.165 Y190.745 E16.8522
G1 X106.520 Y190.745 E17.1893
G1 X103.342 Y188.911 E17.5287
G1 X100.165 Y190.745 E17.8681
G1 X96.520 Y190.745 E18.2052
G1 X93.342 Y188.911 E18.5446
G1 X90.165 Y190.745 E18.8840
G1 X86.520 Y190.745 E19.2211
G1 X83.342 Y188.911 E19.5605
G1 X80.165 Y190.745 E19.8999
G1 X76.520 Y190.745 E20.2370
G1 X73.342 Y188.911 E20.5764
G1 X70.165 Y190.745 E20.9158
G1 X66.520 Y190.745 E21.2529
G1 X63.114 Y188.779 E21.6167
G1 X61.292 Y185.623 E21.9537
G1 X61.292 Y132.061 E26.9081
G1 X63.114 Y128.905 E27.2451
G1 X66.520 Y126.938 E27.6089
G1 X66.713 Y127.658 F18000
G92 E0.0000
G1 X69.972 Y127.658 E0.3014 F2400
G1 X73.342 Y129.605 E0.6614
G1 X76.713 Y127.658 E1.0214
G1 X79.972 Y127.658 E1.3228
G1 X83.342 Y129.605 E1.6829
G1 X86.713 Y127.658 E2.0429
G1 X89.972 Y127.658 E2.3443
G1 X93.342 Y129.605 E2.7043
G1 X96.713 Y127.658 E3.0643
G1 X99.972 Y127.658 E3.3657
G1 X103.342 Y129.605 E3.7257
G1 X106.713 Y127.658 E4.0857
G1 X109.972 Y127.658 E4.3871
G1 X113.342 Y129.605 E4.7472
G1 X116.713 Y127.658 E5.1072
G1 X119.972 Y127.658 E5.4086
G1 X123.342 Y129.605 E5.7686
G1 X126.713 Y127.658 E6.1286
G1 X129.972 Y127.658 E6.4300
G1 X133.342 Y129.605 E6.7900
G1 X136.713 Y127.658 E7.1500
G1 X139.972 Y127.658 E7.4514
G1 X143.043 Y129.432 E7.7795
G1 X144.672 Y132.254 E8.0809
G1 X144.672 Y185.430 E12.9995
G1 X143.043 Y188.252 E13.3009
G1 X139.972 Y190.025 E13.6289
G1 X136.713 Y190.025 E13.9303
G1 X133.342 Y188.079 E14.2904
G1 X129.972 Y190.025 E14.6504
G1 X126.713 Y190.025 E14.9518
G1 X123.342 Y188.079 E15.3118
G1 X119.972 Y190.025 E15.6718
G1 X116.713 Y190.025 E15.9732
G1 X113.342 Y188.079 E16.3332
G1 X109.972 Y190.025 E16.6933
G1 X106.713 Y190.025 E16.9946
G1 X103.342 Y188.079 E17.3547
G1 X99.972 Y190.025 E17.7147
G1 X96.713 Y190.025 E18.0161
G1 X93.342 Y188.079 E18.3761
G1 X89.972 Y190.025 E18.7361
G1 X86.713 Y190.025 E19.0375
G1 X83.342 Y188.079 E19.3975
G1 X79.972 Y190.025 E19.7576
G1 X76.713 Y190.025 E20.0589
G1 X73.342 Y188.079 E20.4190
G1 X69.972 Y190.025 E20.7790
G1 X66.713 Y190.025 E21.0804
G1 X63.642 Y188.252 E21.4085
G1 X62.012 Y185.430 E21.7098
G1 X62.012 Y132.254 E26.6285
G1 X63.642 Y129.432 E26.9298
G1 X66.713 Y127.658 E27.2579
G1 X66.906 Y128.378 F18000
G92 E0.0000
G1 X69.779 Y128.378 E0.2657 F2400
G1 X73.342 Y130.436 E0.6463
G1 X76.906 Y128.378 E1.0270
G1 X79.779 Y128.378 E1.2927
G1 X83.342 Y130.436 E1.6733
G1 X86.906 Y128.378 E2.0539
G1 X89.779 Y128.378 E2.3196
G1 X93.342 Y130.436 E2.7002
G1 X96.906 Y128.378 E3.0809
G1 X99.779 Y128.378 E3.3466
G1 X103.342 Y130.436 E3.7272
G1 X106.906 Y128.378 E4.1078
G1 X109.779 Y128.378 E4.3735
G1 X113.342 Y130.436 E4.7542
G1 X116.906 Y128.378 E5.1348
G1 X119.779 Y128.378 E5.4005
G1 X123.342 Y130.436 E5.7811
G1 X126.906 Y128.378 E6.1617
G1 X129.779 Y128.378 E6.4274
G1 X133.342 Y130.436 E6.8081
G1 X136.906 Y128.378 E7.1887
G1 X139.779 Y128.378 E7.4544
G1 X142.516 Y129.959 E7.7468
G1 X143.952 Y132.447 E8.0125
G1 X143.952 Y185.237 E12.8954
G1 X142.516 Y187.725 E13.1611
G1 X139.779 Y189.305 E13.4535
G1 X136.906 Y189.305 E13.7192
G1 X133.342 Y187.248 E14.0998
G1 X129.779 Y189.305 E14.4804
G1 X126.906 Y189.305 E14.7461
G1 X123.342 Y187.248 E15.1268
G1 X119.779 Y189.305 E15.5074
G1 X116.906 Y189.305 E15.7731
G1 X113.342 Y187.248 E16.1537
G1 X109.779 Y189.305 E16.5343
G1 X106.906 Y189.305 E16.8000
G1 X103.342 Y187.248 E17.1807
G1 X99.779 Y189.305 E17.5613
G1 X96.906 Y189.305 E17.8270
G1 X93.342 Y187.248 E18.2076
G1 X89.779 Y189.305 E18.5883
G1 X86.906 Y189.305 E18.8539
G1 X83.342 Y187.248 E19.2346
G1 X79.779 Y189.305 E19.6152
G1 X76.906 Y189.305 E19.8809
G1 X73.342 Y187.248 E20.2615
G1 X69.779 Y189.305 E20.6422
G1 X66.906 Y189.305 E20.9079
G1 X64.169 Y187.725 E21.2003
G1 X62.732 Y185.237 E21.4659
G1 X62.732 Y132.447 E26.3489
G1 X64.169 Y129.959 E26.6145
G1 X66.906 Y128.378 E26.9069
; feature external single extrusion
; tool H0.300 W0.500
G1 X68.268 Y133.899 F18000
G92 E0.0000
; tool H0.300 W0.553
G1 X68.370 Y134.075 E0.0144 F1200
; tool H0.300 W0.610
G1 X68.425 Y134.170 E0.0231
; tool H0.300 W0.620
G1 X68.380 Y134.266 E0.0316
; tool H0.300 W0.547
G1 X68.352 Y134.362 E0.0386
; tool H0.300 W0.510
G1 X68.342 Y134.458 E0.0449
; tool H0.300 W0.500
G1 X68.342 Y134.554 E0.0510
G1 X68.342 Y140.500 E0.4330
G1 X68.342 Y140.700 F1200
G1 X68.268 Y141.155 F18000
G92 E0.0000
; tool H0.300 W0.606
G1 X68.423 Y140.887 E0.0241 F1200
; tool H0.300 W0.620
G1 X68.525 Y140.875 E0.0323
; tool H0.300 W0.551
G1 X68.622 Y140.853 E0.0393
; tool H0.300 W0.511
G1 X68.709 Y140.815 E0.0455
; tool H0.300 W0.500
G1 X68.791 Y140.768 E0.0516
; tool H0.300 W0.500
G1 X72.886 Y138.404 E0.3553
G1 X72.967 Y138.356 E0.3614
; tool H0.300 W0.504
G1 X73.027 Y138.327 E0.3657
; tool H0.300 W0.522
G1 X73.092 Y138.305 E0.3703
; tool H0.300 W0.561
G1 X73.168 Y138.290 E0.3759
; tool H0.300 W0.626
G1 X73.259 Y138.284 E0.3832
; tool H0.300 W0.687
G1 X73.342 Y138.323 E0.3913
; tool H0.300 W0.642
G1 X73.342 Y138.429 E0.4000
; tool H0.300 W0.547
G1 X73.342 Y138.506 E0.4055
; tool H0.300 W0.509
G1 X73.342 Y138.573 E0.4099
; tool H0.300 W0.500
G1 X73.342 Y138.667 E0.4159
G1 X73.342 Y144.912 E0.8171
G1 X73.342 Y145.007 E0.8231
; tool H0.300 W0.509
G1 X73.342 Y145.074 E0.8275
; tool H0.300 W0.547
G1 X73.342 Y145.151 E0.8330
; tool H0.300 W0.642
G1 X73.342 Y145.257 E0.8417
; tool H0.300 W0.687
G1 X73.259 Y145.296 E0.8498
; tool H0.300 W0.626
G1 X73.168 Y145.290 E0.8571
; tool H0.300 W0.561
G1 X73.092 Y145.275 E0.8627
; tool H0.300 W0.522
G1 X73.027 Y145.253 E0.8673
; tool H0.300 W0.504
G1 X72.967 Y145.223 E0.8716
; tool H0.300 W0.500
G1 X72.886 Y145.176 E0.8777
G1 X68.791 Y142.812 E1.1814
G1 X68.618 Y142.712 F1200
G1 X68.268 Y142.425 F18000
G92 E0.0000
; tool H0.300 W0.553
G1 X68.370 Y142.601 E0.0144 F1200
; tool H0.300 W0.610
G1 X68.425 Y142.696 E0.0231
; tool H0.300 W0.620
G1 X68.380 Y142.792 E0.0316
; tool H0.300 W0.547
G1 X68.352 Y142.888 E0.0386
; tool H0.300 W0.510
G1 X68.342 Y142.984 E0.0449
; tool H0.300 W0.500
G1 X68.342 Y143.080 E0.0511
G1 X68.342 Y149.026 E0.4330
G1 X68.342 Y149.226 F1200
; tool H0.300 W0.500
G1 X68.268 Y149.681 F18000
G92 E0.0000
; tool H0.300 W0.606
G1 X68.423 Y149.413 E0.0241 F1200
; tool H0.300 W0.620
G1 X68.525 Y149.401 E0.0323
; tool H0.300 W0.551
G1 X68.622 Y149.379 E0.0393
; tool H0.300 W0.511
G1 X68.709 Y149.341 E0.0455
; tool H0.300 W0.500
G1 X68.791 Y149.294 E0.0516
; tool H0.300 W0.500
G1 X72.886 Y146.930 E0.3553
G1 X72.967 Y146.882 E0.3614
; tool H0.300 W0.504
G1 X73.027 Y146.853 E0.3657
; tool H0.300 W0.522
G1 X73.092 Y146.831 E0.3703
; tool H0.300 W0.561
G1 X73.168 Y146.816 E0.3759
; tool H0.300 W0.626
G1 X73.259 Y146.810 E0.3832
; tool H0.300 W0.687
G1 X73.342 Y146.849 E0.3913
; tool H0.300 W0.642
G1 X73.342 Y146.955 E0.4000
; tool H0.300 W0.547
G1 X73.342 Y147.032 E0.4055
; tool H0.300 W0.509
G1 X73.342 Y147.099 E0.4099
; tool H0.300 W0.500
G1 X73.342 Y147.193 E0.4159
G1 X73.342 Y153.438 E0.8171
G1 X73.342 Y153.533 E0.8231
; tool H0.300 W0.509
G1 X73.342 Y153.600 E0.8275
; tool H0.300 W0.547
G1 X73.342 Y153.677 E0.8330
; tool H0.300 W0.642
G1 X73.342 Y153.783 E0.8417
; tool H0.300 W0.687
G1 X73.259 Y153.822 E0.8498
; tool H0.300 W0.626
G1 X73.168 Y153.816 E0.8571
; tool H0.300 W0.561
G1 X73.092 Y153.801 E0.8627
; tool H0.300 W0.522
G1 X73.027 Y153.779 E0.8673
; tool H0.300 W0.504
G1 X72.967 Y153.749 E0.8716
; tool H0.300 W0.500
G1 X72.886 Y153.702 E0.8777
G1 X68.791 Y151.338 E1.1814
G1 X68.618 Y151.238 F1200
; tool H0.300 W0.500
G1 X68.268 Y150.951 F18000
G92 E0.0000
; tool H0.300 W0.553
G1 X68.370 Y151.127 E0.0144 F1200
; tool H0.300 W0.610
G1 X68.425 Y151.222 E0.0231
; tool H0.300 W0.620
G1 X68.380 Y151.318 E0.0316
; tool H0.300 W0.547
G1 X68.352 Y151.414 E0.0386
; tool H0.300 W0.510
G1 X68.342 Y151.510 E0.0449
; tool H0.300 W0.500
G1 X68.342 Y151.606 E0.0511
G1 X68.342 Y157.552 E0.4330
G1 X68.342 Y157.752 F1200
; tool H0.300 W0.500
G1 X68.268 Y158.207 F18000
G92 E0.0000
; tool H0.300 W0.606
G1 X68.423 Y157.939 E0.0241 F1200
; tool H0.300 W0.620
G1 X68.525 Y157.927 E0.0323
; tool H0.300 W0.551
G1 X68.622 Y157.905 E0.0393
; tool H0.300 W0.511
G1 X68.709 Y157.867 E0.0455
; tool H0.300 W0.500
G1 X68.791 Y157.820 E0.0516
; tool H0.300 W0.500
G1 X72.886 Y155.456 E0.3553
G1 X72.967 Y155.408 E0.3614
; tool H0.300 W0.504
G1 X73.027 Y155.379 E0.3657
; tool H0.300 W0.522
G1 X73.092 Y155.357 E0.3703
; tool H0.300 W0.561
G1 X73.168 Y155.342 E0.3759
; tool H0.300 W0.626
G1 X73.259 Y155.336 E0.3832
; tool H0.300 W0.687
G1 X73.342 Y155.375 E0.3913
; tool H0.300 W0.642
G1 X73.342 Y155.481 E0.4000
; tool H0.300 W0.547
G1 X73.342 Y155.558 E0.4055
; tool H0.300 W0.509
G1 X73.342 Y155.625 E0.4099
; tool H0.300 W0.500
G1 X73.342 Y155.719 E0.4159
G1 X73.342 Y161.964 E0.8171
G1 X73.342 Y162.059 E0.8231
; tool H0.300 W0.509
G1 X73.342 Y162.126 E0.8275
; tool H0.300 W0.547
G1 X73.342 Y162.203 E0.8330
; tool H0.300 W0.642
G1 X73.342 Y162.309 E0.8417
; tool H0.300 W0.687
G1 X73.259 Y162.348 E0.8498
; tool H0.300 W0.626
G1 X73.168 Y162.342 E0.8571
; tool H0.300 W0.561
G1 X73.092 Y162.327 E0.8627
; tool H0.300 W0.522
G1 X73.027 Y162.305 E0.8673
; tool H0.300 W0.504
G1 X72.967 Y162.275 E0.8716
; tool H0.300 W0.500
G1 X72.886 Y162.228 E0.8777
G1 X68.791 Y159.864 E1.1814
G1 X68.618 Y159.764 F1200
G1 X68.268 Y159.477 F18000
G92 E0.0000
; tool H0.300 W0.553
G1 X68.370 Y159.653 E0.0144 F1200
