; G-Code generated by Simplify3D(R) Version 4.1.2
; Apr 2, 2022 at 10:34:37 PM
; Settings Summary
;   processName,Process1
;   applyToModels,Part1-filaflex
;   profileName,HSBot
;   profileVersion,2019-11-09 11:59:44
;   baseProfile,Default
;   printMaterial,Filaflex 82A
;   printQuality,Medium
;   printExtruders,
;   extruderName,Extruder 1,Extruder - Lite
;   extruderToolheadNumber,0,1
;   extruderDiameter,0.4,0.4
;   extruderAutoWidth,1,1
;   extruderWidth,0.48,0.48
;   extrusionMultiplier,0.95,0.93
;   extruderUseRetract,0,1
;   extruderRetractionDistance,6,1
;   extruderExtraRestartDistance,0,0
;   extruderRetractionZLift,0,0
;   extruderRetractionSpeed,2400,1800
;   extruderUseCoasting,1,0
;   extruderCoastingDistance,0.2,0.2
;   extruderUseWipe,0,0
;   extruderWipeDistance,1,5
;   primaryExtruder,0
;   layerHeight,0.2
;   topSolidLayers,3
;   bottomSolidLayers,3
;   perimeterOutlines,3
;   printPerimetersInsideOut,1
;   startPointOption,2
;   startPointOriginX,0
;   startPointOriginY,0
;   sequentialIslands,0
;   spiralVaseMode,0
;   firstLayerHeightPercentage,150
;   firstLayerWidthPercentage,150
;   firstLayerUnderspeed,0.5
;   useRaft,0
;   raftExtruder,0
;   raftTopLayers,3
;   raftBaseLayers,2
;   raftOffset,3
;   raftSeparationDistance,0.18
;   raftTopInfill,100
;   aboveRaftSpeedMultiplier,0.3
;   useSkirt,1
;   skirtExtruder,0
;   skirtLayers,1
;   skirtOutlines,3
;   skirtOffset,5
;   usePrimePillar,0
;   primePillarExtruder,999
;   primePillarWidth,12
;   primePillarLocation,7
;   primePillarSpeedMultiplier,1
;   useOozeShield,0
;   oozeShieldExtruder,999
;   oozeShieldOffset,2
;   oozeShieldOutlines,1
;   oozeShieldSidewallShape,1
;   oozeShieldSidewallAngle,30
;   oozeShieldSpeedMultiplier,1
;   infillExtruder,0
;   internalInfillPattern,Fast Honeycomb
;   externalInfillPattern,Rectilinear
;   infillPercentage,15
;   outlineOverlapPercentage,15
;   infillExtrusionWidthPercentage,100
;   minInfillLength,5
;   infillLayerInterval,1
;   internalInfillAngles,0
;   overlapInternalInfillAngles,0
;   externalInfillAngles,45,-45
;   generateSupport,0
;   supportExtruder,0
;   supportInfillPercentage,30
;   supportExtraInflation,0
;   supportBaseLayers,1
;   denseSupportExtruder,0
;   denseSupportLayers,0
;   denseSupportInfillPercentage,70
;   supportLayerInterval,1
;   supportHorizontalPartOffset,0.3
;   supportUpperSeparationLayers,1
;   supportLowerSeparationLayers,1
;   supportType,1
;   supportGridSpacing,3
;   maxOverhangAngle,45
;   supportAngles,0
;   temperatureName,Extruder 1,Bed
;   temperatureNumber,0,0
;   temperatureSetpointCount,1,1
;   temperatureSetpointLayers,1,1
;   temperatureSetpointTemperatures,245,55
;   temperatureStabilizeAtStartup,1,1
;   temperatureHeatedBed,0,1
;   fanLayers,1,2,3
;   fanSpeeds,0,15,15
;   blipFanToFullPower,1
;   adjustSpeedForCooling,1
;   minSpeedLayerTime,15
;   minCoolingSpeedSlowdown,20
;   increaseFanForCooling,0
;   minFanLayerTime,45
;   maxCoolingFanSpeed,40
;   increaseFanForBridging,0
;   bridgingFanSpeed,80
;   use5D,1
;   relativeEdistances,0
;   allowEaxisZeroing,1
;   independentExtruderAxes,0
;   includeM10123,0
;   stickySupport,1
;   applyToolheadOffsets,0
;   gcodeXoffset,0
;   gcodeYoffset,0
;   gcodeZoffset,0
;   overrideMachineDefinition,1
;   machineTypeOverride,0
;   strokeXoverride,210
;   strokeYoverride,210
;   strokeZoverride,150
;   originOffsetXoverride,0
;   originOffsetYoverride,0
;   originOffsetZoverride,0
;   homeXdirOverride,-1
;   homeYdirOverride,-1
;   homeZdirOverride,-1
;   flipXoverride,1
;   flipYoverride,-1
;   flipZoverride,1
;   toolheadOffsets,0,0|0,0|0,0|0,0|0,0|0,0
;   overrideFirmwareConfiguration,0
;   firmwareTypeOverride,RepRap (Marlin/Repetier/Sprinter)
;   GPXconfigOverride,r2
;   baudRateOverride,115200
;   overridePrinterModels,0
;   printerModelsOverride
;   startingGcode,G28 ; home all axes,G32 ; run bed.g -- probe bed and enable compensation
;   layerChangeGcode,
;   retractionGcode,
;   toolChangeGcode,
;   endingGcode,M0 ; call stop.g
;   exportFileFormat,gcode
;   celebration,0
;   celebrationSong,Random Song
;   postProcessing,
;   defaultSpeed,1800
;   outlineUnderspeed,0.5
;   solidInfillUnderspeed,0.8
;   supportUnderspeed,0.8
;   rapidXYspeed,18000
;   rapidZspeed,1200
;   minBridgingArea,50
;   bridgingExtraInflation,0
;   bridgingExtrusionMultiplier,0.96
;   bridgingSpeedMultiplier,1
;   useFixedBridgingAngle,0
;   fixedBridgingAngle,0
;   applyBridgingToPerimeters,0
;   filamentDiameters,1.75|1.75|1.75|1.75|1.75|1.75
;   filamentPricesPerKg,25|46|46|46|46|46
;   filamentDensities,1.25|1.25|1.25|1.25|1.25|1.25
;   useMinPrintHeight,0
;   minPrintHeight,0
;   useMaxPrintHeight,0
;   maxPrintHeight,0
;   useDiaphragm,1
;   diaphragmLayerInterval,20
;   robustSlicing,1
;   mergeAllIntoSolid,0
;   onlyRetractWhenCrossingOutline,1
;   retractBetweenLayers,0
;   useRetractionMinTravel,1
;   retractionMinTravel,5
;   retractWhileWiping,1
;   onlyWipeOutlines,0
;   avoidCrossingOutline,1
;   maxMovementDetourFactor,5
;   toolChangeRetractionDistance,12
;   toolChangeExtraRestartDistance,-0.5
;   toolChangeRetractionSpeed,600
;   externalThinWallType,0
;   internalThinWallType,1
;   thinWallAllowedOverlapPercentage,10
;   singleExtrusionMinLength,0.1
;   singleExtrusionMinPrintingWidthPercentage,50
;   singleExtrusionMaxPrintingWidthPercentage,200
;   singleExtrusionEndpointExtension,0.2
;   horizontalSizeCompensation,-0.1
G90
M82
M106 S0
M140 S55
M190 S55
G10 S245 R{245-50} P0
M116 P0
G28 ; home all axes
G32 ; run bed.g -- probe bed and enable compensation
; process Process1
; layer 1, Z = 0.300
T0
; feature skirt
; tool H0.300 W0.720
G1 Z0.300 F1200
G1 X68.862 Y127.962 F18000
G92 E0.0000
G1 X72.262 Y127.962 E0.2901 F900
G1 X72.487 Y127.738 E0.3172
G1 X78.880 Y127.738 E0.8626
G1 X79.105 Y127.962 E0.8897
G1 X82.262 Y127.962 E1.1591
G1 X82.487 Y127.738 E1.1862
G1 X88.880 Y127.738 E1.7316
G1 X89.105 Y127.962 E1.7587
G1 X92.262 Y127.962 E2.0281
G1 X92.487 Y127.738 E2.0552
G1 X98.880 Y127.738 E2.6006
G1 X99.105 Y127.962 E2.6277
G1 X102.262 Y127.962 E2.8971
G1 X102.487 Y127.738 E2.9242
G1 X108.880 Y127.738 E3.4696
G1 X109.105 Y127.962 E3.4967
G1 X112.262 Y127.962 E3.7661
G1 X112.487 Y127.738 E3.7932
G1 X118.880 Y127.738 E4.3386
G1 X119.105 Y127.962 E4.3657
G1 X122.262 Y127.962 E4.6351
G1 X122.487 Y127.738 E4.6622
G1 X128.880 Y127.738 E5.2076
G1 X129.105 Y127.962 E5.2347
G1 X132.262 Y127.962 E5.5041
G1 X132.487 Y127.738 E5.5311
G1 X138.880 Y127.738 E6.0766
G1 X139.105 Y127.962 E6.1036
G1 X142.505 Y127.962 E6.3938
G1 X146.041 Y130.004 E6.7421
G1 X147.863 Y133.159 E7.0530
G1 X147.863 Y184.154 E11.4035
G1 X143.880 Y188.138 E11.8841
G1 X137.487 Y188.138 E12.4295
G1 X137.306 Y187.956 E12.4514
G1 X134.061 Y187.956 E12.7281
G1 X133.880 Y188.138 E12.7500
G1 X127.487 Y188.138 E13.2954
G1 X127.306 Y187.956 E13.3173
G1 X124.061 Y187.956 E13.5941
G1 X123.880 Y188.138 E13.6159
G1 X117.487 Y188.138 E14.1614
G1 X117.306 Y187.956 E14.1832
G1 X114.061 Y187.956 E14.4600
G1 X113.880 Y188.138 E14.4819
G1 X107.487 Y188.138 E15.0273
G1 X107.306 Y187.956 E15.0492
G1 X104.061 Y187.956 E15.3259
G1 X103.880 Y188.138 E15.3478
G1 X97.487 Y188.138 E15.8932
G1 X97.306 Y187.956 E15.9151
G1 X94.061 Y187.956 E16.1919
G1 X93.880 Y188.138 E16.2137
G1 X87.487 Y188.138 E16.7591
G1 X87.306 Y187.956 E16.7810
G1 X84.061 Y187.956 E17.0578
G1 X83.880 Y188.138 E17.0797
G1 X77.487 Y188.138 E17.6251
G1 X77.306 Y187.956 E17.6469
G1 X74.061 Y187.956 E17.9237
G1 X73.880 Y188.138 E17.9456
G1 X67.487 Y188.138 E18.4910
G1 X63.503 Y184.154 E18.9716
G1 X63.503 Y133.159 E23.3221
G1 X65.326 Y130.004 E23.6330
G1 X68.862 Y127.962 E23.9813
G1 X69.054 Y128.682 F18000
G92 E0.0000
G1 X72.313 Y128.682 E0.2780 F900
G1 X72.470 Y128.773 E0.2934
G1 X72.785 Y128.458 E0.3315
G1 X78.582 Y128.458 E0.8260
G1 X78.897 Y128.773 E0.8641
G1 X79.054 Y128.682 E0.8795
G1 X82.313 Y128.682 E1.1575
G1 X82.470 Y128.773 E1.1730
G1 X82.785 Y128.458 E1.2110
G1 X88.582 Y128.458 E1.7056
G1 X88.897 Y128.773 E1.7436
G1 X89.054 Y128.682 E1.7591
G1 X92.313 Y128.682 E2.0371
G1 X92.470 Y128.773 E2.0526
G1 X92.785 Y128.458 E2.0906
G1 X98.582 Y128.458 E2.5851
G1 X98.897 Y128.773 E2.6232
G1 X99.054 Y128.682 E2.6386
G1 X102.313 Y128.682 E2.9166
G1 X102.470 Y128.773 E2.9321
G1 X102.785 Y128.458 E2.9701
G1 X108.582 Y128.458 E3.4647
G1 X108.897 Y128.773 E3.5027
G1 X109.054 Y128.682 E3.5182
G1 X112.313 Y128.682 E3.7962
G1 X112.470 Y128.773 E3.8117
G1 X112.785 Y128.458 E3.8497
G1 X118.582 Y128.458 E4.3442
G1 X118.897 Y128.773 E4.3823
G1 X119.054 Y128.682 E4.3977
G1 X122.313 Y128.682 E4.6757
G1 X122.470 Y128.773 E4.6912
G1 X122.785 Y128.458 E4.7292
G1 X128.582 Y128.458 E5.2238
G1 X128.897 Y128.773 E5.2618
G1 X129.054 Y128.682 E5.2773
G1 X132.313 Y128.682 E5.5553
G1 X132.470 Y128.773 E5.5708
G1 X132.785 Y128.458 E5.6088
G1 X138.582 Y128.458 E6.1033
G1 X138.897 Y128.773 E6.1414
G1 X139.054 Y128.682 E6.1569
G1 X142.313 Y128.682 E6.4348
G1 X145.514 Y130.531 E6.7502
G1 X147.143 Y133.352 E7.0282
G1 X147.143 Y183.856 E11.3368
G1 X143.582 Y187.418 E11.7665
G1 X137.785 Y187.418 E12.2610
G1 X137.497 Y187.130 E12.2957
G1 X137.313 Y187.236 E12.3139
G1 X134.054 Y187.236 E12.5919
G1 X133.870 Y187.130 E12.6101
G1 X133.582 Y187.418 E12.6448
G1 X127.785 Y187.418 E13.1394
G1 X127.497 Y187.130 E13.1741
G1 X127.313 Y187.236 E13.1923
G1 X124.054 Y187.236 E13.4702
G1 X123.870 Y187.130 E13.4884
G1 X123.582 Y187.418 E13.5232
G1 X117.785 Y187.418 E14.0177
G1 X117.497 Y187.130 E14.0524
G1 X117.313 Y187.236 E14.0706
G1 X114.054 Y187.236 E14.3486
G1 X113.870 Y187.130 E14.3668
G1 X113.582 Y187.418 E14.4015
G1 X107.785 Y187.418 E14.8960
G1 X107.497 Y187.130 E14.9308
G1 X107.313 Y187.236 E14.9490
G1 X104.054 Y187.236 E15.2269
G1 X103.870 Y187.130 E15.2451
G1 X103.582 Y187.418 E15.2798
G1 X97.785 Y187.418 E15.7744
G1 X97.497 Y187.130 E15.8091
G1 X97.313 Y187.236 E15.8273
G1 X94.054 Y187.236 E16.1053
G1 X93.870 Y187.130 E16.1235
G1 X93.582 Y187.418 E16.1582
G1 X87.785 Y187.418 E16.6527
G1 X87.497 Y187.130 E16.6874
G1 X87.313 Y187.236 E16.7056
G1 X84.054 Y187.236 E16.9836
G1 X83.870 Y187.130 E17.0018
G1 X83.582 Y187.418 E17.0365
G1 X77.785 Y187.418 E17.5311
G1 X77.497 Y187.130 E17.5658
G1 X77.313 Y187.236 E17.5840
G1 X74.054 Y187.236 E17.8619
G1 X73.870 Y187.130 E17.8801
G1 X73.582 Y187.418 E17.9149
G1 X67.785 Y187.418 E18.4094
G1 X64.223 Y183.856 E18.8391
G1 X64.223 Y133.352 E23.1477
G1 X65.853 Y130.531 E23.4257
G1 X69.054 Y128.682 E23.7411
G1 X69.247 Y129.402 F18000
G92 E0.0000
G1 X72.120 Y129.402 E0.2450 F900
G1 X72.588 Y129.673 E0.2912
G1 X73.083 Y129.178 E0.3509
G1 X78.284 Y129.178 E0.7946
G1 X78.779 Y129.673 E0.8543
G1 X79.247 Y129.402 E0.9005
G1 X82.120 Y129.402 E1.1455
G1 X82.588 Y129.673 E1.1917
G1 X83.083 Y129.178 E1.2514
G1 X88.284 Y129.178 E1.6951
G1 X88.779 Y129.673 E1.7548
G1 X89.247 Y129.402 E1.8009
G1 X92.120 Y129.402 E2.0460
G1 X92.588 Y129.673 E2.0922
G1 X93.083 Y129.178 E2.1519
G1 X98.284 Y129.178 E2.5955
G1 X98.779 Y129.673 E2.6553
G1 X99.247 Y129.402 E2.7014
G1 X102.120 Y129.402 E2.9465
G1 X102.588 Y129.673 E2.9926
G1 X103.083 Y129.178 E3.0524
G1 X108.284 Y129.178 E3.4960
G1 X108.779 Y129.673 E3.5557
G1 X109.247 Y129.402 E3.6019
G1 X112.120 Y129.402 E3.8470
G1 X112.588 Y129.673 E3.8931
G1 X113.083 Y129.178 E3.9528
G1 X118.284 Y129.178 E4.3965
G1 X118.779 Y129.673 E4.4562
G1 X119.247 Y129.402 E4.5024
G1 X122.120 Y129.402 E4.7474
G1 X122.588 Y129.673 E4.7936
G1 X123.083 Y129.178 E4.8533
G1 X128.284 Y129.178 E5.2970
G1 X128.779 Y129.673 E5.3567
G1 X129.247 Y129.402 E5.4029
G1 X132.120 Y129.402 E5.6479
G1 X132.588 Y129.673 E5.6941
G1 X133.083 Y129.178 E5.7538
G1 X138.284 Y129.178 E6.1974
G1 X138.779 Y129.673 E6.2572
G1 X139.247 Y129.402 E6.3033
G1 X142.120 Y129.402 E6.5484
G1 X144.987 Y131.058 E6.8309
G1 X146.423 Y133.545 E7.0759
G1 X146.423 Y183.558 E11.3426
G1 X143.284 Y186.698 E11.7214
G1 X138.083 Y186.698 E12.1651
G1 X137.616 Y186.230 E12.2215
G1 X137.120 Y186.516 E12.2704
G1 X134.247 Y186.516 E12.5154
G1 X133.751 Y186.230 E12.5643
G1 X133.284 Y186.698 E12.6207
G1 X128.083 Y186.698 E13.0643
G1 X127.616 Y186.230 E13.1208
G1 X127.120 Y186.516 E13.1696
G1 X124.247 Y186.516 E13.4147
G1 X123.751 Y186.230 E13.4635
G1 X123.284 Y186.698 E13.5199
G1 X118.083 Y186.698 E13.9636
G1 X117.616 Y186.230 E14.0200
G1 X117.120 Y186.516 E14.0689
G1 X114.247 Y186.516 E14.3139
G1 X113.751 Y186.230 E14.3628
G1 X113.284 Y186.698 E14.4192
G1 X108.083 Y186.698 E14.8629
G1 X107.616 Y186.230 E14.9193
G1 X107.120 Y186.516 E14.9681
G1 X104.247 Y186.516 E15.2132
G1 X103.751 Y186.230 E15.2621
G1 X103.284 Y186.698 E15.3185
G1 X98.083 Y186.698 E15.7621
G1 X97.616 Y186.230 E15.8185
G1 X97.120 Y186.516 E15.8674
G1 X94.247 Y186.516 E16.1125
G1 X93.751 Y186.230 E16.1613
G1 X93.284 Y186.698 E16.2177
G1 X88.083 Y186.698 E16.6614
G1 X87.616 Y186.230 E16.7178
G1 X87.120 Y186.516 E16.7667
G1 X84.247 Y186.516 E17.0117
G1 X83.751 Y186.230 E17.0606
G1 X83.284 Y186.698 E17.1170
G1 X78.083 Y186.698 E17.5606
G1 X77.616 Y186.230 E17.6171
G1 X77.120 Y186.516 E17.6659
G1 X74.247 Y186.516 E17.9110
G1 X73.751 Y186.230 E17.9598
G1 X73.284 Y186.698 E18.0163
G1 X68.083 Y186.698 E18.4599
G1 X64.943 Y183.558 E18.8387
G1 X64.943 Y133.545 E23.1054
G1 X66.380 Y131.058 E23.3505
G1 X69.247 Y129.402 E23.6330
; feature outer perimeter
G1 X70.683 Y135.178 F18000
G92 E0.0000
G1 X75.663 Y138.053 E0.4906 F450
G1 X75.663 Y134.898 E0.7598
G1 X75.703 Y134.898 E0.7632
G1 X75.703 Y138.053 E1.0324
G1 X80.683 Y135.178 E1.5230
G1 X85.663 Y138.053 E2.0135
G1 X85.663 Y134.898 E2.2827
G1 X85.703 Y134.898 E2.2861
G1 X85.703 Y138.053 E2.5553
G1 X90.683 Y135.178 E3.0459
G1 X95.663 Y138.053 E3.5365
G1 X95.663 Y134.898 E3.8057
G1 X95.703 Y134.898 E3.8091
G1 X95.703 Y138.053 E4.0783
G1 X100.683 Y135.178 E4.5689
G1 X105.663 Y138.053 E5.0595
G1 X105.663 Y134.898 E5.3287
G1 X105.703 Y134.898 E5.3321
G1 X105.703 Y138.053 E5.6013
G1 X110.683 Y135.178 E6.0918
G1 X115.663 Y138.053 E6.5824
G1 X115.663 Y134.898 E6.8516
G1 X115.703 Y134.898 E6.8550
G1 X115.703 Y138.053 E7.1242
G1 X120.683 Y135.178 E7.6148
G1 X125.663 Y138.053 E8.1054
G1 X125.663 Y134.898 E8.3746
G1 X125.703 Y134.898 E8.3780
G1 X125.703 Y138.053 E8.6472
G1 X130.683 Y135.178 E9.1378
G1 X135.663 Y138.053 E9.6283
G1 X135.663 Y134.898 E9.8975
G1 X135.703 Y134.898 E9.9009
G1 X135.703 Y138.053 E10.1701
G1 X140.683 Y135.178 E10.6607
G1 X140.703 Y135.189 E10.6627
G1 X140.703 Y142.212 E11.2618
G1 X140.683 Y142.224 E11.2638
G1 X135.703 Y139.348 E11.7544
G1 X135.703 Y146.579 E12.3712
G1 X140.683 Y143.704 E12.8618
G1 X140.703 Y143.715 E12.8638
G1 X140.703 Y150.738 E13.4629
G1 X140.683 Y150.750 E13.4649
G1 X135.703 Y147.874 E13.9554
G1 X135.703 Y155.105 E14.5723
G1 X140.683 Y152.230 E15.0629
G1 X140.703 Y152.241 E15.0649
G1 X140.703 Y159.264 E15.6640
G1 X140.683 Y159.276 E15.6659
G1 X135.703 Y156.400 E16.1565
G1 X135.703 Y163.631 E16.7734
G1 X140.683 Y160.756 E17.2640
G1 X140.703 Y160.767 E17.2660
G1 X140.703 Y167.790 E17.8651
G1 X140.683 Y167.802 E17.8670
G1 X135.703 Y164.926 E18.3576
G1 X135.703 Y172.157 E18.9745
G1 X140.683 Y169.282 E19.4651
G1 X140.703 Y169.293 E19.4670
G1 X140.703 Y176.316 E20.0662
G1 X140.683 Y176.328 E20.0681
G1 X135.703 Y173.452 E20.5587
G1 X135.703 Y180.683 E21.1756
G1 X140.683 Y177.808 E21.6662
G1 X140.703 Y177.819 E21.6681
G1 X140.703 Y180.978 E21.9376
G1 X140.663 Y180.978 E21.9410
G1 X140.663 Y177.866 E22.2065
G1 X135.683 Y180.741 E22.6971
G1 X130.703 Y177.866 E23.1876
G1 X130.703 Y180.978 E23.4531
G1 X130.663 Y180.978 E23.4566
G1 X130.663 Y177.866 E23.7221
G1 X125.683 Y180.741 E24.2126
G1 X120.703 Y177.866 E24.7032
G1 X120.703 Y180.978 E24.9687
G1 X120.663 Y180.978 E24.9721
G1 X120.663 Y177.866 E25.2376
G1 X115.683 Y180.741 E25.7282
G1 X110.703 Y177.866 E26.2188
G1 X110.703 Y180.978 E26.4843
G1 X110.663 Y180.978 E26.4877
G1 X110.663 Y177.866 E26.7532
G1 X105.683 Y180.741 E27.2438
G1 X100.703 Y177.866 E27.7344
G1 X100.703 Y180.978 E27.9999
G1 X100.663 Y180.978 E28.0033
G1 X100.663 Y177.866 E28.2688
G1 X95.683 Y180.741 E28.7594
G1 X90.703 Y177.866 E29.2499
G1 X90.703 Y180.978 E29.5154
