; G-Code generated by Simplify3D(R) Version 4.1.2
; Dec 3, 2021 at 11:42:16 PM
; Settings Summary
;   processName,Process1
;   applyToModels,150mmx150mm-level-test,150mmx150mm-level-test(2)
;   profileName,HSBot
;   profileVersion,2019-11-09 11:59:44
;   baseProfile,Default
;   printMaterial,PETG - Eryone
;   printQuality,Medium
;   printExtruders,
;   extruderName,Extruder 1,Extruder - Lite
;   extruderToolheadNumber,0,1
;   extruderDiameter,0.4,0.4
;   extruderAutoWidth,1,1
;   extruderWidth,0.48,0.48
;   extrusionMultiplier,1,0.9
;   extruderUseRetract,1,1
;   extruderRetractionDistance,3,1
;   extruderExtraRestartDistance,0,0
;   extruderRetractionZLift,0,0
;   extruderRetractionSpeed,3600,1800
;   extruderUseCoasting,1,0
;   extruderCoastingDistance,0.2,0.2
;   extruderUseWipe,0,0
;   extruderWipeDistance,5,5
;   primaryExtruder,0
;   layerHeight,0.2
;   topSolidLayers,3
;   bottomSolidLayers,3
;   perimeterOutlines,3
;   printPerimetersInsideOut,1
;   startPointOption,2
;   startPointOriginX,0
;   startPointOriginY,0
;   sequentialIslands,0
;   spiralVaseMode,0
;   firstLayerHeightPercentage,150
;   firstLayerWidthPercentage,150
;   firstLayerUnderspeed,0.3
;   useRaft,0
;   raftExtruder,0
;   raftTopLayers,3
;   raftBaseLayers,2
;   raftOffset,3
;   raftSeparationDistance,0.18
;   raftTopInfill,100
;   aboveRaftSpeedMultiplier,0.3
;   useSkirt,0
;   skirtExtruder,0
;   skirtLayers,1
;   skirtOutlines,3
;   skirtOffset,4
;   usePrimePillar,0
;   primePillarExtruder,999
;   primePillarWidth,12
;   primePillarLocation,7
;   primePillarSpeedMultiplier,1
;   useOozeShield,0
;   oozeShieldExtruder,999
;   oozeShieldOffset,2
;   oozeShieldOutlines,1
;   oozeShieldSidewallShape,1
;   oozeShieldSidewallAngle,30
;   oozeShieldSpeedMultiplier,1
;   infillExtruder,0
;   internalInfillPattern,Fast Honeycomb
;   externalInfillPattern,Rectilinear
;   infillPercentage,20
;   outlineOverlapPercentage,15
;   infillExtrusionWidthPercentage,150
;   minInfillLength,5
;   infillLayerInterval,1
;   internalInfillAngles,0
;   overlapInternalInfillAngles,0
;   externalInfillAngles,45,-45
;   generateSupport,0
;   supportExtruder,0
;   supportInfillPercentage,30
;   supportExtraInflation,0
;   supportBaseLayers,1
;   denseSupportExtruder,0
;   denseSupportLayers,0
;   denseSupportInfillPercentage,70
;   supportLayerInterval,1
;   supportHorizontalPartOffset,0.3
;   supportUpperSeparationLayers,1
;   supportLowerSeparationLayers,1
;   supportType,0
;   supportGridSpacing,4
;   maxOverhangAngle,45
;   supportAngles,0
;   temperatureName,Extruder 1,Bed
;   temperatureNumber,0,0
;   temperatureSetpointCount,1,1
;   temperatureSetpointLayers,1,1
;   temperatureSetpointTemperatures,225,85
;   temperatureStabilizeAtStartup,1,1
;   temperatureHeatedBed,0,1
;   fanLayers,1,2,3
;   fanSpeeds,0,15,25
;   blipFanToFullPower,1
;   adjustSpeedForCooling,1
;   minSpeedLayerTime,15
;   minCoolingSpeedSlowdown,20
;   increaseFanForCooling,0
;   minFanLayerTime,45
;   maxCoolingFanSpeed,40
;   increaseFanForBridging,0
;   bridgingFanSpeed,80
;   use5D,1
;   relativeEdistances,0
;   allowEaxisZeroing,1
;   independentExtruderAxes,0
;   includeM10123,0
;   stickySupport,1
;   applyToolheadOffsets,0
;   gcodeXoffset,0
;   gcodeYoffset,0
;   gcodeZoffset,0
;   overrideMachineDefinition,1
;   machineTypeOverride,0
;   strokeXoverride,200
;   strokeYoverride,200
;   strokeZoverride,150
;   originOffsetXoverride,0
;   originOffsetYoverride,0
;   originOffsetZoverride,0
;   homeXdirOverride,-1
;   homeYdirOverride,-1
;   homeZdirOverride,-1
;   flipXoverride,1
;   flipYoverride,-1
;   flipZoverride,1
;   toolheadOffsets,0,0|0,0|0,0|0,0|0,0|0,0
;   overrideFirmwareConfiguration,0
;   firmwareTypeOverride,RepRap (Marlin/Repetier/Sprinter)
;   GPXconfigOverride,r2
;   baudRateOverride,115200
;   overridePrinterModels,0
;   printerModelsOverride
;   startingGcode,G28 ; home all axes,G32 ; run bed.g -- probe bed and enable compensation
;   layerChangeGcode,
;   retractionGcode,
;   toolChangeGcode,
;   endingGcode,M0 ; call stop.g
;   exportFileFormat,gcode
;   celebration,0
;   celebrationSong,Random Song
;   postProcessing,
;   defaultSpeed,7200
;   outlineUnderspeed,0.5
;   solidInfillUnderspeed,0.8
;   supportUnderspeed,0.8
;   rapidXYspeed,18000
;   rapidZspeed,1200
;   minBridgingArea,50
;   bridgingExtraInflation,0
;   bridgingExtrusionMultiplier,0.96
;   bridgingSpeedMultiplier,1
;   useFixedBridgingAngle,0
;   fixedBridgingAngle,0
;   applyBridgingToPerimeters,0
;   filamentDiameters,1.75|1.75|1.75|1.75|1.75|1.75
;   filamentPricesPerKg,25|46|46|46|46|46
;   filamentDensities,1.25|1.25|1.25|1.25|1.25|1.25
;   useMinPrintHeight,0
;   minPrintHeight,0
;   useMaxPrintHeight,0
;   maxPrintHeight,0
;   useDiaphragm,1
;   diaphragmLayerInterval,20
;   robustSlicing,1
;   mergeAllIntoSolid,0
;   onlyRetractWhenCrossingOutline,1
;   retractBetweenLayers,0
;   useRetractionMinTravel,1
;   retractionMinTravel,3
;   retractWhileWiping,1
;   onlyWipeOutlines,0
;   avoidCrossingOutline,1
;   maxMovementDetourFactor,3
;   toolChangeRetractionDistance,12
;   toolChangeExtraRestartDistance,-0.5
;   toolChangeRetractionSpeed,600
;   externalThinWallType,1
;   internalThinWallType,2
;   thinWallAllowedOverlapPercentage,10
;   singleExtrusionMinLength,1
;   singleExtrusionMinPrintingWidthPercentage,50
;   singleExtrusionMaxPrintingWidthPercentage,200
;   singleExtrusionEndpointExtension,0.2
;   horizontalSizeCompensation,-0.1
G90
M82
M106 S0
M140 S85
M190 S85
G10 S225 R{225-50} P0
M116 P0
G28 ; home all axes
G32 ; run bed.g -- probe bed and enable compensation
; process Process1
; layer 1, Z = 0.300
T0
G92 E0.0000
G1 E-3.0000 F3600
; feature outer perimeter
; tool H0.300 W0.720
G1 Z0.300 F1200
G1 X25.460 Y25.460 F18000
G1 E0.0000 F3600
G92 E0.0000
G1 X174.540 Y25.460 E13.3877 F1080
G1 X174.540 Y174.540 E26.7755
G1 X25.460 Y174.540 E40.1632
G1 X25.460 Y25.660 E53.5330
G1 X25.460 Y25.460 F1080
G1 X26.540 Y26.540 F18000
G92 E0.0000
G1 X26.540 Y173.460 E13.1938 F1080
G1 X173.460 Y173.460 E26.3875
G1 X173.460 Y26.540 E39.5813
G1 X26.740 Y26.540 E52.7571
G1 X26.540 Y26.540 F1080
; feature gap fill
; tool H0.300 W0.480
G1 X173.935 Y25.952 F18000
G92 E0.0000
G1 X174.048 Y26.065 E0.0095 F2160
G1 X174.048 Y26.744 E0.0502
G1 X173.952 Y26.648 E0.0583
G1 X173.952 Y26.048 E0.0942
G1 X173.352 Y26.048 E0.1301
G1 X173.256 Y25.952 E0.1382
G1 X172.578 Y25.952 E0.1789
G1 X172.674 Y26.048 E0.1870
G1 X171.995 Y26.048 E0.2276
G1 X171.899 Y25.952 E0.2358
G1 X171.220 Y25.952 E0.2764
G1 X171.316 Y26.048 E0.2845
G1 X170.637 Y26.048 E0.3252
G1 X170.541 Y25.952 E0.3333
G1 X169.862 Y25.952 E0.3739
G1 X169.958 Y26.048 E0.3821
G1 X169.280 Y26.048 E0.4227
G1 X169.184 Y25.952 E0.4308
G1 X168.505 Y25.952 E0.4715
G1 X168.601 Y26.048 E0.4796
G1 X167.922 Y26.048 E0.5202
G1 X167.826 Y25.952 E0.5284
G1 X167.147 Y25.952 E0.5690
G1 X167.243 Y26.048 E0.5771
G1 X166.564 Y26.048 E0.6178
G1 X166.468 Y25.952 E0.6259
G1 X165.789 Y25.952 E0.6665
G1 X165.885 Y26.048 E0.6747
G1 X165.207 Y26.048 E0.7153
G1 X165.111 Y25.952 E0.7234
G1 X164.432 Y25.952 E0.7641
G1 X164.528 Y26.048 E0.7722
G1 X163.849 Y26.048 E0.8128
G1 X163.753 Y25.952 E0.8210
G1 X163.074 Y25.952 E0.8616
G1 X163.170 Y26.048 E0.8697
G1 X162.491 Y26.048 E0.9104
G1 X162.395 Y25.952 E0.9185
G1 X161.717 Y25.952 E0.9591
G1 X161.813 Y26.048 E0.9673
G1 X161.134 Y26.048 E1.0079
G1 X161.038 Y25.952 E1.0160
G1 X160.359 Y25.952 E1.0567
G1 X160.455 Y26.048 E1.0648
G1 X159.776 Y26.048 E1.1054
G1 X159.680 Y25.952 E1.1136
G1 X159.001 Y25.952 E1.1542
G1 X159.097 Y26.048 E1.1623
G1 X158.418 Y26.048 E1.2030
G1 X158.322 Y25.952 E1.2111
G1 X157.644 Y25.952 E1.2518
G1 X157.740 Y26.048 E1.2599
G1 X157.061 Y26.048 E1.3005
G1 X156.965 Y25.952 E1.3086
G1 X156.286 Y25.952 E1.3493
G1 X156.382 Y26.048 E1.3574
G1 X155.703 Y26.048 E1.3981
G1 X155.607 Y25.952 E1.4062
G1 X154.928 Y25.952 E1.4468
G1 X155.024 Y26.048 E1.4550
G1 X154.345 Y26.048 E1.4956
G1 X154.249 Y25.952 E1.5037
G1 X153.571 Y25.952 E1.5444
G1 X153.667 Y26.048 E1.5525
G1 X152.988 Y26.048 E1.5931
G1 X152.892 Y25.952 E1.6013
G1 X152.213 Y25.952 E1.6419
G1 X152.309 Y26.048 E1.6500
G1 X151.630 Y26.048 E1.6907
G1 X151.534 Y25.952 E1.6988
G1 X150.855 Y25.952 E1.7394
G1 X150.951 Y26.048 E1.7476
G1 X150.273 Y26.048 E1.7882
G1 X150.177 Y25.952 E1.7963
G1 X149.498 Y25.952 E1.8370
G1 X149.594 Y26.048 E1.8451
G1 X148.915 Y26.048 E1.8857
G1 X148.819 Y25.952 E1.8939
G1 X148.140 Y25.952 E1.9345
G1 X148.236 Y26.048 E1.9426
G1 X147.557 Y26.048 E1.9833
G1 X147.461 Y25.952 E1.9914
G1 X146.782 Y25.952 E2.0320
G1 X146.878 Y26.048 E2.0402
G1 X146.200 Y26.048 E2.0808
G1 X146.104 Y25.952 E2.0889
G1 X145.425 Y25.952 E2.1296
G1 X145.521 Y26.048 E2.1377
G1 X144.842 Y26.048 E2.1783
G1 X144.746 Y25.952 E2.1865
G1 X144.067 Y25.952 E2.2271
G1 X144.163 Y26.048 E2.2352
G1 X143.484 Y26.048 E2.2759
G1 X143.388 Y25.952 E2.2840
G1 X142.709 Y25.952 E2.3246
G1 X142.805 Y26.048 E2.3328
G1 X142.127 Y26.048 E2.3734
G1 X142.031 Y25.952 E2.3815
G1 X141.352 Y25.952 E2.4222
G1 X141.448 Y26.048 E2.4303
G1 X140.769 Y26.048 E2.4709
G1 X140.673 Y25.952 E2.4791
G1 X139.994 Y25.952 E2.5197
G1 X140.090 Y26.048 E2.5278
G1 X139.411 Y26.048 E2.5685
G1 X139.315 Y25.952 E2.5766
G1 X138.637 Y25.952 E2.6173
G1 X138.733 Y26.048 E2.6254
G1 X138.054 Y26.048 E2.6660
G1 X137.958 Y25.952 E2.6741
G1 X137.279 Y25.952 E2.7148
G1 X137.375 Y26.048 E2.7229
G1 X136.696 Y26.048 E2.7636
G1 X136.600 Y25.952 E2.7717
G1 X135.921 Y25.952 E2.8123
G1 X136.017 Y26.048 E2.8205
G1 X135.338 Y26.048 E2.8611
G1 X135.242 Y25.952 E2.8692
G1 X134.564 Y25.952 E2.9099
G1 X134.660 Y26.048 E2.9180
G1 X133.981 Y26.048 E2.9586
G1 X133.885 Y25.952 E2.9668
G1 X133.206 Y25.952 E3.0074
G1 X133.302 Y26.048 E3.0155
G1 X132.623 Y26.048 E3.0562
G1 X132.527 Y25.952 E3.0643
G1 X131.848 Y25.952 E3.1049
G1 X131.944 Y26.048 E3.1131
G1 X131.266 Y26.048 E3.1537
G1 X131.170 Y25.952 E3.1618
G1 X130.491 Y25.952 E3.2025
G1 X130.587 Y26.048 E3.2106
G1 X129.908 Y26.048 E3.2512
G1 X129.812 Y25.952 E3.2594
G1 X129.133 Y25.952 E3.3000
G1 X129.229 Y26.048 E3.3081
G1 X128.550 Y26.048 E3.3488
G1 X128.454 Y25.952 E3.3569
G1 X127.775 Y25.952 E3.3975
G1 X127.871 Y26.048 E3.4057
G1 X127.193 Y26.048 E3.4463
G1 X127.097 Y25.952 E3.4544
G1 X126.418 Y25.952 E3.4951
G1 X126.514 Y26.048 E3.5032
G1 X125.835 Y26.048 E3.5438
G1 X125.739 Y25.952 E3.5520
G1 X125.060 Y25.952 E3.5926
G1 X125.156 Y26.048 E3.6007
G1 X124.477 Y26.048 E3.6414
G1 X124.381 Y25.952 E3.6495
G1 X123.702 Y25.952 E3.6901
G1 X123.798 Y26.048 E3.6983
G1 X123.120 Y26.048 E3.7389
G1 X123.024 Y25.952 E3.7470
G1 X122.345 Y25.952 E3.7877
G1 X122.441 Y26.048 E3.7958
G1 X121.762 Y26.048 E3.8365
G1 X121.666 Y25.952 E3.8446
G1 X120.987 Y25.952 E3.8852
G1 X121.083 Y26.048 E3.8933
G1 X120.404 Y26.048 E3.9340
G1 X120.308 Y25.952 E3.9421
G1 X119.630 Y25.952 E3.9828
G1 X119.726 Y26.048 E3.9909
G1 X119.047 Y26.048 E4.0315
G1 X118.951 Y25.952 E4.0397
G1 X118.272 Y25.952 E4.0803
G1 X118.368 Y26.048 E4.0884
G1 X117.689 Y26.048 E4.1291
G1 X117.593 Y25.952 E4.1372
G1 X116.914 Y25.952 E4.1778
G1 X117.010 Y26.048 E4.1860
G1 X116.331 Y26.048 E4.2266
G1 X116.235 Y25.952 E4.2347
G1 X115.557 Y25.952 E4.2754
G1 X115.653 Y26.048 E4.2835
G1 X114.974 Y26.048 E4.3241
G1 X114.878 Y25.952 E4.3323
G1 X114.199 Y25.952 E4.3729
G1 X114.295 Y26.048 E4.3810
G1 X113.616 Y26.048 E4.4217
G1 X113.520 Y25.952 E4.4298
G1 X112.841 Y25.952 E4.4704
G1 X112.937 Y26.048 E4.4786
G1 X112.258 Y26.048 E4.5192
G1 X112.162 Y25.952 E4.5273
G1 X111.484 Y25.952 E4.5680
G1 X111.580 Y26.048 E4.5761
G1 X110.901 Y26.048 E4.6167
G1 X110.805 Y25.952 E4.6249
G1 X110.126 Y25.952 E4.6655
G1 X110.222 Y26.048 E4.6736
G1 X109.543 Y26.048 E4.7143
G1 X109.447 Y25.952 E4.7224
G1 X108.768 Y25.952 E4.7630
G1 X108.864 Y26.048 E4.7712
G1 X108.186 Y26.048 E4.8118
G1 X108.090 Y25.952 E4.8199
G1 X107.411 Y25.952 E4.8606
G1 X107.507 Y26.048 E4.8687
G1 X106.828 Y26.048 E4.9093
G1 X106.732 Y25.952 E4.9175
G1 X106.053 Y25.952 E4.9581
G1 X106.149 Y26.048 E4.9662
G1 X105.470 Y26.048 E5.0069
G1 X105.374 Y25.952 E5.0150
G1 X104.695 Y25.952 E5.0556
G1 X104.791 Y26.048 E5.0638
G1 X104.113 Y26.048 E5.1044
G1 X104.017 Y25.952 E5.1125
G1 X103.338 Y25.952 E5.1532
G1 X103.434 Y26.048 E5.1613
G1 X102.755 Y26.048 E5.2020
G1 X102.659 Y25.952 E5.2101
G1 X101.980 Y25.952 E5.2507
G1 X102.076 Y26.048 E5.2588
G1 X101.397 Y26.048 E5.2995
G1 X101.301 Y25.952 E5.3076
G1 X100.622 Y25.952 E5.3483
G1 X100.718 Y26.048 E5.3564
G1 X100.040 Y26.048 E5.3970
G1 X99.944 Y25.952 E5.4052
G1 X99.265 Y25.952 E5.4458
G1 X99.361 Y26.048 E5.4539
G1 X98.682 Y26.048 E5.4946
G1 X98.586 Y25.952 E5.5027
G1 X97.907 Y25.952 E5.5433
G1 X98.003 Y26.048 E5.5515
G1 X97.324 Y26.048 E5.5921
G1 X97.228 Y25.952 E5.6002
G1 X96.550 Y25.952 E5.6409
G1 X96.646 Y26.048 E5.6490
G1 X95.967 Y26.048 E5.6896
G1 X95.871 Y25.952 E5.6978
G1 X95.192 Y25.952 E5.7384
G1 X95.288 Y26.048 E5.7465
G1 X94.609 Y26.048 E5.7872
G1 X94.513 Y25.952 E5.7953
G1 X93.834 Y25.952 E5.8359
G1 X93.930 Y26.048 E5.8441
G1 X93.251 Y26.048 E5.8847
G1 X93.155 Y25.952 E5.8928
G1 X92.477 Y25.952 E5.9335
G1 X92.573 Y26.048 E5.9416
G1 X91.894 Y26.048 E5.9822
G1 X91.798 Y25.952 E5.9904
G1 X91.119 Y25.952 E6.0310
G1 X91.215 Y26.048 E6.0391
G1 X90.536 Y26.048 E6.0798
G1 X90.440 Y25.952 E6.0879
G1 X89.761 Y25.952 E6.1285
G1 X89.857 Y26.048 E6.1367
G1 X89.179 Y26.048 E6.1773
G1 X89.083 Y25.952 E6.1854
G1 X88.404 Y25.952 E6.2261
G1 X88.500 Y26.048 E6.2342
G1 X87.821 Y26.048 E6.2748
G1 X87.725 Y25.952 E6.2830
G1 X87.046 Y25.952 E6.3236
G1 X87.142 Y26.048 E6.3317
G1 X86.463 Y26.048 E6.3724
G1 X86.367 Y25.952 E6.3805
G1 X85.688 Y25.952 E6.4211
G1 X85.784 Y26.048 E6.4293
G1 X85.106 Y26.048 E6.4699
G1 X85.010 Y25.952 E6.4780
G1 X84.331 Y25.952 E6.5187
G1 X84.427 Y26.048 E6.5268
G1 X83.748 Y26.048 E6.5675
G1 X83.652 Y25.952 E6.5756
G1 X82.973 Y25.952 E6.6162
G1 X83.069 Y26.048 E6.6243
G1 X82.390 Y26.048 E6.6650
G1 X82.294 Y25.952 E6.6731
G1 X81.615 Y25.952 E6.7138
G1 X81.711 Y26.048 E6.7219
G1 X81.033 Y26.048 E6.7625
G1 X80.937 Y25.952 E6.7707
G1 X80.258 Y25.952 E6.8113
G1 X80.354 Y26.048 E6.8194
G1 X79.675 Y26.048 E6.8601
G1 X79.579 Y25.952 E6.8682
G1 X78.900 Y25.952 E6.9088
G1 X78.996 Y26.048 E6.9170
G1 X78.317 Y26.048 E6.9576
G1 X78.221 Y25.952 E6.9657
G1 X77.543 Y25.952 E7.0064
G1 X77.639 Y26.048 E7.0145
G1 X76.960 Y26.048 E7.0551
G1 X76.864 Y25.952 E7.0633
G1 X76.185 Y25.952 E7.1039
G1 X76.281 Y26.048 E7.1120
G1 X75.602 Y26.048 E7.1527
G1 X75.506 Y25.952 E7.1608
G1 X74.827 Y25.952 E7.2014
G1 X74.923 Y26.048 E7.2096
G1 X74.244 Y26.048 E7.2502
G1 X74.148 Y25.952 E7.2583
G1 X73.470 Y25.952 E7.2990
G1 X73.566 Y26.048 E7.3071
G1 X72.887 Y26.048 E7.3477
G1 X72.791 Y25.952 E7.3559
G1 X72.112 Y25.952 E7.3965
G1 X72.208 Y26.048 E7.4046
G1 X71.529 Y26.048 E7.4453
G1 X71.433 Y25.952 E7.4534
G1 X70.754 Y25.952 E7.4940
G1 X70.850 Y26.048 E7.5022
G1 X70.171 Y26.048 E7.5428
G1 X70.075 Y25.952 E7.5509
G1 X69.397 Y25.952 E7.5916
G1 X69.493 Y26.048 E7.5997
G1 X68.814 Y26.048 E7.6403
G1 X68.718 Y25.952 E7.6485
G1 X68.039 Y25.952 E7.6891
G1 X68.135 Y26.048 E7.6972
G1 X67.456 Y26.048 E7.7379
G1 X67.360 Y25.952 E7.7460
G1 X66.681 Y25.952 E7.7867
G1 X66.777 Y26.048 E7.7948
G1 X66.099 Y26.048 E7.8354
G1 X66.003 Y25.952 E7.8435
G1 X65.324 Y25.952 E7.8842
G1 X65.420 Y26.048 E7.8923
G1 X64.741 Y26.048 E7.9330
G1 X64.645 Y25.952 E7.9411
G1 X63.966 Y25.952 E7.9817
G1 X64.062 Y26.048 E7.9898
G1 X63.383 Y26.048 E8.0305
G1 X63.287 Y25.952 E8.0386
G1 X62.608 Y25.952 E8.0793
G1 X62.704 Y26.048 E8.0874
G1 X62.026 Y26.048 E8.1280
G1 X61.930 Y25.952 E8.1362
G1 X61.251 Y25.952 E8.1768
G1 X61.347 Y26.048 E8.1849
G1 X60.668 Y26.048 E8.2256
G1 X60.572 Y25.952 E8.2337
G1 X59.893 Y25.952 E8.2743
G1 X59.989 Y26.048 E8.2825
G1 X59.310 Y26.048 E8.3231
G1 X59.214 Y25.952 E8.3312
G1 X58.535 Y25.952 E8.3719
G1 X58.631 Y26.048 E8.3800
G1 X57.953 Y26.048 E8.4206
G1 X57.857 Y25.952 E8.4288
G1 X57.178 Y25.952 E8.4694
G1 X57.274 Y26.048 E8.4775
G1 X56.595 Y26.048 E8.5182
G1 X56.499 Y25.952 E8.5263
G1 X55.820 Y25.952 E8.5669
G1 X55.916 Y26.048 E8.5751
G1 X55.237 Y26.048 E8.6157
G1 X55.141 Y25.952 E8.6238
