; G-Code generated by Simplify3D(R) Version 4.1.2
; Dec 2, 2021 at 10:20:26 PM
; Settings Summary
;   processName,Process1
;   applyToModels,150mmx150mm-level-test
;   profileName,HSBot
;   profileVersion,2019-11-09 11:59:44
;   baseProfile,Default
;   printMaterial,PETG - Eryone
;   printQuality,Medium
;   printExtruders,
;   extruderName,Extruder 1,Extruder - Lite
;   extruderToolheadNumber,0,1
;   extruderDiameter,0.4,0.4
;   extruderAutoWidth,1,0
;   extruderWidth,0.48,0.4
;   extrusionMultiplier,0.94,0.9
;   extruderUseRetract,1,1
;   extruderRetractionDistance,3,1
;   extruderExtraRestartDistance,0,0
;   extruderRetractionZLift,0,0
;   extruderRetractionSpeed,3600,1800
;   extruderUseCoasting,1,0
;   extruderCoastingDistance,0.2,0.2
;   extruderUseWipe,0,0
;   extruderWipeDistance,5,5
;   primaryExtruder,0
;   layerHeight,0.2
;   topSolidLayers,3
;   bottomSolidLayers,3
;   perimeterOutlines,3
;   printPerimetersInsideOut,1
;   startPointOption,2
;   startPointOriginX,0
;   startPointOriginY,0
;   sequentialIslands,0
;   spiralVaseMode,0
;   firstLayerHeightPercentage,150
;   firstLayerWidthPercentage,150
;   firstLayerUnderspeed,0.5
;   useRaft,0
;   raftExtruder,0
;   raftTopLayers,3
;   raftBaseLayers,2
;   raftOffset,3
;   raftSeparationDistance,0.18
;   raftTopInfill,100
;   aboveRaftSpeedMultiplier,0.3
;   useSkirt,0
;   skirtExtruder,0
;   skirtLayers,1
;   skirtOutlines,3
;   skirtOffset,4
;   usePrimePillar,0
;   primePillarExtruder,999
;   primePillarWidth,12
;   primePillarLocation,7
;   primePillarSpeedMultiplier,1
;   useOozeShield,0
;   oozeShieldExtruder,999
;   oozeShieldOffset,2
;   oozeShieldOutlines,1
;   oozeShieldSidewallShape,1
;   oozeShieldSidewallAngle,30
;   oozeShieldSpeedMultiplier,1
;   infillExtruder,0
;   internalInfillPattern,Fast Honeycomb
;   externalInfillPattern,Rectilinear
;   infillPercentage,20
;   outlineOverlapPercentage,15
;   infillExtrusionWidthPercentage,150
;   minInfillLength,5
;   infillLayerInterval,1
;   internalInfillAngles,0
;   overlapInternalInfillAngles,0
;   externalInfillAngles,45,-45
;   generateSupport,0
;   supportExtruder,0
;   supportInfillPercentage,30
;   supportExtraInflation,0
;   supportBaseLayers,1
;   denseSupportExtruder,0
;   denseSupportLayers,0
;   denseSupportInfillPercentage,70
;   supportLayerInterval,1
;   supportHorizontalPartOffset,0.3
;   supportUpperSeparationLayers,1
;   supportLowerSeparationLayers,1
;   supportType,0
;   supportGridSpacing,4
;   maxOverhangAngle,45
;   supportAngles,0
;   temperatureName,Extruder 1,Bed
;   temperatureNumber,0,0
;   temperatureSetpointCount,1,1
;   temperatureSetpointLayers,1,1
;   temperatureSetpointTemperatures,225,85
;   temperatureStabilizeAtStartup,1,1
;   temperatureHeatedBed,0,1
;   fanLayers,1,2,3
;   fanSpeeds,0,15,25
;   blipFanToFullPower,1
;   adjustSpeedForCooling,1
;   minSpeedLayerTime,15
;   minCoolingSpeedSlowdown,20
;   increaseFanForCooling,0
;   minFanLayerTime,45
;   maxCoolingFanSpeed,40
;   increaseFanForBridging,0
;   bridgingFanSpeed,80
;   use5D,1
;   relativeEdistances,0
;   allowEaxisZeroing,1
;   independentExtruderAxes,0
;   includeM10123,0
;   stickySupport,1
;   applyToolheadOffsets,0
;   gcodeXoffset,0
;   gcodeYoffset,0
;   gcodeZoffset,0
;   overrideMachineDefinition,1
;   machineTypeOverride,0
;   strokeXoverride,200
;   strokeYoverride,200
;   strokeZoverride,150
;   originOffsetXoverride,0
;   originOffsetYoverride,0
;   originOffsetZoverride,0
;   homeXdirOverride,-1
;   homeYdirOverride,-1
;   homeZdirOverride,-1
;   flipXoverride,1
;   flipYoverride,-1
;   flipZoverride,1
;   toolheadOffsets,0,0|0,0|0,0|0,0|0,0|0,0
;   overrideFirmwareConfiguration,0
;   firmwareTypeOverride,RepRap (Marlin/Repetier/Sprinter)
;   GPXconfigOverride,r2
;   baudRateOverride,115200
;   overridePrinterModels,0
;   printerModelsOverride
;   startingGcode,G28 ; home all axes,G32 ; run bed.g -- probe bed and enable compensation
;   layerChangeGcode,
;   retractionGcode,
;   toolChangeGcode,
;   endingGcode,M0 ; call stop.g
;   exportFileFormat,gcode
;   celebration,0
;   celebrationSong,Random Song
;   postProcessing,
;   defaultSpeed,1800
;   outlineUnderspeed,0.5
;   solidInfillUnderspeed,0.8
;   supportUnderspeed,0.8
;   rapidXYspeed,18000
;   rapidZspeed,1200
;   minBridgingArea,50
;   bridgingExtraInflation,0
;   bridgingExtrusionMultiplier,0.96
;   bridgingSpeedMultiplier,1
;   useFixedBridgingAngle,0
;   fixedBridgingAngle,0
;   applyBridgingToPerimeters,0
;   filamentDiameters,1.75|1.75|1.75|1.75|1.75|1.75
;   filamentPricesPerKg,25|46|46|46|46|46
;   filamentDensities,1.25|1.25|1.25|1.25|1.25|1.25
;   useMinPrintHeight,0
;   minPrintHeight,0
;   useMaxPrintHeight,0
;   maxPrintHeight,0
;   useDiaphragm,1
;   diaphragmLayerInterval,20
;   robustSlicing,1
;   mergeAllIntoSolid,0
;   onlyRetractWhenCrossingOutline,1
;   retractBetweenLayers,0
;   useRetractionMinTravel,1
;   retractionMinTravel,3
;   retractWhileWiping,1
;   onlyWipeOutlines,0
;   avoidCrossingOutline,1
;   maxMovementDetourFactor,3
;   toolChangeRetractionDistance,12
;   toolChangeExtraRestartDistance,-0.5
;   toolChangeRetractionSpeed,600
;   externalThinWallType,1
;   internalThinWallType,2
;   thinWallAllowedOverlapPercentage,10
;   singleExtrusionMinLength,1
;   singleExtrusionMinPrintingWidthPercentage,50
;   singleExtrusionMaxPrintingWidthPercentage,200
;   singleExtrusionEndpointExtension,0.2
;   horizontalSizeCompensation,-0.1
G90
M82
M106 S0
M140 S85
M190 S85
G10 S225 R{225-50} P0
M116 P0
G28 ; home all axes
G32 ; run bed.g -- probe bed and enable compensation
; process Process1
; layer 1, Z = 0.300
T0
G92 E0.0000
G1 E-3.0000 F3600
; feature outer perimeter
; tool H0.300 W0.720
G1 Z0.300 F1200
G1 X25.460 Y25.460 F18000
G1 E0.0000 F3600
G92 E0.0000
G1 X174.540 Y25.460 E12.5845 F450
G1 X174.540 Y174.540 E25.1689
G1 X25.460 Y174.540 E37.7534
G1 X25.460 Y25.660 E50.3210
G1 X25.460 Y25.460 F450
G1 X26.540 Y26.540 F18000
G92 E0.0000
G1 X26.540 Y173.460 E12.4021 F450
G1 X173.460 Y173.460 E24.8043
G1 X173.460 Y26.540 E37.2064
G1 X26.740 Y26.540 E49.5917
G1 X26.540 Y26.540 F450
; feature gap fill
; tool H0.300 W0.480
G1 X173.935 Y25.952 F18000
G92 E0.0000
G1 X174.048 Y26.065 E0.0090 F900
G1 X174.048 Y26.744 E0.0472
G1 X173.952 Y26.648 E0.0548
G1 X173.952 Y26.048 E0.0885
G1 X173.352 Y26.048 E0.1223
G1 X173.256 Y25.952 E0.1299
G1 X172.578 Y25.952 E0.1681
G1 X172.674 Y26.048 E0.1758
G1 X171.995 Y26.048 E0.2140
G1 X171.899 Y25.952 E0.2216
G1 X171.220 Y25.952 E0.2598
G1 X171.316 Y26.048 E0.2675
G1 X170.637 Y26.048 E0.3057
G1 X170.541 Y25.952 E0.3133
G1 X169.862 Y25.952 E0.3515
G1 X169.958 Y26.048 E0.3591
G1 X169.280 Y26.048 E0.3973
G1 X169.184 Y25.952 E0.4050
G1 X168.505 Y25.952 E0.4432
G1 X168.601 Y26.048 E0.4508
G1 X167.922 Y26.048 E0.4890
G1 X167.826 Y25.952 E0.4967
G1 X167.147 Y25.952 E0.5349
G1 X167.243 Y26.048 E0.5425
G1 X166.564 Y26.048 E0.5807
G1 X166.468 Y25.952 E0.5883
G1 X165.789 Y25.952 E0.6265
G1 X165.885 Y26.048 E0.6342
G1 X165.207 Y26.048 E0.6724
G1 X165.111 Y25.952 E0.6800
G1 X164.432 Y25.952 E0.7182
G1 X164.528 Y26.048 E0.7259
G1 X163.849 Y26.048 E0.7641
G1 X163.753 Y25.952 E0.7717
G1 X163.074 Y25.952 E0.8099
G1 X163.170 Y26.048 E0.8176
G1 X162.491 Y26.048 E0.8558
G1 X162.395 Y25.952 E0.8634
G1 X161.717 Y25.952 E0.9016
G1 X161.813 Y26.048 E0.9092
G1 X161.134 Y26.048 E0.9474
G1 X161.038 Y25.952 E0.9551
G1 X160.359 Y25.952 E0.9933
G1 X160.455 Y26.048 E1.0009
G1 X159.776 Y26.048 E1.0391
G1 X159.680 Y25.952 E1.0468
G1 X159.001 Y25.952 E1.0850
G1 X159.097 Y26.048 E1.0926
G1 X158.418 Y26.048 E1.1308
G1 X158.322 Y25.952 E1.1384
G1 X157.644 Y25.952 E1.1766
G1 X157.740 Y26.048 E1.1843
G1 X157.061 Y26.048 E1.2225
G1 X156.965 Y25.952 E1.2301
G1 X156.286 Y25.952 E1.2683
G1 X156.382 Y26.048 E1.2760
G1 X155.703 Y26.048 E1.3142
G1 X155.607 Y25.952 E1.3218
G1 X154.928 Y25.952 E1.3600
G1 X155.024 Y26.048 E1.3677
G1 X154.345 Y26.048 E1.4059
G1 X154.249 Y25.952 E1.4135
G1 X153.571 Y25.952 E1.4517
G1 X153.667 Y26.048 E1.4593
G1 X152.988 Y26.048 E1.4975
G1 X152.892 Y25.952 E1.5052
G1 X152.213 Y25.952 E1.5434
G1 X152.309 Y26.048 E1.5510
G1 X151.630 Y26.048 E1.5892
G1 X151.534 Y25.952 E1.5969
G1 X150.855 Y25.952 E1.6351
G1 X150.951 Y26.048 E1.6427
G1 X150.273 Y26.048 E1.6809
G1 X150.177 Y25.952 E1.6885
G1 X149.498 Y25.952 E1.7267
G1 X149.594 Y26.048 E1.7344
G1 X148.915 Y26.048 E1.7726
G1 X148.819 Y25.952 E1.7802
G1 X148.140 Y25.952 E1.8184
G1 X148.236 Y26.048 E1.8261
G1 X147.557 Y26.048 E1.8643
G1 X147.461 Y25.952 E1.8719
G1 X146.782 Y25.952 E1.9101
G1 X146.878 Y26.048 E1.9178
G1 X146.200 Y26.048 E1.9560
G1 X146.104 Y25.952 E1.9636
G1 X145.425 Y25.952 E2.0018
G1 X145.521 Y26.048 E2.0094
G1 X144.842 Y26.048 E2.0476
G1 X144.746 Y25.952 E2.0553
G1 X144.067 Y25.952 E2.0935
G1 X144.163 Y26.048 E2.1011
G1 X143.484 Y26.048 E2.1393
G1 X143.388 Y25.952 E2.1470
G1 X142.709 Y25.952 E2.1852
G1 X142.805 Y26.048 E2.1928
G1 X142.127 Y26.048 E2.2310
G1 X142.031 Y25.952 E2.2386
G1 X141.352 Y25.952 E2.2769
G1 X141.448 Y26.048 E2.2845
G1 X140.769 Y26.048 E2.3227
G1 X140.673 Y25.952 E2.3303
G1 X139.994 Y25.952 E2.3685
G1 X140.090 Y26.048 E2.3762
G1 X139.411 Y26.048 E2.4144
G1 X139.315 Y25.952 E2.4220
G1 X138.637 Y25.952 E2.4602
G1 X138.733 Y26.048 E2.4679
G1 X138.054 Y26.048 E2.5061
G1 X137.958 Y25.952 E2.5137
G1 X137.279 Y25.952 E2.5519
G1 X137.375 Y26.048 E2.5595
G1 X136.696 Y26.048 E2.5977
G1 X136.600 Y25.952 E2.6054
G1 X135.921 Y25.952 E2.6436
G1 X136.017 Y26.048 E2.6512
G1 X135.338 Y26.048 E2.6894
G1 X135.242 Y25.952 E2.6971
G1 X134.564 Y25.952 E2.7353
G1 X134.660 Y26.048 E2.7429
G1 X133.981 Y26.048 E2.7811
G1 X133.885 Y25.952 E2.7888
G1 X133.206 Y25.952 E2.8270
G1 X133.302 Y26.048 E2.8346
G1 X132.623 Y26.048 E2.8728
G1 X132.527 Y25.952 E2.8804
G1 X131.848 Y25.952 E2.9186
G1 X131.944 Y26.048 E2.9263
G1 X131.266 Y26.048 E2.9645
G1 X131.170 Y25.952 E2.9721
G1 X130.491 Y25.952 E3.0103
G1 X130.587 Y26.048 E3.0180
G1 X129.908 Y26.048 E3.0562
G1 X129.812 Y25.952 E3.0638
G1 X129.133 Y25.952 E3.1020
G1 X129.229 Y26.048 E3.1096
G1 X128.550 Y26.048 E3.1478
G1 X128.454 Y25.952 E3.1555
G1 X127.775 Y25.952 E3.1937
G1 X127.871 Y26.048 E3.2013
G1 X127.193 Y26.048 E3.2395
G1 X127.097 Y25.952 E3.2472
G1 X126.418 Y25.952 E3.2854
G1 X126.514 Y26.048 E3.2930
G1 X125.835 Y26.048 E3.3312
G1 X125.739 Y25.952 E3.3389
G1 X125.060 Y25.952 E3.3771
G1 X125.156 Y26.048 E3.3847
G1 X124.477 Y26.048 E3.4229
G1 X124.381 Y25.952 E3.4305
G1 X123.702 Y25.952 E3.4687
G1 X123.798 Y26.048 E3.4764
G1 X123.120 Y26.048 E3.5146
G1 X123.024 Y25.952 E3.5222
G1 X122.345 Y25.952 E3.5604
G1 X122.441 Y26.048 E3.5681
G1 X121.762 Y26.048 E3.6063
G1 X121.666 Y25.952 E3.6139
G1 X120.987 Y25.952 E3.6521
G1 X121.083 Y26.048 E3.6597
G1 X120.404 Y26.048 E3.6979
G1 X120.308 Y25.952 E3.7056
G1 X119.630 Y25.952 E3.7438
G1 X119.726 Y26.048 E3.7514
G1 X119.047 Y26.048 E3.7896
G1 X118.951 Y25.952 E3.7973
G1 X118.272 Y25.952 E3.8355
G1 X118.368 Y26.048 E3.8431
G1 X117.689 Y26.048 E3.8813
G1 X117.593 Y25.952 E3.8890
G1 X116.914 Y25.952 E3.9272
G1 X117.010 Y26.048 E3.9348
G1 X116.331 Y26.048 E3.9730
G1 X116.235 Y25.952 E3.9806
G1 X115.557 Y25.952 E4.0188
G1 X115.653 Y26.048 E4.0265
G1 X114.974 Y26.048 E4.0647
G1 X114.878 Y25.952 E4.0723
G1 X114.199 Y25.952 E4.1105
G1 X114.295 Y26.048 E4.1182
G1 X113.616 Y26.048 E4.1564
G1 X113.520 Y25.952 E4.1640
G1 X112.841 Y25.952 E4.2022
G1 X112.937 Y26.048 E4.2098
G1 X112.258 Y26.048 E4.2480
G1 X112.162 Y25.952 E4.2557
G1 X111.484 Y25.952 E4.2939
G1 X111.580 Y26.048 E4.3015
G1 X110.901 Y26.048 E4.3397
G1 X110.805 Y25.952 E4.3474
G1 X110.126 Y25.952 E4.3856
G1 X110.222 Y26.048 E4.3932
G1 X109.543 Y26.048 E4.4314
G1 X109.447 Y25.952 E4.4391
G1 X108.768 Y25.952 E4.4773
G1 X108.864 Y26.048 E4.4849
G1 X108.186 Y26.048 E4.5231
G1 X108.090 Y25.952 E4.5307
G1 X107.411 Y25.952 E4.5689
G1 X107.507 Y26.048 E4.5766
G1 X106.828 Y26.048 E4.6148
G1 X106.732 Y25.952 E4.6224
G1 X106.053 Y25.952 E4.6606
G1 X106.149 Y26.048 E4.6683
G1 X105.470 Y26.048 E4.7065
G1 X105.374 Y25.952 E4.7141
G1 X104.695 Y25.952 E4.7523
G1 X104.791 Y26.048 E4.7599
G1 X104.113 Y26.048 E4.7982
G1 X104.017 Y25.952 E4.8058
G1 X103.338 Y25.952 E4.8440
G1 X103.434 Y26.048 E4.8516
G1 X102.755 Y26.048 E4.8898
G1 X102.659 Y25.952 E4.8975
G1 X101.980 Y25.952 E4.9357
G1 X102.076 Y26.048 E4.9433
G1 X101.397 Y26.048 E4.9815
G1 X101.301 Y25.952 E4.9892
G1 X100.622 Y25.952 E5.0274
G1 X100.718 Y26.048 E5.0350
G1 X100.040 Y26.048 E5.0732
G1 X99.944 Y25.952 E5.0808
G1 X99.265 Y25.952 E5.1190
G1 X99.361 Y26.048 E5.1267
G1 X98.682 Y26.048 E5.1649
G1 X98.586 Y25.952 E5.1725
G1 X97.907 Y25.952 E5.2107
G1 X98.003 Y26.048 E5.2184
G1 X97.324 Y26.048 E5.2566
G1 X97.228 Y25.952 E5.2642
G1 X96.550 Y25.952 E5.3024
G1 X96.646 Y26.048 E5.3101
G1 X95.967 Y26.048 E5.3483
G1 X95.871 Y25.952 E5.3559
G1 X95.192 Y25.952 E5.3941
G1 X95.288 Y26.048 E5.4017
G1 X94.609 Y26.048 E5.4399
G1 X94.513 Y25.952 E5.4476
G1 X93.834 Y25.952 E5.4858
G1 X93.930 Y26.048 E5.4934
G1 X93.251 Y26.048 E5.5316
G1 X93.155 Y25.952 E5.5393
G1 X92.477 Y25.952 E5.5775
G1 X92.573 Y26.048 E5.5851
G1 X91.894 Y26.048 E5.6233
G1 X91.798 Y25.952 E5.6309
G1 X91.119 Y25.952 E5.6691
G1 X91.215 Y26.048 E5.6768
G1 X90.536 Y26.048 E5.7150
G1 X90.440 Y25.952 E5.7226
G1 X89.761 Y25.952 E5.7608
G1 X89.857 Y26.048 E5.7685
G1 X89.179 Y26.048 E5.8067
G1 X89.083 Y25.952 E5.8143
G1 X88.404 Y25.952 E5.8525
G1 X88.500 Y26.048 E5.8602
G1 X87.821 Y26.048 E5.8984
G1 X87.725 Y25.952 E5.9060
G1 X87.046 Y25.952 E5.9442
G1 X87.142 Y26.048 E5.9518
G1 X86.463 Y26.048 E5.9900
G1 X86.367 Y25.952 E5.9977
G1 X85.688 Y25.952 E6.0359
G1 X85.784 Y26.048 E6.0435
G1 X85.106 Y26.048 E6.0817
G1 X85.010 Y25.952 E6.0894
G1 X84.331 Y25.952 E6.1276
G1 X84.427 Y26.048 E6.1352
G1 X83.748 Y26.048 E6.1734
G1 X83.652 Y25.952 E6.1810
G1 X82.973 Y25.952 E6.2192
G1 X83.069 Y26.048 E6.2269
G1 X82.390 Y26.048 E6.2651
G1 X82.294 Y25.952 E6.2727
G1 X81.615 Y25.952 E6.3109
G1 X81.711 Y26.048 E6.3186
G1 X81.033 Y26.048 E6.3568
G1 X80.937 Y25.952 E6.3644
G1 X80.258 Y25.952 E6.4026
G1 X80.354 Y26.048 E6.4103
G1 X79.675 Y26.048 E6.4485
G1 X79.579 Y25.952 E6.4561
G1 X78.900 Y25.952 E6.4943
G1 X78.996 Y26.048 E6.5019
G1 X78.317 Y26.048 E6.5401
G1 X78.221 Y25.952 E6.5478
G1 X77.543 Y25.952 E6.5860
G1 X77.639 Y26.048 E6.5936
G1 X76.960 Y26.048 E6.6318
G1 X76.864 Y25.952 E6.6395
G1 X76.185 Y25.952 E6.6777
G1 X76.281 Y26.048 E6.6853
G1 X75.602 Y26.048 E6.7235
G1 X75.506 Y25.952 E6.7311
G1 X74.827 Y25.952 E6.7693
G1 X74.923 Y26.048 E6.7770
G1 X74.244 Y26.048 E6.8152
G1 X74.148 Y25.952 E6.8228
G1 X73.470 Y25.952 E6.8610
G1 X73.566 Y26.048 E6.8687
G1 X72.887 Y26.048 E6.9069
G1 X72.791 Y25.952 E6.9145
G1 X72.112 Y25.952 E6.9527
G1 X72.208 Y26.048 E6.9604
G1 X71.529 Y26.048 E6.9986
G1 X71.433 Y25.952 E7.0062
G1 X70.754 Y25.952 E7.0444
G1 X70.850 Y26.048 E7.0520
G1 X70.171 Y26.048 E7.0902
G1 X70.075 Y25.952 E7.0979
G1 X69.397 Y25.952 E7.1361
G1 X69.493 Y26.048 E7.1437
G1 X68.814 Y26.048 E7.1819
G1 X68.718 Y25.952 E7.1896
G1 X68.039 Y25.952 E7.2278
G1 X68.135 Y26.048 E7.2354
G1 X67.456 Y26.048 E7.2736
G1 X67.360 Y25.952 E7.2812
G1 X66.681 Y25.952 E7.3195
G1 X66.777 Y26.048 E7.3271
G1 X66.099 Y26.048 E7.3653
G1 X66.003 Y25.952 E7.3729
G1 X65.324 Y25.952 E7.4111
G1 X65.420 Y26.048 E7.4188
G1 X64.741 Y26.048 E7.4570
G1 X64.645 Y25.952 E7.4646
G1 X63.966 Y25.952 E7.5028
G1 X64.062 Y26.048 E7.5105
G1 X63.383 Y26.048 E7.5487
G1 X63.287 Y25.952 E7.5563
G1 X62.608 Y25.952 E7.5945
G1 X62.704 Y26.048 E7.6021
G1 X62.026 Y26.048 E7.6403
G1 X61.930 Y25.952 E7.6480
G1 X61.251 Y25.952 E7.6862
G1 X61.347 Y26.048 E7.6938
G1 X60.668 Y26.048 E7.7320
G1 X60.572 Y25.952 E7.7397
G1 X59.893 Y25.952 E7.7779
G1 X59.989 Y26.048 E7.7855
G1 X59.310 Y26.048 E7.8237
G1 X59.214 Y25.952 E7.8314
G1 X58.535 Y25.952 E7.8696
G1 X58.631 Y26.048 E7.8772
G1 X57.953 Y26.048 E7.9154
G1 X57.857 Y25.952 E7.9230
G1 X57.178 Y25.952 E7.9612
G1 X57.274 Y26.048 E7.9689
G1 X56.595 Y26.048 E8.0071
G1 X56.499 Y25.952 E8.0147
G1 X55.820 Y25.952 E8.0529
G1 X55.916 Y26.048 E8.0606
G1 X55.237 Y26.048 E8.0988
G1 X55.141 Y25.952 E8.1064
G1 X54.463 Y25.952 E8.1446
