; G-Code generated by Simplify3D(R) Version 4.1.2
; Jun 3, 2022 at 12:23:48 AM
; Settings Summary
;   processName,Process1
;   applyToModels,40mmcube
;   profileName,HSBot (modified)
;   profileVersion,2019-11-09 11:59:44
;   baseProfile,Default
;   printMaterial,pla
;   printQuality,Medium
;   printExtruders,
;   extruderName,Extruder 1,Extruder - Lite
;   extruderToolheadNumber,0,1
;   extruderDiameter,0.4,0.4
;   extruderAutoWidth,1,1
;   extruderWidth,0.48,0.48
;   extrusionMultiplier,1.1,0.93
;   extruderUseRetract,1,0
;   extruderRetractionDistance,2,1
;   extruderExtraRestartDistance,0,0
;   extruderRetractionZLift,0,0
;   extruderRetractionSpeed,4800,1800
;   extruderUseCoasting,0,0
;   extruderCoastingDistance,0.2,0.2
;   extruderUseWipe,0,0
;   extruderWipeDistance,2,5
;   primaryExtruder,0
;   layerHeight,0.2
;   topSolidLayers,0
;   bottomSolidLayers,1
;   perimeterOutlines,1
;   printPerimetersInsideOut,1
;   startPointOption,3
;   startPointOriginX,0
;   startPointOriginY,0
;   sequentialIslands,0
;   spiralVaseMode,0
;   firstLayerHeightPercentage,150
;   firstLayerWidthPercentage,150
;   firstLayerUnderspeed,0.25
;   useRaft,0
;   raftExtruder,0
;   raftTopLayers,3
;   raftBaseLayers,2
;   raftOffset,3
;   raftSeparationDistance,0.18
;   raftTopInfill,100
;   aboveRaftSpeedMultiplier,0.3
;   useSkirt,1
;   skirtExtruder,0
;   skirtLayers,1
;   skirtOutlines,5
;   skirtOffset,5
;   usePrimePillar,0
;   primePillarExtruder,999
;   primePillarWidth,12
;   primePillarLocation,7
;   primePillarSpeedMultiplier,1
;   useOozeShield,0
;   oozeShieldExtruder,999
;   oozeShieldOffset,2
;   oozeShieldOutlines,1
;   oozeShieldSidewallShape,1
;   oozeShieldSidewallAngle,30
;   oozeShieldSpeedMultiplier,1
;   infillExtruder,0
;   internalInfillPattern,Full Honeycomb
;   externalInfillPattern,Rectilinear
;   infillPercentage,0
;   outlineOverlapPercentage,15
;   infillExtrusionWidthPercentage,100
;   minInfillLength,5
;   infillLayerInterval,1
;   internalInfillAngles,0,120,-120
;   overlapInternalInfillAngles,0
;   externalInfillAngles,45,-45
;   generateSupport,0
;   supportExtruder,0
;   supportInfillPercentage,30
;   supportExtraInflation,0
;   supportBaseLayers,1
;   denseSupportExtruder,0
;   denseSupportLayers,0
;   denseSupportInfillPercentage,70
;   supportLayerInterval,1
;   supportHorizontalPartOffset,0.3
;   supportUpperSeparationLayers,1
;   supportLowerSeparationLayers,1
;   supportType,0
;   supportGridSpacing,2
;   maxOverhangAngle,45
;   supportAngles,0
;   temperatureName,Extruder 1,Bed
;   temperatureNumber,0,0
;   temperatureSetpointCount,1,1
;   temperatureSetpointLayers,1,1
;   temperatureSetpointTemperatures,217,55
;   temperatureStabilizeAtStartup,1,1
;   temperatureHeatedBed,0,1
;   fanLayers,1,2,5
;   fanSpeeds,0,15,50
;   blipFanToFullPower,1
;   adjustSpeedForCooling,0
;   minSpeedLayerTime,15
;   minCoolingSpeedSlowdown,20
;   increaseFanForCooling,1
;   minFanLayerTime,45
;   maxCoolingFanSpeed,40
;   increaseFanForBridging,1
;   bridgingFanSpeed,80
;   use5D,1
;   relativeEdistances,0
;   allowEaxisZeroing,1
;   independentExtruderAxes,0
;   includeM10123,0
;   stickySupport,1
;   applyToolheadOffsets,0
;   gcodeXoffset,0
;   gcodeYoffset,0
;   gcodeZoffset,0
;   overrideMachineDefinition,1
;   machineTypeOverride,0
;   strokeXoverride,220
;   strokeYoverride,220
;   strokeZoverride,150
;   originOffsetXoverride,0
;   originOffsetYoverride,0
;   originOffsetZoverride,0
;   homeXdirOverride,-1
;   homeYdirOverride,-1
;   homeZdirOverride,-1
;   flipXoverride,1
;   flipYoverride,-1
;   flipZoverride,1
;   toolheadOffsets,0,0|0,0|0,0|0,0|0,0|0,0
;   overrideFirmwareConfiguration,0
;   firmwareTypeOverride,RepRap (Marlin/Repetier/Sprinter)
;   GPXconfigOverride,r2
;   baudRateOverride,115200
;   overridePrinterModels,0
;   printerModelsOverride
;   startingGcode,G28 ; home all axes,G32 ; run bed.g -- probe bed and enable compensation
;   layerChangeGcode,
;   retractionGcode,
;   toolChangeGcode,
;   endingGcode,M0 ; call stop.g
;   exportFileFormat,gcode
;   celebration,0
;   celebrationSong,Random Song
;   postProcessing,|; 0.2mm layer, 8 bands 5mm each, total height 40mm|{REPLACE "; layer 25" "M572 D0 S0.55\n; layer 10"}|{REPLACE "; layer 50" "M572 D0 S0.6\n; layer 50"}|{REPLACE "; layer 75" "M572 D0 S0.65\n; layer 75"}|{REPLACE "; layer 100" "M572 D0 S0.7\n; layer 100"}|{REPLACE "; layer 125" "M572 D0 S0.75\n; layer 125"}|{REPLACE "; layer 150" "M572 D0 S0.8\n; layer 150"}|{REPLACE "; layer 175" "M572 D0 S0.85\n; layer 175"}
;   defaultSpeed,7500
;   outlineUnderspeed,0.8
;   solidInfillUnderspeed,0.75
;   supportUnderspeed,0.8
;   rapidXYspeed,18000
;   rapidZspeed,1200
;   minBridgingArea,50
;   bridgingExtraInflation,0
;   bridgingExtrusionMultiplier,0.96
;   bridgingSpeedMultiplier,1
;   useFixedBridgingAngle,0
;   fixedBridgingAngle,0
;   applyBridgingToPerimeters,0
;   filamentDiameters,1.75|1.75|1.75|1.75|1.75|1.75
;   filamentPricesPerKg,25|46|46|46|46|46
;   filamentDensities,1.29|1.25|1.25|1.25|1.25|1.25
;   useMinPrintHeight,0
;   minPrintHeight,0.3
;   useMaxPrintHeight,0
;   maxPrintHeight,5
;   useDiaphragm,0
;   diaphragmLayerInterval,20
;   robustSlicing,1
;   mergeAllIntoSolid,0
;   onlyRetractWhenCrossingOutline,1
;   retractBetweenLayers,0
;   useRetractionMinTravel,1
;   retractionMinTravel,5
;   retractWhileWiping,1
;   onlyWipeOutlines,1
;   avoidCrossingOutline,1
;   maxMovementDetourFactor,5
;   toolChangeRetractionDistance,12
;   toolChangeExtraRestartDistance,0
;   toolChangeRetractionSpeed,600
;   externalThinWallType,1
;   internalThinWallType,1
;   thinWallAllowedOverlapPercentage,10
;   singleExtrusionMinLength,0.1
;   singleExtrusionMinPrintingWidthPercentage,50
;   singleExtrusionMaxPrintingWidthPercentage,200
;   singleExtrusionEndpointExtension,0.2
;   horizontalSizeCompensation,-0.1
G90
M82
M106 S0
M140 S55
M190 S55
G10 S217 R{217-50} P0
M116 P0
G28 ; home all axes
G32 ; run bed.g -- probe bed and enable compensation
; process Process1
; layer 1, Z = 0.300
T0
G92 E0.0000
G1 E-2.0000 F4800
; feature skirt
; tool H0.300 W0.720
G1 Z0.300 F1200
G1 X86.687 Y81.860 F18000
G1 E0.0000 F4800
G92 E0.0000
G1 X133.313 Y81.860 E4.6059 F1875
G1 X138.140 Y86.687 E5.2802
G1 X138.140 Y133.313 E9.8860
G1 X133.313 Y138.140 E10.5603
G1 X86.687 Y138.140 E15.1662
G1 X81.860 Y133.313 E15.8405
G1 X81.860 Y86.687 E20.4464
G1 X86.687 Y81.860 E21.1207
G1 X86.985 Y82.580 F18000
G92 E0.0000
G1 X133.015 Y82.580 E4.5469 F1875
G1 X137.420 Y86.985 E5.1623
G1 X137.420 Y133.015 E9.7093
G1 X133.015 Y137.420 E10.3247
G1 X86.985 Y137.420 E14.8716
G1 X82.580 Y133.015 E15.4870
G1 X82.580 Y86.985 E20.0339
G1 X86.985 Y82.580 E20.6493
G1 X87.283 Y83.300 F18000
G92 E0.0000
G1 X132.717 Y83.300 E4.4880 F1875
G1 X136.700 Y87.283 E5.0445
G1 X136.700 Y132.717 E9.5325
G1 X132.717 Y136.700 E10.0890
G1 X87.283 Y136.700 E14.5770
G1 X83.300 Y132.717 E15.1335
G1 X83.300 Y87.283 E19.6215
G1 X87.283 Y83.300 E20.1779
G1 X87.582 Y84.020 F18000
G92 E0.0000
G1 X132.418 Y84.020 E4.4291 F1875
G1 X135.980 Y87.582 E4.9266
G1 X135.980 Y132.418 E9.3557
G1 X132.418 Y135.980 E9.8533
G1 X87.582 Y135.980 E14.2824
G1 X84.020 Y132.418 E14.7799
G1 X84.020 Y87.582 E19.2090
G1 X87.582 Y84.020 E19.7066
G1 X87.880 Y84.740 F18000
G92 E0.0000
G1 X132.120 Y84.740 E4.3702 F1875
G1 X135.260 Y87.880 E4.8088
G1 X135.260 Y132.120 E9.1790
G1 X132.120 Y135.260 E9.6176
G1 X87.880 Y135.260 E13.9878
G1 X84.740 Y132.120 E14.4264
G1 X84.740 Y87.880 E18.7966
G1 X87.880 Y84.740 E19.2352
G92 E0.0000
G1 E-2.0000 F4800
; feature outer perimeter
G1 X90.460 Y90.460 F18000
G1 E0.0000 F4800
G92 E0.0000
G1 X129.540 Y90.460 E3.8604 F1500
G1 X129.540 Y129.540 E7.7208
G1 X90.460 Y129.540 E11.5813
G1 X90.460 Y90.460 E15.4417
; feature solid layer
G1 X128.747 Y91.072 F18000
G92 E0.0000
G1 X128.928 Y91.253 E0.0253 F1406
G1 X128.928 Y92.272 E0.1259
G1 X127.728 Y91.072 E0.2935
G1 X126.710 Y91.072 E0.3941
G1 X128.928 Y93.290 E0.7039
G1 X128.928 Y94.308 E0.8045
G1 X125.692 Y91.072 E1.2565
G1 X124.674 Y91.072 E1.3571
G1 X128.928 Y95.326 E1.9514
G1 X128.928 Y96.344 E2.0520
G1 X123.656 Y91.072 E2.7886
G1 X122.637 Y91.072 E2.8892
G1 X128.928 Y97.363 E3.7680
G1 X128.928 Y98.381 E3.8685
G1 X121.619 Y91.072 E4.8896
G1 X120.601 Y91.072 E4.9902
G1 X128.928 Y99.399 E6.1535
G1 X128.928 Y100.417 E6.2541
G1 X119.583 Y91.072 E7.5596
G1 X118.564 Y91.072 E7.6602
G1 X128.928 Y101.436 E9.1080
G1 X128.928 Y102.454 E9.2086
G1 X117.546 Y91.072 E10.7986
G1 X116.528 Y91.072 E10.8992
G1 X128.928 Y103.472 E12.6315
G1 X128.928 Y104.490 E12.7321
G1 X115.510 Y91.072 E14.6066
G1 X114.491 Y91.072 E14.7072
G1 X128.928 Y105.509 E16.7240
G1 X128.928 Y106.527 E16.8246
G1 X113.473 Y91.072 E18.9836
G1 X112.455 Y91.072 E19.0842
G1 X128.928 Y107.545 E21.3854
G1 X128.928 Y108.563 E21.4860
G1 X111.437 Y91.072 E23.9295
G1 X110.418 Y91.072 E24.0301
G1 X128.928 Y109.581 E26.6159
G1 X128.928 Y110.600 E26.7165
G1 X109.400 Y91.072 E29.4445
G1 X108.382 Y91.072 E29.5451
G1 X128.928 Y111.618 E32.4153
G1 X128.928 Y112.636 E32.5159
G1 X107.364 Y91.072 E35.5284
G1 X106.346 Y91.072 E35.6290
G1 X128.928 Y113.654 E38.7838
G1 X128.928 Y114.673 E38.8844
G1 X105.327 Y91.072 E42.1814
G1 X104.309 Y91.072 E42.2820
G1 X128.928 Y115.691 E45.7212
G1 X128.928 Y116.709 E45.8218
G1 X103.291 Y91.072 E49.4033
G1 X102.273 Y91.072 E49.5039
G1 X128.928 Y117.727 E53.2276
G1 X128.928 Y118.746 E53.3282
G1 X101.254 Y91.072 E57.1942
G1 X100.236 Y91.072 E57.2948
G1 X128.928 Y119.764 E61.3030
G1 X128.928 Y120.782 E61.4036
G1 X99.218 Y91.072 E65.5541
G1 X98.200 Y91.072 E65.6547
G1 X128.928 Y121.800 E69.9474
G1 X128.928 Y122.819 E70.0480
G1 X97.181 Y91.072 E74.4830
G1 X96.163 Y91.072 E74.5835
G1 X128.928 Y123.837 E79.1608
G1 X128.928 Y124.855 E79.2614
G1 X95.145 Y91.072 E83.9808
G1 X94.127 Y91.072 E84.0814
G1 X128.928 Y125.873 E88.9431
G1 X128.928 Y126.891 E89.0437
G1 X93.108 Y91.072 E94.0477
G1 X92.090 Y91.072 E94.1483
G1 X128.928 Y127.910 E99.2945
G1 X128.928 Y128.928 E99.3951
G1 X91.072 Y91.072 E104.6835
G1 X91.072 Y92.090 E104.7841
G1 X127.910 Y128.928 E109.9303
G1 X126.892 Y128.928 E110.0309
G1 X91.072 Y93.108 E115.0349
G1 X91.072 Y94.127 E115.1355
G1 X125.873 Y128.928 E119.9972
G1 X124.855 Y128.928 E120.0978
G1 X91.072 Y95.145 E124.8173
G1 X91.072 Y96.163 E124.9179
G1 X123.837 Y128.928 E129.4951
G1 X122.819 Y128.928 E129.5957
G1 X91.072 Y97.181 E134.0307
G1 X91.072 Y98.200 E134.1313
G1 X121.800 Y128.928 E138.4240
G1 X120.782 Y128.928 E138.5246
G1 X91.072 Y99.218 E142.6751
G1 X91.072 Y100.236 E142.7757
G1 X119.764 Y128.928 E146.7839
G1 X118.746 Y128.928 E146.8845
G1 X91.072 Y101.254 E150.7505
G1 X91.072 Y102.273 E150.8511
G1 X117.727 Y128.928 E154.5748
G1 X116.709 Y128.928 E154.6754
G1 X91.072 Y103.291 E158.2569
G1 X91.072 Y104.309 E158.3575
G1 X115.691 Y128.928 E161.7968
G1 X114.673 Y128.928 E161.8974
G1 X91.072 Y105.327 E165.1944
G1 X91.072 Y106.345 E165.2949
G1 X113.654 Y128.928 E168.4497
G1 X112.636 Y128.928 E168.5503
G1 X91.072 Y107.364 E171.5628
G1 X91.072 Y108.382 E171.6634
G1 X111.618 Y128.928 E174.5337
G1 X110.600 Y128.928 E174.6343
G1 X91.072 Y109.400 E177.3623
G1 X91.072 Y110.418 E177.4629
G1 X109.582 Y128.928 E180.0486
G1 X108.563 Y128.928 E180.1492
G1 X91.072 Y111.437 E182.5928
G1 X91.072 Y112.455 E182.6933
G1 X107.545 Y128.928 E184.9946
G1 X106.527 Y128.928 E185.0952
G1 X91.072 Y113.473 E187.2543
G1 X91.072 Y114.491 E187.3548
G1 X105.509 Y128.928 E189.3716
G1 X104.490 Y128.928 E189.4722
G1 X91.072 Y115.510 E191.3468
G1 X91.072 Y116.528 E191.4473
G1 X103.472 Y128.928 E193.1796
G1 X102.454 Y128.928 E193.2802
G1 X91.072 Y117.546 E194.8703
G1 X91.072 Y118.564 E194.9708
G1 X101.436 Y128.928 E196.4187
G1 X100.417 Y128.928 E196.5192
G1 X91.072 Y119.583 E197.8248
G1 X91.072 Y120.601 E197.9254
G1 X99.399 Y128.928 E199.0887
G1 X98.381 Y128.928 E199.1893
G1 X91.072 Y121.619 E200.2103
G1 X91.072 Y122.637 E200.3109
G1 X97.363 Y128.928 E201.1897
G1 X96.345 Y128.928 E201.2903
G1 X91.072 Y123.655 E202.0269
G1 X91.072 Y124.674 E202.1275
G1 X95.326 Y128.928 E202.7218
G1 X94.308 Y128.928 E202.8224
G1 X91.072 Y125.692 E203.2744
G1 X91.072 Y126.710 E203.3750
G1 X93.290 Y128.928 E203.6848
G1 X92.272 Y128.928 E203.7854
G1 X91.072 Y127.728 E203.9530
G1 X91.072 Y128.747 E204.0536
G1 X91.253 Y128.928 E204.0789
; layer 2, Z = 0.500
M106 S255
G4 P500
M106 S102
; feature outer perimeter
; tool H0.200 W0.480
G1 Z0.500 F1200
G1 X90.460 Y95.410 F18000
G1 X90.460 Y90.460
G1 X90.340 Y90.340
G92 E0.0000
G1 X129.660 Y90.340 E1.7263 F6000
G1 X129.660 Y129.660 E3.4526
G1 X90.340 Y129.660 E5.1788
G1 X90.340 Y90.340 E6.9051
; layer 3, Z = 0.700
G1 Z0.700 F1200
G92 E0.0000
G1 X129.660 Y90.340 E1.7263 F6000
G1 X129.660 Y129.660 E3.4526
G1 X90.340 Y129.660 E5.1788
G1 X90.340 Y90.340 E6.9051
; layer 4, Z = 0.900
G1 Z0.900 F1200
G92 E0.0000
G1 X129.660 Y90.340 E1.7263 F6000
G1 X129.660 Y129.660 E3.4526
G1 X90.340 Y129.660 E5.1788
G1 X90.340 Y90.340 E6.9051
; layer 5, Z = 1.100
G1 Z1.100 F1200
G92 E0.0000
G1 X129.660 Y90.340 E1.7263 F6000
G1 X129.660 Y129.660 E3.4526
G1 X90.340 Y129.660 E5.1788
G1 X90.340 Y90.340 E6.9051
; layer 6, Z = 1.300
G1 Z1.300 F1200
G92 E0.0000
G1 X129.660 Y90.340 E1.7263 F6000
G1 X129.660 Y129.660 E3.4526
G1 X90.340 Y129.660 E5.1788
G1 X90.340 Y90.340 E6.9051
; layer 7, Z = 1.500
G1 Z1.500 F1200
G92 E0.0000
G1 X129.660 Y90.340 E1.7263 F6000
G1 X129.660 Y129.660 E3.4526
G1 X90.340 Y129.660 E5.1788
G1 X90.340 Y90.340 E6.9051
; layer 8, Z = 1.700
G1 Z1.700 F1200
G92 E0.0000
G1 X129.660 Y90.340 E1.7263 F6000
G1 X129.660 Y129.660 E3.4526
G1 X90.340 Y129.660 E5.1788
G1 X90.340 Y90.340 E6.9051
; layer 9, Z = 1.900
G1 Z1.900 F1200
G92 E0.0000
G1 X129.660 Y90.340 E1.7263 F6000
G1 X129.660 Y129.660 E3.4526
G1 X90.340 Y129.660 E5.1788
G1 X90.340 Y90.340 E6.9051
; layer 10, Z = 2.100
G1 Z2.100 F1200
G92 E0.0000
G1 X129.660 Y90.340 E1.7263 F6000
G1 X129.660 Y129.660 E3.4526
G1 X90.340 Y129.660 E5.1788
G1 X90.340 Y90.340 E6.9051
; layer 11, Z = 2.300
G1 Z2.300 F1200
G92 E0.0000
G1 X129.660 Y90.340 E1.7263 F6000
G1 X129.660 Y129.660 E3.4526
G1 X90.340 Y129.660 E5.1788
G1 X90.340 Y90.340 E6.9051
; layer 12, Z = 2.500
G1 Z2.500 F1200
G92 E0.0000
G1 X129.660 Y90.340 E1.7263 F6000
G1 X129.660 Y129.660 E3.4526
G1 X90.340 Y129.660 E5.1788
G1 X90.340 Y90.340 E6.9051
; layer 13, Z = 2.700
G1 Z2.700 F1200
G92 E0.0000
G1 X129.660 Y90.340 E1.7263 F6000
G1 X129.660 Y129.660 E3.4526
G1 X90.340 Y129.660 E5.1788
G1 X90.340 Y90.340 E6.9051
; layer 14, Z = 2.900
G1 Z2.900 F1200
G92 E0.0000
G1 X129.660 Y90.340 E1.7263 F6000
G1 X129.660 Y129.660 E3.4526
G1 X90.340 Y129.660 E5.1788
G1 X90.340 Y90.340 E6.9051
; layer 15, Z = 3.100
G1 Z3.100 F1200
G92 E0.0000
G1 X129.660 Y90.340 E1.7263 F6000
G1 X129.660 Y129.660 E3.4526
G1 X90.340 Y129.660 E5.1788
G1 X90.340 Y90.340 E6.9051
; layer 16, Z = 3.300
G1 Z3.300 F1200
G92 E0.0000
G1 X129.660 Y90.340 E1.7263 F6000
G1 X129.660 Y129.660 E3.4526
G1 X90.340 Y129.660 E5.1788
G1 X90.340 Y90.340 E6.9051
; layer 17, Z = 3.500
G1 Z3.500 F1200
G92 E0.0000
G1 X129.660 Y90.340 E1.7263 F6000
G1 X129.660 Y129.660 E3.4526
G1 X90.340 Y129.660 E5.1788
G1 X90.340 Y90.340 E6.9051
; layer 18, Z = 3.700
G1 Z3.700 F1200
G92 E0.0000
G1 X129.660 Y90.340 E1.7263 F6000
G1 X129.660 Y129.660 E3.4526
G1 X90.340 Y129.660 E5.1788
G1 X90.340 Y90.340 E6.9051
; layer 19, Z = 3.900
G1 Z3.900 F1200
G92 E0.0000
G1 X129.660 Y90.340 E1.7263 F6000
G1 X129.660 Y129.660 E3.4526
G1 X90.340 Y129.660 E5.1788
G1 X90.340 Y90.340 E6.9051
; layer 20, Z = 4.100
G1 Z4.100 F1200
G92 E0.0000
G1 X129.660 Y90.340 E1.7263 F6000
G1 X129.660 Y129.660 E3.4526
G1 X90.340 Y129.660 E5.1788
G1 X90.340 Y90.340 E6.9051
; layer 21, Z = 4.300
G1 Z4.300 F1200
G92 E0.0000
G1 X129.660 Y90.340 E1.7263 F6000
G1 X129.660 Y129.660 E3.4526
G1 X90.340 Y129.660 E5.1788
G1 X90.340 Y90.340 E6.9051
; layer 22, Z = 4.500
G1 Z4.500 F1200
G92 E0.0000
G1 X129.660 Y90.340 E1.7263 F6000
G1 X129.660 Y129.660 E3.4526
G1 X90.340 Y129.660 E5.1788
G1 X90.340 Y90.340 E6.9051
; layer 23, Z = 4.700
G1 Z4.700 F1200
G92 E0.0000
G1 X129.660 Y90.340 E1.7263 F6000
G1 X129.660 Y129.660 E3.4526
