; G-Code generated by Simplify3D(R) Version 4.1.2
; May 29, 2022 at 8:25:27 PM
; Settings Summary
;   processName,Process1
;   applyToModels,pressure-advance-test
;   profileName,HSBot
;   profileVersion,2019-11-09 11:59:44
;   baseProfile,Default
;   printMaterial,PETG - Eryone
;   printQuality,Medium
;   printExtruders,
;   extruderName,Extruder 1,Extruder - Lite
;   extruderToolheadNumber,0,1
;   extruderDiameter,0.4,0.4
;   extruderAutoWidth,1,1
;   extruderWidth,0.48,0.48
;   extrusionMultiplier,1.03,0.93
;   extruderUseRetract,1,0
;   extruderRetractionDistance,4,1
;   extruderExtraRestartDistance,0,0
;   extruderRetractionZLift,0,0
;   extruderRetractionSpeed,3600,1800
;   extruderUseCoasting,0,0
;   extruderCoastingDistance,0.2,0.2
;   extruderUseWipe,0,0
;   extruderWipeDistance,1,5
;   primaryExtruder,0
;   layerHeight,0.2
;   topSolidLayers,3
;   bottomSolidLayers,3
;   perimeterOutlines,3
;   printPerimetersInsideOut,1
;   startPointOption,2
;   startPointOriginX,0
;   startPointOriginY,0
;   sequentialIslands,0
;   spiralVaseMode,0
;   firstLayerHeightPercentage,150
;   firstLayerWidthPercentage,150
;   firstLayerUnderspeed,0.5
;   useRaft,0
;   raftExtruder,0
;   raftTopLayers,3
;   raftBaseLayers,2
;   raftOffset,3
;   raftSeparationDistance,0.18
;   raftTopInfill,100
;   aboveRaftSpeedMultiplier,0.3
;   useSkirt,1
;   skirtExtruder,0
;   skirtLayers,1
;   skirtOutlines,5
;   skirtOffset,0
;   usePrimePillar,0
;   primePillarExtruder,999
;   primePillarWidth,12
;   primePillarLocation,7
;   primePillarSpeedMultiplier,1
;   useOozeShield,0
;   oozeShieldExtruder,999
;   oozeShieldOffset,2
;   oozeShieldOutlines,1
;   oozeShieldSidewallShape,1
;   oozeShieldSidewallAngle,30
;   oozeShieldSpeedMultiplier,1
;   infillExtruder,0
;   internalInfillPattern,Rectilinear
;   externalInfillPattern,Rectilinear
;   infillPercentage,15
;   outlineOverlapPercentage,15
;   infillExtrusionWidthPercentage,100
;   minInfillLength,5
;   infillLayerInterval,1
;   internalInfillAngles,45,-45
;   overlapInternalInfillAngles,0
;   externalInfillAngles,45,-45
;   generateSupport,1
;   supportExtruder,0
;   supportInfillPercentage,30
;   supportExtraInflation,0
;   supportBaseLayers,1
;   denseSupportExtruder,0
;   denseSupportLayers,0
;   denseSupportInfillPercentage,70
;   supportLayerInterval,1
;   supportHorizontalPartOffset,0.3
;   supportUpperSeparationLayers,1
;   supportLowerSeparationLayers,1
;   supportType,0
;   supportGridSpacing,2
;   maxOverhangAngle,45
;   supportAngles,0
;   temperatureName,Extruder 1,Bed
;   temperatureNumber,0,0
;   temperatureSetpointCount,1,1
;   temperatureSetpointLayers,1,1
;   temperatureSetpointTemperatures,225,85
;   temperatureStabilizeAtStartup,1,1
;   temperatureHeatedBed,0,1
;   fanLayers,1,2,3
;   fanSpeeds,0,15,15
;   blipFanToFullPower,1
;   adjustSpeedForCooling,0
;   minSpeedLayerTime,15
;   minCoolingSpeedSlowdown,20
;   increaseFanForCooling,1
;   minFanLayerTime,45
;   maxCoolingFanSpeed,40
;   increaseFanForBridging,1
;   bridgingFanSpeed,80
;   use5D,1
;   relativeEdistances,0
;   allowEaxisZeroing,1
;   independentExtruderAxes,0
;   includeM10123,0
;   stickySupport,1
;   applyToolheadOffsets,0
;   gcodeXoffset,0
;   gcodeYoffset,0
;   gcodeZoffset,0
;   overrideMachineDefinition,1
;   machineTypeOverride,0
;   strokeXoverride,220
;   strokeYoverride,220
;   strokeZoverride,150
;   originOffsetXoverride,0
;   originOffsetYoverride,0
;   originOffsetZoverride,0
;   homeXdirOverride,-1
;   homeYdirOverride,-1
;   homeZdirOverride,-1
;   flipXoverride,1
;   flipYoverride,-1
;   flipZoverride,1
;   toolheadOffsets,0,0|0,0|0,0|0,0|0,0|0,0
;   overrideFirmwareConfiguration,0
;   firmwareTypeOverride,RepRap (Marlin/Repetier/Sprinter)
;   GPXconfigOverride,r2
;   baudRateOverride,115200
;   overridePrinterModels,0
;   printerModelsOverride
;   startingGcode,G28 ; home all axes,G32 ; run bed.g -- probe bed and enable compensation
;   layerChangeGcode,
;   retractionGcode,
;   toolChangeGcode,
;   endingGcode,M0 ; call stop.g
;   exportFileFormat,gcode
;   celebration,0
;   celebrationSong,Random Song
;   postProcessing,
;   defaultSpeed,4800
;   outlineUnderspeed,1
;   solidInfillUnderspeed,0.8
;   supportUnderspeed,0.8
;   rapidXYspeed,18000
;   rapidZspeed,1200
;   minBridgingArea,50
;   bridgingExtraInflation,0
;   bridgingExtrusionMultiplier,0.96
;   bridgingSpeedMultiplier,1
;   useFixedBridgingAngle,0
;   fixedBridgingAngle,0
;   applyBridgingToPerimeters,0
;   filamentDiameters,1.75|1.75|1.75|1.75|1.75|1.75
;   filamentPricesPerKg,25|46|46|46|46|46
;   filamentDensities,1.29|1.25|1.25|1.25|1.25|1.25
;   useMinPrintHeight,0
;   minPrintHeight,0.3
;   useMaxPrintHeight,0
;   maxPrintHeight,5
;   useDiaphragm,1
;   diaphragmLayerInterval,20
;   robustSlicing,1
;   mergeAllIntoSolid,0
;   onlyRetractWhenCrossingOutline,1
;   retractBetweenLayers,0
;   useRetractionMinTravel,1
;   retractionMinTravel,5
;   retractWhileWiping,1
;   onlyWipeOutlines,1
;   avoidCrossingOutline,1
;   maxMovementDetourFactor,5
;   toolChangeRetractionDistance,12
;   toolChangeExtraRestartDistance,0
;   toolChangeRetractionSpeed,600
;   externalThinWallType,1
;   internalThinWallType,2
;   thinWallAllowedOverlapPercentage,10
;   singleExtrusionMinLength,0.1
;   singleExtrusionMinPrintingWidthPercentage,50
;   singleExtrusionMaxPrintingWidthPercentage,200
;   singleExtrusionEndpointExtension,0.2
;   horizontalSizeCompensation,0
G90
M82
M106 S255
G4 P500
M106 S102
M140 S85
M190 S85
G10 S225 R{225-50} P0
M116 P0
G28 ; home all axes
G32 ; run bed.g -- probe bed and enable compensation
; process Process1
; layer 1, Z = 0.300
T0
G92 E0.0000
G1 E-4.0000 F3600
; feature skirt
; tool H0.300 W0.720
G1 Z0.300 F1200
G1 X33.658 Y32.800 F18000
G1 E0.0000 F3600
G92 E0.0000
G1 X186.342 Y32.800 E14.1228 F2400
G1 X188.240 Y34.698 E14.3710
G1 X188.240 Y67.382 E17.3942
G1 X186.342 Y69.280 E17.6425
G1 X38.720 Y69.280 E31.2970
G1 X38.720 Y82.000 E32.4735
G1 X186.342 Y82.000 E46.1280
G1 X188.240 Y83.898 E46.3763
G1 X188.240 Y116.582 E49.3995
G1 X186.342 Y118.480 E49.6477
G1 X38.720 Y118.480 E63.3023
G1 X38.720 Y131.200 E64.4788
G1 X186.342 Y131.200 E78.1333
G1 X188.240 Y133.098 E78.3816
G1 X188.240 Y165.782 E81.4048
G1 X186.342 Y167.680 E81.6530
G1 X38.720 Y167.680 E95.3075
G1 X38.720 Y185.302 E96.9375
G1 X36.822 Y187.200 E97.1858
G1 X33.658 Y187.200 E97.4785
G1 X31.760 Y185.302 E97.7267
G1 X31.760 Y162.618 E99.8249
G1 X33.658 Y160.720 E100.0732
G1 X181.280 Y160.720 E113.7277
G1 X181.280 Y138.160 E115.8144
G1 X33.658 Y138.160 E129.4689
G1 X31.760 Y136.262 E129.7172
G1 X31.760 Y113.418 E131.8302
G1 X33.658 Y111.520 E132.0785
G1 X181.280 Y111.520 E145.7330
G1 X181.280 Y88.960 E147.8197
G1 X33.658 Y88.958 E161.4742
G1 X31.760 Y87.060 E161.7225
G1 X31.760 Y64.218 E163.8353
G1 X33.658 Y62.320 E164.0835
G1 X181.280 Y62.320 E177.7381
G1 X181.280 Y39.760 E179.8248
G1 X33.658 Y39.760 E193.4793
G1 X31.760 Y37.862 E193.7276
G1 X31.760 Y34.698 E194.0202
G1 X33.658 Y32.800 E194.2685
G1 X33.956 Y33.520 F18000
G92 E0.0000
G1 X186.044 Y33.520 E14.0676 F2400
G1 X187.520 Y34.996 E14.2607
G1 X187.520 Y67.084 E17.2287
G1 X186.044 Y68.560 E17.4218
G1 X38.000 Y68.560 E31.1153
G1 X38.000 Y82.720 E32.4250
G1 X186.044 Y82.720 E46.1186
G1 X187.520 Y84.196 E46.3117
G1 X187.520 Y116.284 E49.2797
G1 X186.044 Y117.760 E49.4728
G1 X38.000 Y117.760 E63.1663
G1 X38.000 Y131.920 E64.4760
G1 X186.044 Y131.920 E78.1696
G1 X187.520 Y133.396 E78.3627
G1 X187.520 Y165.484 E81.3306
G1 X186.044 Y166.960 E81.5237
G1 X38.000 Y166.960 E95.2173
G1 X38.000 Y185.004 E96.8863
G1 X36.524 Y186.480 E97.0794
G1 X33.956 Y186.480 E97.3169
G1 X32.480 Y185.004 E97.5100
G1 X32.480 Y162.916 E99.5530
G1 X33.956 Y161.440 E99.7461
G1 X182.000 Y161.440 E113.4396
G1 X182.000 Y137.440 E115.6595
G1 X33.956 Y137.440 E129.3530
G1 X32.480 Y135.964 E129.5461
G1 X32.480 Y113.716 E131.6040
G1 X33.956 Y112.240 E131.7971
G1 X182.000 Y112.240 E145.4906
G1 X182.000 Y88.240 E147.7105
G1 X33.956 Y88.238 E161.4040
G1 X32.480 Y86.761 E161.5971
G1 X32.480 Y64.516 E163.6547
G1 X33.956 Y63.040 E163.8478
G1 X182.000 Y63.040 E177.5414
G1 X182.000 Y39.040 E179.7613
G1 X33.956 Y39.040 E193.4548
G1 X32.480 Y37.564 E193.6479
G1 X32.480 Y34.996 E193.8854
G1 X33.956 Y33.520 E194.0785
G1 X34.254 Y34.240 F18000
G92 E0.0000
G1 X185.746 Y34.240 E14.0124 F2400
G1 X186.800 Y35.294 E14.1503
G1 X186.800 Y66.786 E17.0631
G1 X185.746 Y67.840 E17.2011
G1 X37.280 Y67.840 E30.9336
G1 X37.280 Y83.440 E32.3766
G1 X185.746 Y83.440 E46.1091
G1 X186.800 Y84.494 E46.2470
G1 X186.800 Y115.986 E49.1598
G1 X185.746 Y117.040 E49.2978
G1 X37.280 Y117.040 E63.0303
G1 X37.280 Y132.640 E64.4733
G1 X185.746 Y132.640 E78.2058
G1 X186.800 Y133.694 E78.3437
G1 X186.800 Y165.186 E81.2565
G1 X185.746 Y166.240 E81.3945
G1 X37.280 Y166.240 E95.1270
G1 X37.280 Y184.706 E96.8350
G1 X36.226 Y185.760 E96.9729
G1 X34.254 Y185.760 E97.1553
G1 X33.200 Y184.706 E97.2932
G1 X33.200 Y163.214 E99.2810
G1 X34.254 Y162.160 E99.4190
G1 X182.720 Y162.160 E113.1515
G1 X182.720 Y136.720 E115.5046
G1 X34.254 Y136.720 E129.2372
G1 X33.200 Y135.666 E129.3751
G1 X33.200 Y114.014 E131.3777
G1 X34.254 Y112.960 E131.5157
G1 X182.720 Y112.960 E145.2482
G1 X182.720 Y87.520 E147.6013
G1 X34.254 Y87.518 E161.3339
G1 X33.200 Y86.463 E161.4718
G1 X33.200 Y64.814 E163.4742
G1 X34.254 Y63.760 E163.6121
G1 X182.720 Y63.760 E177.3447
G1 X182.720 Y38.320 E179.6978
G1 X34.254 Y38.320 E193.4303
G1 X33.200 Y37.266 E193.5683
G1 X33.200 Y35.294 E193.7506
G1 X34.254 Y34.240 E193.8885
G1 X34.553 Y34.960 F18000
G92 E0.0000
G1 X185.447 Y34.960 E13.9572 F2400
G1 X186.080 Y35.593 E14.0400
G1 X186.080 Y66.487 E16.8976
G1 X185.447 Y67.120 E16.9804
G1 X36.560 Y67.120 E30.7519
G1 X36.560 Y84.160 E32.3281
G1 X185.447 Y84.160 E46.0996
G1 X186.080 Y84.793 E46.1824
G1 X186.080 Y115.687 E49.0400
G1 X185.447 Y116.320 E49.1228
G1 X36.560 Y116.320 E62.8943
G1 X36.560 Y133.360 E64.4705
G1 X185.447 Y133.360 E78.2420
G1 X186.080 Y133.993 E78.3248
G1 X186.080 Y164.887 E81.1824
G1 X185.447 Y165.520 E81.2652
G1 X36.560 Y165.520 E95.0367
G1 X36.560 Y184.407 E96.7838
G1 X35.927 Y185.040 E96.8665
G1 X34.553 Y185.040 E96.9937
G1 X33.920 Y184.407 E97.0764
G1 X33.920 Y163.513 E99.0091
G1 X34.553 Y162.880 E99.0919
G1 X183.440 Y162.880 E112.8634
G1 X183.440 Y136.000 E115.3497
G1 X34.553 Y136.000 E129.1213
G1 X33.920 Y135.367 E129.2040
G1 X33.920 Y114.313 E131.1515
G1 X34.553 Y113.680 E131.2343
G1 X183.440 Y113.680 E145.0058
G1 X183.440 Y86.800 E147.4921
G1 X34.553 Y86.798 E161.2637
G1 X33.920 Y86.165 E161.3464
G1 X33.920 Y65.113 E163.2937
G1 X34.553 Y64.480 E163.3764
G1 X183.440 Y64.480 E177.1480
G1 X183.440 Y37.600 E179.6343
G1 X34.553 Y37.600 E193.4059
G1 X33.920 Y36.967 E193.4886
G1 X33.920 Y35.593 E193.6158
G1 X34.553 Y34.960 E193.6985
G1 X34.851 Y35.680 F18000
G92 E0.0000
G1 X185.149 Y35.680 E13.9021 F2400
G1 X185.360 Y35.891 E13.9296
G1 X185.360 Y66.189 E16.7321
G1 X185.149 Y66.400 E16.7597
G1 X35.840 Y66.400 E30.5703
G1 X35.840 Y84.880 E32.2796
G1 X185.149 Y84.880 E46.0902
G1 X185.360 Y85.091 E46.1177
G1 X185.360 Y115.389 E48.9202
G1 X185.149 Y115.600 E48.9478
G1 X35.840 Y115.600 E62.7584
G1 X35.840 Y134.080 E64.4677
G1 X185.149 Y134.080 E78.2783
G1 X185.360 Y134.291 E78.3059
G1 X185.360 Y164.589 E81.1083
G1 X185.149 Y164.800 E81.1359
G1 X35.840 Y164.800 E94.9465
G1 X35.840 Y184.109 E96.7325
G1 X35.629 Y184.320 E96.7601
G1 X34.851 Y184.320 E96.8321
G1 X34.640 Y184.109 E96.8597
G1 X34.640 Y163.811 E98.7372
G1 X34.851 Y163.600 E98.7648
G1 X184.160 Y163.600 E112.5753
G1 X184.160 Y135.280 E115.1948
G1 X34.851 Y135.280 E129.0054
G1 X34.640 Y135.069 E129.0330
G1 X34.640 Y114.611 E130.9253
G1 X34.851 Y114.400 E130.9529
G1 X184.160 Y114.400 E144.7634
G1 X184.160 Y86.080 E147.3829
G1 X34.851 Y86.078 E161.1935
G1 X34.640 Y85.867 E161.2211
G1 X34.640 Y65.411 E163.1132
G1 X34.851 Y65.200 E163.1407
G1 X184.160 Y65.200 E176.9513
G1 X184.160 Y36.880 E179.5708
G1 X34.851 Y36.880 E193.3814
G1 X34.640 Y36.669 E193.4090
G1 X34.640 Y35.891 E193.4809
G1 X34.851 Y35.680 E193.5085
; feature external single extrusion
; tool H0.300 W0.480
G1 X35.088 Y36.280 F18000
G92 E0.0000
G1 X184.424 Y36.280 E9.2087 F2400
G1 X184.520 Y36.280 E9.2146
; tool H0.300 W0.490
G1 X184.616 Y36.290 E9.2207
; tool H0.300 W0.528
G1 X184.712 Y36.318 E9.2275
; tool H0.300 W0.557
G1 X184.721 Y36.328 E9.2284
; tool H0.300 W0.528
G1 X184.750 Y36.423 E9.2352
; tool H0.300 W0.490
G1 X184.760 Y36.519 E9.2413
; tool H0.300 W0.480
G1 X184.760 Y36.615 E9.2472
G1 X184.760 Y65.465 E11.0263
G1 X184.760 Y65.561 E11.0322
; tool H0.300 W0.490
G1 X184.750 Y65.657 E11.0382
; tool H0.300 W0.528
G1 X184.721 Y65.752 E11.0450
; tool H0.300 W0.557
G1 X184.712 Y65.762 E11.0460
; tool H0.300 W0.528
G1 X184.616 Y65.790 E11.0528
; tool H0.300 W0.490
G1 X184.520 Y65.800 E11.0588
; tool H0.300 W0.480
G1 X184.424 Y65.800 E11.0648
G1 X35.576 Y65.800 E20.2434
G1 X35.480 Y65.800 E20.2493
; tool H0.300 W0.489
G1 X35.385 Y65.809 E20.2553
; tool H0.300 W0.531
G1 X35.281 Y65.841 E20.2627
G1 X35.249 Y65.945 E20.2701
; tool H0.300 W0.489
G1 X35.240 Y66.040 E20.2761
; tool H0.300 W0.480
G1 X35.240 Y66.136 E20.2820
G1 X35.240 Y85.144 E21.4541
G1 X35.240 Y85.240 E21.4600
; tool H0.300 W0.489
G1 X35.249 Y85.335 E21.4661
; tool H0.300 W0.529
G1 X35.282 Y85.438 E21.4734
; tool H0.300 W0.528
G1 X35.385 Y85.469 E21.4807
; tool H0.300 W0.487
G1 X35.480 Y85.479 E21.4866
; tool H0.300 W0.478
G1 X35.576 Y85.479 E21.4925
; tool H0.300 W0.479
G1 X184.424 Y85.480 E30.6485
; tool H0.300 W0.480
G1 X184.520 Y85.480 E30.6544
; tool H0.300 W0.490
G1 X184.616 Y85.490 E30.6604
; tool H0.300 W0.528
G1 X184.712 Y85.518 E30.6672
; tool H0.300 W0.557
G1 X184.721 Y85.528 E30.6682
; tool H0.300 W0.528
G1 X184.750 Y85.623 E30.6750
; tool H0.300 W0.490
G1 X184.760 Y85.719 E30.6810
; tool H0.300 W0.480
G1 X184.760 Y85.815 E30.6869
G1 X184.760 Y114.665 E32.4660
G1 X184.760 Y114.761 E32.4719
; tool H0.300 W0.490
G1 X184.750 Y114.857 E32.4780
; tool H0.300 W0.528
G1 X184.721 Y114.952 E32.4848
; tool H0.300 W0.557
G1 X184.712 Y114.962 E32.4857
; tool H0.300 W0.528
G1 X184.616 Y114.990 E32.4925
; tool H0.300 W0.490
G1 X184.520 Y115.000 E32.4986
; tool H0.300 W0.480
G1 X184.424 Y115.000 E32.5045
G1 X35.576 Y115.000 E41.6831
G1 X35.480 Y115.000 E41.6890
; tool H0.300 W0.489
G1 X35.385 Y115.009 E41.6951
; tool H0.300 W0.531
G1 X35.281 Y115.041 E41.7024
G1 X35.249 Y115.145 E41.7098
; tool H0.300 W0.489
G1 X35.240 Y115.240 E41.7158
; tool H0.300 W0.480
G1 X35.240 Y115.336 E41.7217
G1 X35.240 Y134.344 E42.8939
G1 X35.240 Y134.440 E42.8998
; tool H0.300 W0.489
G1 X35.249 Y134.535 E42.9058
; tool H0.300 W0.531
G1 X35.281 Y134.639 E42.9132
G1 X35.385 Y134.670 E42.9205
; tool H0.300 W0.489
G1 X35.480 Y134.680 E42.9266
; tool H0.300 W0.480
G1 X35.576 Y134.680 E42.9325
G1 X184.424 Y134.680 E52.1109
G1 X184.520 Y134.680 E52.1168
; tool H0.300 W0.490
G1 X184.616 Y134.690 E52.1229
; tool H0.300 W0.528
G1 X184.712 Y134.718 E52.1297
; tool H0.300 W0.557
G1 X184.721 Y134.728 E52.1306
; tool H0.300 W0.528
G1 X184.750 Y134.823 E52.1374
; tool H0.300 W0.490
G1 X184.760 Y134.919 E52.1435
; tool H0.300 W0.480
G1 X184.760 Y135.015 E52.1494
G1 X184.760 Y163.865 E53.9285
G1 X184.760 Y163.961 E53.9344
; tool H0.300 W0.490
G1 X184.750 Y164.057 E53.9405
; tool H0.300 W0.528
G1 X184.721 Y164.152 E53.9473
; tool H0.300 W0.557
G1 X184.712 Y164.162 E53.9482
; tool H0.300 W0.528
G1 X184.616 Y164.190 E53.9550
; tool H0.300 W0.490
G1 X184.520 Y164.200 E53.9610
; tool H0.300 W0.480
G1 X184.424 Y164.200 E53.9670
G1 X35.576 Y164.200 E63.1458
G1 X35.480 Y164.200 E63.1517
; tool H0.300 W0.490
G1 X35.385 Y164.209 E63.1577
; tool H0.300 W0.531
G1 X35.281 Y164.241 E63.1651
; tool H0.300 W0.531
G1 X35.249 Y164.345 E63.1725
; tool H0.300 W0.489
G1 X35.240 Y164.440 E63.1785
; tool H0.300 W0.480
G1 X35.240 Y164.536 E63.1844
G1 X35.240 Y183.873 E64.3768
; layer 2, Z = 0.500
; tool H0.200 W0.480
G1 Z0.500 F1200
G92 E0.0000
G1 X35.240 Y164.536 E0.7949 F4800
G1 X35.240 Y164.440 E0.7989
; tool H0.200 W0.489
G1 X35.249 Y164.345 E0.8029
; tool H0.200 W0.531
