; G-Code generated by Simplify3D(R) Version 4.1.2
; Jun 1, 2022 at 10:49:37 PM
; Settings Summary
;   processName,Process1
;   applyToModels,pressure-advance-test
;   profileName,HSBot
;   profileVersion,2019-11-09 11:59:44
;   baseProfile,Default
;   printMaterial,pla
;   printQuality,Medium
;   printExtruders,
;   extruderName,Extruder 1,Extruder - Lite
;   extruderToolheadNumber,0,1
;   extruderDiameter,0.4,0.4
;   extruderAutoWidth,1,1
;   extruderWidth,0.48,0.48
;   extrusionMultiplier,1.1,0.93
;   extruderUseRetract,1,1
;   extruderRetractionDistance,2,1
;   extruderExtraRestartDistance,0,0
;   extruderRetractionZLift,0,0
;   extruderRetractionSpeed,3600,1800
;   extruderUseCoasting,0,0
;   extruderCoastingDistance,0.2,0.2
;   extruderUseWipe,0,0
;   extruderWipeDistance,2,5
;   primaryExtruder,0
;   layerHeight,0.2
;   topSolidLayers,3
;   bottomSolidLayers,3
;   perimeterOutlines,4
;   printPerimetersInsideOut,1
;   startPointOption,2
;   startPointOriginX,0
;   startPointOriginY,0
;   sequentialIslands,0
;   spiralVaseMode,0
;   firstLayerHeightPercentage,150
;   firstLayerWidthPercentage,150
;   firstLayerUnderspeed,0.5
;   useRaft,0
;   raftExtruder,0
;   raftTopLayers,3
;   raftBaseLayers,2
;   raftOffset,3
;   raftSeparationDistance,0.18
;   raftTopInfill,100
;   aboveRaftSpeedMultiplier,0.3
;   useSkirt,1
;   skirtExtruder,0
;   skirtLayers,1
;   skirtOutlines,3
;   skirtOffset,0
;   usePrimePillar,0
;   primePillarExtruder,999
;   primePillarWidth,12
;   primePillarLocation,7
;   primePillarSpeedMultiplier,1
;   useOozeShield,0
;   oozeShieldExtruder,999
;   oozeShieldOffset,2
;   oozeShieldOutlines,1
;   oozeShieldSidewallShape,1
;   oozeShieldSidewallAngle,30
;   oozeShieldSpeedMultiplier,1
;   infillExtruder,0
;   internalInfillPattern,Full Honeycomb
;   externalInfillPattern,Rectilinear
;   infillPercentage,20
;   outlineOverlapPercentage,15
;   infillExtrusionWidthPercentage,100
;   minInfillLength,5
;   infillLayerInterval,1
;   internalInfillAngles,0,120,-120
;   overlapInternalInfillAngles,0
;   externalInfillAngles,45,-45
;   generateSupport,0
;   supportExtruder,0
;   supportInfillPercentage,30
;   supportExtraInflation,0
;   supportBaseLayers,1
;   denseSupportExtruder,0
;   denseSupportLayers,0
;   denseSupportInfillPercentage,70
;   supportLayerInterval,1
;   supportHorizontalPartOffset,0.3
;   supportUpperSeparationLayers,1
;   supportLowerSeparationLayers,1
;   supportType,0
;   supportGridSpacing,2
;   maxOverhangAngle,45
;   supportAngles,0
;   temperatureName,Extruder 1,Bed
;   temperatureNumber,0,0
;   temperatureSetpointCount,1,1
;   temperatureSetpointLayers,1,1
;   temperatureSetpointTemperatures,217,55
;   temperatureStabilizeAtStartup,1,1
;   temperatureHeatedBed,0,1
;   fanLayers,1,2,5
;   fanSpeeds,0,15,50
;   blipFanToFullPower,1
;   adjustSpeedForCooling,0
;   minSpeedLayerTime,15
;   minCoolingSpeedSlowdown,20
;   increaseFanForCooling,1
;   minFanLayerTime,45
;   maxCoolingFanSpeed,40
;   increaseFanForBridging,1
;   bridgingFanSpeed,80
;   use5D,1
;   relativeEdistances,0
;   allowEaxisZeroing,1
;   independentExtruderAxes,0
;   includeM10123,0
;   stickySupport,1
;   applyToolheadOffsets,0
;   gcodeXoffset,0
;   gcodeYoffset,0
;   gcodeZoffset,0
;   overrideMachineDefinition,1
;   machineTypeOverride,0
;   strokeXoverride,220
;   strokeYoverride,220
;   strokeZoverride,150
;   originOffsetXoverride,0
;   originOffsetYoverride,0
;   originOffsetZoverride,0
;   homeXdirOverride,-1
;   homeYdirOverride,-1
;   homeZdirOverride,-1
;   flipXoverride,1
;   flipYoverride,-1
;   flipZoverride,1
;   toolheadOffsets,0,0|0,0|0,0|0,0|0,0|0,0
;   overrideFirmwareConfiguration,0
;   firmwareTypeOverride,RepRap (Marlin/Repetier/Sprinter)
;   GPXconfigOverride,r2
;   baudRateOverride,115200
;   overridePrinterModels,0
;   printerModelsOverride
;   startingGcode,G28 ; home all axes,G32 ; run bed.g -- probe bed and enable compensation
;   layerChangeGcode,
;   retractionGcode,
;   toolChangeGcode,
;   endingGcode,M0 ; call stop.g
;   exportFileFormat,gcode
;   celebration,0
;   celebrationSong,Random Song
;   postProcessing,
;   defaultSpeed,7200
;   outlineUnderspeed,0.8
;   solidInfillUnderspeed,0.75
;   supportUnderspeed,0.8
;   rapidXYspeed,18000
;   rapidZspeed,1200
;   minBridgingArea,50
;   bridgingExtraInflation,0
;   bridgingExtrusionMultiplier,0.96
;   bridgingSpeedMultiplier,1
;   useFixedBridgingAngle,0
;   fixedBridgingAngle,0
;   applyBridgingToPerimeters,0
;   filamentDiameters,1.75|1.75|1.75|1.75|1.75|1.75
;   filamentPricesPerKg,25|46|46|46|46|46
;   filamentDensities,1.29|1.25|1.25|1.25|1.25|1.25
;   useMinPrintHeight,0
;   minPrintHeight,0.3
;   useMaxPrintHeight,0
;   maxPrintHeight,5
;   useDiaphragm,1
;   diaphragmLayerInterval,20
;   robustSlicing,1
;   mergeAllIntoSolid,0
;   onlyRetractWhenCrossingOutline,1
;   retractBetweenLayers,0
;   useRetractionMinTravel,1
;   retractionMinTravel,5
;   retractWhileWiping,1
;   onlyWipeOutlines,1
;   avoidCrossingOutline,1
;   maxMovementDetourFactor,5
;   toolChangeRetractionDistance,12
;   toolChangeExtraRestartDistance,0
;   toolChangeRetractionSpeed,600
;   externalThinWallType,1
;   internalThinWallType,1
;   thinWallAllowedOverlapPercentage,10
;   singleExtrusionMinLength,0.1
;   singleExtrusionMinPrintingWidthPercentage,50
;   singleExtrusionMaxPrintingWidthPercentage,200
;   singleExtrusionEndpointExtension,0.2
;   horizontalSizeCompensation,0
G90
M82
M106 S255
G4 P500
M106 S102
M140 S55
M190 S55
G10 S217 R{217-50} P0
M116 P0
G28 ; home all axes
G32 ; run bed.g -- probe bed and enable compensation
; process Process1
; layer 1, Z = 0.300
T0
G92 E0.0000
G1 E-2.0000 F3600
; feature skirt
; tool H0.300 W0.720
G1 Z0.300 F1200
G1 X34.254 Y34.240 F18000
G1 E0.0000 F3600
G92 E0.0000
G1 X185.746 Y34.240 E14.9647 F3600
G1 X186.800 Y35.294 E15.1120
G1 X186.800 Y66.786 E18.2228
G1 X185.746 Y67.840 E18.3701
G1 X37.280 Y67.840 E33.0359
G1 X37.280 Y83.440 E34.5769
G1 X185.746 Y83.440 E49.2427
G1 X186.800 Y84.494 E49.3900
G1 X186.800 Y115.986 E52.5008
G1 X185.746 Y117.040 E52.6481
G1 X37.280 Y117.040 E67.3139
G1 X37.280 Y132.640 E68.8549
G1 X185.746 Y132.640 E83.5208
G1 X186.800 Y133.694 E83.6681
G1 X186.800 Y165.186 E86.7788
G1 X185.746 Y166.240 E86.9261
G1 X37.280 Y166.240 E101.5920
G1 X37.280 Y184.706 E103.4160
G1 X36.226 Y185.760 E103.5633
G1 X34.254 Y185.760 E103.7581
G1 X33.200 Y184.706 E103.9054
G1 X33.200 Y163.214 E106.0283
G1 X34.254 Y162.160 E106.1756
G1 X182.720 Y162.160 E120.8414
G1 X182.720 Y136.720 E123.3545
G1 X34.254 Y136.720 E138.0203
G1 X33.200 Y135.666 E138.1676
G1 X33.200 Y114.014 E140.3063
G1 X34.254 Y112.960 E140.4536
G1 X182.720 Y112.960 E155.1194
G1 X182.720 Y87.520 E157.6325
G1 X34.254 Y87.518 E172.2983
G1 X33.200 Y86.463 E172.4456
G1 X33.200 Y64.814 E174.5841
G1 X34.254 Y63.760 E174.7314
G1 X182.720 Y63.760 E189.3972
G1 X182.720 Y38.320 E191.9103
G1 X34.254 Y38.320 E206.5761
G1 X33.200 Y37.266 E206.7234
G1 X33.200 Y35.294 E206.9181
G1 X34.254 Y34.240 E207.0654
G1 X34.553 Y34.960 F18000
G92 E0.0000
G1 X185.447 Y34.960 E14.9058 F3600
G1 X186.080 Y35.593 E14.9942
G1 X186.080 Y66.487 E18.0460
G1 X185.447 Y67.120 E18.1344
G1 X36.560 Y67.120 E32.8419
G1 X36.560 Y84.160 E34.5251
G1 X185.447 Y84.160 E49.2326
G1 X186.080 Y84.793 E49.3210
G1 X186.080 Y115.687 E52.3729
G1 X185.447 Y116.320 E52.4612
G1 X36.560 Y116.320 E67.1687
G1 X36.560 Y133.360 E68.8520
G1 X185.447 Y133.360 E83.5595
G1 X186.080 Y133.993 E83.6478
G1 X186.080 Y164.887 E86.6997
G1 X185.447 Y165.520 E86.7881
G1 X36.560 Y165.520 E101.4956
G1 X36.560 Y184.407 E103.3613
G1 X35.927 Y185.040 E103.4497
G1 X34.553 Y185.040 E103.5855
G1 X33.920 Y184.407 E103.6739
G1 X33.920 Y163.513 E105.7379
G1 X34.553 Y162.880 E105.8263
G1 X183.440 Y162.880 E120.5337
G1 X183.440 Y136.000 E123.1890
G1 X34.553 Y136.000 E137.8965
G1 X33.920 Y135.367 E137.9849
G1 X33.920 Y114.313 E140.0647
G1 X34.553 Y113.680 E140.1531
G1 X183.440 Y113.680 E154.8606
G1 X183.440 Y86.800 E157.5159
G1 X34.553 Y86.798 E172.2233
G1 X33.920 Y86.165 E172.3117
G1 X33.920 Y65.113 E174.3913
G1 X34.553 Y64.480 E174.4797
G1 X183.440 Y64.480 E189.1872
G1 X183.440 Y37.600 E191.8425
G1 X34.553 Y37.600 E206.5499
G1 X33.920 Y36.967 E206.6383
G1 X33.920 Y35.593 E206.7741
G1 X34.553 Y34.960 E206.8625
G1 X34.851 Y35.680 F18000
G92 E0.0000
G1 X185.149 Y35.680 E14.8469 F3600
G1 X185.360 Y35.891 E14.8763
G1 X185.360 Y66.189 E17.8693
G1 X185.149 Y66.400 E17.8987
G1 X35.840 Y66.400 E32.6479
G1 X35.840 Y84.880 E34.4734
G1 X185.149 Y84.880 E49.2225
G1 X185.360 Y85.091 E49.2520
G1 X185.360 Y115.389 E52.2449
G1 X185.149 Y115.600 E52.2744
G1 X35.840 Y115.600 E67.0235
G1 X35.840 Y134.080 E68.8490
G1 X185.149 Y134.080 E83.5982
G1 X185.360 Y134.291 E83.6276
G1 X185.360 Y164.589 E86.6206
G1 X185.149 Y164.800 E86.6500
G1 X35.840 Y164.800 E101.3992
G1 X35.840 Y184.109 E103.3066
G1 X35.629 Y184.320 E103.3360
G1 X34.851 Y184.320 E103.4129
G1 X34.640 Y184.109 E103.4424
G1 X34.640 Y163.811 E105.4475
G1 X34.851 Y163.600 E105.4769
G1 X184.160 Y163.600 E120.2261
G1 X184.160 Y135.280 E123.0236
G1 X34.851 Y135.280 E137.7727
G1 X34.640 Y135.069 E137.8022
G1 X34.640 Y114.611 E139.8231
G1 X34.851 Y114.400 E139.8526
G1 X184.160 Y114.400 E154.6017
G1 X184.160 Y86.080 E157.3992
G1 X34.851 Y86.078 E172.1484
G1 X34.640 Y85.867 E172.1778
G1 X34.640 Y65.411 E174.1985
G1 X34.851 Y65.200 E174.2280
G1 X184.160 Y65.200 E188.9771
G1 X184.160 Y36.880 E191.7746
G1 X34.851 Y36.880 E206.5238
G1 X34.640 Y36.669 E206.5533
G1 X34.640 Y35.891 E206.6301
G1 X34.851 Y35.680 E206.6596
; feature external single extrusion
; tool H0.300 W0.480
G1 X35.088 Y36.280 F18000
G92 E0.0000
G1 X184.424 Y36.280 E9.8346 F2880
G1 X184.520 Y36.280 E9.8409
; tool H0.300 W0.490
G1 X184.616 Y36.290 E9.8473
; tool H0.300 W0.528
G1 X184.712 Y36.318 E9.8546
; tool H0.300 W0.557
G1 X184.721 Y36.328 E9.8556
; tool H0.300 W0.528
G1 X184.750 Y36.423 E9.8629
; tool H0.300 W0.490
G1 X184.760 Y36.519 E9.8693
; tool H0.300 W0.480
G1 X184.760 Y36.615 E9.8756
G1 X184.760 Y65.465 E11.7756
G1 X184.760 Y65.561 E11.7819
; tool H0.300 W0.490
G1 X184.750 Y65.657 E11.7884
; tool H0.300 W0.528
G1 X184.721 Y65.752 E11.7957
; tool H0.300 W0.557
G1 X184.712 Y65.762 E11.7967
; tool H0.300 W0.528
G1 X184.616 Y65.790 E11.8039
; tool H0.300 W0.490
G1 X184.520 Y65.800 E11.8104
; tool H0.300 W0.480
G1 X184.424 Y65.800 E11.8167
G1 X35.576 Y65.800 E21.6191
G1 X35.480 Y65.800 E21.6255
; tool H0.300 W0.489
G1 X35.385 Y65.809 E21.6319
; tool H0.300 W0.531
G1 X35.281 Y65.841 E21.6398
G1 X35.249 Y65.945 E21.6476
; tool H0.300 W0.489
G1 X35.240 Y66.040 E21.6541
; tool H0.300 W0.480
G1 X35.240 Y66.136 E21.6604
G1 X35.240 Y85.144 E22.9122
G1 X35.240 Y85.240 E22.9185
; tool H0.300 W0.489
G1 X35.249 Y85.335 E22.9249
; tool H0.300 W0.529
G1 X35.282 Y85.438 E22.9327
; tool H0.300 W0.528
G1 X35.385 Y85.469 E22.9405
; tool H0.300 W0.487
G1 X35.480 Y85.479 E22.9469
; tool H0.300 W0.478
G1 X35.576 Y85.479 E22.9532
; tool H0.300 W0.479
G1 X184.424 Y85.480 E32.7314
; tool H0.300 W0.480
G1 X184.520 Y85.480 E32.7377
; tool H0.300 W0.490
G1 X184.616 Y85.490 E32.7442
; tool H0.300 W0.528
G1 X184.712 Y85.518 E32.7514
; tool H0.300 W0.557
G1 X184.721 Y85.528 E32.7524
; tool H0.300 W0.528
G1 X184.750 Y85.623 E32.7597
; tool H0.300 W0.490
G1 X184.760 Y85.719 E32.7662
; tool H0.300 W0.480
G1 X184.760 Y85.815 E32.7725
G1 X184.760 Y114.665 E34.6725
G1 X184.760 Y114.761 E34.6788
; tool H0.300 W0.490
G1 X184.750 Y114.857 E34.6852
; tool H0.300 W0.528
G1 X184.721 Y114.952 E34.6925
; tool H0.300 W0.557
G1 X184.712 Y114.962 E34.6935
; tool H0.300 W0.528
G1 X184.616 Y114.990 E34.7007
; tool H0.300 W0.490
G1 X184.520 Y115.000 E34.7072
; tool H0.300 W0.480
G1 X184.424 Y115.000 E34.7135
G1 X35.576 Y115.000 E44.5160
G1 X35.480 Y115.000 E44.5223
; tool H0.300 W0.489
G1 X35.385 Y115.009 E44.5287
; tool H0.300 W0.531
G1 X35.281 Y115.041 E44.5366
G1 X35.249 Y115.145 E44.5445
; tool H0.300 W0.489
G1 X35.240 Y115.240 E44.5509
; tool H0.300 W0.480
G1 X35.240 Y115.336 E44.5572
G1 X35.240 Y134.344 E45.8090
G1 X35.240 Y134.440 E45.8153
; tool H0.300 W0.489
G1 X35.249 Y134.535 E45.8217
; tool H0.300 W0.531
G1 X35.281 Y134.639 E45.8296
G1 X35.385 Y134.670 E45.8375
; tool H0.300 W0.489
G1 X35.480 Y134.680 E45.8439
; tool H0.300 W0.480
G1 X35.576 Y134.680 E45.8502
G1 X184.424 Y134.680 E55.6524
G1 X184.520 Y134.680 E55.6588
; tool H0.300 W0.490
G1 X184.616 Y134.690 E55.6652
; tool H0.300 W0.528
G1 X184.712 Y134.718 E55.6725
; tool H0.300 W0.557
G1 X184.721 Y134.728 E55.6735
; tool H0.300 W0.528
G1 X184.750 Y134.823 E55.6808
; tool H0.300 W0.490
G1 X184.760 Y134.919 E55.6872
; tool H0.300 W0.480
G1 X184.760 Y135.015 E55.6935
G1 X184.760 Y163.865 E57.5935
G1 X184.760 Y163.961 E57.5998
; tool H0.300 W0.490
G1 X184.750 Y164.057 E57.6063
; tool H0.300 W0.528
G1 X184.721 Y164.152 E57.6136
; tool H0.300 W0.557
G1 X184.712 Y164.162 E57.6146
; tool H0.300 W0.528
G1 X184.616 Y164.190 E57.6218
; tool H0.300 W0.490
G1 X184.520 Y164.200 E57.6283
; tool H0.300 W0.480
G1 X184.424 Y164.200 E57.6346
G1 X35.576 Y164.200 E67.4372
G1 X35.480 Y164.200 E67.4436
; tool H0.300 W0.490
G1 X35.385 Y164.209 E67.4500
; tool H0.300 W0.531
G1 X35.281 Y164.241 E67.4579
; tool H0.300 W0.531
G1 X35.249 Y164.345 E67.4657
; tool H0.300 W0.489
G1 X35.240 Y164.440 E67.4722
; tool H0.300 W0.480
G1 X35.240 Y164.536 E67.4785
G1 X35.240 Y183.873 E68.7519
; layer 2, Z = 0.500
; tool H0.200 W0.480
G1 Z0.500 F1200
G92 E0.0000
G1 X35.240 Y164.536 E0.8490 F5760
G1 X35.240 Y164.440 E0.8532
; tool H0.200 W0.489
G1 X35.249 Y164.345 E0.8574
; tool H0.200 W0.531
G1 X35.281 Y164.241 E0.8627
; tool H0.200 W0.531
G1 X35.385 Y164.209 E0.8679
; tool H0.200 W0.490
G1 X35.480 Y164.200 E0.8722
; tool H0.200 W0.480
G1 X35.576 Y164.200 E0.8765
G1 X184.424 Y164.200 E7.4115
G1 X184.520 Y164.200 E7.4157
; tool H0.200 W0.490
G1 X184.616 Y164.190 E7.4201
; tool H0.200 W0.528
G1 X184.712 Y164.162 E7.4249
; tool H0.200 W0.557
G1 X184.721 Y164.152 E7.4256
; tool H0.200 W0.528
G1 X184.750 Y164.057 E7.4304
; tool H0.200 W0.490
G1 X184.760 Y163.961 E7.4347
; tool H0.200 W0.480
G1 X184.760 Y163.865 E7.4389
G1 X184.760 Y135.015 E8.7056
G1 X184.760 Y134.919 E8.7098
; tool H0.200 W0.490
G1 X184.750 Y134.823 E8.7141
; tool H0.200 W0.528
G1 X184.721 Y134.728 E8.7189
; tool H0.200 W0.557
G1 X184.712 Y134.718 E8.7196
; tool H0.200 W0.528
G1 X184.616 Y134.690 E8.7244
; tool H0.200 W0.490
G1 X184.520 Y134.680 E8.7288
; tool H0.200 W0.480
G1 X184.424 Y134.680 E8.7330
G1 X35.576 Y134.680 E15.2678
G1 X35.480 Y134.680 E15.2720
; tool H0.200 W0.489
G1 X35.385 Y134.670 E15.2763
; tool H0.200 W0.531
G1 X35.281 Y134.639 E15.2815
G1 X35.249 Y134.535 E15.2868
; tool H0.200 W0.489
G1 X35.240 Y134.440 E15.2911
; tool H0.200 W0.480
G1 X35.240 Y134.344 E15.2953
G1 X35.240 Y115.336 E16.1298
G1 X35.240 Y115.240 E16.1340
; tool H0.200 W0.489
G1 X35.249 Y115.145 E16.1383
; tool H0.200 W0.531
G1 X35.281 Y115.041 E16.1436
G1 X35.385 Y115.009 E16.1488
; tool H0.200 W0.489
G1 X35.480 Y115.000 E16.1531
; tool H0.200 W0.480
G1 X35.576 Y115.000 E16.1573
G1 X184.424 Y115.000 E22.6922
G1 X184.520 Y115.000 E22.6965
; tool H0.200 W0.490
G1 X184.616 Y114.990 E22.7008
; tool H0.200 W0.528
G1 X184.712 Y114.962 E22.7056
; tool H0.200 W0.557
G1 X184.721 Y114.952 E22.7063
; tool H0.200 W0.528
G1 X184.750 Y114.857 E22.7111
; tool H0.200 W0.490
G1 X184.760 Y114.761 E22.7154
; tool H0.200 W0.480
G1 X184.760 Y114.665 E22.7196
G1 X184.760 Y85.815 E23.9863
G1 X184.760 Y85.719 E23.9905
; tool H0.200 W0.490
G1 X184.750 Y85.623 E23.9948
; tool H0.200 W0.528
G1 X184.721 Y85.528 E23.9997
; tool H0.200 W0.557
G1 X184.712 Y85.518 E24.0003
; tool H0.200 W0.528
G1 X184.616 Y85.490 E24.0052
; tool H0.200 W0.490
G1 X184.520 Y85.480 E24.0095
; tool H0.200 W0.480
G1 X184.424 Y85.480 E24.0137
G1 X35.576 Y85.480 E30.5488
G1 X35.480 Y85.480 E30.5530
; tool H0.200 W0.490
G1 X35.385 Y85.470 E30.5573
; tool H0.200 W0.531
G1 X35.281 Y85.439 E30.5625
; tool H0.200 W0.531
G1 X35.249 Y85.335 E30.5678
; tool H0.200 W0.489
G1 X35.240 Y85.240 E30.5721
; tool H0.200 W0.480
