; G-Code generated by Simplify3D(R) Version 4.1.2
; Jun 2, 2022 at 6:52:07 PM
; Settings Summary
;   processName,Process1
;   applyToModels,Twisted_Heart_Vase_-_Hi_Res
;   profileName,HSBot (modified)
;   profileVersion,2019-11-09 11:59:44
;   baseProfile,Default
;   printMaterial,pla
;   printQuality,Medium
;   printExtruders,
;   extruderName,Extruder 1,Extruder - Lite
;   extruderToolheadNumber,0,1
;   extruderDiameter,0.4,0.4
;   extruderAutoWidth,1,1
;   extruderWidth,0.48,0.48
;   extrusionMultiplier,1.1,0.93
;   extruderUseRetract,1,1
;   extruderRetractionDistance,2,1
;   extruderExtraRestartDistance,0,0
;   extruderRetractionZLift,0,0
;   extruderRetractionSpeed,4800,1800
;   extruderUseCoasting,0,0
;   extruderCoastingDistance,0.2,0.2
;   extruderUseWipe,0,0
;   extruderWipeDistance,2,5
;   primaryExtruder,0
;   layerHeight,0.2
;   topSolidLayers,0
;   bottomSolidLayers,3
;   perimeterOutlines,1
;   printPerimetersInsideOut,1
;   startPointOption,2
;   startPointOriginX,0
;   startPointOriginY,0
;   sequentialIslands,0
;   spiralVaseMode,1
;   firstLayerHeightPercentage,150
;   firstLayerWidthPercentage,150
;   firstLayerUnderspeed,0.25
;   useRaft,0
;   raftExtruder,0
;   raftTopLayers,3
;   raftBaseLayers,2
;   raftOffset,3
;   raftSeparationDistance,0.18
;   raftTopInfill,100
;   aboveRaftSpeedMultiplier,0.3
;   useSkirt,1
;   skirtExtruder,0
;   skirtLayers,1
;   skirtOutlines,5
;   skirtOffset,5
;   usePrimePillar,0
;   primePillarExtruder,999
;   primePillarWidth,12
;   primePillarLocation,7
;   primePillarSpeedMultiplier,1
;   useOozeShield,0
;   oozeShieldExtruder,999
;   oozeShieldOffset,2
;   oozeShieldOutlines,1
;   oozeShieldSidewallShape,1
;   oozeShieldSidewallAngle,30
;   oozeShieldSpeedMultiplier,1
;   infillExtruder,0
;   internalInfillPattern,Full Honeycomb
;   externalInfillPattern,Rectilinear
;   infillPercentage,0
;   outlineOverlapPercentage,15
;   infillExtrusionWidthPercentage,100
;   minInfillLength,5
;   infillLayerInterval,1
;   internalInfillAngles,0,120,-120
;   overlapInternalInfillAngles,0
;   externalInfillAngles,45,-45
;   generateSupport,0
;   supportExtruder,0
;   supportInfillPercentage,30
;   supportExtraInflation,0
;   supportBaseLayers,1
;   denseSupportExtruder,0
;   denseSupportLayers,0
;   denseSupportInfillPercentage,70
;   supportLayerInterval,1
;   supportHorizontalPartOffset,0.3
;   supportUpperSeparationLayers,1
;   supportLowerSeparationLayers,1
;   supportType,0
;   supportGridSpacing,2
;   maxOverhangAngle,45
;   supportAngles,0
;   temperatureName,Extruder 1,Bed
;   temperatureNumber,0,0
;   temperatureSetpointCount,1,1
;   temperatureSetpointLayers,1,1
;   temperatureSetpointTemperatures,217,55
;   temperatureStabilizeAtStartup,1,1
;   temperatureHeatedBed,0,1
;   fanLayers,1,2,5
;   fanSpeeds,0,15,50
;   blipFanToFullPower,1
;   adjustSpeedForCooling,0
;   minSpeedLayerTime,15
;   minCoolingSpeedSlowdown,20
;   increaseFanForCooling,1
;   minFanLayerTime,45
;   maxCoolingFanSpeed,40
;   increaseFanForBridging,1
;   bridgingFanSpeed,80
;   use5D,1
;   relativeEdistances,0
;   allowEaxisZeroing,1
;   independentExtruderAxes,0
;   includeM10123,0
;   stickySupport,1
;   applyToolheadOffsets,0
;   gcodeXoffset,0
;   gcodeYoffset,0
;   gcodeZoffset,0
;   overrideMachineDefinition,1
;   machineTypeOverride,0
;   strokeXoverride,220
;   strokeYoverride,220
;   strokeZoverride,150
;   originOffsetXoverride,0
;   originOffsetYoverride,0
;   originOffsetZoverride,0
;   homeXdirOverride,-1
;   homeYdirOverride,-1
;   homeZdirOverride,-1
;   flipXoverride,1
;   flipYoverride,-1
;   flipZoverride,1
;   toolheadOffsets,0,0|0,0|0,0|0,0|0,0|0,0
;   overrideFirmwareConfiguration,0
;   firmwareTypeOverride,RepRap (Marlin/Repetier/Sprinter)
;   GPXconfigOverride,r2
;   baudRateOverride,115200
;   overridePrinterModels,0
;   printerModelsOverride
;   startingGcode,G28 ; home all axes,G32 ; run bed.g -- probe bed and enable compensation
;   layerChangeGcode,
;   retractionGcode,
;   toolChangeGcode,
;   endingGcode,M0 ; call stop.g
;   exportFileFormat,gcode
;   celebration,0
;   celebrationSong,Random Song
;   postProcessing,
;   defaultSpeed,7500
;   outlineUnderspeed,1
;   solidInfillUnderspeed,0.75
;   supportUnderspeed,0.8
;   rapidXYspeed,18000
;   rapidZspeed,1200
;   minBridgingArea,50
;   bridgingExtraInflation,0
;   bridgingExtrusionMultiplier,0.96
;   bridgingSpeedMultiplier,1
;   useFixedBridgingAngle,0
;   fixedBridgingAngle,0
;   applyBridgingToPerimeters,0
;   filamentDiameters,1.75|1.75|1.75|1.75|1.75|1.75
;   filamentPricesPerKg,25|46|46|46|46|46
;   filamentDensities,1.29|1.25|1.25|1.25|1.25|1.25
;   useMinPrintHeight,0
;   minPrintHeight,0.3
;   useMaxPrintHeight,0
;   maxPrintHeight,5
;   useDiaphragm,0
;   diaphragmLayerInterval,20
;   robustSlicing,1
;   mergeAllIntoSolid,0
;   onlyRetractWhenCrossingOutline,1
;   retractBetweenLayers,0
;   useRetractionMinTravel,1
;   retractionMinTravel,5
;   retractWhileWiping,1
;   onlyWipeOutlines,1
;   avoidCrossingOutline,1
;   maxMovementDetourFactor,5
;   toolChangeRetractionDistance,12
;   toolChangeExtraRestartDistance,0
;   toolChangeRetractionSpeed,600
;   externalThinWallType,1
;   internalThinWallType,1
;   thinWallAllowedOverlapPercentage,10
;   singleExtrusionMinLength,0.1
;   singleExtrusionMinPrintingWidthPercentage,50
;   singleExtrusionMaxPrintingWidthPercentage,200
;   singleExtrusionEndpointExtension,0.2
;   horizontalSizeCompensation,-0.1
G90
M82
M106 S0
M140 S55
M190 S55
G10 S217 R{217-50} P0
M116 P0
G28 ; home all axes
G32 ; run bed.g -- probe bed and enable compensation
; process Process1
; layer 1, Z = 0.300
T0
G92 E0.0000
G1 E-2.0000 F4800
; feature skirt
; tool H0.300 W0.720
G1 Z0.300 F1200
G1 X80.732 Y81.101 F18000
G1 E0.0000 F4800
G92 E0.0000
G1 X81.448 Y80.387 E0.0999 F1875
G1 X81.667 Y80.184 E0.1295
G1 X82.444 Y79.514 E0.2307
G1 X82.701 Y79.310 E0.2632
G1 X83.660 Y78.608 E0.3806
G1 X83.925 Y78.430 E0.4122
G1 X84.809 Y77.883 E0.5149
G1 X85.117 Y77.710 E0.5497
G1 X87.008 Y76.754 E0.7590
G1 X87.238 Y76.646 E0.7841
G1 X89.858 Y75.518 E1.0659
G1 X90.030 Y75.448 E1.0842
G1 X91.053 Y75.062 E1.1922
G1 X91.185 Y75.014 E1.2061
G1 X93.035 Y74.386 E1.3991
G1 X93.173 Y74.342 E1.4135
G1 X94.202 Y74.032 E1.5196
G1 X94.317 Y73.999 E1.5314
G1 X95.993 Y73.548 E1.7028
G1 X96.131 Y73.514 E1.7169
G1 X97.218 Y73.261 E1.8271
G1 X97.389 Y73.225 E1.8444
G1 X100.067 Y72.720 E2.1136
G1 X100.294 Y72.684 E2.1363
G1 X102.275 Y72.425 E2.3337
G1 X102.435 Y72.407 E2.3495
G1 X104.120 Y72.253 E2.5167
G1 X104.327 Y72.239 E2.5372
G1 X106.948 Y72.132 E2.7964
G1 X107.126 Y72.129 E2.8139
G1 X108.217 Y72.131 E2.9217
G1 X108.386 Y72.135 E2.9384
G1 X111.011 Y72.249 E3.1979
G1 X111.191 Y72.261 E3.2158
G1 X112.260 Y72.354 E3.3218
G1 X112.377 Y72.366 E3.3334
G1 X114.055 Y72.561 E3.5002
G1 X114.238 Y72.587 E3.5185
G1 X116.240 Y72.911 E3.7189
G1 X116.402 Y72.941 E3.7351
G1 X118.097 Y73.285 E3.9060
G1 X118.303 Y73.333 E3.9269
G1 X120.918 Y74.005 E4.1936
G1 X121.163 Y74.077 E4.2187
G1 X123.732 Y74.910 E4.4856
G1 X123.946 Y74.986 E4.5080
G1 X125.848 Y75.721 E4.7095
G1 X126.001 Y75.784 E4.7257
G1 X127.571 Y76.464 E4.8948
G1 X127.760 Y76.552 E4.9154
G1 X130.131 Y77.725 E5.1767
G1 X130.329 Y77.829 E5.1988
G1 X132.075 Y78.815 E5.3968
G1 X132.213 Y78.897 E5.4127
G1 X133.611 Y79.759 E5.5750
G1 X133.725 Y79.832 E5.5883
G1 X134.651 Y80.446 E5.6981
G1 X134.775 Y80.532 E5.7130
G1 X136.469 Y81.747 E5.9189
G1 X136.605 Y81.849 E5.9358
G1 X138.013 Y82.950 E6.1123
G1 X138.161 Y83.071 E6.1311
G1 X139.725 Y84.416 E6.3349
G1 X139.850 Y84.528 E6.3515
G1 X141.103 Y85.696 E6.5207
G1 X141.230 Y85.821 E6.5383
G1 X142.596 Y87.210 E6.7307
G1 X142.701 Y87.320 E6.7458
G1 X143.504 Y88.200 E6.8635
G1 X143.611 Y88.322 E6.8795
G1 X145.148 Y90.145 E7.1151
G1 X145.338 Y90.388 E7.1455
G1 X146.208 Y91.591 E7.2922
G1 X146.363 Y91.823 E7.3197
G1 X147.102 Y93.006 E7.4575
G1 X147.237 Y93.238 E7.4840
G1 X147.898 Y94.470 E7.6221
G1 X148.021 Y94.719 E7.6496
G1 X148.581 Y95.955 E7.7836
G1 X148.688 Y96.215 E7.8114
G1 X149.238 Y97.688 E7.9667
G1 X149.340 Y97.999 E7.9991
G1 X149.807 Y99.640 E8.1676
G1 X149.871 Y99.897 E8.1938
G1 X150.093 Y100.922 E8.2973
G1 X150.141 Y101.185 E8.3238
G1 X150.387 Y102.831 E8.4881
G1 X150.419 Y103.116 E8.5165
G1 X150.519 Y104.388 E8.6425
G1 X150.531 Y104.634 E8.6668
G1 X150.555 Y105.897 E8.7917
G1 X150.552 Y106.148 E8.8164
G1 X150.498 Y107.433 E8.9435
G1 X150.477 Y107.716 E8.9715
G1 X150.309 Y109.221 E9.1211
G1 X150.271 Y109.483 E9.1472
G1 X150.048 Y110.748 E9.2741
G1 X149.996 Y110.995 E9.2991
G1 X149.687 Y112.279 E9.4295
G1 X149.597 Y112.597 E9.4621
G1 X148.968 Y114.519 E9.6619
G1 X148.823 Y114.897 E9.7020
G1 X148.006 Y116.753 E9.9022
G1 X147.863 Y117.045 E9.9344
G1 X147.234 Y118.213 E10.0654
G1 X147.106 Y118.434 E10.0906
G1 X146.406 Y119.561 E10.2217
G1 X146.222 Y119.833 E10.2541
G1 X145.022 Y121.460 E10.4538
G1 X144.767 Y121.773 E10.4937
G1 X143.391 Y123.300 E10.6968
G1 X143.107 Y123.586 E10.7366
G1 X141.589 Y124.971 E10.9396
G1 X141.279 Y125.227 E10.9792
G1 X139.647 Y126.448 E11.1806
G1 X139.317 Y126.671 E11.2200
G1 X137.617 Y127.703 E11.4164
G1 X137.336 Y127.858 E11.4481
G1 X136.181 Y128.442 E11.5760
G1 X135.980 Y128.536 E11.5979
G1 X135.027 Y128.955 E11.7007
G1 X134.761 Y129.061 E11.7290
G1 X132.992 Y129.695 E11.9147
G1 X132.662 Y129.797 E11.9488
G1 X131.165 Y130.196 E12.1018
G1 X130.896 Y130.258 E12.1291
G1 X130.036 Y130.427 E12.2157
G1 X129.944 Y130.923 E12.2655
G1 X129.862 Y131.275 E12.3012
G1 X129.451 Y132.753 E12.4528
G1 X129.380 Y132.983 E12.4766
G1 X129.058 Y133.925 E12.5749
G1 X128.992 Y134.104 E12.5937
G1 X128.627 Y135.030 E12.6921
G1 X128.534 Y135.248 E12.7155
G1 X127.916 Y136.583 E12.8608
G1 X127.779 Y136.852 E12.8906
G1 X127.066 Y138.138 E13.0359
G1 X126.932 Y138.363 E13.0617
G1 X126.222 Y139.471 E13.1917
G1 X126.034 Y139.740 E13.2242
G1 X124.823 Y141.334 E13.4219
G1 X124.566 Y141.641 E13.4614
G1 X123.203 Y143.114 E13.6597
G1 X122.976 Y143.341 E13.6914
G1 X122.009 Y144.234 E13.8214
G1 X121.817 Y144.401 E13.8465
G1 X120.791 Y145.238 E13.9774
G1 X120.528 Y145.436 E14.0099
G1 X118.881 Y146.573 E14.2076
G1 X118.575 Y146.766 E14.2433
G1 X117.221 Y147.535 E14.3972
G1 X116.986 Y147.659 E14.4234
G1 X115.821 Y148.225 E14.5513
G1 X115.590 Y148.329 E14.5764
G1 X114.367 Y148.833 E14.7070
G1 X114.056 Y148.947 E14.7397
G1 X112.167 Y149.553 E14.9357
G1 X111.853 Y149.640 E14.9679
G1 X110.570 Y149.942 E15.0981
G1 X110.322 Y149.993 E15.1231
G1 X109.048 Y150.212 E15.2508
G1 X108.773 Y150.249 E15.2782
G1 X107.266 Y150.405 E15.4279
G1 X106.996 Y150.423 E15.4546
G1 X105.716 Y150.471 E15.5812
G1 X105.465 Y150.473 E15.6059
G1 X104.164 Y150.441 E15.7345
G1 X103.846 Y150.422 E15.7660
G1 X101.950 Y150.229 E15.9542
G1 X101.658 Y150.189 E15.9833
G1 X100.625 Y150.009 E16.0869
G1 X100.436 Y149.971 E16.1059
G1 X99.447 Y149.750 E16.2060
G1 X99.187 Y149.683 E16.2325
G1 X97.546 Y149.203 E16.4015
G1 X97.232 Y149.098 E16.4342
G1 X95.745 Y148.530 E16.5914
G1 X95.441 Y148.399 E16.6241
G1 X93.724 Y147.580 E16.8120
G1 X93.425 Y147.422 E16.8455
G1 X92.211 Y146.714 E16.9843
G1 X91.981 Y146.570 E17.0110
G1 X90.750 Y145.740 E17.1577
G1 X90.466 Y145.531 E17.1925
G1 X88.783 Y144.173 E17.4062
G1 X88.592 Y144.009 E17.4311
G1 X87.145 Y142.688 E17.6246
G1 X86.983 Y142.531 E17.6469
G1 X84.971 Y140.482 E17.9306
G1 X84.813 Y140.312 E17.9534
G1 X83.496 Y138.810 E18.1508
G1 X83.402 Y138.699 E18.1652
G1 X82.722 Y137.866 E18.2714
G1 X82.648 Y137.773 E18.2832
G1 X81.574 Y136.378 E18.4570
G1 X81.461 Y136.222 E18.4761
G1 X80.258 Y134.499 E18.6836
G1 X80.163 Y134.356 E18.7006
G1 X79.229 Y132.891 E18.8722
G1 X79.134 Y132.734 E18.8904
G1 X78.148 Y131.023 E19.0854
G1 X78.070 Y130.883 E19.1013
G1 X77.283 Y129.385 E19.2684
G1 X77.191 Y129.198 E19.2890
G1 X76.079 Y126.795 E19.5506
G1 X75.989 Y126.587 E19.5729
G1 X75.238 Y124.699 E19.7737
G1 X75.181 Y124.545 E19.7899
G1 X74.609 Y122.924 E19.9597
G1 X74.544 Y122.723 E19.9805
G1 X73.784 Y120.152 E20.2454
G1 X73.725 Y119.931 E20.2680
G1 X73.253 Y117.934 E20.4707
G1 X73.218 Y117.773 E20.4869
G1 X72.890 Y116.088 E20.6565
G1 X72.859 Y115.903 E20.6750
G1 X72.562 Y113.896 E20.8755
G1 X72.542 Y113.736 E20.8915
G1 X72.359 Y112.045 E21.0594
G1 X72.345 Y111.884 E21.0754
G1 X72.229 Y110.181 E21.2440
G1 X72.221 Y109.999 E21.2620
G1 X72.173 Y107.983 E21.4612
G1 X72.172 Y107.818 E21.4775
G1 X72.200 Y106.106 E21.6466
G1 X72.208 Y105.898 E21.6672
G1 X72.385 Y103.260 E21.9284
G1 X72.406 Y103.036 E21.9506
G1 X72.648 Y101.046 E22.1486
G1 X72.670 Y100.887 E22.1645
G1 X72.933 Y99.265 E22.3268
G1 X72.956 Y99.132 E22.3401
G1 X73.169 Y98.042 E22.4499
G1 X73.201 Y97.894 E22.4648
G1 X73.675 Y95.864 E22.6707
G1 X73.718 Y95.699 E22.6876
G1 X74.189 Y94.002 E22.8616
G1 X74.230 Y93.866 E22.8756
G1 X74.550 Y92.850 E22.9808
G1 X74.581 Y92.757 E22.9905
G1 X74.923 Y91.755 E23.0951
G1 X74.971 Y91.623 E23.1089
G1 X75.664 Y89.798 E23.3018
G1 X75.723 Y89.652 E23.3174
G1 X76.366 Y88.140 E23.4796
G1 X76.436 Y87.983 E23.4967
G1 X77.242 Y86.287 E23.6821
G1 X77.321 Y86.129 E23.6996
G1 X78.082 Y84.690 E23.8603
G1 X78.227 Y84.439 E23.8890
G1 X78.770 Y83.567 E23.9905
G1 X78.953 Y83.296 E24.0228
G1 X79.658 Y82.342 E24.1399
G1 X79.859 Y82.092 E24.1716
G1 X80.528 Y81.320 E24.2725
G1 X80.732 Y81.101 E24.3021
G1 X81.063 Y81.802 F18000
G92 E0.0000
G1 X81.249 Y81.602 E0.0270 F1875
G1 X81.947 Y80.906 E0.1243
G1 X82.147 Y80.721 E0.1513
G1 X82.903 Y80.069 E0.2498
G1 X83.138 Y79.882 E0.2795
G1 X84.074 Y79.198 E0.3940
G1 X84.316 Y79.035 E0.4229
G1 X85.175 Y78.503 E0.5227
G1 X85.456 Y78.346 E0.5545
G1 X87.323 Y77.401 E0.7611
G1 X87.533 Y77.303 E0.7841
G1 X90.135 Y76.182 E1.0639
G1 X90.292 Y76.119 E1.0807
G1 X91.301 Y75.737 E1.1872
G1 X91.422 Y75.694 E1.1999
G1 X93.260 Y75.070 E1.3917
G1 X93.387 Y75.029 E1.4048
G1 X94.405 Y74.723 E1.5098
G1 X94.510 Y74.693 E1.5206
G1 X96.174 Y74.245 E1.6908
G1 X96.300 Y74.213 E1.7036
G1 X97.373 Y73.964 E1.8125
G1 X97.530 Y73.931 E1.8283
G1 X100.190 Y73.430 E2.0958
G1 X100.398 Y73.397 E2.1165
G1 X102.362 Y73.140 E2.3121
G1 X102.507 Y73.123 E2.3266
G1 X104.176 Y72.971 E2.4922
G1 X104.365 Y72.958 E2.5109
G1 X106.970 Y72.852 E2.7684
G1 X107.132 Y72.849 E2.7844
G1 X108.208 Y72.851 E2.8907
G1 X108.362 Y72.855 E2.9060
G1 X110.972 Y72.968 E3.1640
G1 X111.136 Y72.979 E3.1803
G1 X112.192 Y73.071 E3.2850
G1 X112.299 Y73.082 E3.2956
G1 X113.964 Y73.276 E3.4611
G1 X114.131 Y73.299 E3.4778
G1 X116.118 Y73.621 E3.6767
G1 X116.266 Y73.648 E3.6915
G1 X117.945 Y73.989 E3.8607
G1 X118.133 Y74.032 E3.8798
G1 X120.728 Y74.700 E4.1445
G1 X120.951 Y74.765 E4.1674
G1 X123.501 Y75.592 E4.4322
G1 X123.696 Y75.661 E4.4527
G1 X125.582 Y76.390 E4.6524
G1 X125.721 Y76.447 E4.6673
G1 X127.277 Y77.121 E4.8348
G1 X127.449 Y77.201 E4.8535
G1 X129.803 Y78.366 E5.1129
G1 X129.984 Y78.461 E5.1331
G1 X131.715 Y79.438 E5.3295
G1 X131.841 Y79.513 E5.3440
G1 X133.228 Y80.369 E5.5050
G1 X133.332 Y80.435 E5.5172
G1 X134.248 Y81.043 E5.6257
G1 X134.361 Y81.121 E5.6393
G1 X136.043 Y82.328 E5.8438
G1 X136.168 Y82.421 E5.8592
G1 X137.563 Y83.512 E6.0341
G1 X137.697 Y83.622 E6.0513
G1 X139.250 Y84.957 E6.2536
G1 X139.364 Y85.059 E6.2687
G1 X140.606 Y86.218 E6.4365
G1 X140.722 Y86.331 E6.4525
G1 X142.078 Y87.710 E6.6435
G1 X142.173 Y87.811 E6.6572
G1 X142.967 Y88.681 E6.7736
G1 X143.065 Y88.792 E6.7882
G1 X144.589 Y90.599 E7.0218
G1 X144.762 Y90.821 E7.0496
G1 X145.617 Y92.003 E7.1936
G1 X145.759 Y92.214 E7.2188
G1 X146.485 Y93.377 E7.3542
G1 X146.608 Y93.589 E7.3784
G1 X147.258 Y94.800 E7.5141
G1 X147.371 Y95.028 E7.5393
G1 X147.920 Y96.240 E7.6708
G1 X148.018 Y96.478 E7.6962
G1 X148.558 Y97.926 E7.8488
G1 X148.651 Y98.210 E7.8784
G1 X149.111 Y99.826 E8.0443
G1 X149.170 Y100.061 E8.0682
G1 X149.387 Y101.063 E8.1695
G1 X149.431 Y101.303 E8.1936
G1 X149.673 Y102.925 E8.3556
G1 X149.702 Y103.185 E8.3815
G1 X149.801 Y104.434 E8.5052
G1 X149.812 Y104.658 E8.5274
G1 X149.835 Y105.900 E8.6501
G1 X149.832 Y106.128 E8.6727
G1 X149.779 Y107.391 E8.7975
G1 X149.760 Y107.649 E8.8231
G1 X149.595 Y109.130 E8.9703
G1 X149.560 Y109.369 E8.9941
G1 X149.341 Y110.612 E9.1188
G1 X149.294 Y110.838 E9.1416
