; generated by PrusaSlicer 2.5.0-alpha3+win64 on 2022-08-05 at 13:38:26 UTC


;
;
; 

; external perimeters extrusion width = 0.68mm
; perimeters extrusion width = 0.68mm
; infill extrusion width = 0.68mm
; solid infill extrusion width = 0.68mm
; top infill extrusion width = 0.60mm
; support material extrusion width = 0.50mm
; first layer extrusion width = 0.63mm

M73 P0 R81
M107
M190 S85 ; set bed temperature and wait for it to be reached
G10 S234 P1 ; set temperature
;TYPE:Custom
G28 ; home all axes
G32 ; run bed.g -- probe bed and enable compensation

;set standby temp to active temp
G10 P0 R230
G10 P1 R230
G10 S234 P1 ; set temperature
M116 ; wait for temperature to be reached
G21 ; set units to millimeters
G90 ; use absolute coordinates
M82 ; use absolute distances for extrusion
G92 E0
T1
G92 E0
; Filament gcode
M107
;LAYER_CHANGE
;Z:0.2
;HEIGHT:0.2
G1 Z.2 F18000
G1 E-.75 F600
G92 E0
G1 X90.445 Y11.643 F18000
G1 E.75 F600
;TYPE:External perimeter
;WIDTH:0.629999
G1 F2970
G1 X90.618 Y11.168 E.77541
G1 X90.953 Y10.768 E.80167
G1 X91.406 Y10.507 E.82792
G1 X91.936 Y10.415 E.85498
G1 X128.041 Y10.415 E2.67033
G1 X128.387 Y10.451 E2.68783
G1 X128.813 Y10.623 E2.71095
G1 X129.092 Y10.827 E2.7283
G1 X129.356 Y11.131 E2.74856
G1 X129.505 Y11.45 E2.76629
G1 X129.585 Y11.96 E2.79221
G1 X129.585 Y208.04 E12.65121
G1 X129.561 Y208.341 E12.66638
G1 X129.382 Y208.832 E12.69264
G1 X129.047 Y209.232 E12.71889
G1 X128.594 Y209.493 E12.74515
G1 X128.064 Y209.585 E12.77221
G1 X91.96 Y209.585 E14.58755
G1 X91.659 Y209.561 E14.60272
G1 X91.168 Y209.382 E14.62898
G1 X90.768 Y209.047 E14.65524
G1 X90.507 Y208.594 E14.6815
G1 X90.415 Y208.064 E14.70855
G1 X90.415 Y11.96 E24.56874
G1 X90.433 Y11.732 E24.58024
G1 X90.929 Y11.498 F18000
G1 X91.578 Y11.609
G1 F2970
G1 X91.723 Y11.515 E24.5889
G1 X91.96 Y11.505 E24.60082
G1 X128.201 Y11.505 E26.42307
G1 X128.361 Y11.552 E26.43142
G1 X128.467 Y11.674 E26.43959
G1 X128.495 Y11.96 E26.45399
G1 X128.495 Y208.201 E36.32109
G1 X128.43 Y208.386 E36.33093
G1 X128.277 Y208.485 E36.34008
G1 X91.799 Y208.495 E38.17423
G1 X91.614 Y208.43 E38.18407
G1 X91.515 Y208.277 E38.19322
G1 X91.505 Y11.799 E48.07222
G1 X91.543 Y11.69 E48.07802
G1 X91.514 Y11.449 F18000
G1 X91.179 Y11.304
;TYPE:Perimeter
;WIDTH:0.498872
G1 F3300
G1 X91.288 Y11.167 E48.08488
;WIDTH:0.511522
G1 X91.587 Y11.005 E48.09852
;WIDTH:0.545832
G1 X91.96 Y10.96 E48.11469
G1 X128.248 Y10.97 E49.67768
;WIDTH:0.529088
G1 X128.575 Y11.08 E49.69208
;WIDTH:0.492032
G1 X128.844 Y11.302 E49.70547
;WIDTH:0.511218
G1 X128.995 Y11.585 E49.71834
;WIDTH:0.545842
G1 X129.04 Y11.96 E49.73458
G1 X129.033 Y208.201 E58.18724
;WIDTH:0.531824
G1 X128.94 Y208.546 E58.20218
;WIDTH:0.498868
G1 X128.712 Y208.833 E58.2165
;WIDTH:0.511218
G1 X128.415 Y208.995 E58.23007
;WIDTH:0.545842
G1 X128.04 Y209.04 E58.24631
G1 X91.799 Y209.033 E59.80735
;WIDTH:0.531826
G1 X91.454 Y208.94 E59.82228
;WIDTH:0.498872
G1 X91.167 Y208.712 E59.83661
;WIDTH:0.511524
G1 X91.005 Y208.413 E59.85025
;WIDTH:0.545842
G1 X90.96 Y208.04 E59.86642
G1 X90.967 Y11.799 E68.31908
;WIDTH:0.531824
G1 X91.06 Y11.454 E68.33402
;WIDTH:0.498872
G1 X91.123 Y11.375 E68.33797
;LAYER_CHANGE
;Z:0.4
;HEIGHT:0.2
G1 Z.4 F18000
G10 S230 P1 ; set temperature
G1 X90.559 Y11.68
;TYPE:External perimeter
;WIDTH:0.873082
G1 F5940
G1 X90.717 Y11.225 E68.37218
;WIDTH:0.858191
G1 X91.026 Y10.855 E68.40588
;WIDTH:0.8643
G1 X91.446 Y10.617 E68.43981
;WIDTH:0.881455
G1 X91.96 Y10.541 E68.47711
G1 X128.145 Y10.546 E71.07583
;WIDTH:0.877953
G1 X128.467 Y10.599 E71.09915
;WIDTH:0.862005
G1 X128.775 Y10.717 E71.12225
;WIDTH:0.85819
G1 X129.145 Y11.026 E71.15596
;WIDTH:0.864299
G1 X129.383 Y11.446 E71.18988
;WIDTH:0.881459
G1 X129.459 Y11.96 E71.22718
G1 X129.459 Y208.04 E85.30903
G1 X129.441 Y208.32 E85.32915
;WIDTH:0.873081
G1 X129.283 Y208.775 E85.36336
;WIDTH:0.858191
G1 X128.974 Y209.145 E85.39707
;WIDTH:0.864299
G1 X128.554 Y209.383 E85.43099
;WIDTH:0.881458
G1 X128.04 Y209.459 E85.46829
G1 X91.96 Y209.459 E88.05948
G1 X91.68 Y209.441 E88.07961
;WIDTH:0.873083
G1 X91.225 Y209.283 E88.11382
;WIDTH:0.85819
G1 X90.855 Y208.974 E88.14752
;WIDTH:0.8643
G1 X90.617 Y208.554 E88.18144
;WIDTH:0.88146
G1 X90.541 Y208.059 E88.21745
G1 X90.541 Y11.96 E102.30062
G1 X90.553 Y11.77 E102.31428
G1 X91.019 Y11.537 F18000
G1 X91.543 Y11.484
;WIDTH:0.86415
G1 F5940
G1 X91.543 Y11.483 E102.31438
;WIDTH:0.85819
G1 X91.614 Y11.435 E102.32036
;WIDTH:0.874451
G1 X91.799 Y11.383 E102.33399
;WIDTH:0.881455
G1 X128.145 Y11.381 E104.94428
;WIDTH:0.877953
G1 X128.386 Y11.435 E104.9619
;WIDTH:0.85819
G1 X128.565 Y11.614 E104.97961
;WIDTH:0.87445
G1 X128.617 Y11.799 E104.99325
;WIDTH:0.881459
G1 X128.621 Y208.04 E119.08666
G1 X128.598 Y208.307 E119.1059
;WIDTH:0.8643
G1 X128.457 Y208.517 E119.12371
;WIDTH:0.873081
G1 X128.225 Y208.616 E119.14164
;WIDTH:0.881458
G1 X91.96 Y208.621 E121.74607
G1 X91.692 Y208.598 E121.76536
;WIDTH:0.864149
G1 X91.483 Y208.457 E121.78312
;WIDTH:0.873082
G1 X91.384 Y208.225 E121.80105
;WIDTH:0.88146
G1 X91.379 Y11.96 E135.89614
G1 X91.402 Y11.692 E135.91543
;WIDTH:0.86415
G1 X91.492 Y11.558 E135.92676
;LAYER_CHANGE
;Z:0.6
;HEIGHT:0.2
G1 Z.6 F18000
G1 X90.559 Y11.68
;WIDTH:0.873081
G1 F5940
G1 X90.717 Y11.225 E135.96097
;WIDTH:0.858191
G1 X91.026 Y10.855 E135.99467
;WIDTH:0.8643
G1 X91.446 Y10.617 E136.02859
;WIDTH:0.881455
G1 X91.96 Y10.541 E136.06589
G1 X128.146 Y10.546 E138.66464
;WIDTH:0.877954
G1 X128.468 Y10.599 E138.68798
;WIDTH:0.861986
G1 X128.775 Y10.717 E138.71104
;WIDTH:0.85819
G1 X129.145 Y11.026 E138.74475
;WIDTH:0.864299
G1 X129.383 Y11.446 E138.77867
;WIDTH:0.881459
G1 X129.459 Y11.96 E138.81597
G1 X129.459 Y208.04 E152.89781
G1 X129.441 Y208.32 E152.91794
;WIDTH:0.87308
G1 X129.283 Y208.775 E152.95215
;WIDTH:0.85819
G1 X128.974 Y209.145 E152.98585
;WIDTH:0.864298
G1 X128.554 Y209.383 E153.01978
;WIDTH:0.881459
G1 X128.059 Y209.459 E153.05578
G1 X91.96 Y209.459 E155.64829
G1 X91.68 Y209.441 E155.66841
;WIDTH:0.873081
G1 X91.225 Y209.283 E155.70262
;WIDTH:0.85819
G1 X90.855 Y208.974 E155.73633
;WIDTH:0.8643
G1 X90.617 Y208.554 E155.77025
;WIDTH:0.881459
G1 X90.541 Y208.059 E155.80626
G1 X90.541 Y11.96 E169.88941
G1 X90.553 Y11.77 E169.90307
M73 P0 R80
G1 X91.019 Y11.537 F18000
G1 X91.543 Y11.484
;WIDTH:0.86415
G1 F5940
G1 X91.543 Y11.483 E169.90316
;WIDTH:0.873082
G1 X91.775 Y11.384 E169.92109
;WIDTH:0.881455
G1 X128.146 Y11.381 E172.53306
;WIDTH:0.877954
G1 X128.386 Y11.435 E172.55066
;WIDTH:0.85819
G1 X128.565 Y11.614 E172.56837
;WIDTH:0.87445
G1 X128.617 Y11.799 E172.582
;WIDTH:0.881459
G1 X128.621 Y208.04 E186.67541
G1 X128.598 Y208.307 E186.69465
;WIDTH:0.8643
G1 X128.457 Y208.517 E186.71247
;WIDTH:0.873082
G1 X128.225 Y208.616 E186.7304
;WIDTH:0.881459
G1 X91.96 Y208.621 E189.33482
G1 X91.692 Y208.598 E189.35412
;WIDTH:0.86415
G1 X91.483 Y208.457 E189.37187
;WIDTH:0.858191
G1 X91.435 Y208.386 E189.37785
;WIDTH:0.874451
G1 X91.383 Y208.201 E189.39149
;WIDTH:0.881459
G1 X91.379 Y11.96 E203.4849
G1 X91.402 Y11.692 E203.50419
;WIDTH:0.86415
G1 X91.492 Y11.558 E203.51553
M106 S239.7
;LAYER_CHANGE
;Z:0.8
;HEIGHT:0.2
G1 Z.8 F18000
G1 X90.559 Y11.68
;WIDTH:0.873081
G1 F5940
G1 X90.717 Y11.225 E203.54974
;WIDTH:0.858192
G1 X91.026 Y10.855 E203.58345
;WIDTH:0.864299
G1 X91.446 Y10.617 E203.61737
;WIDTH:0.881455
G1 X91.96 Y10.541 E203.65467
G1 X128.146 Y10.546 E206.25342
;WIDTH:0.877954
G1 X128.468 Y10.599 E206.27675
;WIDTH:0.861986
G1 X128.775 Y10.717 E206.29982
;WIDTH:0.858189
G1 X129.145 Y11.026 E206.33352
;WIDTH:0.864299
G1 X129.383 Y11.446 E206.36744
;WIDTH:0.881459
G1 X129.459 Y11.96 E206.40475
G1 X129.459 Y208.04 E220.48659
G1 X129.441 Y208.32 E220.50671
;WIDTH:0.87308
M73 P1 R80
G1 X129.283 Y208.775 E220.54092
;WIDTH:0.858191
G1 X128.974 Y209.145 E220.57463
;WIDTH:0.864299
G1 X128.554 Y209.383 E220.60855
;WIDTH:0.881459
G1 X128.059 Y209.459 E220.64456
G1 X91.96 Y209.459 E223.23706
G1 X91.68 Y209.441 E223.25719
;WIDTH:0.873081
G1 X91.225 Y209.283 E223.2914
;WIDTH:0.85819
G1 X90.855 Y208.974 E223.3251
;WIDTH:0.8643
G1 X90.617 Y208.554 E223.35903
;WIDTH:0.88146
G1 X90.541 Y208.059 E223.39503
G1 X90.541 Y11.96 E237.4782
G1 X90.553 Y11.77 E237.49186
G1 X91.019 Y11.537 F18000
G1 X91.543 Y11.484
;WIDTH:0.864151
G1 F5940
G1 X91.543 Y11.483 E237.49194
;WIDTH:0.873082
G1 X91.775 Y11.384 E237.50987
;WIDTH:0.881455
G1 X128.146 Y11.381 E240.12183
;WIDTH:0.877954
G1 X128.386 Y11.435 E240.13943
;WIDTH:0.85819
G1 X128.565 Y11.614 E240.15714
;WIDTH:0.87445
G1 X128.617 Y11.799 E240.17078
;WIDTH:0.881459
G1 X128.621 Y208.04 E254.26419
G1 X128.598 Y208.307 E254.28343
;WIDTH:0.864299
G1 X128.457 Y208.517 E254.30125
;WIDTH:0.873081
G1 X128.225 Y208.616 E254.31918
;WIDTH:0.881459
G1 X91.96 Y208.621 E256.9236
G1 X91.692 Y208.598 E256.9429
;WIDTH:0.864149
G1 X91.483 Y208.457 E256.96065
;WIDTH:0.873081
G1 X91.384 Y208.225 E256.97858
;WIDTH:0.88146
G1 X91.379 Y11.96 E271.07367
G1 X91.402 Y11.692 E271.09297
;WIDTH:0.864151
G1 X91.492 Y11.558 E271.10432
;LAYER_CHANGE
;Z:1
;HEIGHT:0.2
G1 Z1 F18000
G1 X90.559 Y11.68
;WIDTH:0.87308
G1 F5940
G1 X90.717 Y11.225 E271.13853
;WIDTH:0.858192
G1 X91.026 Y10.855 E271.17224
;WIDTH:0.8643
G1 X91.446 Y10.617 E271.20616
;WIDTH:0.881455
G1 X91.96 Y10.541 E271.24346
G1 X128.145 Y10.546 E273.84218
;WIDTH:0.877955
G1 X128.467 Y10.599 E273.8655
;WIDTH:0.862005
G1 X128.775 Y10.717 E273.8886
;WIDTH:0.85819
G1 X129.145 Y11.026 E273.92231
;WIDTH:0.864299
G1 X129.383 Y11.446 E273.95623
;WIDTH:0.88146
G1 X129.459 Y11.96 E273.99353
G1 X129.459 Y208.04 E288.07539
G1 X129.441 Y208.32 E288.09552
;WIDTH:0.87308
G1 X129.283 Y208.775 E288.12973
;WIDTH:0.858191
G1 X128.974 Y209.145 E288.16344
;WIDTH:0.864298
G1 X128.554 Y209.383 E288.19736
;WIDTH:0.881458
G1 X128.059 Y209.459 E288.23336
G1 X91.96 Y209.459 E290.82587
G1 X91.68 Y209.441 E290.84599
;WIDTH:0.873082
G1 X91.225 Y209.283 E290.8802
;WIDTH:0.858191
G1 X90.855 Y208.974 E290.91391
;WIDTH:0.864299
G1 X90.617 Y208.554 E290.94783
;WIDTH:0.881459
G1 X90.541 Y208.059 E290.98383
G1 X90.541 Y11.96 E305.06699
G1 X90.553 Y11.77 E305.08065
G1 X91.019 Y11.537 F18000
G1 X91.544 Y11.482
;WIDTH:0.873082
G1 F5940
G1 X91.775 Y11.384 E305.09852
;WIDTH:0.881455
G1 X128.145 Y11.381 E307.71047
;WIDTH:0.877955
G1 X128.386 Y11.435 E307.72809
;WIDTH:0.858191
G1 X128.565 Y11.614 E307.7458
;WIDTH:0.874449
G1 X128.617 Y11.799 E307.75944
;WIDTH:0.88146
G1 X128.621 Y11.96 E307.77101
G1 X128.621 Y208.04 E321.85287
G1 X128.598 Y208.307 E321.8721
;WIDTH:0.864301
G1 X128.457 Y208.517 E321.88992
;WIDTH:0.873082
G1 X128.225 Y208.616 E321.90785
;WIDTH:0.881458
G1 X91.96 Y208.621 E324.51227
G1 X91.692 Y208.598 E324.53157
;WIDTH:0.86415
G1 X91.483 Y208.457 E324.54933
;WIDTH:0.873081
G1 X91.384 Y208.225 E324.56726
;WIDTH:0.881459
G1 X91.379 Y11.96 E338.66233
G1 X91.402 Y11.692 E338.68162
;WIDTH:0.864151
G1 X91.493 Y11.557 E338.69311
;LAYER_CHANGE
;Z:1.2
;HEIGHT:0.2
G1 Z1.2 F18000
G1 X90.559 Y11.68
;WIDTH:0.873082
G1 F5940
G1 X90.717 Y11.225 E338.72731
;WIDTH:0.858191
G1 X91.026 Y10.855 E338.76102
;WIDTH:0.8643
G1 X91.446 Y10.617 E338.79494
;WIDTH:0.881455
G1 X91.96 Y10.541 E338.83224
G1 X128.146 Y10.546 E341.43099
;WIDTH:0.877953
G1 X128.468 Y10.599 E341.45432
;WIDTH:0.861986
G1 X128.775 Y10.717 E341.47739
;WIDTH:0.85819
G1 X129.145 Y11.026 E341.51109
;WIDTH:0.8643
G1 X129.383 Y11.446 E341.54502
;WIDTH:0.881459
G1 X129.459 Y11.96 E341.58232
G1 X129.459 Y208.04 E355.66416
G1 X129.441 Y208.32 E355.68429
;WIDTH:0.873081
G1 X129.283 Y208.775 E355.7185
;WIDTH:0.85819
G1 X128.974 Y209.145 E355.7522
;WIDTH:0.864299
G1 X128.554 Y209.383 E355.78612
;WIDTH:0.881458
G1 X128.059 Y209.459 E355.82213
G1 X91.96 Y209.459 E358.41463
G1 X91.68 Y209.441 E358.43476
;WIDTH:0.873082
G1 X91.225 Y209.283 E358.46897
;WIDTH:0.858191
G1 X90.855 Y208.974 E358.50267
;WIDTH:0.8643
G1 X90.617 Y208.554 E358.5366
;WIDTH:0.88146
G1 X90.541 Y208.059 E358.5726
G1 X90.541 Y11.96 E372.65577
G1 X90.553 Y11.77 E372.66943
G1 X91.019 Y11.537 F18000
G1 X91.544 Y11.482
;WIDTH:0.873082
G1 F5940
G1 X91.775 Y11.384 E372.6873
;WIDTH:0.881455
G1 X128.146 Y11.381 E375.29927
;WIDTH:0.877953
G1 X128.386 Y11.435 E375.31687
;WIDTH:0.85819
G1 X128.565 Y11.614 E375.33458
;WIDTH:0.874449
G1 X128.617 Y11.799 E375.34822
;WIDTH:0.881459
G1 X128.621 Y208.04 E389.44163
G1 X128.598 Y208.307 E389.46086
;WIDTH:0.8643
G1 X128.457 Y208.517 E389.47868
;WIDTH:0.873081
G1 X128.225 Y208.616 E389.49661
;WIDTH:0.881458
G1 X91.96 Y208.621 E392.10104
G1 X91.692 Y208.598 E392.12033
;WIDTH:0.86415
G1 X91.483 Y208.457 E392.13808
;WIDTH:0.873082
G1 X91.384 Y208.225 E392.15602
;WIDTH:0.88146
G1 X91.379 Y11.96 E406.25111
G1 X91.402 Y11.692 E406.2704
;WIDTH:0.864151
G1 X91.493 Y11.557 E406.28189
;LAYER_CHANGE
;Z:1.4
;HEIGHT:0.2
G1 Z1.4 F18000
G1 X90.559 Y11.68
;WIDTH:0.873081
G1 F5940
G1 X90.717 Y11.225 E406.3161
;WIDTH:0.858191
G1 X91.026 Y10.855 E406.3498
;WIDTH:0.8643
G1 X91.446 Y10.617 E406.38372
;WIDTH:0.881455
G1 X91.96 Y10.541 E406.42102
G1 X128.146 Y10.546 E409.01977
;WIDTH:0.877953
G1 X128.468 Y10.599 E409.04311
;WIDTH:0.861986
G1 X128.775 Y10.717 E409.06617
;WIDTH:0.85819
G1 X129.145 Y11.026 E409.09988
;WIDTH:0.864299
G1 X129.383 Y11.446 E409.1338
;WIDTH:0.881459
G1 X129.459 Y11.96 E409.1711
G1 X129.459 Y208.04 E423.25294
G1 X129.441 Y208.32 E423.27307
;WIDTH:0.87308
G1 X129.283 Y208.775 E423.30728
;WIDTH:0.858191
G1 X128.974 Y209.145 E423.34098
;WIDTH:0.8643
G1 X128.554 Y209.383 E423.37491
;WIDTH:0.881459
G1 X128.059 Y209.459 E423.41091
G1 X91.96 Y209.459 E426.00342
G1 X91.68 Y209.441 E426.02354
;WIDTH:0.873082
G1 X91.225 Y209.283 E426.05775
;WIDTH:0.85819
G1 X90.855 Y208.974 E426.09146
;WIDTH:0.8643
G1 X90.617 Y208.554 E426.12538
;WIDTH:0.88146
G1 X90.541 Y208.059 E426.16139
G1 X90.541 Y11.96 E440.24456
G1 X90.553 Y11.77 E440.25822
G1 X91.019 Y11.537 F18000
G1 X91.544 Y11.482
;WIDTH:0.873082
G1 F5940
G1 X91.775 Y11.384 E440.27608
;WIDTH:0.881455
G1 X128.146 Y11.381 E442.88805
;WIDTH:0.877953
G1 X128.316 Y11.405 E442.90033
;WIDTH:0.862824
G1 X128.517 Y11.543 E442.91751
;WIDTH:0.87308
G1 X128.616 Y11.775 E442.93544
;WIDTH:0.881459
G1 X128.621 Y208.04 E457.03051
G1 X128.598 Y208.307 E457.04974
;WIDTH:0.8643
G1 X128.457 Y208.517 E457.06756
;WIDTH:0.873081
G1 X128.225 Y208.616 E457.08549
;WIDTH:0.881459
G1 X91.96 Y208.621 E459.68992
G1 X91.692 Y208.598 E459.70921
;WIDTH:0.864148
G1 X91.483 Y208.457 E459.72697
;WIDTH:0.873081
G1 X91.384 Y208.225 E459.7449
;WIDTH:0.88146
G1 X91.379 Y11.96 E473.83999
G1 X91.402 Y11.692 E473.85928
;WIDTH:0.86415
G1 X91.493 Y11.556 E473.87078
;LAYER_CHANGE
;Z:1.6
;HEIGHT:0.2
G1 Z1.6 F18000
G1 X90.559 Y11.68
;WIDTH:0.873082
G1 F5940
G1 X90.717 Y11.225 E473.90498
;WIDTH:0.858191
G1 X91.026 Y10.855 E473.93869
;WIDTH:0.8643
G1 X91.446 Y10.617 E473.97261
;WIDTH:0.881459
G1 X91.941 Y10.541 E474.00862
G1 X128.041 Y10.541 E476.60115
G1 X128.502 Y10.604 E476.63458
;WIDTH:0.864408
G1 X128.829 Y10.757 E476.66001
;WIDTH:0.854554
G1 X129.15 Y11.033 E476.68944
;WIDTH:0.864299
G1 X129.383 Y11.446 E476.72277
;WIDTH:0.881459
G1 X129.459 Y11.96 E476.76007
G1 X129.459 Y208.04 E490.84191
G1 X129.441 Y208.32 E490.86204
;WIDTH:0.87308
G1 X129.283 Y208.775 E490.89625
;WIDTH:0.85819
G1 X128.974 Y209.145 E490.92995
;WIDTH:0.864299
G1 X128.554 Y209.383 E490.96388
;WIDTH:0.881458
G1 X128.059 Y209.459 E490.99988
G1 X91.96 Y209.459 E493.59238
G1 X91.68 Y209.441 E493.61251
;WIDTH:0.873083
G1 X91.225 Y209.283 E493.64672
;WIDTH:0.858191
G1 X90.855 Y208.974 E493.68042
;WIDTH:0.864301
G1 X90.617 Y208.554 E493.71435
;WIDTH:0.88146
G1 X90.541 Y208.059 E493.75035
G1 X90.541 Y11.96 E507.83352
G1 X90.553 Y11.77 E507.84718
G1 X91.019 Y11.537 F18000
G1 X91.544 Y11.482
;WIDTH:0.873082
G1 F5940
G1 X91.775 Y11.384 E507.86504
;WIDTH:0.881459
G1 X128.041 Y11.379 E510.46949
G1 X128.299 Y11.399 E510.48806
;WIDTH:0.864408
G1 X128.523 Y11.55 E510.50706
;WIDTH:0.873081
G1 X128.616 Y11.775 E510.52439
;WIDTH:0.881459
G1 X128.621 Y208.04 E524.61946
G1 X128.598 Y208.307 E524.63869
;WIDTH:0.8643
G1 X128.457 Y208.517 E524.65651
;WIDTH:0.864146
G1 X128.308 Y208.598 E524.66841
;WIDTH:0.881458
G1 X128.04 Y208.621 E524.6877
G1 X91.96 Y208.621 E527.2789
