; generated by PrusaSlicer 2.5.0-alpha3+win64 on 2022-08-22 at 17:42:54 UTC


;
;
; 

; external perimeters extrusion width = 0.68mm
; perimeters extrusion width = 0.68mm
; infill extrusion width = 0.68mm
; solid infill extrusion width = 0.68mm
; top infill extrusion width = 0.60mm
; first layer extrusion width = 0.63mm

M73 P0 R64
M107
M190 S85 ; set bed temperature and wait for it to be reached
G10 S230 P1 ; set temperature
;TYPE:Custom
;Set standby temperatures
G10 R200 P0
G10 R215 P1
G28 ; home all axes
G32 ; run bed.g -- probe bed and enable compensation
;workaround for toolchanger when using only one extruder
T1; select tool
G10 S230 P1 ; set temperature
M116 ; wait for temperature to be reached
G21 ; set units to millimeters
G90 ; use absolute coordinates
M82 ; use absolute distances for extrusion
G92 E0
;tool change macro
T1
G92 E0
; Filament gcode
M107
;LAYER_CHANGE
;Z:0.2
;HEIGHT:0.2
G1 Z.2 F18000
G1 E-.75 F600
G92 E0
G1 X11.817 Y132.351 F18000
G1 E.75 F600
;TYPE:Skirt/Brim
;WIDTH:0.63
G1 F2700
G1 X208.183 Y132.351 E10.3358
G1 X209.402 Y132.494 E10.3957
G1 X210.492 Y132.838 E10.45152
G1 X211.388 Y133.302 E10.50075
G1 X211.916 Y133.676 E10.53236
G1 X212.391 Y134.084 E10.56293
G1 X213.251 Y135.108 E10.62821
G1 X213.57 Y135.647 E10.65877
G1 X213.848 Y136.235 E10.69053
G1 X214.174 Y137.319 E10.74577
G1 X214.303 Y138.473 E10.80249
G1 X214.287 Y175.116 E12.59123
G1 X214.148 Y176.114 E12.64044
G1 X213.847 Y177.071 E12.6894
G1 X213.396 Y177.967 E12.73837
G1 X212.802 Y178.787 E12.78782
G1 X212.09 Y179.493 E12.83674
G1 X211.271 Y180.077 E12.88583
G1 X210.364 Y180.522 E12.93518
G1 X209.442 Y180.807 E12.98224
G1 X208.183 Y180.957 E13.04414
G1 X11.828 Y180.957 E22.62942
G1 X10.781 Y180.852 E22.68075
G1 X9.795 Y180.583 E22.73067
G1 X8.821 Y180.13 E22.78309
G1 X7.984 Y179.554 E22.8327
G1 X7.248 Y178.844 E22.88264
G1 X6.636 Y178.021 E22.93269
G1 X6.151 Y177.064 E22.98504
G1 X5.847 Y176.096 E23.03457
G1 X5.697 Y174.837 E23.09647
G1 X5.713 Y138.193 E24.88531
G1 X5.852 Y137.194 E24.93452
G1 X6.153 Y136.237 E24.98348
G1 X6.604 Y135.341 E25.03246
G1 X7.198 Y134.521 E25.0819
G1 X7.91 Y133.816 E25.13082
G1 X8.729 Y133.232 E25.17991
G1 X9.636 Y132.786 E25.22926
G1 X10.558 Y132.502 E25.27633
G1 X11.727 Y132.362 E25.33383
G1 X11.795 Y132.943 F18000
G1 F2700
G1 X208.167 Y132.938 E34.91986
G1 X209.254 Y133.063 E34.97331
G1 X210.247 Y133.372 E35.02406
G1 X211.067 Y133.794 E35.06907
G1 X211.545 Y134.13 E35.0976
G1 X211.99 Y134.514 E35.1263
G1 X212.758 Y135.428 E35.1846
G1 X213.058 Y135.934 E35.21329
G1 X213.307 Y136.464 E35.24188
G1 X213.604 Y137.46 E35.29262
G1 X213.716 Y138.489 E35.34313
G1 X213.703 Y175.057 E37.12824
G1 X213.58 Y175.965 E37.17295
G1 X213.311 Y176.832 E37.21726
G1 X212.906 Y177.645 E37.26161
G1 X212.369 Y178.389 E37.3064
G1 X211.727 Y179.03 E37.35071
G1 X210.988 Y179.562 E37.39515
G1 X210.167 Y179.969 E37.43985
G1 X209.295 Y180.238 E37.48441
G1 X208.167 Y180.37 E37.53988
G1 X11.842 Y180.37 E47.12365
G1 X10.909 Y180.278 E47.16938
G1 X10.017 Y180.039 E47.21451
G1 X9.131 Y179.631 E47.26211
G1 X8.373 Y179.114 E47.30689
G1 X7.673 Y178.439 E47.35436
G1 X7.124 Y177.693 E47.39956
G1 X6.687 Y176.824 E47.44708
G1 X6.416 Y175.949 E47.49174
G1 X6.284 Y174.82 E47.54723
G1 X6.297 Y138.251 E49.33238
G1 X6.42 Y137.344 E49.37709
G1 X6.689 Y136.477 E49.4214
G1 X7.094 Y135.664 E49.46575
G1 X7.631 Y134.919 E49.51054
G1 X8.273 Y134.278 E49.55485
G1 X9.012 Y133.747 E49.59929
G1 X9.833 Y133.34 E49.64398
G1 X10.705 Y133.071 E49.68855
G1 X11.706 Y132.953 E49.73776
G1 X11.773 Y133.534 F18000
G1 F2700
G1 X208.151 Y133.525 E59.32412
G1 X209.109 Y133.632 E59.37121
G1 X210.004 Y133.907 E59.41687
G1 X210.746 Y134.286 E59.45757
G1 X211.195 Y134.602 E59.48435
G1 X211.589 Y134.942 E59.50977
G1 X212.266 Y135.75 E59.56122
G1 X212.533 Y136.197 E59.58664
G1 X212.766 Y136.694 E59.61346
G1 X213.024 Y137.552 E59.65716
G1 X213.129 Y138.505 E59.70398
G1 X213.118 Y175 E61.48553
G1 X213.011 Y175.817 E61.52576
G1 X212.773 Y176.594 E61.56542
G1 X212.415 Y177.322 E61.60502
G1 X211.908 Y178.026 E61.64737
G1 X211.332 Y178.596 E61.68692
G1 X210.667 Y179.069 E61.72674
G1 X209.931 Y179.431 E61.76679
G1 X209.151 Y179.668 E61.80661
G1 X208.15 Y179.783 E61.85577
G1 X11.857 Y179.783 E71.43801
G1 X10.993 Y179.697 E71.48037
G1 X10.196 Y179.479 E71.52069
G1 X9.402 Y179.11 E71.56347
G1 X8.728 Y178.645 E71.60344
G1 X8.101 Y178.036 E71.64609
G1 X7.613 Y177.368 E71.68646
G1 X7.224 Y176.585 E71.72916
G1 X6.986 Y175.805 E71.76897
G1 X6.871 Y174.804 E71.81814
G1 X6.882 Y138.308 E73.59972
G1 X6.989 Y137.491 E73.63996
G1 X7.227 Y136.714 E73.67962
G1 X7.585 Y135.987 E73.71921
G1 X8.092 Y135.283 E73.76156
G1 X8.668 Y134.713 E73.80112
G1 X9.333 Y134.239 E73.84094
G1 X10.069 Y133.878 E73.88098
G1 X10.849 Y133.64 E73.92081
G1 X11.683 Y133.544 E73.96178
G1 X11.748 Y134.126 F18000
G1 F2700
G1 X11.866 Y134.112 E73.96755
G1 X208.135 Y134.112 E83.54862
G1 X208.967 Y134.202 E83.58945
G1 X209.762 Y134.442 E83.63
G1 X210.427 Y134.779 E83.66639
G1 X210.822 Y135.056 E83.68994
G1 X211.187 Y135.371 E83.71347
G1 X211.774 Y136.071 E83.75805
G1 X212.021 Y136.484 E83.78157
G1 X212.225 Y136.922 E83.80511
G1 X212.453 Y137.692 E83.84433
G1 X212.542 Y138.52 E83.88499
G1 X212.534 Y174.945 E85.66312
G1 X212.441 Y175.673 E85.69892
M73 P1 R64
G1 X212.235 Y176.36 E85.73393
G1 X211.922 Y177.002 E85.76881
G1 X211.475 Y177.629 E85.80639
G1 X210.968 Y178.134 E85.8413
G1 X210.386 Y178.553 E85.87634
G1 X209.695 Y178.893 E85.91393
G1 X209.009 Y179.098 E85.9489
G1 X208.134 Y179.196 E85.99185
G1 X11.87 Y179.196 E95.57264
G1 X11.123 Y179.123 E95.60928
G1 X10.376 Y178.92 E95.64709
G1 X9.675 Y178.59 E95.68489
G1 X9.084 Y178.178 E95.72006
G1 X8.531 Y177.635 E95.7579
G1 X8.104 Y177.045 E95.79344
G1 X7.762 Y176.349 E95.83132
G1 X7.556 Y175.663 E95.86629
G1 X7.458 Y174.788 E95.90925
G1 X7.466 Y138.363 E97.68738
G1 X7.559 Y137.636 E97.72317
G1 X7.765 Y136.949 E97.75819
G1 X8.078 Y136.307 E97.79306
G1 X8.525 Y135.68 E97.83064
G1 X9.032 Y135.175 E97.86556
G1 X9.614 Y134.755 E97.9006
G1 X10.305 Y134.416 E97.93818
G1 X10.991 Y134.21 E97.97315
G1 X11.659 Y134.136 E98.00594
G1 X11.722 Y134.717 F18000
G1 F2700
G1 X11.881 Y134.699 E98.01375
G1 X208.119 Y134.699 E107.59327
G1 X208.875 Y134.783 E107.63041
G1 X209.522 Y134.978 E107.66338
G1 X210.108 Y135.273 E107.69542
G1 X210.473 Y135.528 E107.71713
G1 X210.784 Y135.799 E107.73728
G1 X211.283 Y136.393 E107.77515
G1 X211.496 Y136.747 E107.7953
G1 X211.683 Y137.149 E107.81696
G1 X211.882 Y137.83 E107.85158
G1 X211.955 Y138.535 E107.88618
G1 X211.949 Y174.893 E109.66104
G1 X211.871 Y175.531 E109.69243
G1 X211.695 Y176.128 E109.7228
G1 X211.427 Y176.685 E109.75296
G1 X211.042 Y177.231 E109.78561
G1 X210.571 Y177.701 E109.81804
G1 X210.067 Y178.06 E109.84829
G1 X209.462 Y178.353 E109.88109
G1 X208.869 Y178.527 E109.91124
G1 X208.119 Y178.609 E109.9481
G1 X11.884 Y178.609 E119.52749
G1 X11.25 Y178.55 E119.55858
G1 X10.599 Y178.376 E119.59145
G1 X9.987 Y178.091 E119.62441
G1 X9.474 Y177.739 E119.65478
G1 X8.991 Y177.27 E119.68764
G1 X8.595 Y176.723 E119.72061
G1 X8.301 Y176.116 E119.75351
G1 X8.127 Y175.524 E119.78366
G1 X8.045 Y174.773 E119.82053
G1 X8.051 Y138.415 E121.59535
G1 X8.129 Y137.777 E121.62673
G1 X8.305 Y137.18 E121.65711
G1 X8.573 Y136.624 E121.68727
G1 X8.958 Y136.077 E121.71992
G1 X9.429 Y135.608 E121.75235
G1 X9.933 Y135.248 E121.7826
G1 X10.538 Y134.955 E121.8154
G1 X11.131 Y134.781 E121.84555
G1 X11.633 Y134.726 E121.87021
G1 X11.694 Y135.308 F18000
G1 F2700
G1 X11.896 Y135.287 E121.88013
G1 X208.104 Y135.287 E131.4582
G1 X208.736 Y135.353 E131.4892
M73 P1 R63
G1 X209.285 Y135.516 E131.51717
G1 X209.79 Y135.767 E131.5447
G1 X210.122 Y135.999 E131.56449
G1 X210.38 Y136.225 E131.58121
G1 X210.793 Y136.717 E131.61256
G1 X210.97 Y137.01 E131.62928
G1 X211.142 Y137.377 E131.64907
G1 X211.301 Y137.919 E131.67661
G1 X211.368 Y138.55 E131.70763
G1 X211.364 Y174.844 E133.47931
G1 X211.301 Y175.39 E133.50616
G1 X211.139 Y175.937 E133.53401
G1 X210.911 Y176.404 E133.55936
G1 X210.58 Y176.868 E133.58722
G1 X210.178 Y177.264 E133.61476
G1 X209.751 Y177.565 E133.64026
G1 X209.233 Y177.812 E133.66828
G1 X208.733 Y177.956 E133.69363
G1 X208.104 Y178.022 E133.72454
G1 X11.898 Y178.022 E143.3025
G1 X11.332 Y177.968 E143.33027
G1 X10.78 Y177.817 E143.35818
G1 X10.261 Y177.572 E143.38619
G1 X9.831 Y177.272 E143.41177
G1 X9.422 Y176.87 E143.43979
G1 X9.089 Y176.404 E143.46776
G1 X8.842 Y175.887 E143.49573
G1 X8.699 Y175.388 E143.52109
G1 X8.632 Y174.758 E143.55199
G1 X8.636 Y138.465 E145.32367
G1 X8.699 Y137.918 E145.35053
G1 X8.861 Y137.371 E145.37838
G1 X9.089 Y136.905 E145.40373
G1 X9.42 Y136.44 E145.43159
G1 X9.822 Y136.044 E145.45912
G1 X10.249 Y135.743 E145.48462
G1 X10.767 Y135.496 E145.51264
G1 X11.267 Y135.353 E145.538
G1 X11.605 Y135.317 E145.55459
G1 X11.663 Y135.899 F18000
G1 F2700
G1 X11.91 Y135.874 E145.56671
G1 X208.09 Y135.874 E155.14339
G1 X208.6 Y135.925 E155.16842
G1 X209.052 Y136.056 E155.19138
G1 X209.473 Y136.261 E155.21426
G1 X209.771 Y136.47 E155.23204
G1 X209.974 Y136.65 E155.24526
G1 X210.304 Y137.043 E155.27031
G1 X210.446 Y137.274 E155.28353
G1 X210.6 Y137.604 E155.30131
G1 X210.729 Y138.054 E155.32417
G1 X210.781 Y138.565 E155.34922
G1 X210.778 Y174.798 E157.11798
G1 X210.729 Y175.254 E157.14037
G1 X210.598 Y175.707 E157.16341
G1 X210.416 Y176.088 E157.18401
G1 X210.145 Y176.473 E157.20698
G1 X209.819 Y176.799 E157.22953
G1 X209.435 Y177.069 E157.25244
G1 X209.007 Y177.27 E157.27547
G1 X208.601 Y177.383 E157.29606
G1 X208.09 Y177.435 E157.32116
G1 X11.91 Y177.435 E166.89783
G1 X11.457 Y177.394 E166.92007
G1 X11.002 Y177.273 E166.94303
G1 X10.575 Y177.075 E166.966
G1 X10.189 Y176.806 E166.98898
G1 X9.856 Y176.474 E167.01195
G1 X9.585 Y176.089 E167.03492
G1 X9.385 Y175.662 E167.05795
G1 X9.271 Y175.256 E167.07854
G1 X9.219 Y174.744 E167.10364
G1 X9.222 Y138.511 E168.8724
G1 X9.271 Y138.055 E168.89479
G1 X9.402 Y137.601 E168.91783
G1 X9.584 Y137.221 E168.93843
G1 X9.855 Y136.836 E168.9614
G1 X10.181 Y136.509 E168.98395
G1 X10.565 Y136.239 E169.00686
G1 X10.993 Y136.039 E169.02989
G1 X11.399 Y135.925 E169.05048
G1 X11.574 Y135.908 E169.05907
G1 X11.629 Y136.489 F18000
G1 F2700
G1 X11.923 Y136.461 E169.0735
G1 X208.077 Y136.461 E178.64892
G1 X208.469 Y136.498 E178.66816
M73 P2 R63
G1 X208.824 Y136.597 E178.68611
G1 X209.157 Y136.757 E178.70416
G1 X209.419 Y136.94 E178.7198
G1 X209.566 Y137.072 E178.72942
G1 X209.817 Y137.371 E178.74849
G1 X209.921 Y137.539 E178.75812
G1 X210.057 Y137.829 E178.77375
G1 X210.156 Y138.185 E178.79178
G1 X210.194 Y138.578 E178.81104
G1 X210.192 Y174.756 E180.57712
G1 X210.156 Y175.123 E180.59513
G1 X210.057 Y175.478 E180.61311
G1 X209.898 Y175.81 E180.63108
G1 X209.683 Y176.11 E180.64913
G1 X209.456 Y176.337 E180.66477
G1 X209.156 Y176.552 E180.68282
G1 X208.824 Y176.711 E180.7008
G1 X208.469 Y176.81 E180.71875
G1 X208.077 Y176.848 E180.73801
G1 X11.922 Y176.848 E190.31348
G1 X11.577 Y176.819 E190.33039
G1 X11.219 Y176.727 E190.34843
G1 X10.883 Y176.575 E190.3664
G1 X10.579 Y176.367 E190.38438
G1 X10.316 Y176.109 E190.40235
G1 X10.102 Y175.81 E190.42033
G1 X9.943 Y175.478 E190.4383
G1 X9.844 Y175.124 E190.45626
G1 X9.806 Y174.731 E190.47551
G1 X9.808 Y138.553 E192.24159
G1 X9.844 Y138.185 E192.25961
G1 X9.943 Y137.831 E192.27758
G1 X10.102 Y137.499 E192.29556
G1 X10.317 Y137.198 E192.31361
G1 X10.544 Y136.971 E192.32924
G1 X10.844 Y136.756 E192.3473
G1 X11.176 Y136.597 E192.36527
G1 X11.539 Y136.497 E192.38365
G1 X11.363 Y137.186 F18000
;TYPE:External perimeter
;WIDTH:0.629999
G1 F2700
G1 X11.406 Y137.161 E192.38606
G1 X11.936 Y137.069 E192.41233
G1 X208.041 Y137.069 E201.98534
G1 X208.341 Y137.093 E202.00006
G1 X208.766 Y137.241 E202.02203
G1 X209.088 Y137.47 E202.04131
G1 X209.333 Y137.761 E202.05987
G1 X209.505 Y138.104 E202.07862
G1 X209.585 Y138.614 E202.10379
G1 X209.585 Y174.695 E203.8651
G1 X209.561 Y174.995 E203.87983
G1 X209.382 Y175.486 E203.90532
G1 X209.047 Y175.886 E203.93082
G1 X208.594 Y176.147 E203.95631
G1 X208.064 Y176.239 E203.98258
G1 X11.96 Y176.239 E213.55558
G1 X11.659 Y176.215 E213.57031
G1 X11.168 Y176.036 E213.5958
G1 X10.768 Y175.701 E213.62129
G1 X10.507 Y175.249 E213.64678
G1 X10.415 Y174.718 E213.67305
G1 X10.415 Y138.614 E215.43552
G1 X10.439 Y138.313 E215.45025
G1 X10.618 Y137.822 E215.47574
G1 X10.953 Y137.422 E215.50124
G1 X11.285 Y137.231 E215.51993
G1 X11.407 Y137.208 F18000
G1 X11.58 Y138.262
G1 F2700
G1 X11.723 Y138.169 E215.52825
G1 X11.96 Y138.159 E215.53981
G1 X208.201 Y138.159 E225.11952
G1 X208.38 Y138.22 E225.12873
G1 X208.462 Y138.317 E225.13492
G1 X208.495 Y138.614 E225.1495
G1 X208.495 Y174.856 E226.91868
G1 X208.43 Y175.04 E226.92823
G1 X208.277 Y175.139 E226.93712
G1 X208.04 Y175.149 E226.94868
G1 X11.799 Y175.149 E236.52839
G1 X11.614 Y175.084 E236.53794
G1 X11.515 Y174.931 E236.54683
G1 X11.505 Y174.695 E236.55839
G1 X11.505 Y138.453 E238.32757
G1 X11.544 Y138.342 E238.33329
G1 X11.516 Y138.104 F18000
G1 X11.179 Y137.959
;TYPE:Perimeter
;WIDTH:0.49887
G1 F3000
G1 X11.288 Y137.821 E238.33995
;WIDTH:0.511524
G1 X11.587 Y137.659 E238.3532
;WIDTH:0.545824
G1 X11.96 Y137.614 E238.36889
G1 X208.201 Y137.621 E246.57507
;WIDTH:0.53183
G1 X208.546 Y137.714 E246.58957
;WIDTH:0.498866
G1 X208.841 Y137.962 E246.60418
;WIDTH:0.511218
G1 X208.995 Y138.24 E246.61654
;WIDTH:0.545842
G1 X209.04 Y138.614 E246.6323
G1 X209.033 Y174.856 E248.14787
;WIDTH:0.531824
G1 X208.94 Y175.2 E248.16237
;WIDTH:0.498866
G1 X208.712 Y175.487 E248.17628
;WIDTH:0.511216
G1 X208.415 Y175.649 E248.18945
;WIDTH:0.545842
G1 X208.04 Y175.694 E248.20522
G1 X11.799 Y175.687 E256.41169
;WIDTH:0.531824
G1 X11.454 Y175.594 E256.42619
;WIDTH:0.498874
M73 P3 R62
G1 X11.167 Y175.366 E256.4401
;WIDTH:0.51152
G1 X11.005 Y175.067 E256.45334
;WIDTH:0.545842
G1 X10.96 Y174.695 E256.46904
G1 X10.967 Y138.453 E257.98461
;WIDTH:0.531824
G1 X11.06 Y138.108 E257.99911
;WIDTH:0.49887
G1 X11.123 Y138.029 E258.00295
;LAYER_CHANGE
;Z:0.4
;HEIGHT:0.2
G1 Z.4 F18000
G10 S215 P1 ; set temperature
G1 X11.424 Y137.284
;TYPE:External perimeter
;WIDTH:0.8643
G1 F3763
G1 X11.446 Y137.272 E258.00469
;WIDTH:0.881458
G1 X11.96 Y137.195 E258.0409
G1 X208.164 Y137.2 E271.72117
;WIDTH:0.877947
G1 X208.385 Y137.228 E271.73665
;WIDTH:0.868636
G1 X208.782 Y137.376 E271.76573
;WIDTH:0.857044
G1 X209.145 Y137.68 E271.79784
;WIDTH:0.864299
G1 X209.383 Y138.1 E271.83077
;WIDTH:0.881459
G1 X209.459 Y138.614 E271.86699
G1 X209.459 Y174.695 E274.38271
G1 X209.441 Y174.974 E274.40225
;WIDTH:0.873082
G1 X209.283 Y175.429 E274.43547
;WIDTH:0.85819
G1 X208.974 Y175.8 E274.46819
;WIDTH:0.864299
G1 X208.554 Y176.037 E274.50112
;WIDTH:0.881458
G1 X208.059 Y176.113 E274.53608
G1 X11.96 Y176.113 E288.20903
G1 X11.68 Y176.095 E288.22857
;WIDTH:0.873081
G1 X11.225 Y175.937 E288.26178
;WIDTH:0.858191
G1 X10.855 Y175.628 E288.2945
;WIDTH:0.864299
G1 X10.617 Y175.208 E288.32744
;WIDTH:0.88146
G1 X10.541 Y174.713 E288.3624
G1 X10.541 Y138.614 E290.87939
G1 X10.559 Y138.334 E290.89893
;WIDTH:0.873082
G1 X10.717 Y137.88 E290.93215
;WIDTH:0.858191
G1 X11.026 Y137.509 E290.96487
;WIDTH:0.8643
G1 X11.345 Y137.328 E290.98992
G1 X11.545 Y138.136 F18000
;WIDTH:0.873081
G1 F3763
G1 X11.775 Y138.038 E291.00717
;WIDTH:0.881458
G1 X208.164 Y138.035 E304.70028
;WIDTH:0.877947
G1 X208.257 Y138.044 E304.70681
;WIDTH:0.868636
G1 X208.488 Y138.166 E304.72474
;WIDTH:0.864299
G1 X208.598 Y138.347 E304.7392
;WIDTH:0.881459
G1 X208.621 Y138.614 E304.75787
G1 X208.621 Y174.695 E307.27359
G1 X208.598 Y174.961 E307.29227
;WIDTH:0.864298
G1 X208.457 Y175.171 E307.30957
;WIDTH:0.873081
G1 X208.225 Y175.27 E307.32698
;WIDTH:0.881458
G1 X11.96 Y175.275 E321.0115
G1 X11.692 Y175.252 E321.03023
;WIDTH:0.86415
G1 X11.483 Y175.111 E321.04747
;WIDTH:0.873083
G1 X11.384 Y174.879 E321.06488
;WIDTH:0.88146
G1 X11.379 Y138.614 E323.59345
G1 X11.402 Y138.346 E323.61218
;WIDTH:0.86415
G1 X11.494 Y138.21 E323.62342
;LAYER_CHANGE
;Z:0.6
;HEIGHT:0.2
G1 Z.6 F18000
G1 X11.427 Y137.282
;WIDTH:0.8643
G1 F3763
G1 X11.446 Y137.272 E323.6249
;WIDTH:0.881458
G1 X11.96 Y137.195 E323.66112
G1 X208.164 Y137.2 E337.34139
