; generated by PrusaSlicer 2.6.0-alpha5+win64 on 2023-04-08 at 17:17:04 UTC


;
;
; 

; external perimeters extrusion width = 0.68mm
; perimeters extrusion width = 0.68mm
; infill extrusion width = 0.68mm
; solid infill extrusion width = 0.68mm
; top infill extrusion width = 0.60mm
; support material extrusion width = 0.50mm
; first layer extrusion width = 0.63mm

M73 P0 R84
M107
M190 S85 ; set bed temperature and wait for it to be reached
G10 S230 P1 ; set temperature
;TYPE:Custom
;Set standby temperatures
;G10 R200 P0
G10 R230 P1
G28 ; home all axes
G32 ; run bed.g -- probe bed and enable compensation
;workaround for toolchanger when using only one extruder
T1; select tool
G10 S230 P1 ; set temperature
M116 ; wait for temperature to be reached
G21 ; set units to millimeters
G90 ; use absolute coordinates
M82 ; use absolute distances for extrusion
G92 E0
;tool change macro
T1
G92 E0
; Filament gcode
M107
;LAYER_CHANGE
;Z:0.2
;HEIGHT:0.2
G1 Z.2 F18000
G1 E-.4 F2100
G92 E0
G1 X28.759 Y8.961 F18000
G1 E.4 F2100
;TYPE:Skirt/Brim
;WIDTH:0.63
G1 F2700
G1 X28.964 Y8.452 E.42759
G1 X29.146 Y8.148 E.44541
G1 X29.408 Y7.826 E.46628
G1 X29.718 Y7.543 E.48739
G1 X30.182 Y7.253 E.5149
G1 X30.52 Y7.109 E.53337
G1 X31.013 Y6.991 E.55886
G1 X31.404 Y6.959 E.57859
G1 X87.605 Y6.959 E3.4044
G1 X88.173 Y7.025 E3.43315
G1 X88.667 Y7.183 E3.45923
G1 X89.173 Y7.466 E3.48838
G1 X89.563 Y7.799 E3.51416
G1 X89.919 Y8.251 E3.54309
G1 X90.174 Y8.77 E3.57217
G1 X90.313 Y9.316 E3.6005
G1 X90.346 Y9.713 E3.62053
G1 X90.346 Y206.941 E13.53722
G1 X90.316 Y207.324 E13.55654
G1 X90.238 Y207.692 E13.57545
G1 X90.032 Y208.202 E13.60311
G1 X89.851 Y208.506 E13.6209
G1 X89.588 Y208.827 E13.64177
G1 X89.279 Y209.11 E13.66284
G1 X88.814 Y209.401 E13.69042
G1 X88.476 Y209.545 E13.70889
G1 X87.984 Y209.663 E13.73433
G1 X87.592 Y209.694 E13.7541
G1 X31.404 Y209.694 E16.57925
G1 X31.021 Y209.664 E16.59857
G1 X30.665 Y209.589 E16.61686
G1 X30.28 Y209.448 E16.63748
G1 X29.869 Y209.22 E16.66111
G1 X29.447 Y208.866 E16.68881
G1 X29.214 Y208.6 E16.70659
G1 X28.989 Y208.251 E16.72747
G1 X28.816 Y207.869 E16.74855
G1 X28.683 Y207.338 E16.77607
G1 X28.651 Y206.94 E16.79615
G1 X28.651 Y9.712 E26.71284
G1 X28.681 Y9.329 E26.73216
G1 X28.74 Y9.049 E26.74655
G1 X29.314 Y9.171 F18000
G1 F2700
G1 X29.497 Y8.699 E26.772
G1 X29.635 Y8.473 E26.78531
G1 X29.846 Y8.218 E26.80195
G1 X30.089 Y7.999 E26.8184
G1 X30.468 Y7.766 E26.84077
G1 X30.721 Y7.661 E26.85454
G1 X31.121 Y7.568 E26.87519
G1 X31.414 Y7.546 E26.88996
G1 X87.59 Y7.546 E29.71451
G1 X88.023 Y7.593 E29.73641
G1 X88.457 Y7.732 E29.75932
G1 X88.854 Y7.959 E29.78231
G1 X89.154 Y8.221 E29.80234
G1 X89.433 Y8.583 E29.82532
G1 X89.631 Y8.994 E29.84826
G1 X89.737 Y9.429 E29.87077
G1 X89.759 Y9.723 E29.88559
G1 X89.759 Y206.931 E39.80128
G1 X89.737 Y207.222 E39.81595
G1 X89.669 Y207.543 E39.83245
G1 X89.499 Y207.954 E39.85481
G1 X89.362 Y208.18 E39.8681
G1 X89.151 Y208.435 E39.88474
G1 X88.907 Y208.654 E39.90123
G1 X88.529 Y208.887 E39.92356
G1 X88.276 Y208.992 E39.93733
G1 X87.875 Y209.085 E39.95803
G1 X87.582 Y209.107 E39.9728
G1 X31.414 Y209.107 E42.79695
G1 X31.123 Y209.086 E42.81162
G1 X30.809 Y209.019 E42.82776
G1 X30.508 Y208.907 E42.84391
G1 X30.185 Y208.724 E42.86258
G1 X29.847 Y208.436 E42.88491
G1 X29.675 Y208.235 E42.89821
G1 X29.498 Y207.956 E42.91482
G1 X29.364 Y207.657 E42.93129
G1 X29.26 Y207.225 E42.95363
G1 X29.238 Y206.93 E42.9685
G1 X29.238 Y9.723 E52.88414
G1 X29.259 Y9.431 E52.89886
G1 X29.296 Y9.259 E52.90771
G1 X29.87 Y9.381 F18000
G1 F2700
G1 X29.895 Y9.262 E52.91382
G1 X30.027 Y8.953 E52.93071
G1 X30.121 Y8.802 E52.93965
G1 X30.255 Y8.639 E52.95026
G1 X30.46 Y8.455 E52.96411
G1 X30.747 Y8.283 E52.98093
G1 X30.915 Y8.215 E52.99004
G1 X31.225 Y8.146 E53.00601
G1 X31.423 Y8.133 E53.01599
G1 X87.576 Y8.133 E55.83938
G1 X87.882 Y8.164 E55.85484
G1 X88.202 Y8.262 E55.87167
G1 X88.493 Y8.424 E55.88842
G1 X88.744 Y8.642 E55.90514
G1 X88.944 Y8.908 E55.92187
G1 X89.084 Y9.21 E55.93861
G1 X89.159 Y9.534 E55.95533
G1 X89.172 Y9.731 E55.96526
G1 X89.172 Y206.922 E65.88009
G1 X89.159 Y207.122 E65.89017
G1 X89.101 Y207.392 E65.90406
G1 X88.97 Y207.7 E65.92089
G1 X88.875 Y207.851 E65.92986
G1 X88.741 Y208.014 E65.94047
G1 X88.537 Y208.198 E65.95428
G1 X88.249 Y208.37 E65.97115
G1 X88.081 Y208.438 E65.98026
G1 X87.772 Y208.507 E65.99618
G1 X87.574 Y208.52 E66.00616
G1 X31.423 Y208.52 E68.82945
G1 X31.223 Y208.507 E68.83953
G1 X30.956 Y208.45 E68.85326
G1 X30.743 Y208.368 E68.86474
G1 X30.505 Y208.231 E68.87855
G1 X30.252 Y208.011 E68.89541
G1 X30.138 Y207.874 E68.90437
G1 X30.025 Y207.697 E68.91493
G1 X29.913 Y207.446 E68.92875
G1 X29.838 Y207.119 E68.94562
G1 X29.825 Y206.922 E68.95555
G1 X29.825 Y9.731 E78.87038
G1 X29.851 Y9.469 E78.88362
M73 P0 R83
G1 X30.562 Y9.231 F18000
;TYPE:External perimeter
;WIDTH:0.59414
G1 F2700
G1 X30.8 Y8.949 E78.90104
;WIDTH:0.604722
G1 X31.071 Y8.802 E78.91587
;WIDTH:0.621455
G1 X31.444 Y8.737 E78.93463
G1 X87.544 Y8.737 E81.7143
G1 X87.984 Y8.816 E81.73645
;WIDTH:0.602043
G1 X88.322 Y9.057 E81.75633
;WIDTH:0.602584
G1 X88.498 Y9.355 E81.77292
;WIDTH:0.62146
G1 X88.567 Y9.775 E81.79401
G1 X88.567 Y206.878 E91.56026
G1 X88.544 Y207.092 E91.57092
;WIDTH:0.608132
G1 X88.434 Y207.422 E91.58776
;WIDTH:0.592536
G1 X88.209 Y207.692 E91.6043
;WIDTH:0.60472
G1 X87.926 Y207.851 E91.61992
;WIDTH:0.62146
G1 X87.552 Y207.916 E91.63873
G1 X31.467 Y207.916 E94.41768
G1 X31.165 Y207.88 E94.43275
;WIDTH:0.60467
G1 X30.922 Y207.783 E94.44534
;WIDTH:0.59416
G1 X30.641 Y207.545 E94.46273
;WIDTH:0.60473
G1 X30.493 Y207.274 E94.47759
;WIDTH:0.62146
G1 X30.429 Y206.901 E94.49634
G1 X30.429 Y9.775 E104.26373
G1 X30.464 Y9.474 E104.27874
;WIDTH:0.604681
G1 X30.529 Y9.315 E104.287
G1 X31.172 Y9.36 F18000
;WIDTH:0.621459
G1 F2700
G1 X31.467 Y9.316 E104.30178
G1 X87.544 Y9.316 E107.08033
G1 X87.785 Y9.339 E107.09233
;WIDTH:0.602043
G1 X87.949 Y9.483 E107.10278
;WIDTH:0.62146
G1 X87.989 Y9.775 E107.11738
G1 X87.989 Y206.878 E116.88363
G1 X87.976 Y207.097 E116.8945
;WIDTH:0.604729
M73 P1 R83
G1 X87.851 Y207.279 E116.90512
;WIDTH:0.608124
G1 X87.7 Y207.331 E116.91285
;WIDTH:0.621459
G1 X31.467 Y207.337 E119.69913
G1 X31.172 Y207.293 E119.71391
;WIDTH:0.59254
G1 X31.052 Y207.173 E119.7219
;WIDTH:0.62146
G1 X31.007 Y206.878 E119.73669
G1 X31.007 Y9.775 E129.50294
G1 X31.052 Y9.48 E129.51773
;WIDTH:0.59254
G1 X31.108 Y9.424 E129.52146
;LAYER_CHANGE
;Z:0.4
;HEIGHT:0.2
G1 Z.4 F18000
G10 S220 P1 ; set temperature
G1 X30.562 Y9.231
;WIDTH:0.594162
G1 F5400
G1 X30.8 Y8.949 E129.53888
;WIDTH:0.60473
G1 X31.071 Y8.802 E129.55371
;WIDTH:0.621459
G1 X31.444 Y8.737 E129.57247
G1 X87.545 Y8.737 E132.35221
G1 X87.984 Y8.816 E132.37431
;WIDTH:0.602041
G1 X88.322 Y9.057 E132.39419
;WIDTH:0.602583
G1 X88.498 Y9.355 E132.41078
;WIDTH:0.621459
G1 X88.567 Y9.775 E132.43187
G1 X88.567 Y206.878 E142.1981
G1 X88.544 Y207.092 E142.20876
;WIDTH:0.60813
G1 X88.434 Y207.422 E142.2256
;WIDTH:0.592535
G1 X88.209 Y207.692 E142.24214
;WIDTH:0.604728
G1 X87.925 Y207.852 E142.25782
;WIDTH:0.621458
G1 X87.552 Y207.916 E142.27657
G1 X31.467 Y207.916 E145.05551
G1 X31.165 Y207.88 E145.07058
;WIDTH:0.604681
G1 X30.923 Y207.783 E145.08312
;WIDTH:0.594157
G1 X30.641 Y207.545 E145.10054
;WIDTH:0.604729
G1 X30.493 Y207.274 E145.1154
;WIDTH:0.621459
G1 X30.429 Y206.901 E145.13415
G1 X30.429 Y9.775 E154.90152
G1 X30.464 Y9.474 E154.91653
;WIDTH:0.60468
G1 X30.529 Y9.315 E154.92479
G1 X31.172 Y9.36 F18000
;WIDTH:0.608132
G1 F5400
G1 X31.297 Y9.323 E154.9311
;WIDTH:0.621459
G1 X87.545 Y9.316 E157.71813
G1 X87.785 Y9.339 E157.73008
;WIDTH:0.602041
G1 X87.949 Y9.483 E157.74053
;WIDTH:0.621459
G1 X87.989 Y9.775 E157.75513
G1 X87.989 Y206.878 E167.52136
G1 X87.945 Y207.173 E167.53614
;WIDTH:0.592555
G1 X87.824 Y207.293 E167.54416
;WIDTH:0.621458
G1 X87.53 Y207.337 E167.55889
G1 X31.467 Y207.337 E170.33674
G1 X31.172 Y207.293 E170.35152
;WIDTH:0.592558
G1 X31.052 Y207.173 E170.35951
;WIDTH:0.621459
G1 X31.007 Y206.878 E170.3743
G1 X31.007 Y9.775 E180.14053
G1 X31.052 Y9.48 E180.15532
;WIDTH:0.592558
G1 X31.108 Y9.424 E180.15905
;LAYER_CHANGE
;Z:0.6
;HEIGHT:0.2
G1 Z.6 F18000
G1 X30.562 Y9.231
;WIDTH:0.594139
G1 F5400
G1 X30.8 Y8.949 E180.17647
;WIDTH:0.604723
G1 X31.071 Y8.802 E180.1913
;WIDTH:0.621456
G1 X31.467 Y8.737 E180.21118
G1 X87.651 Y8.743 E182.99502
;WIDTH:0.617836
G1 X88.074 Y8.87 E183.01677
;WIDTH:0.594809
G1 X88.322 Y9.057 E183.03145
;WIDTH:0.602584
G1 X88.498 Y9.355 E183.04804
;WIDTH:0.621459
G1 X88.567 Y9.775 E183.06913
G1 X88.567 Y206.878 E192.83536
G1 X88.544 Y207.092 E192.84602
;WIDTH:0.608132
G1 X88.434 Y207.422 E192.86286
;WIDTH:0.592535
G1 X88.209 Y207.692 E192.8794
;WIDTH:0.60472
G1 X87.926 Y207.851 E192.89502
;WIDTH:0.621458
G1 X87.552 Y207.916 E192.91383
G1 X31.467 Y207.916 E195.69277
G1 X31.165 Y207.88 E195.70784
;WIDTH:0.604679
G1 X30.923 Y207.783 E195.72038
;WIDTH:0.594145
G1 X30.641 Y207.545 E195.7378
;WIDTH:0.604721
G1 X30.493 Y207.274 E195.75266
;WIDTH:0.62146
G1 X30.429 Y206.901 E195.77141
G1 X30.429 Y9.775 E205.5388
G1 X30.464 Y9.474 E205.55381
;WIDTH:0.604679
G1 X30.529 Y9.315 E205.56207
G1 X31.172 Y9.36 F18000
;WIDTH:0.621456
G1 F5400
G1 X31.467 Y9.316 E205.57685
G1 X87.651 Y9.318 E208.36069
;WIDTH:0.617836
G1 X87.824 Y9.36 E208.36946
;WIDTH:0.598376
G1 X87.953 Y9.492 E208.37824
;WIDTH:0.621459
G1 X87.989 Y9.775 E208.39238
G1 X87.989 Y206.878 E218.15861
G1 X87.945 Y207.173 E218.17339
;WIDTH:0.592535
G1 X87.825 Y207.293 E218.18138
;WIDTH:0.621458
G1 X87.53 Y207.337 E218.19616
G1 X31.467 Y207.337 E220.97401
G1 X31.172 Y207.293 E220.98879
;WIDTH:0.592559
G1 X31.052 Y207.173 E220.99678
;WIDTH:0.62146
G1 X31.007 Y206.878 E221.01157
G1 X31.007 Y9.775 E230.77782
G1 X31.052 Y9.48 E230.79261
;WIDTH:0.592538
G1 X31.108 Y9.424 E230.79634
M106 S232.05
;LAYER_CHANGE
;Z:0.8
;HEIGHT:0.2
G1 Z.8 F18000
G1 X30.562 Y9.231
;WIDTH:0.594142
G1 F5400
G1 X30.8 Y8.949 E230.81376
;WIDTH:0.604722
G1 X31.071 Y8.802 E230.82859
;WIDTH:0.621456
G1 X31.467 Y8.737 E230.84847
G1 X87.651 Y8.743 E233.63231
;WIDTH:0.617836
G1 X88.074 Y8.87 E233.65406
;WIDTH:0.594808
G1 X88.322 Y9.057 E233.66874
;WIDTH:0.602583
G1 X88.498 Y9.355 E233.68533
;WIDTH:0.621459
G1 X88.567 Y9.775 E233.70642
;WIDTH:0.62146
G1 X88.567 Y206.878 E243.47267
G1 X88.544 Y207.092 E243.48333
;WIDTH:0.608124
G1 X88.434 Y207.423 E243.50021
;WIDTH:0.592525
G1 X88.209 Y207.692 E243.51672
;WIDTH:0.60472
G1 X87.926 Y207.851 E243.53234
;WIDTH:0.621458
G1 X87.552 Y207.916 E243.55115
G1 X31.467 Y207.916 E246.33009
G1 X31.165 Y207.88 E246.34516
;WIDTH:0.604669
G1 X30.922 Y207.783 E246.35775
;WIDTH:0.594158
G1 X30.641 Y207.545 E246.37514
;WIDTH:0.604729
G1 X30.493 Y207.274 E246.39
;WIDTH:0.62146
G1 X30.429 Y206.901 E246.40875
G1 X30.429 Y9.775 E256.17614
G1 X30.464 Y9.474 E256.19115
;WIDTH:0.60467
G1 X30.529 Y9.314 E256.19946
G1 X31.172 Y9.36 F18000
;WIDTH:0.621456
G1 F5400
G1 X31.467 Y9.316 E256.21424
G1 X87.651 Y9.318 E258.99808
;WIDTH:0.617836
G1 X87.857 Y9.378 E259.00864
;WIDTH:0.604968
G1 X87.975 Y9.549 E259.01864
;WIDTH:0.621459
G1 X87.989 Y9.775 E259.02986
G1 X87.989 Y206.878 E268.79609
G1 X87.944 Y207.173 E268.81088
;WIDTH:0.592536
G1 X87.825 Y207.293 E268.81884
;WIDTH:0.621458
G1 X87.53 Y207.337 E268.83362
G1 X31.467 Y207.337 E271.61147
G1 X31.172 Y207.293 E271.62625
;WIDTH:0.592538
G1 X31.052 Y207.173 E271.63424
;WIDTH:0.62146
G1 X31.007 Y206.878 E271.64903
G1 X31.007 Y9.775 E281.41528
G1 X31.052 Y9.48 E281.43007
;WIDTH:0.592538
M73 P1 R82
G1 X31.108 Y9.424 E281.4338
;LAYER_CHANGE
;Z:1
;HEIGHT:0.2
G1 Z1 F18000
G1 X30.562 Y9.231
;WIDTH:0.594163
G1 F5400
G1 X30.8 Y8.949 E281.45122
;WIDTH:0.604731
G1 X31.071 Y8.802 E281.46605
;WIDTH:0.621456
G1 X31.467 Y8.737 E281.48593
G1 X87.651 Y8.743 E284.26977
;WIDTH:0.617836
G1 X88.074 Y8.87 E284.29152
;WIDTH:0.594808
G1 X88.322 Y9.057 E284.3062
;WIDTH:0.602584
G1 X88.498 Y9.355 E284.32279
;WIDTH:0.621459
G1 X88.567 Y9.775 E284.34388
G1 X88.567 Y206.878 E294.11011
G1 X88.544 Y207.092 E294.12077
;WIDTH:0.608131
G1 X88.434 Y207.422 E294.13761
;WIDTH:0.592536
G1 X88.209 Y207.692 E294.15415
;WIDTH:0.60472
G1 X87.926 Y207.851 E294.16977
;WIDTH:0.621459
G1 X87.552 Y207.916 E294.18858
G1 X31.467 Y207.916 E296.96753
G1 X31.165 Y207.88 E296.9826
;WIDTH:0.604681
G1 X30.923 Y207.783 E296.99514
;WIDTH:0.594157
G1 X30.641 Y207.545 E297.01256
;WIDTH:0.604729
G1 X30.493 Y207.274 E297.02742
;WIDTH:0.62146
G1 X30.429 Y206.901 E297.04617
G1 X30.429 Y9.775 E306.81356
G1 X30.464 Y9.474 E306.82857
;WIDTH:0.60468
G1 X30.529 Y9.315 E306.83683
G1 X31.172 Y9.36 F18000
;WIDTH:0.621456
G1 F5400
G1 X31.467 Y9.316 E306.85161
G1 X87.651 Y9.318 E309.63545
;WIDTH:0.617836
G1 X87.857 Y9.378 E309.64601
;WIDTH:0.604968
G1 X87.975 Y9.549 E309.65601
;WIDTH:0.621459
G1 X87.989 Y9.775 E309.66723
G1 X87.989 Y206.878 E319.43346
G1 X87.945 Y207.173 E319.44824
;WIDTH:0.592536
G1 X87.825 Y207.293 E319.45623
;WIDTH:0.604668
G1 X87.743 Y207.326 E319.46048
;WIDTH:0.621459
G1 X31.467 Y207.337 E322.24889
G1 X31.172 Y207.293 E322.26367
;WIDTH:0.592557
M73 P2 R82
G1 X31.052 Y207.173 E322.27166
;WIDTH:0.62146
G1 X31.007 Y206.878 E322.28645
G1 X31.007 Y9.775 E332.0527
G1 X31.052 Y9.48 E332.06749
;WIDTH:0.592557
G1 X31.108 Y9.424 E332.07122
;LAYER_CHANGE
;Z:1.2
;HEIGHT:0.2
G1 Z1.2 F18000
G1 X30.562 Y9.231
;WIDTH:0.59414
G1 F5400
G1 X30.8 Y8.949 E332.08864
;WIDTH:0.604721
G1 X31.071 Y8.802 E332.10347
;WIDTH:0.621456
G1 X31.467 Y8.737 E332.12335
G1 X87.651 Y8.743 E334.90719
;WIDTH:0.617835
G1 X88.074 Y8.87 E334.92894
;WIDTH:0.594808
G1 X88.322 Y9.057 E334.94362
;WIDTH:0.602584
G1 X88.498 Y9.355 E334.96021
;WIDTH:0.621459
G1 X88.567 Y9.775 E334.9813
G1 X88.567 Y206.878 E344.74753
G1 X88.544 Y207.092 E344.75819
;WIDTH:0.60813
G1 X88.434 Y207.422 E344.77503
;WIDTH:0.592536
G1 X88.209 Y207.692 E344.79157
;WIDTH:0.604729
G1 X87.925 Y207.852 E344.80725
;WIDTH:0.621458
G1 X87.53 Y207.916 E344.82708
G1 X31.467 Y207.916 E347.60493
G1 X31.165 Y207.88 E347.62
;WIDTH:0.604679
G1 X30.923 Y207.783 E347.63254
;WIDTH:0.594145
G1 X30.641 Y207.545 E347.64996
;WIDTH:0.604721
G1 X30.493 Y207.274 E347.66482
;WIDTH:0.62146
G1 X30.429 Y206.901 E347.68357
G1 X30.429 Y9.775 E357.45096
G1 X30.464 Y9.474 E357.46597
;WIDTH:0.604681
G1 X30.529 Y9.315 E357.47423
G1 X31.172 Y9.36 F18000
;WIDTH:0.621456
G1 F5400
G1 X31.467 Y9.316 E357.48901
G1 X87.651 Y9.318 E360.27285
;WIDTH:0.617835
G1 X87.857 Y9.378 E360.28341
;WIDTH:0.604968
G1 X87.975 Y9.549 E360.29341
;WIDTH:0.621459
G1 X87.989 Y9.775 E360.30463
G1 X87.989 Y206.878 E370.07086
G1 X87.945 Y207.173 E370.08564
;WIDTH:0.592556
G1 X87.824 Y207.293 E370.09366
;WIDTH:0.60468
G1 X87.743 Y207.326 E370.09787
;WIDTH:0.621458
G1 X31.467 Y207.337 E372.88628
G1 X31.172 Y207.293 E372.90106
;WIDTH:0.592558
G1 X31.052 Y207.173 E372.90905
;WIDTH:0.62146
G1 X31.007 Y206.878 E372.92384
G1 X31.007 Y9.775 E382.69009
G1 X31.052 Y9.48 E382.70488
;WIDTH:0.59254
G1 X31.108 Y9.424 E382.70861
;LAYER_CHANGE
;Z:1.4
;HEIGHT:0.2
G1 Z1.4 F18000
G1 X30.562 Y9.231
;WIDTH:0.594164
G1 F5400
G1 X30.8 Y8.949 E382.72603
;WIDTH:0.60473
G1 X31.071 Y8.802 E382.74086
;WIDTH:0.621456
G1 X31.467 Y8.737 E382.76074
G1 X87.651 Y8.743 E385.54458
;WIDTH:0.617835
G1 X88.074 Y8.87 E385.56633
;WIDTH:0.594808
G1 X88.322 Y9.057 E385.58101
;WIDTH:0.602584
G1 X88.498 Y9.355 E385.5976
;WIDTH:0.621459
G1 X88.567 Y9.775 E385.61869
;WIDTH:0.62146
G1 X88.567 Y206.878 E395.38494
G1 X88.544 Y207.092 E395.3956
;WIDTH:0.608132
G1 X88.434 Y207.422 E395.41244
;WIDTH:0.592536
G1 X88.209 Y207.692 E395.42898
;WIDTH:0.60472
G1 X87.926 Y207.851 E395.4446
;WIDTH:0.621457
G1 X87.53 Y207.916 E395.46448
G1 X31.467 Y207.916 E398.24233
G1 X31.165 Y207.88 E398.2574
;WIDTH:0.604669
G1 X30.922 Y207.783 E398.26999
;WIDTH:0.594146
G1 X30.641 Y207.545 E398.28737
;WIDTH:0.604722
G1 X30.493 Y207.274 E398.30223
;WIDTH:0.621459
G1 X30.429 Y206.901 E398.32098
G1 X30.429 Y9.775 E408.08835
G1 X30.464 Y9.474 E408.10336
;WIDTH:0.604668
G1 X30.529 Y9.314 E408.11167
G1 X31.172 Y9.36 F18000
;WIDTH:0.621456
G1 F5400
G1 X31.467 Y9.316 E408.12645
G1 X87.651 Y9.318 E410.91029
;WIDTH:0.617835
G1 X87.857 Y9.378 E410.92085
;WIDTH:0.604968
G1 X87.975 Y9.549 E410.93085
