; G-Code generated by Simplify3D(R) Version 4.1.2
; Jul 23, 2022 at 7:55:27 PM
; Settings Summary
;   processName,Process1
;   applyToModels,air-duct
;   profileName,HSBot
;   profileVersion,2019-11-09 11:59:44
;   baseProfile,Default
;   printMaterial,PETG - Eryone
;   printQuality,Medium
;   printExtruders,
;   extruderName,Extruder - v6,Extruder - lgx ace
;   extruderToolheadNumber,0,1
;   extruderDiameter,0.4,0.4
;   extruderAutoWidth,1,1
;   extruderWidth,0.48,0.48
;   extrusionMultiplier,1.03,1.03
;   extruderUseRetract,0,1
;   extruderRetractionDistance,4,1
;   extruderExtraRestartDistance,0,0
;   extruderRetractionZLift,0,0
;   extruderRetractionSpeed,3600,3600
;   extruderUseCoasting,0,0
;   extruderCoastingDistance,0.2,0.2
;   extruderUseWipe,0,1
;   extruderWipeDistance,1,1
;   primaryExtruder,1
;   layerHeight,0.2
;   topSolidLayers,3
;   bottomSolidLayers,3
;   perimeterOutlines,3
;   printPerimetersInsideOut,1
;   startPointOption,2
;   startPointOriginX,0
;   startPointOriginY,0
;   sequentialIslands,0
;   spiralVaseMode,0
;   firstLayerHeightPercentage,100
;   firstLayerWidthPercentage,150
;   firstLayerUnderspeed,0.25
;   useRaft,0
;   raftExtruder,0
;   raftTopLayers,3
;   raftBaseLayers,2
;   raftOffset,3
;   raftSeparationDistance,0.18
;   raftTopInfill,100
;   aboveRaftSpeedMultiplier,0.3
;   useSkirt,1
;   skirtExtruder,1
;   skirtLayers,1
;   skirtOutlines,10
;   skirtOffset,0
;   usePrimePillar,0
;   primePillarExtruder,999
;   primePillarWidth,12
;   primePillarLocation,7
;   primePillarSpeedMultiplier,1
;   useOozeShield,0
;   oozeShieldExtruder,999
;   oozeShieldOffset,2
;   oozeShieldOutlines,1
;   oozeShieldSidewallShape,1
;   oozeShieldSidewallAngle,30
;   oozeShieldSpeedMultiplier,1
;   infillExtruder,1
;   internalInfillPattern,Rectilinear
;   externalInfillPattern,Rectilinear
;   infillPercentage,15
;   outlineOverlapPercentage,20
;   infillExtrusionWidthPercentage,100
;   minInfillLength,3
;   infillLayerInterval,1
;   internalInfillAngles,45,-45
;   overlapInternalInfillAngles,0
;   externalInfillAngles,45,-45
;   generateSupport,0
;   supportExtruder,1
;   supportInfillPercentage,30
;   supportExtraInflation,0
;   supportBaseLayers,1
;   denseSupportExtruder,0
;   denseSupportLayers,0
;   denseSupportInfillPercentage,70
;   supportLayerInterval,1
;   supportHorizontalPartOffset,0.3
;   supportUpperSeparationLayers,1
;   supportLowerSeparationLayers,1
;   supportType,0
;   supportGridSpacing,2
;   maxOverhangAngle,45
;   supportAngles,0
;   temperatureName,v6,Bed,lgx-ace
;   temperatureNumber,0,0,1
;   temperatureSetpointCount,1,1,1
;   temperatureSetpointLayers,1,1,1
;   temperatureSetpointTemperatures,0,85,230
;   temperatureStabilizeAtStartup,1,1,1
;   temperatureHeatedBed,0,1,0
;   fanLayers,1,2,3
;   fanSpeeds,0,15,15
;   blipFanToFullPower,0
;   adjustSpeedForCooling,0
;   minSpeedLayerTime,15
;   minCoolingSpeedSlowdown,50
;   increaseFanForCooling,0
;   minFanLayerTime,45
;   maxCoolingFanSpeed,70
;   increaseFanForBridging,0
;   bridgingFanSpeed,80
;   use5D,1
;   relativeEdistances,0
;   allowEaxisZeroing,1
;   independentExtruderAxes,0
;   includeM10123,0
;   stickySupport,1
;   applyToolheadOffsets,0
;   gcodeXoffset,0
;   gcodeYoffset,0
;   gcodeZoffset,0
;   overrideMachineDefinition,1
;   machineTypeOverride,0
;   strokeXoverride,220
;   strokeYoverride,220
;   strokeZoverride,175
;   originOffsetXoverride,0
;   originOffsetYoverride,0
;   originOffsetZoverride,0
;   homeXdirOverride,-1
;   homeYdirOverride,-1
;   homeZdirOverride,-1
;   flipXoverride,1
;   flipYoverride,-1
;   flipZoverride,1
;   toolheadOffsets,0,0|0,0|0,0|0,0|0,0|0,0
;   overrideFirmwareConfiguration,0
;   firmwareTypeOverride,RepRap (Marlin/Repetier/Sprinter)
;   GPXconfigOverride,r2
;   baudRateOverride,115200
;   overridePrinterModels,0
;   printerModelsOverride
;   startingGcode,G28 ; home all axes,G32 ; run bed.g -- probe bed and enable compensation
;   layerChangeGcode,
;   retractionGcode,
;   toolChangeGcode,
;   endingGcode,M0 ; call stop.g
;   exportFileFormat,gcode
;   celebration,0
;   celebrationSong,Random Song
;   postProcessing,
;   defaultSpeed,8700
;   outlineUnderspeed,1
;   solidInfillUnderspeed,0.75
;   supportUnderspeed,0.8
;   rapidXYspeed,18000
;   rapidZspeed,1200
;   minBridgingArea,60
;   bridgingExtraInflation,0
;   bridgingExtrusionMultiplier,0.96
;   bridgingSpeedMultiplier,1
;   useFixedBridgingAngle,0
;   fixedBridgingAngle,0
;   applyBridgingToPerimeters,0
;   filamentDiameters,1.75|1.75|1.75|1.75|1.75|1.75
;   filamentPricesPerKg,25|46|46|46|46|46
;   filamentDensities,1.29|1.25|1.25|1.25|1.25|1.25
;   useMinPrintHeight,0
;   minPrintHeight,0.3
;   useMaxPrintHeight,1
;   maxPrintHeight,115
;   useDiaphragm,0
;   diaphragmLayerInterval,20
;   robustSlicing,1
;   mergeAllIntoSolid,0
;   onlyRetractWhenCrossingOutline,1
;   retractBetweenLayers,0
;   useRetractionMinTravel,1
;   retractionMinTravel,5
;   retractWhileWiping,1
;   onlyWipeOutlines,1
;   avoidCrossingOutline,1
;   maxMovementDetourFactor,2
;   toolChangeRetractionDistance,3
;   toolChangeExtraRestartDistance,0
;   toolChangeRetractionSpeed,600
;   externalThinWallType,1
;   internalThinWallType,1
;   thinWallAllowedOverlapPercentage,10
;   singleExtrusionMinLength,0.1
;   singleExtrusionMinPrintingWidthPercentage,50
;   singleExtrusionMaxPrintingWidthPercentage,200
;   singleExtrusionEndpointExtension,0.2
;   horizontalSizeCompensation,0
G90
M82
M106 S0
M140 S85
M190 S85
G10 S0 R0 P0
G10 S230 R230 P1
M116 P1
G28 ; home all axes
G32 ; run bed.g -- probe bed and enable compensation
; process Process1
; layer 1, Z = 0.200
T1
G92 E0.0000
G1 E-1.0000 F3600
; feature skirt
; tool H0.200 W0.720
G1 Z0.200 F1200
G1 X7.167 Y83.160 F18000
G1 E0.0000 F3600
G92 E0.0000
G1 X212.833 Y83.160 E12.6823 F2175
G1 X216.840 Y87.167 E13.0317
G1 X216.840 Y132.833 E15.8477
G1 X212.833 Y136.840 E16.1971
G1 X7.167 Y136.840 E28.8794
G1 X3.160 Y132.833 E29.2288
G1 X3.160 Y87.167 E32.0448
G1 X7.167 Y83.160 E32.3942
G1 X7.465 Y83.880 F18000
G92 E0.0000
G1 X212.535 Y83.880 E12.6455 F2175
G1 X216.120 Y87.465 E12.9581
G1 X216.120 Y132.535 E15.7373
G1 X212.535 Y136.120 E16.0500
G1 X7.465 Y136.120 E28.6955
G1 X3.880 Y132.535 E29.0081
G1 X3.880 Y87.465 E31.7873
G1 X7.465 Y83.880 E32.1000
G1 X7.763 Y84.600 F18000
G92 E0.0000
G1 X212.237 Y84.600 E12.6087 F2175
G1 X215.400 Y87.763 E12.8846
G1 X215.400 Y132.237 E15.6270
G1 X212.237 Y135.400 E15.9028
G1 X7.763 Y135.400 E28.5116
G1 X4.600 Y132.237 E28.7874
G1 X4.600 Y87.763 E31.5298
G1 X7.763 Y84.600 E31.8057
G1 X8.061 Y85.320 F18000
G92 E0.0000
G1 X211.939 Y85.320 E12.5719 F2175
G1 X214.680 Y88.061 E12.8110
G1 X214.680 Y131.938 E15.5167
G1 X211.939 Y134.680 E15.7557
G1 X8.061 Y134.680 E28.3277
G1 X5.320 Y131.938 E28.5667
G1 X5.320 Y88.061 E31.2724
G1 X8.061 Y85.320 E31.5115
G1 X8.360 Y86.040 F18000
G92 E0.0000
G1 X211.640 Y86.040 E12.5352 F2175
G1 X213.960 Y88.360 E12.7374
G1 X213.960 Y131.640 E15.4063
G1 X211.640 Y133.960 E15.6086
G1 X8.360 Y133.960 E28.1438
G1 X6.040 Y131.640 E28.3461
G1 X6.040 Y88.360 E31.0149
G1 X8.360 Y86.040 E31.2172
G1 X8.658 Y86.760 F18000
G92 E0.0000
G1 X211.342 Y86.760 E12.4984 F2175
G1 X213.240 Y88.658 E12.6639
G1 X213.240 Y131.342 E15.2960
G1 X211.342 Y133.240 E15.4615
G1 X8.658 Y133.240 E27.9599
G1 X6.760 Y131.342 E28.1254
G1 X6.760 Y88.658 E30.7575
G1 X8.658 Y86.760 E30.9230
G1 X8.956 Y87.480 F18000
G92 E0.0000
G1 X211.044 Y87.480 E12.4616 F2175
G1 X212.520 Y88.956 E12.5903
G1 X212.520 Y131.044 E15.1856
G1 X211.044 Y132.520 E15.3144
G1 X8.956 Y132.520 E27.7759
G1 X7.480 Y131.044 E27.9047
G1 X7.480 Y88.956 E30.5000
G1 X8.956 Y87.480 E30.6287
G1 X9.254 Y88.200 F18000
G92 E0.0000
G1 X210.746 Y88.200 E12.4248 F2175
G1 X211.800 Y89.254 E12.5168
G1 X211.800 Y130.746 E15.0753
G1 X210.746 Y131.800 E15.1672
G1 X9.254 Y131.800 E27.5920
G1 X8.200 Y130.746 E27.6840
G1 X8.200 Y89.254 E30.2425
G1 X9.254 Y88.200 E30.3345
G1 X9.553 Y88.920 F18000
G92 E0.0000
G1 X210.447 Y88.920 E12.3880 F2175
G1 X211.080 Y89.553 E12.4432
G1 X211.080 Y130.447 E14.9649
G1 X210.447 Y131.080 E15.0201
G1 X9.553 Y131.080 E27.4081
G1 X8.920 Y130.447 E27.4633
G1 X8.920 Y89.553 E29.9851
G1 X9.553 Y88.920 E30.0402
G1 X9.851 Y89.640 F18000
G92 E0.0000
G1 X210.149 Y89.640 E12.3512 F2175
G1 X210.360 Y89.851 E12.3696
G1 X210.360 Y130.149 E14.8546
G1 X210.149 Y130.360 E14.8730
G1 X9.851 Y130.360 E27.2242
G1 X9.640 Y130.149 E27.2426
G1 X9.640 Y89.851 E29.7276
G1 X9.851 Y89.640 E29.7460
; feature outer perimeter
G1 X10.360 Y90.360 F18000
G92 E0.0000
G1 X209.640 Y90.360 E12.2885 F2175
G1 X209.640 Y129.640 E14.7106
G1 X10.360 Y129.640 E26.9991
G1 X10.360 Y90.360 E29.4213
G1 X11.360 Y90.360 F2175
G1 X11.560 Y91.560 F18000
G92 E0.0000
G1 X11.560 Y128.440 E2.2742 F2175
G1 X208.440 Y128.440 E14.4146
G1 X208.440 Y91.560 E16.6888
G1 X11.560 Y91.560 E28.8293
G1 X11.560 Y92.560 F2175
; feature internal single extrusion
; tool H0.200 W0.528
G1 X10.960 Y91.296 F18000
G92 E0.0000
; tool H0.200 W0.480
G1 X10.960 Y91.200 E0.0039 F2175
; tool H0.200 W0.490
G1 X10.970 Y91.104 E0.0080
; tool H0.200 W0.528
G1 X10.998 Y91.008 E0.0125
; tool H0.200 W0.557
G1 X11.008 Y90.998 E0.0131
; tool H0.200 W0.528
G1 X11.104 Y90.970 E0.0177
; tool H0.200 W0.490
G1 X11.200 Y90.960 E0.0217
; tool H0.200 W0.480
G1 X11.296 Y90.960 E0.0257
G1 X208.704 Y90.960 E8.1409
G1 X208.800 Y90.960 E8.1448
; tool H0.200 W0.490
G1 X208.896 Y90.970 E8.1489
; tool H0.200 W0.528
G1 X208.992 Y90.998 E8.1534
; tool H0.200 W0.557
G1 X209.002 Y91.008 E8.1540
; tool H0.200 W0.528
G1 X209.030 Y91.104 E8.1585
; tool H0.200 W0.490
G1 X209.040 Y91.200 E8.1626
; tool H0.200 W0.480
G1 X209.040 Y91.296 E8.1665
G1 X209.040 Y128.704 E9.7044
G1 X209.040 Y128.800 E9.7083
; tool H0.200 W0.490
G1 X209.030 Y128.896 E9.7124
; tool H0.200 W0.509
G1 X208.992 Y129.002 E9.7173
; tool H0.200 W0.528
G1 X208.896 Y129.030 E9.7218
; tool H0.200 W0.490
G1 X208.800 Y129.040 E9.7258
; tool H0.200 W0.480
G1 X208.704 Y129.040 E9.7298
G1 X11.296 Y129.040 E17.8452
G1 X11.200 Y129.040 E17.8491
; tool H0.200 W0.490
G1 X11.104 Y129.030 E17.8531
; tool H0.200 W0.528
G1 X11.008 Y129.002 E17.8577
; tool H0.200 W0.557
G1 X10.998 Y128.992 E17.8583
; tool H0.200 W0.528
G1 X10.970 Y128.896 E17.8628
; tool H0.200 W0.490
G1 X10.960 Y128.800 E17.8669
; tool H0.200 W0.480
G1 X10.960 Y128.704 E17.8708
G1 X10.960 Y91.296 E19.4087
; layer 2, Z = 0.400
M106 S38
; feature inner perimeter
G1 Z0.400 F1200
G1 X10.720 Y90.720 F18000
G92 E0.0000
G1 X209.280 Y90.720 E8.1627 F8700
G1 X209.280 Y129.280 E9.7479
G1 X10.720 Y129.280 E17.9106
G1 X10.720 Y90.720 E19.4958
; feature outer perimeter
G1 X10.240 Y90.240 F18000
G92 E0.0000
G1 X209.760 Y90.240 E8.2022 F8700
G1 X209.760 Y129.760 E9.8268
G1 X10.240 Y129.760 E18.0290
G1 X10.240 Y90.240 E19.6536
G1 X11.240 Y90.240 F8700
; feature inner perimeter
G1 X11.200 Y91.200 F18000
G92 E0.0000
G1 X11.200 Y128.800 E1.5457 F8700
G1 X208.800 Y128.800 E9.6690
G1 X208.800 Y91.200 E11.2147
G1 X11.200 Y91.200 E19.3379
; feature outer perimeter
G1 X11.680 Y91.680 F18000
G92 E0.0000
G1 X11.680 Y128.320 E1.5063 F8700
G1 X208.320 Y128.320 E9.5900
G1 X208.320 Y91.680 E11.0963
G1 X11.680 Y91.680 E19.1801
G1 X11.680 Y92.680 F8700
; layer 3, Z = 0.600
; feature inner perimeter
G1 Z0.600 F1200
G1 X10.720 Y90.720 F18000
G92 E0.0000
G1 X209.280 Y90.720 E8.1627 F8700
G1 X209.280 Y129.280 E9.7479
G1 X10.720 Y129.280 E17.9106
G1 X10.720 Y90.720 E19.4958
; feature outer perimeter
G1 X10.240 Y90.240 F18000
G92 E0.0000
G1 X209.760 Y90.240 E8.2022 F8700
G1 X209.760 Y129.760 E9.8268
G1 X10.240 Y129.760 E18.0290
G1 X10.240 Y90.240 E19.6536
G1 X11.240 Y90.240 F8700
; feature inner perimeter
G1 X11.200 Y91.200 F18000
G92 E0.0000
G1 X11.200 Y128.800 E1.5457 F8700
G1 X208.800 Y128.800 E9.6690
G1 X208.800 Y91.200 E11.2147
G1 X11.200 Y91.200 E19.3379
; feature outer perimeter
G1 X11.680 Y91.680 F18000
G92 E0.0000
G1 X11.680 Y128.320 E1.5063 F8700
G1 X208.320 Y128.320 E9.5900
G1 X208.320 Y91.680 E11.0963
G1 X11.680 Y91.680 E19.1801
G1 X11.680 Y92.680 F8700
; layer 4, Z = 0.800
; feature inner perimeter
G1 Z0.800 F1200
G1 X10.720 Y90.720 F18000
G92 E0.0000
G1 X209.280 Y90.720 E8.1627 F8700
G1 X209.280 Y129.280 E9.7479
G1 X10.720 Y129.280 E17.9106
G1 X10.720 Y90.720 E19.4958
; feature outer perimeter
G1 X10.240 Y90.240 F18000
G92 E0.0000
G1 X209.760 Y90.240 E8.2022 F8700
G1 X209.760 Y129.760 E9.8268
G1 X10.240 Y129.760 E18.0290
G1 X10.240 Y90.240 E19.6536
G1 X11.240 Y90.240 F8700
; feature inner perimeter
G1 X11.200 Y91.200 F18000
G92 E0.0000
G1 X11.200 Y128.800 E1.5457 F8700
G1 X208.800 Y128.800 E9.6690
G1 X208.800 Y91.200 E11.2147
G1 X11.200 Y91.200 E19.3379
; feature outer perimeter
G1 X11.680 Y91.680 F18000
G92 E0.0000
G1 X11.680 Y128.320 E1.5063 F8700
G1 X208.320 Y128.320 E9.5900
G1 X208.320 Y91.680 E11.0963
G1 X11.680 Y91.680 E19.1801
G1 X11.680 Y92.680 F8700
; layer 5, Z = 1.000
; feature inner perimeter
G1 Z1.000 F1200
G1 X10.720 Y90.720 F18000
G92 E0.0000
G1 X209.280 Y90.720 E8.1627 F8700
G1 X209.280 Y129.280 E9.7479
G1 X10.720 Y129.280 E17.9106
G1 X10.720 Y90.720 E19.4958
; feature outer perimeter
G1 X10.240 Y90.240 F18000
G92 E0.0000
G1 X209.760 Y90.240 E8.2022 F8700
G1 X209.760 Y129.760 E9.8268
G1 X10.240 Y129.760 E18.0290
G1 X10.240 Y90.240 E19.6536
G1 X11.240 Y90.240 F8700
; feature inner perimeter
G1 X11.200 Y91.200 F18000
G92 E0.0000
G1 X11.200 Y128.800 E1.5457 F8700
G1 X208.800 Y128.800 E9.6690
G1 X208.800 Y91.200 E11.2147
G1 X11.200 Y91.200 E19.3379
; feature outer perimeter
G1 X11.680 Y91.680 F18000
G92 E0.0000
G1 X11.680 Y128.320 E1.5063 F8700
G1 X208.320 Y128.320 E9.5900
G1 X208.320 Y91.680 E11.0963
G1 X11.680 Y91.680 E19.1801
G1 X11.680 Y92.680 F8700
; layer 6, Z = 1.200
; feature inner perimeter
G1 Z1.200 F1200
G1 X10.720 Y90.720 F18000
G92 E0.0000
G1 X209.280 Y90.720 E8.1627 F8700
G1 X209.280 Y129.280 E9.7479
G1 X10.720 Y129.280 E17.9106
G1 X10.720 Y90.720 E19.4958
; feature outer perimeter
G1 X10.240 Y90.240 F18000
G92 E0.0000
G1 X209.760 Y90.240 E8.2022 F8700
G1 X209.760 Y129.760 E9.8268
G1 X10.240 Y129.760 E18.0290
G1 X10.240 Y90.240 E19.6536
G1 X11.240 Y90.240 F8700
; feature inner perimeter
G1 X11.200 Y91.200 F18000
G92 E0.0000
G1 X11.200 Y128.800 E1.5457 F8700
G1 X208.800 Y128.800 E9.6690
G1 X208.800 Y91.200 E11.2147
G1 X11.200 Y91.200 E19.3379
; feature outer perimeter
G1 X11.680 Y91.680 F18000
G92 E0.0000
G1 X11.680 Y128.320 E1.5063 F8700
G1 X208.320 Y128.320 E9.5900
G1 X208.320 Y91.680 E11.0963
G1 X11.680 Y91.680 E19.1801
G1 X11.680 Y92.680 F8700
; layer 7, Z = 1.400
; feature inner perimeter
G1 Z1.400 F1200
G1 X10.720 Y90.720 F18000
G92 E0.0000
G1 X209.280 Y90.720 E8.1627 F8700
G1 X209.280 Y129.280 E9.7479
G1 X10.720 Y129.280 E17.9106
G1 X10.720 Y90.720 E19.4958
; feature outer perimeter
G1 X10.240 Y90.240 F18000
G92 E0.0000
G1 X209.760 Y90.240 E8.2022 F8700
G1 X209.760 Y129.760 E9.8268
G1 X10.240 Y129.760 E18.0290
G1 X10.240 Y90.240 E19.6536
G1 X11.240 Y90.240 F8700
; feature inner perimeter
G1 X11.200 Y91.200 F18000
G92 E0.0000
G1 X11.200 Y128.800 E1.5457 F8700
G1 X208.800 Y128.800 E9.6690
G1 X208.800 Y91.200 E11.2147
G1 X11.200 Y91.200 E19.3379
; feature outer perimeter
G1 X11.680 Y91.680 F18000
G92 E0.0000
G1 X11.680 Y128.320 E1.5063 F8700
G1 X208.320 Y128.320 E9.5900
G1 X208.320 Y91.680 E11.0963
G1 X11.680 Y91.680 E19.1801
G1 X11.680 Y92.680 F8700
; layer 8, Z = 1.600
; feature inner perimeter
G1 Z1.600 F1200
G1 X10.720 Y90.720 F18000
G92 E0.0000
G1 X209.280 Y90.720 E8.1627 F8700
G1 X209.280 Y129.280 E9.7479
G1 X10.720 Y129.280 E17.9106
G1 X10.720 Y90.720 E19.4958
; feature outer perimeter
G1 X10.240 Y90.240 F18000
G92 E0.0000
G1 X209.760 Y90.240 E8.2022 F8700
G1 X209.760 Y129.760 E9.8268
G1 X10.240 Y129.760 E18.0290
G1 X10.240 Y90.240 E19.6536
G1 X11.240 Y90.240 F8700
; feature inner perimeter
G1 X11.200 Y91.200 F18000
G92 E0.0000
G1 X11.200 Y128.800 E1.5457 F8700
G1 X208.800 Y128.800 E9.6690
G1 X208.800 Y91.200 E11.2147
G1 X11.200 Y91.200 E19.3379
; feature outer perimeter
G1 X11.680 Y91.680 F18000
G92 E0.0000
G1 X11.680 Y128.320 E1.5063 F8700
