; G-Code generated by Simplify3D(R) Version 4.1.2
; Jul 11, 2022 at 9:50:39 PM
; Settings Summary
;   processName,Process1
;   applyToModels,bed-mount-front
;   profileName,HSBot
;   profileVersion,2019-11-09 11:59:44
;   baseProfile,Default
;   printMaterial,PETG - Eryone
;   printQuality,Medium
;   printExtruders,
;   extruderName,Extruder - v6,Extruder - lgx ace
;   extruderToolheadNumber,0,1
;   extruderDiameter,0.4,0.4
;   extruderAutoWidth,1,1
;   extruderWidth,0.48,0.48
;   extrusionMultiplier,1.03,1.03
;   extruderUseRetract,0,1
;   extruderRetractionDistance,4,1
;   extruderExtraRestartDistance,0,0
;   extruderRetractionZLift,0,0
;   extruderRetractionSpeed,3600,3600
;   extruderUseCoasting,0,0
;   extruderCoastingDistance,0.2,0.2
;   extruderUseWipe,0,1
;   extruderWipeDistance,1,1
;   primaryExtruder,1
;   layerHeight,0.2
;   topSolidLayers,4
;   bottomSolidLayers,4
;   perimeterOutlines,3
;   printPerimetersInsideOut,1
;   startPointOption,2
;   startPointOriginX,0
;   startPointOriginY,0
;   sequentialIslands,0
;   spiralVaseMode,0
;   firstLayerHeightPercentage,100
;   firstLayerWidthPercentage,150
;   firstLayerUnderspeed,0.25
;   useRaft,0
;   raftExtruder,0
;   raftTopLayers,3
;   raftBaseLayers,2
;   raftOffset,3
;   raftSeparationDistance,0.18
;   raftTopInfill,100
;   aboveRaftSpeedMultiplier,0.3
;   useSkirt,1
;   skirtExtruder,1
;   skirtLayers,1
;   skirtOutlines,15
;   skirtOffset,0
;   usePrimePillar,0
;   primePillarExtruder,999
;   primePillarWidth,12
;   primePillarLocation,7
;   primePillarSpeedMultiplier,1
;   useOozeShield,0
;   oozeShieldExtruder,999
;   oozeShieldOffset,2
;   oozeShieldOutlines,1
;   oozeShieldSidewallShape,1
;   oozeShieldSidewallAngle,30
;   oozeShieldSpeedMultiplier,1
;   infillExtruder,1
;   internalInfillPattern,Rectilinear
;   externalInfillPattern,Rectilinear
;   infillPercentage,15
;   outlineOverlapPercentage,20
;   infillExtrusionWidthPercentage,100
;   minInfillLength,3
;   infillLayerInterval,1
;   internalInfillAngles,45,-45
;   overlapInternalInfillAngles,0
;   externalInfillAngles,45,-45
;   generateSupport,0
;   supportExtruder,1
;   supportInfillPercentage,30
;   supportExtraInflation,0
;   supportBaseLayers,1
;   denseSupportExtruder,0
;   denseSupportLayers,0
;   denseSupportInfillPercentage,70
;   supportLayerInterval,1
;   supportHorizontalPartOffset,0.3
;   supportUpperSeparationLayers,1
;   supportLowerSeparationLayers,1
;   supportType,0
;   supportGridSpacing,2
;   maxOverhangAngle,45
;   supportAngles,0
;   temperatureName,v6,Bed,lgx-ace
;   temperatureNumber,0,0,1
;   temperatureSetpointCount,1,1,1
;   temperatureSetpointLayers,1,1,1
;   temperatureSetpointTemperatures,0,85,220
;   temperatureStabilizeAtStartup,1,1,1
;   temperatureHeatedBed,0,1,0
;   fanLayers,1,2,3
;   fanSpeeds,0,15,15
;   blipFanToFullPower,0
;   adjustSpeedForCooling,0
;   minSpeedLayerTime,15
;   minCoolingSpeedSlowdown,50
;   increaseFanForCooling,0
;   minFanLayerTime,45
;   maxCoolingFanSpeed,70
;   increaseFanForBridging,0
;   bridgingFanSpeed,80
;   use5D,1
;   relativeEdistances,0
;   allowEaxisZeroing,1
;   independentExtruderAxes,0
;   includeM10123,0
;   stickySupport,1
;   applyToolheadOffsets,0
;   gcodeXoffset,0
;   gcodeYoffset,0
;   gcodeZoffset,0
;   overrideMachineDefinition,1
;   machineTypeOverride,0
;   strokeXoverride,220
;   strokeYoverride,220
;   strokeZoverride,175
;   originOffsetXoverride,0
;   originOffsetYoverride,0
;   originOffsetZoverride,0
;   homeXdirOverride,-1
;   homeYdirOverride,-1
;   homeZdirOverride,-1
;   flipXoverride,1
;   flipYoverride,-1
;   flipZoverride,1
;   toolheadOffsets,0,0|0,0|0,0|0,0|0,0|0,0
;   overrideFirmwareConfiguration,0
;   firmwareTypeOverride,RepRap (Marlin/Repetier/Sprinter)
;   GPXconfigOverride,r2
;   baudRateOverride,115200
;   overridePrinterModels,0
;   printerModelsOverride
;   startingGcode,G28 ; home all axes,G32 ; run bed.g -- probe bed and enable compensation
;   layerChangeGcode,
;   retractionGcode,
;   toolChangeGcode,
;   endingGcode,M0 ; call stop.g
;   exportFileFormat,gcode
;   celebration,0
;   celebrationSong,Random Song
;   postProcessing,|; 0.2mm layer, 8 bands 5mm each, total height 40mm|{REPLACE "; layer 25" "M572 D0 S0.69\n; layer 10"}|{REPLACE "; layer 50" "M572 D0 S0.70\n; layer 50"}|{REPLACE "; layer 75" "M572 D0 S0.71\n; layer 75"}|{REPLACE "; layer 100" "M572 D0 S0.72\n; layer 100"}|{REPLACE "; layer 125" "M572 D0 S0.73\n; layer 125"}|{REPLACE "; layer 150" "M572 D0 S0.74\n; layer 150"}|{REPLACE "; layer 175" "M572 D0 S0.75\n; layer 175"}|{REPLACE "; layer 200" "M572 D0 S0.76\n; layer 200"}
;   defaultSpeed,5400
;   outlineUnderspeed,0.8
;   solidInfillUnderspeed,0.75
;   supportUnderspeed,0.8
;   rapidXYspeed,18000
;   rapidZspeed,1200
;   minBridgingArea,60
;   bridgingExtraInflation,0
;   bridgingExtrusionMultiplier,0.96
;   bridgingSpeedMultiplier,1
;   useFixedBridgingAngle,0
;   fixedBridgingAngle,0
;   applyBridgingToPerimeters,0
;   filamentDiameters,1.75|1.75|1.75|1.75|1.75|1.75
;   filamentPricesPerKg,25|46|46|46|46|46
;   filamentDensities,1.29|1.25|1.25|1.25|1.25|1.25
;   useMinPrintHeight,0
;   minPrintHeight,0.3
;   useMaxPrintHeight,0
;   maxPrintHeight,110
;   useDiaphragm,0
;   diaphragmLayerInterval,20
;   robustSlicing,1
;   mergeAllIntoSolid,0
;   onlyRetractWhenCrossingOutline,1
;   retractBetweenLayers,0
;   useRetractionMinTravel,1
;   retractionMinTravel,5
;   retractWhileWiping,1
;   onlyWipeOutlines,1
;   avoidCrossingOutline,1
;   maxMovementDetourFactor,2
;   toolChangeRetractionDistance,12
;   toolChangeExtraRestartDistance,0
;   toolChangeRetractionSpeed,600
;   externalThinWallType,0
;   internalThinWallType,0
;   thinWallAllowedOverlapPercentage,10
;   singleExtrusionMinLength,0.1
;   singleExtrusionMinPrintingWidthPercentage,50
;   singleExtrusionMaxPrintingWidthPercentage,200
;   singleExtrusionEndpointExtension,0.2
;   horizontalSizeCompensation,-0.1
G90
M82
M106 S0
M140 S85
M190 S85
G10 S0 R{0-50} P0
G10 S220 R{220-50} P1
M116 P1
G28 ; home all axes
G32 ; run bed.g -- probe bed and enable compensation
; process Process1
; layer 1, Z = 0.200
T1
G92 E0.0000
G1 E-1.0000 F3600
; feature skirt
; tool H0.200 W0.720
G1 Z0.200 F1200
G1 X78.216 Y8.161 F18000
G1 E0.0000 F3600
G92 E0.0000
G1 X84.332 Y2.046 E0.5333 F1350
G1 X118.087 Y2.046 E2.6148
G1 X124.203 Y8.161 E3.1481
G1 X124.203 Y24.215 E4.1381
G1 X123.996 Y24.713 E4.1713
G1 X123.996 Y36.710 E4.9111
G1 X117.881 Y42.825 E5.4444
G1 X107.121 Y42.825 E6.1079
G1 X103.284 Y41.236 E6.3640
G1 X101.122 Y39.074 E6.5526
G1 X98.776 Y41.321 E6.7529
G1 X95.030 Y42.825 E7.0018
G1 X88.521 Y42.825 E7.4032
G1 X84.684 Y41.236 E7.6593
G1 X79.806 Y36.358 E8.0847
G1 X78.216 Y32.521 E8.3408
G1 X78.216 Y8.161 E9.8429
G1 X78.936 Y8.459 F18000
G92 E0.0000
G1 X84.630 Y2.766 E0.4965 F1350
G1 X117.789 Y2.766 E2.5412
G1 X123.483 Y8.459 E3.0378
G1 X123.483 Y24.071 E4.0005
G1 X123.276 Y24.569 E4.0337
G1 X123.276 Y36.412 E4.7640
G1 X117.583 Y42.105 E5.2605
G1 X107.264 Y42.105 E5.8968
G1 X103.692 Y40.625 E6.1352
G1 X101.133 Y38.067 E6.3584
G1 X98.378 Y40.705 E6.5936
G1 X94.891 Y42.105 E6.8253
G1 X88.664 Y42.105 E7.2093
G1 X85.092 Y40.625 E7.4478
G1 X80.416 Y35.950 E7.8555
G1 X78.936 Y32.378 E8.0939
G1 X78.936 Y8.459 E9.5688
G1 X79.656 Y8.758 F18000
G92 E0.0000
G1 X84.928 Y3.486 E0.4598 F1350
G1 X117.491 Y3.486 E2.4677
G1 X122.763 Y8.758 E2.9274
G1 X122.763 Y23.928 E3.8629
G1 X122.556 Y24.426 E3.8962
G1 X122.556 Y36.113 E4.6168
G1 X117.284 Y41.385 E5.0766
G1 X107.407 Y41.385 E5.6857
G1 X104.099 Y40.015 E5.9065
G1 X101.527 Y37.442 E6.1308
G1 X101.102 Y36.418 E6.1992
G1 X100.611 Y37.569 E6.2763
G1 X97.981 Y40.089 E6.5010
G1 X94.752 Y41.385 E6.7155
G1 X88.807 Y41.385 E7.0821
G1 X85.499 Y40.015 E7.3029
G1 X81.027 Y35.542 E7.6929
G1 X79.656 Y32.234 E7.9137
G1 X79.656 Y8.758 E9.3614
G1 X80.376 Y9.056 F18000
G92 E0.0000
G1 X85.227 Y4.206 E0.4230 F1350
G1 X117.192 Y4.206 E2.3941
G1 X122.043 Y9.056 E2.8171
G1 X122.043 Y23.785 E3.7254
G1 X121.836 Y24.283 E3.7586
G1 X121.836 Y35.815 E4.4697
G1 X116.986 Y40.665 E4.8927
G1 X107.550 Y40.665 E5.4745
G1 X104.507 Y39.405 E5.6777
G1 X102.137 Y37.035 E5.8844
G1 X101.112 Y34.561 E6.0495
G1 X100.007 Y37.151 E6.2231
G1 X97.583 Y39.472 E6.4301
G1 X94.612 Y40.665 E6.6275
G1 X88.950 Y40.665 E6.9766
G1 X85.907 Y39.405 E7.1797
G1 X81.637 Y35.134 E7.5521
G1 X80.376 Y32.091 E7.7553
G1 X80.376 Y9.056 E9.1757
G1 X81.096 Y9.354 F18000
G92 E0.0000
G1 X85.525 Y4.926 E0.3862 F1350
G1 X116.894 Y4.926 E2.3206
G1 X121.323 Y9.354 E2.7068
G1 X121.323 Y23.642 E3.5878
G1 X121.116 Y24.140 E3.6210
G1 X121.116 Y35.517 E4.3226
G1 X116.688 Y39.945 E4.7088
G1 X107.694 Y39.945 E5.2634
G1 X104.915 Y38.794 E5.4489
G1 X102.748 Y36.627 E5.6379
G1 X101.596 Y33.848 E5.8234
G1 X101.596 Y24.445 E6.4032
G1 X100.616 Y24.445 E6.4636
G1 X100.616 Y33.889 E7.0459
G1 X99.402 Y36.733 E7.2366
G1 X97.186 Y38.856 E7.4259
G1 X94.473 Y39.945 E7.6061
G1 X89.094 Y39.945 E7.9379
G1 X86.315 Y38.794 E8.1233
G1 X82.247 Y34.727 E8.4781
G1 X81.096 Y31.948 E8.6635
G1 X81.096 Y9.354 E10.0567
G1 X81.816 Y9.652 F18000
G92 E0.0000
G1 X85.823 Y5.646 E0.3494 F1350
G1 X116.596 Y5.646 E2.2470
G1 X120.603 Y9.652 E2.5964
G1 X120.603 Y23.498 E3.4502
G1 X120.396 Y23.997 E3.4835
G1 X120.396 Y35.219 E4.1755
G1 X116.390 Y39.225 E4.5249
G1 X107.837 Y39.225 E5.0523
G1 X105.323 Y38.184 E5.2201
G1 X103.358 Y36.219 E5.3915
G1 X102.316 Y33.705 E5.5593
G1 X102.316 Y23.725 E6.1746
G1 X99.896 Y23.725 E6.3239
G1 X99.896 Y33.742 E6.9415
G1 X98.798 Y36.315 E7.1140
G1 X96.788 Y38.240 E7.2856
G1 X94.334 Y39.225 E7.4487
G1 X89.237 Y39.225 E7.7630
G1 X86.723 Y38.184 E7.9308
G1 X82.858 Y34.319 E8.2679
G1 X81.816 Y31.805 E8.4357
G1 X81.816 Y9.652 E9.8017
G1 X82.536 Y9.951 F18000
G92 E0.0000
G1 X86.121 Y6.366 E0.3126 F1350
G1 X116.298 Y6.366 E2.1734
G1 X119.883 Y9.951 E2.4861
G1 X119.883 Y23.355 E3.3127
G1 X119.676 Y23.853 E3.3459
G1 X119.676 Y34.920 E4.0284
G1 X116.091 Y38.505 E4.3410
G1 X107.980 Y38.505 E4.8412
G1 X105.731 Y37.574 E4.9913
G1 X103.968 Y35.811 E5.1450
G1 X103.036 Y33.562 E5.2951
G1 X103.036 Y23.005 E5.9461
G1 X99.176 Y23.005 E6.1841
G1 X99.176 Y33.594 E6.8371
G1 X98.194 Y35.897 E6.9914
G1 X96.391 Y37.624 E7.1454
G1 X94.195 Y38.505 E7.2913
G1 X89.380 Y38.505 E7.5882
G1 X87.131 Y37.574 E7.7383
G1 X83.468 Y33.911 E8.0577
G1 X82.536 Y31.662 E8.2079
G1 X82.536 Y9.951 E9.5467
G1 X83.256 Y10.249 F18000
G92 E0.0000
G1 X86.420 Y7.086 E0.2759 F1350
G1 X115.999 Y7.086 E2.0999
G1 X119.163 Y10.249 E2.3757
G1 X119.163 Y23.212 E3.1751
G1 X118.956 Y23.710 E3.2083
G1 X118.956 Y34.622 E3.8812
G1 X115.793 Y37.785 E4.1571
G1 X108.123 Y37.785 E4.6300
G1 X106.139 Y36.963 E4.7625
G1 X104.579 Y35.403 E4.8986
G1 X103.756 Y33.418 E5.0310
G1 X103.756 Y22.285 E5.7175
G1 X98.456 Y22.285 E6.0444
G1 X98.456 Y33.447 E6.7326
G1 X97.589 Y35.479 E6.8688
G1 X95.993 Y37.007 E7.0051
G1 X94.056 Y37.785 E7.1339
G1 X89.523 Y37.785 E7.4133
G1 X87.539 Y36.963 E7.5458
G1 X84.079 Y33.503 E7.8476
G1 X83.256 Y31.518 E7.9800
G1 X83.256 Y10.249 E9.2916
G1 X83.976 Y10.547 F18000
G92 E0.0000
G1 X86.718 Y7.806 E0.2391 F1350
G1 X115.701 Y7.806 E2.0263
G1 X118.443 Y10.547 E2.2654
G1 X118.443 Y23.069 E3.0375
G1 X118.236 Y23.567 E3.0708
G1 X118.236 Y34.324 E3.7341
G1 X115.495 Y37.065 E3.9732
G1 X108.267 Y37.065 E4.4189
G1 X106.547 Y36.353 E4.5337
G1 X105.189 Y34.995 E4.6521
G1 X104.476 Y33.275 E4.7669
G1 X104.476 Y21.565 E5.4890
G1 X97.736 Y21.565 E5.9046
G1 X97.736 Y33.300 E6.6282
G1 X96.985 Y35.060 E6.7462
G1 X95.596 Y36.391 E6.8649
G1 X93.917 Y37.065 E6.9764
G1 X89.667 Y37.065 E7.2385
G1 X87.947 Y36.353 E7.3533
G1 X84.689 Y33.095 E7.6374
G1 X83.976 Y31.375 E7.7522
G1 X83.976 Y10.547 E9.0366
G1 X84.696 Y10.845 F18000
G92 E0.0000
G1 X87.016 Y8.526 E0.2023 F1350
G1 X115.403 Y8.526 E1.9528
G1 X117.723 Y10.845 E2.1550
G1 X117.723 Y22.926 E2.9000
G1 X117.516 Y23.424 E2.9332
G1 X117.516 Y34.026 E3.5870
G1 X115.197 Y36.345 E3.7893
G1 X108.410 Y36.345 E4.2078
G1 X106.955 Y35.742 E4.3049
G1 X105.799 Y34.587 E4.4057
G1 X105.196 Y33.132 E4.5028
G1 X105.196 Y20.845 E5.2604
G1 X97.016 Y20.845 E5.7649
G1 X97.016 Y33.153 E6.5238
G1 X96.380 Y34.642 E6.6237
G1 X95.198 Y35.775 E6.7246
G1 X93.777 Y36.345 E6.8190
G1 X89.810 Y36.345 E7.0637
G1 X88.355 Y35.742 E7.1608
G1 X85.299 Y32.687 E7.4272
G1 X84.696 Y31.232 E7.5244
G1 X84.696 Y10.845 E8.7815
G1 X85.416 Y11.143 F18000
G92 E0.0000
G1 X87.314 Y9.246 E0.1655 F1350
G1 X115.105 Y9.246 E1.8792
G1 X117.003 Y11.143 E2.0447
G1 X117.003 Y22.782 E2.7624
G1 X116.796 Y23.280 E2.7956
G1 X116.796 Y33.728 E3.4399
G1 X114.898 Y35.625 E3.6054
G1 X108.553 Y35.625 E3.9967
G1 X107.362 Y35.132 E4.0761
G1 X106.410 Y34.179 E4.1592
G1 X105.916 Y32.989 E4.2387
G1 X105.916 Y20.125 E5.0319
G1 X96.296 Y20.125 E5.6251
G1 X96.296 Y33.005 E6.4193
G1 X95.776 Y34.224 E6.5011
G1 X94.801 Y35.159 E6.5844
G1 X93.638 Y35.625 E6.6616
G1 X89.953 Y35.625 E6.8888
G1 X88.762 Y35.132 E6.9683
G1 X85.910 Y32.279 E7.2171
G1 X85.416 Y31.089 E7.2966
G1 X85.416 Y11.143 E8.5265
G1 X86.136 Y11.442 F18000
G92 E0.0000
G1 X87.613 Y9.966 E0.1287 F1350
G1 X114.807 Y9.966 E1.8056
G1 X116.283 Y11.442 E1.9344
G1 X116.283 Y22.639 E2.6248
G1 X116.076 Y23.137 E2.6581
G1 X116.076 Y33.429 E3.2927
G1 X114.600 Y34.905 E3.4215
G1 X108.696 Y34.905 E3.7855
G1 X107.770 Y34.522 E3.8473
G1 X107.020 Y33.772 E3.9128
G1 X106.636 Y32.845 E3.9746
G1 X106.636 Y19.406 E4.8033
G1 X95.576 Y19.406 E5.4854
G1 X95.576 Y32.858 E6.3149
G1 X95.172 Y33.806 E6.3785
G1 X94.403 Y34.542 E6.4441
G1 X93.499 Y34.905 E6.5042
G1 X90.096 Y34.905 E6.7140
G1 X89.170 Y34.522 E6.7758
G1 X86.520 Y31.872 E7.0069
G1 X86.136 Y30.945 E7.0687
G1 X86.136 Y11.442 E8.2714
G1 X86.856 Y11.740 F18000
G92 E0.0000
G1 X87.911 Y10.686 E0.0920 F1350
G1 X114.508 Y10.686 E1.7321
G1 X115.563 Y11.740 E1.8240
G1 X115.563 Y22.496 E2.4873
G1 X115.356 Y22.994 E2.5205
G1 X115.356 Y33.131 E3.1456
G1 X114.302 Y34.185 E3.2376
G1 X108.840 Y34.185 E3.5744
G1 X108.178 Y33.911 E3.6186
G1 X107.630 Y33.364 E3.6663
G1 X107.356 Y32.702 E3.7105
G1 X107.356 Y18.686 E4.5748
G1 X94.856 Y18.686 E5.3456
G1 X94.856 Y32.711 E6.2105
G1 X94.567 Y33.388 E6.2559
G1 X94.006 Y33.926 E6.3038
G1 X93.360 Y34.185 E6.3468
G1 X90.240 Y34.185 E6.5392
G1 X89.578 Y33.911 E6.5833
G1 X87.130 Y31.464 E6.7968
G1 X86.856 Y30.802 E6.8409
G1 X86.856 Y11.740 E8.0164
G1 X87.576 Y12.038 F18000
G92 E0.0000
G1 X88.209 Y11.406 E0.0552 F1350
G1 X114.210 Y11.406 E1.6585
G1 X114.843 Y12.038 E1.7137
G1 X114.843 Y22.353 E2.3497
G1 X114.678 Y22.750 E2.3762
G1 X114.636 Y22.791 E2.3799
G1 X114.636 Y32.833 E2.9991
G1 X114.004 Y33.465 E3.0542
G1 X108.983 Y33.465 E3.3638
G1 X108.586 Y33.301 E3.3903
G1 X108.241 Y32.956 E3.4204
G1 X108.076 Y32.559 E3.4469
G1 X108.076 Y17.966 E4.3468
G1 X94.136 Y17.966 E5.2064
G1 X94.136 Y32.564 E6.1066
G1 X93.963 Y32.970 E6.1338
G1 X93.608 Y33.310 E6.1641
G1 X93.221 Y33.465 E6.1899
G1 X90.383 Y33.465 E6.3649
G1 X89.986 Y33.301 E6.3914
G1 X87.741 Y31.056 E6.5872
G1 X87.576 Y30.659 E6.6137
G1 X87.576 Y12.038 E7.7619
G1 X88.296 Y12.336 F18000
G92 E0.0000
G1 X88.507 Y12.126 E0.0184 F1350
G1 X113.912 Y12.126 E1.5849
G1 X114.123 Y12.336 E1.6033
G1 X114.123 Y22.209 E2.2121
G1 X114.068 Y22.342 E2.2210
G1 X113.916 Y22.493 E2.2342
G1 X113.916 Y32.535 E2.8534
G1 X113.706 Y32.745 E2.8718
G1 X109.126 Y32.745 E3.1542
G1 X108.994 Y32.691 E3.1630
G1 X108.851 Y32.548 E3.1754
G1 X108.796 Y32.416 E3.1843
G1 X108.796 Y17.246 E4.1197
G1 X93.416 Y17.246 E5.0681
G1 X93.416 Y32.416 E6.0036
G1 X93.359 Y32.552 E6.0127
G1 X93.211 Y32.694 E6.0253
G1 X93.081 Y32.745 E6.0339
G1 X90.526 Y32.745 E6.1915
G1 X90.394 Y32.691 E6.2003
G1 X88.351 Y30.648 E6.3785
G1 X88.296 Y30.516 E6.3873
G1 X88.296 Y12.336 E7.5083
; feature inner perimeter
G1 X89.016 Y12.846 F18000
G1 X89.016 Y12.986
G1 X90.456 Y14.286
G92 E0.0000
G1 X111.963 Y14.286 E1.3262 F1215
G1 X111.963 Y21.392 E1.7644
G1 X111.756 Y21.599 E1.7824
G1 X111.756 Y30.586 E2.3366
G1 X110.956 Y30.586 E2.3859
G1 X110.956 Y15.086 E3.3417
G1 X91.256 Y15.086 E4.5565
G1 X91.256 Y30.498 E5.5069
G1 X90.456 Y29.698 E5.5767
G1 X90.456 Y14.286 E6.5271
G1 X89.736 Y13.566 F18000
G92 E0.0000
