; G-Code generated by Simplify3D(R) Version 4.1.2
; Jul 11, 2022 at 5:00:42 PM
; Settings Summary
;   processName,Process1
;   applyToModels,bed-mount-back
;   profileName,HSBot (modified)
;   profileVersion,2019-11-09 11:59:44
;   baseProfile,Default
;   printMaterial,PETG - Eryone
;   printQuality,Medium
;   printExtruders,
;   extruderName,Extruder - v6,Extruder - lgx ace
;   extruderToolheadNumber,0,1
;   extruderDiameter,0.4,0.4
;   extruderAutoWidth,1,1
;   extruderWidth,0.48,0.48
;   extrusionMultiplier,1.03,1.03
;   extruderUseRetract,0,1
;   extruderRetractionDistance,4,1
;   extruderExtraRestartDistance,0,0
;   extruderRetractionZLift,0,0
;   extruderRetractionSpeed,3600,3600
;   extruderUseCoasting,0,0
;   extruderCoastingDistance,0.2,0.2
;   extruderUseWipe,0,1
;   extruderWipeDistance,1,1
;   primaryExtruder,1
;   layerHeight,0.2
;   topSolidLayers,4
;   bottomSolidLayers,4
;   perimeterOutlines,3
;   printPerimetersInsideOut,1
;   startPointOption,2
;   startPointOriginX,0
;   startPointOriginY,0
;   sequentialIslands,0
;   spiralVaseMode,0
;   firstLayerHeightPercentage,100
;   firstLayerWidthPercentage,150
;   firstLayerUnderspeed,0.25
;   useRaft,0
;   raftExtruder,0
;   raftTopLayers,3
;   raftBaseLayers,2
;   raftOffset,3
;   raftSeparationDistance,0.18
;   raftTopInfill,100
;   aboveRaftSpeedMultiplier,0.3
;   useSkirt,1
;   skirtExtruder,1
;   skirtLayers,1
;   skirtOutlines,15
;   skirtOffset,0
;   usePrimePillar,0
;   primePillarExtruder,999
;   primePillarWidth,12
;   primePillarLocation,7
;   primePillarSpeedMultiplier,1
;   useOozeShield,0
;   oozeShieldExtruder,999
;   oozeShieldOffset,2
;   oozeShieldOutlines,1
;   oozeShieldSidewallShape,1
;   oozeShieldSidewallAngle,30
;   oozeShieldSpeedMultiplier,1
;   infillExtruder,1
;   internalInfillPattern,Rectilinear
;   externalInfillPattern,Rectilinear
;   infillPercentage,15
;   outlineOverlapPercentage,20
;   infillExtrusionWidthPercentage,100
;   minInfillLength,3
;   infillLayerInterval,1
;   internalInfillAngles,45,-45
;   overlapInternalInfillAngles,0
;   externalInfillAngles,45,-45
;   generateSupport,0
;   supportExtruder,1
;   supportInfillPercentage,30
;   supportExtraInflation,0
;   supportBaseLayers,1
;   denseSupportExtruder,0
;   denseSupportLayers,0
;   denseSupportInfillPercentage,70
;   supportLayerInterval,1
;   supportHorizontalPartOffset,0.3
;   supportUpperSeparationLayers,1
;   supportLowerSeparationLayers,1
;   supportType,0
;   supportGridSpacing,2
;   maxOverhangAngle,45
;   supportAngles,0
;   temperatureName,v6,Bed,lgx-ace
;   temperatureNumber,0,0,1
;   temperatureSetpointCount,1,1,1
;   temperatureSetpointLayers,1,1,1
;   temperatureSetpointTemperatures,0,85,240
;   temperatureStabilizeAtStartup,1,1,1
;   temperatureHeatedBed,0,1,0
;   fanLayers,1,2,3
;   fanSpeeds,0,15,15
;   blipFanToFullPower,0
;   adjustSpeedForCooling,0
;   minSpeedLayerTime,15
;   minCoolingSpeedSlowdown,50
;   increaseFanForCooling,0
;   minFanLayerTime,45
;   maxCoolingFanSpeed,70
;   increaseFanForBridging,0
;   bridgingFanSpeed,80
;   use5D,1
;   relativeEdistances,0
;   allowEaxisZeroing,1
;   independentExtruderAxes,0
;   includeM10123,0
;   stickySupport,1
;   applyToolheadOffsets,0
;   gcodeXoffset,0
;   gcodeYoffset,0
;   gcodeZoffset,0
;   overrideMachineDefinition,1
;   machineTypeOverride,0
;   strokeXoverride,220
;   strokeYoverride,220
;   strokeZoverride,175
;   originOffsetXoverride,0
;   originOffsetYoverride,0
;   originOffsetZoverride,0
;   homeXdirOverride,-1
;   homeYdirOverride,-1
;   homeZdirOverride,-1
;   flipXoverride,1
;   flipYoverride,-1
;   flipZoverride,1
;   toolheadOffsets,0,0|0,0|0,0|0,0|0,0|0,0
;   overrideFirmwareConfiguration,0
;   firmwareTypeOverride,RepRap (Marlin/Repetier/Sprinter)
;   GPXconfigOverride,r2
;   baudRateOverride,115200
;   overridePrinterModels,0
;   printerModelsOverride
;   startingGcode,G28 ; home all axes,G32 ; run bed.g -- probe bed and enable compensation
;   layerChangeGcode,
;   retractionGcode,
;   toolChangeGcode,
;   endingGcode,M0 ; call stop.g
;   exportFileFormat,gcode
;   celebration,0
;   celebrationSong,Random Song
;   postProcessing,|; 0.2mm layer, 8 bands 5mm each, total height 40mm|{REPLACE "; layer 25" "M572 D0 S0.69\n; layer 10"}|{REPLACE "; layer 50" "M572 D0 S0.70\n; layer 50"}|{REPLACE "; layer 75" "M572 D0 S0.71\n; layer 75"}|{REPLACE "; layer 100" "M572 D0 S0.72\n; layer 100"}|{REPLACE "; layer 125" "M572 D0 S0.73\n; layer 125"}|{REPLACE "; layer 150" "M572 D0 S0.74\n; layer 150"}|{REPLACE "; layer 175" "M572 D0 S0.75\n; layer 175"}|{REPLACE "; layer 200" "M572 D0 S0.76\n; layer 200"}
;   defaultSpeed,5400
;   outlineUnderspeed,0.8
;   solidInfillUnderspeed,0.75
;   supportUnderspeed,0.8
;   rapidXYspeed,18000
;   rapidZspeed,1200
;   minBridgingArea,60
;   bridgingExtraInflation,0
;   bridgingExtrusionMultiplier,0.96
;   bridgingSpeedMultiplier,1
;   useFixedBridgingAngle,0
;   fixedBridgingAngle,0
;   applyBridgingToPerimeters,0
;   filamentDiameters,1.75|1.75|1.75|1.75|1.75|1.75
;   filamentPricesPerKg,25|46|46|46|46|46
;   filamentDensities,1.29|1.25|1.25|1.25|1.25|1.25
;   useMinPrintHeight,0
;   minPrintHeight,0.3
;   useMaxPrintHeight,0
;   maxPrintHeight,110
;   useDiaphragm,0
;   diaphragmLayerInterval,20
;   robustSlicing,1
;   mergeAllIntoSolid,0
;   onlyRetractWhenCrossingOutline,1
;   retractBetweenLayers,0
;   useRetractionMinTravel,1
;   retractionMinTravel,5
;   retractWhileWiping,1
;   onlyWipeOutlines,1
;   avoidCrossingOutline,1
;   maxMovementDetourFactor,2
;   toolChangeRetractionDistance,12
;   toolChangeExtraRestartDistance,0
;   toolChangeRetractionSpeed,600
;   externalThinWallType,0
;   internalThinWallType,0
;   thinWallAllowedOverlapPercentage,10
;   singleExtrusionMinLength,0.1
;   singleExtrusionMinPrintingWidthPercentage,50
;   singleExtrusionMaxPrintingWidthPercentage,200
;   singleExtrusionEndpointExtension,0.2
;   horizontalSizeCompensation,-0.1
G90
M82
M106 S0
M140 S85
M190 S85
G10 S0 R{0-50} P0
G10 S240 R{240-50} P1
M116 P1
G28 ; home all axes
G32 ; run bed.g -- probe bed and enable compensation
; process Process1
; layer 1, Z = 0.200
T1
G92 E0.0000
G1 E-1.0000 F3600
; feature skirt
; tool H0.200 W0.720
G1 Z0.200 F1200
G1 X83.242 Y7.771 F18000
G1 E0.0000 F3600
G92 E0.0000
G1 X89.357 Y1.655 E0.5333 F1350
G1 X122.906 Y1.655 E2.6021
G1 X129.022 Y7.771 E3.1354
G1 X129.022 Y32.130 E4.6375
G1 X127.432 Y35.967 E4.8936
G1 X122.560 Y40.839 E5.3185
G1 X118.731 Y42.429 E5.5742
G1 X112.158 Y42.438 E5.9795
G1 X108.313 Y40.849 E6.2361
G1 X106.132 Y38.668 E6.4262
G1 X103.955 Y40.845 E6.6161
G1 X100.118 Y42.435 E6.8722
G1 X93.546 Y42.435 E7.2774
G1 X89.709 Y40.845 E7.5335
G1 X84.831 Y35.967 E7.9589
G1 X83.242 Y32.130 E8.2150
G1 X83.242 Y7.771 E9.7172
G1 X83.962 Y8.069 F18000
G92 E0.0000
G1 X89.656 Y2.375 E0.4965 F1350
G1 X122.608 Y2.375 E2.5285
G1 X128.302 Y8.069 E3.0251
G1 X128.302 Y31.987 E4.5000
G1 X126.822 Y35.560 E4.7384
G1 X122.152 Y40.229 E5.1456
G1 X118.587 Y41.709 E5.3837
G1 X112.300 Y41.718 E5.7714
G1 X108.721 Y40.238 E6.0102
G1 X106.132 Y37.650 E6.2359
G1 X103.547 Y40.235 E6.4614
G1 X99.974 Y41.715 E6.6998
G1 X93.689 Y41.715 E7.0874
G1 X90.117 Y40.235 E7.3258
G1 X85.442 Y35.560 E7.7335
G1 X83.962 Y31.987 E7.9720
G1 X83.962 Y8.069 E9.4469
G1 X84.682 Y8.367 F18000
G92 E0.0000
G1 X89.954 Y3.095 E0.4598 F1350
G1 X122.310 Y3.095 E2.4550
G1 X127.582 Y8.367 E2.9147
G1 X127.582 Y31.844 E4.3624
G1 X126.212 Y35.152 E4.5832
G1 X121.744 Y39.619 E4.9728
G1 X118.443 Y40.989 E5.1931
G1 X112.443 Y40.997 E5.5632
G1 X109.128 Y39.627 E5.7843
G1 X106.553 Y37.052 E6.0089
G1 X106.132 Y36.037 E6.0767
G1 X105.712 Y37.052 E6.1444
G1 X103.139 Y39.624 E6.3688
G1 X99.831 Y40.995 E6.5896
G1 X93.833 Y40.995 E6.9594
G1 X90.525 Y39.624 E7.1802
G1 X86.052 Y35.152 E7.5703
G1 X84.682 Y31.844 E7.7911
G1 X84.682 Y8.367 E9.2387
G1 X85.402 Y8.665 F18000
G92 E0.0000
G1 X90.252 Y3.815 E0.4230 F1350
G1 X122.012 Y3.815 E2.3814
G1 X126.862 Y8.665 E2.8044
G1 X126.862 Y31.701 E4.2248
G1 X125.601 Y34.744 E4.4280
G1 X121.336 Y39.009 E4.7999
G1 X118.299 Y40.269 E5.0026
G1 X112.585 Y40.277 E5.3550
G1 X109.536 Y39.017 E5.5585
G1 X107.163 Y36.644 E5.7654
G1 X106.132 Y34.156 E5.9315
G1 X105.101 Y36.644 E6.0976
G1 X102.731 Y39.014 E6.3042
G1 X99.688 Y40.275 E6.5074
G1 X93.976 Y40.275 E6.8596
G1 X90.933 Y39.014 E7.0627
G1 X86.663 Y34.744 E7.4351
G1 X85.402 Y31.701 E7.6382
G1 X85.402 Y8.665 E9.0587
G1 X86.122 Y8.963 F18000
G92 E0.0000
G1 X90.550 Y4.535 E0.3862 F1350
G1 X121.713 Y4.535 E2.3078
G1 X126.142 Y8.963 E2.6940
G1 X126.142 Y31.557 E4.0873
G1 X124.991 Y34.336 E4.2727
G1 X120.928 Y38.399 E4.6270
G1 X118.156 Y39.549 E4.8121
G1 X112.728 Y39.557 E5.1469
G1 X109.943 Y38.406 E5.3326
G1 X107.773 Y36.236 E5.5219
G1 X106.622 Y33.458 E5.7073
G1 X106.622 Y24.055 E6.2871
G1 X105.642 Y24.055 E6.3476
G1 X105.642 Y33.457 E6.9274
G1 X104.491 Y36.236 E7.1128
G1 X102.323 Y38.404 E7.3019
G1 X99.545 Y39.555 E7.4873
G1 X94.119 Y39.555 E7.8219
G1 X91.341 Y38.404 E8.0073
G1 X87.273 Y34.336 E8.3621
G1 X86.122 Y31.557 E8.5475
G1 X86.122 Y8.963 E9.9408
G1 X86.842 Y9.262 F18000
G92 E0.0000
G1 X90.849 Y5.255 E0.3494 F1350
G1 X121.415 Y5.255 E2.2343
G1 X125.422 Y9.262 E2.5837
G1 X125.422 Y31.414 E3.9497
G1 X124.381 Y33.928 E4.1175
G1 X120.520 Y37.788 E4.4541
G1 X118.012 Y38.830 E4.6216
G1 X112.870 Y38.837 E4.9387
G1 X110.351 Y37.796 E5.1068
G1 X108.384 Y35.829 E5.2783
G1 X107.342 Y33.314 E5.4461
G1 X107.342 Y23.335 E6.0615
G1 X104.922 Y23.335 E6.2107
G1 X104.922 Y33.314 E6.8261
G1 X103.880 Y35.828 E6.9939
G1 X101.915 Y37.793 E7.1653
G1 X99.401 Y38.835 E7.3331
G1 X94.262 Y38.835 E7.6500
G1 X91.749 Y37.793 E7.8178
G1 X87.883 Y33.928 E8.1548
G1 X86.842 Y31.414 E8.3226
G1 X86.842 Y9.262 E9.6886
G1 X87.562 Y9.560 F18000
G92 E0.0000
G1 X91.147 Y5.975 E0.3126 F1350
G1 X121.117 Y5.975 E2.1607
G1 X124.702 Y9.560 E2.4734
G1 X124.702 Y31.271 E3.8121
G1 X123.770 Y33.520 E3.9623
G1 X120.112 Y37.178 E4.2813
G1 X117.868 Y38.110 E4.4311
G1 X113.012 Y38.117 E4.7305
G1 X110.759 Y37.185 E4.8809
G1 X108.994 Y35.421 E5.0348
G1 X108.062 Y33.171 E5.1849
G1 X108.062 Y22.615 E5.8359
G1 X104.202 Y22.615 E6.0739
G1 X104.202 Y33.171 E6.7248
G1 X103.270 Y35.420 E6.8750
G1 X101.507 Y37.183 E7.0287
G1 X99.258 Y38.115 E7.1788
G1 X94.406 Y38.115 E7.4780
G1 X92.156 Y37.183 E7.6282
G1 X88.494 Y33.520 E7.9476
G1 X87.562 Y31.271 E8.0977
G1 X87.562 Y9.560 E9.4365
G1 X88.282 Y9.858 F18000
G92 E0.0000
G1 X91.445 Y6.695 E0.2759 F1350
G1 X120.819 Y6.695 E2.0872
G1 X123.982 Y9.858 E2.3630
G1 X123.982 Y31.128 E3.6746
G1 X123.160 Y33.112 E3.8071
G1 X119.704 Y36.568 E4.1084
G1 X117.724 Y37.390 E4.2406
G1 X113.155 Y37.396 E4.5224
G1 X111.166 Y36.574 E4.6551
G1 X109.604 Y35.013 E4.7912
G1 X108.782 Y33.028 E4.9237
G1 X108.782 Y21.895 E5.6102
G1 X103.482 Y21.895 E5.9371
G1 X103.482 Y33.028 E6.6236
G1 X102.660 Y35.012 E6.7560
G1 X101.099 Y36.573 E6.8921
G1 X99.115 Y37.395 E7.0246
G1 X94.549 Y37.395 E7.3061
G1 X92.564 Y36.573 E7.4386
G1 X89.104 Y33.112 E7.7403
G1 X88.282 Y31.128 E7.8728
G1 X88.282 Y9.858 E9.1844
G1 X89.002 Y10.156 F18000
G92 E0.0000
G1 X91.743 Y7.415 E0.2391 F1350
G1 X120.520 Y7.415 E2.0136
G1 X123.262 Y10.156 E2.2527
G1 X123.262 Y30.984 E3.5370
G1 X122.549 Y32.705 E3.6518
G1 X119.296 Y35.958 E3.9355
G1 X117.580 Y36.670 E4.0501
G1 X113.297 Y36.676 E4.3142
G1 X111.574 Y35.964 E4.4292
G1 X110.215 Y34.605 E4.5477
G1 X109.502 Y32.885 E4.6625
G1 X109.502 Y21.175 E5.3846
G1 X102.762 Y21.175 E5.8002
G1 X102.762 Y32.885 E6.5223
G1 X102.049 Y34.605 E6.6371
G1 X100.692 Y35.962 E6.7555
G1 X98.972 Y36.675 E6.8703
G1 X94.692 Y36.675 E7.1342
G1 X92.972 Y35.962 E7.2490
G1 X89.714 Y32.705 E7.5331
G1 X89.002 Y30.985 E7.6479
G1 X89.002 Y10.156 E8.9322
G1 X89.722 Y10.455 F18000
G92 E0.0000
G1 X92.042 Y8.135 E0.2023 F1350
G1 X120.222 Y8.135 E1.9400
G1 X122.542 Y10.455 E2.1423
G1 X122.542 Y30.841 E3.3995
G1 X121.939 Y32.297 E3.4966
G1 X118.888 Y35.348 E3.7627
G1 X117.436 Y35.950 E3.8596
G1 X113.440 Y35.956 E4.1060
G1 X111.981 Y35.353 E4.2033
G1 X110.825 Y34.197 E4.3042
G1 X110.222 Y32.741 E4.4013
G1 X110.222 Y20.455 E5.1590
G1 X102.042 Y20.455 E5.6634
G1 X102.042 Y32.741 E6.4210
G1 X101.439 Y34.197 E6.5182
G1 X100.284 Y35.352 E6.6189
G1 X98.828 Y35.955 E6.7160
G1 X94.835 Y35.955 E6.9623
G1 X93.380 Y35.352 E7.0594
G1 X90.325 Y32.297 E7.3258
G1 X89.722 Y30.841 E7.4230
G1 X89.722 Y10.455 E8.6801
G1 X90.442 Y10.753 F18000
G92 E0.0000
G1 X92.340 Y8.855 E0.1655 F1350
G1 X119.924 Y8.855 E1.8665
G1 X121.822 Y10.753 E2.0320
G1 X121.822 Y30.698 E3.2619
G1 X121.329 Y31.889 E3.3414
G1 X118.480 Y34.737 E3.5898
G1 X117.292 Y35.231 E3.6691
G1 X113.582 Y35.236 E3.8979
G1 X112.389 Y34.743 E3.9775
G1 X111.435 Y33.789 E4.0606
G1 X110.942 Y32.598 E4.1401
G1 X110.942 Y19.735 E4.9333
G1 X101.322 Y19.735 E5.5265
G1 X101.322 Y32.598 E6.3197
G1 X100.829 Y33.789 E6.3992
G1 X99.876 Y34.742 E6.4823
G1 X98.685 Y35.235 E6.5618
G1 X94.979 Y35.235 E6.7903
G1 X93.788 Y34.742 E6.8698
G1 X90.935 Y31.889 E7.1186
G1 X90.442 Y30.698 E7.1981
G1 X90.442 Y10.753 E8.4280
G1 X91.162 Y11.051 F18000
G92 E0.0000
G1 X92.638 Y9.575 E0.1287 F1350
G1 X119.626 Y9.575 E1.7929
G1 X121.102 Y11.051 E1.9216
G1 X121.102 Y30.555 E3.1243
G1 X120.718 Y31.481 E3.1861
G1 X118.072 Y34.127 E3.4169
G1 X117.148 Y34.511 E3.4786
G1 X113.725 Y34.516 E3.6897
G1 X112.797 Y34.132 E3.7516
G1 X112.046 Y33.381 E3.8171
G1 X111.662 Y32.455 E3.8789
G1 X111.662 Y19.015 E4.7077
G1 X100.602 Y19.015 E5.3897
G1 X100.602 Y32.455 E6.2185
G1 X100.218 Y33.381 E6.2803
G1 X99.468 Y34.131 E6.3457
G1 X98.542 Y34.515 E6.4075
G1 X95.122 Y34.515 E6.6184
G1 X94.196 Y34.131 E6.6802
G1 X91.546 Y31.481 E6.9113
G1 X91.162 Y30.555 E6.9732
G1 X91.162 Y11.051 E8.1758
G1 X91.882 Y11.349 F18000
G92 E0.0000
G1 X92.936 Y10.295 E0.0920 F1350
G1 X119.327 Y10.295 E1.7193
G1 X120.382 Y11.349 E1.8113
G1 X120.382 Y30.412 E2.9868
G1 X120.108 Y31.073 E3.0309
G1 X117.664 Y33.517 E3.2440
G1 X117.004 Y33.791 E3.2881
G1 X113.867 Y33.795 E3.4815
G1 X113.204 Y33.521 E3.5258
G1 X112.656 Y32.973 E3.5736
G1 X112.382 Y32.312 E3.6177
G1 X112.382 Y18.295 E4.4821
G1 X99.882 Y18.295 E5.2529
G1 X99.882 Y32.312 E6.1172
G1 X99.608 Y32.973 E6.1613
G1 X99.060 Y33.521 E6.2091
G1 X98.399 Y33.795 E6.2533
G1 X95.265 Y33.795 E6.4465
G1 X94.604 Y33.521 E6.4906
G1 X92.156 Y31.073 E6.7041
G1 X91.882 Y30.412 E6.7482
G1 X91.882 Y11.349 E7.9237
G1 X92.602 Y11.648 F18000
G92 E0.0000
G1 X93.235 Y11.015 E0.0552 F1350
G1 X119.029 Y11.015 E1.6458
G1 X119.662 Y11.648 E1.7010
G1 X119.662 Y30.268 E2.8492
G1 X119.497 Y30.665 E2.8757
G1 X117.256 Y32.907 E3.0712
G1 X116.860 Y33.071 E3.0976
G1 X114.010 Y33.075 E3.2734
G1 X113.612 Y32.911 E3.2999
G1 X113.266 Y32.565 E3.3300
G1 X113.102 Y32.168 E3.3565
G1 X113.102 Y17.575 E4.2564
G1 X99.162 Y17.575 E5.1160
G1 X99.162 Y32.168 E6.0159
G1 X98.997 Y32.565 E6.0424
G1 X98.652 Y32.910 E6.0725
G1 X98.255 Y33.075 E6.0990
G1 X95.408 Y33.075 E6.2746
G1 X95.011 Y32.910 E6.3011
G1 X92.766 Y30.665 E6.4968
G1 X92.602 Y30.268 E6.5233
G1 X92.602 Y11.648 E7.6716
G1 X93.322 Y11.946 F18000
G92 E0.0000
G1 X93.533 Y11.735 E0.0184 F1350
G1 X118.731 Y11.735 E1.5722
G1 X118.942 Y11.946 E1.5906
G1 X118.942 Y30.125 E2.7116
G1 X118.887 Y30.257 E2.7205
G1 X116.848 Y32.297 E2.8983
G1 X116.716 Y32.351 E2.9071
G1 X114.152 Y32.355 E3.0652
G1 X114.019 Y32.300 E3.0740
G1 X113.877 Y32.157 E3.0865
G1 X113.822 Y32.025 E3.0953
G1 X113.822 Y16.855 E4.0308
G1 X98.442 Y16.855 E4.9792
G1 X98.442 Y32.025 E5.9146
G1 X98.387 Y32.157 E5.9235
G1 X98.244 Y32.300 E5.9359
G1 X98.112 Y32.355 E5.9447
G1 X95.552 Y32.355 E6.1026
G1 X95.419 Y32.300 E6.1115
G1 X93.377 Y30.257 E6.2896
G1 X93.322 Y30.125 E6.2984
G1 X93.322 Y11.946 E7.4194
; feature inner perimeter
G1 X94.042 Y12.455 F18000
G1 X94.042 Y12.595
G1 X95.482 Y13.895
G92 E0.0000
G1 X116.782 Y13.895 E1.3135 F1215
G1 X116.782 Y29.308 E2.2639
G1 X115.982 Y30.108 E2.3336
G1 X115.982 Y14.695 E3.2841
G1 X96.282 Y14.695 E4.4989
G1 X96.282 Y30.108 E5.4493
G1 X95.482 Y29.308 E5.5191
G1 X95.482 Y13.895 E6.4695
G1 X94.762 Y13.175 F18000
G92 E0.0000
G1 X117.502 Y13.175 E1.4022 F1215
G1 X117.502 Y29.606 E2.4155
G1 X116.196 Y30.912 E2.5294
