; generated by PrusaSlicer 2.5.0-alpha3+win64 on 2023-03-25 at 10:38:09 UTC


;
;
; 

; external perimeters extrusion width = 0.68mm
; perimeters extrusion width = 0.68mm
; infill extrusion width = 0.68mm
; solid infill extrusion width = 0.68mm
; top infill extrusion width = 0.60mm
; first layer extrusion width = 0.63mm

; external perimeters extrusion width = 0.68mm
; perimeters extrusion width = 0.68mm
; infill extrusion width = 0.68mm
; solid infill extrusion width = 0.68mm
; top infill extrusion width = 0.60mm
; first layer extrusion width = 0.63mm

; external perimeters extrusion width = 0.68mm
; perimeters extrusion width = 0.68mm
; infill extrusion width = 0.68mm
; solid infill extrusion width = 0.68mm
; top infill extrusion width = 0.60mm
; first layer extrusion width = 0.63mm

; external perimeters extrusion width = 0.68mm
; perimeters extrusion width = 0.68mm
; infill extrusion width = 0.68mm
; solid infill extrusion width = 0.68mm
; top infill extrusion width = 0.60mm
; first layer extrusion width = 0.63mm

M73 P0 R12
M107
M190 S85 ; set bed temperature and wait for it to be reached
G10 S230 P1 ; set temperature
;TYPE:Custom
;Set standby temperatures
G10 R200 P0
G10 R220 P1
G28 ; home all axes
G32 ; run bed.g -- probe bed and enable compensation
;workaround for toolchanger when using only one extruder
T1; select tool
G10 S230 P1 ; set temperature
M116 ; wait for temperature to be reached
G21 ; set units to millimeters
G90 ; use absolute coordinates
M82 ; use absolute distances for extrusion
G92 E0
;tool change macro
T1
G92 E0
; Filament gcode
M107
;LAYER_CHANGE
;Z:0.2
;HEIGHT:0.2
G1 Z.2 F18000
G1 E-.75 F600
G92 E0
G1 X80.676 Y89.727 F18000
G1 E.85 F600
;TYPE:Skirt/Brim
;WIDTH:0.63
G1 F1500
G1 X82.916 Y88.656 E.96518
G1 X85.1 Y88.342 E1.06749
G1 X134.9 Y88.342 E3.37696
G1 X137.352 Y88.739 E3.49215
G1 X139.552 Y89.891 E3.60733
G1 X141.277 Y91.679 E3.72252
G1 X142.348 Y93.92 E3.8377
G1 X142.661 Y96.103 E3.94
G1 X142.661 Y123.9 E5.22908
G1 X142.264 Y126.352 E5.34426
G1 X141.112 Y128.552 E5.45944
G1 X139.324 Y130.277 E5.57463
G1 X137.084 Y131.348 E5.68981
G1 X134.9 Y131.661 E5.79211
G1 X85.1 Y131.661 E8.10159
G1 X82.648 Y131.264 E8.21678
G1 X80.448 Y130.112 E8.33196
G1 X78.723 Y128.324 E8.44714
G1 X77.652 Y126.084 E8.56233
G1 X77.339 Y123.9 E8.66463
G1 X77.339 Y96.103 E9.9537
G1 X77.736 Y93.652 E10.06889
M73 P1 R12
G1 X78.888 Y91.451 E10.18407
G1 X80.611 Y89.789 E10.29508
G1 X81.027 Y90.249 F18000
G1 F1500
G1 X81.242 Y90.055 E10.30852
G1 X83.44 Y89.124 E10.41924
G1 X85.1 Y88.929 E10.49675
G1 X134.9 Y88.929 E12.80623
G1 X137.254 Y89.326 E12.91694
G1 X139.347 Y90.474 E13.02765
G1 X140.948 Y92.245 E13.13836
G1 X141.879 Y94.443 E13.24908
G1 X142.074 Y96.103 E13.32659
G1 X142.074 Y123.9 E14.61566
G1 X141.677 Y126.254 E14.72638
G1 X140.529 Y128.347 E14.83709
G1 X138.758 Y129.948 E14.9478
G1 X136.56 Y130.879 E15.05851
G1 X134.9 Y131.074 E15.13603
G1 X85.1 Y131.074 E17.4455
G1 X82.746 Y130.677 E17.55622
G1 X80.653 Y129.529 E17.66693
M73 P2 R12
G1 X79.052 Y127.758 E17.77764
G1 X78.121 Y125.56 E17.88835
G1 X77.926 Y123.9 E17.96587
G1 X77.926 Y96.103 E19.25494
G1 X78.323 Y93.749 E19.36565
G1 X79.471 Y91.656 E19.47637
G1 X80.96 Y90.31 E19.56946
G1 X81.354 Y90.778 F18000
G1 F1500
G1 X81.804 Y90.4 E19.59676
G1 X83.953 Y89.617 E19.70281
G1 X85.1 Y89.516 E19.75621
G1 X134.9 Y89.516 E22.06569
G1 X137.152 Y89.913 E22.17175
G1 X139.133 Y91.056 E22.2778
G1 X140.603 Y92.808 E22.38385
G1 X141.386 Y94.956 E22.4899
G1 X141.487 Y96.103 E22.54331
G1 X141.487 Y123.9 E23.83238
G1 X141.09 Y126.152 E23.93843
G1 X139.947 Y128.133 E24.04449
G1 X138.196 Y129.603 E24.15054
G1 X136.047 Y130.386 E24.25659
G1 X134.9 Y130.487 E24.31
G1 X85.1 Y130.487 E26.61947
G1 X82.848 Y130.09 E26.72553
M73 P3 R12
G1 X80.867 Y128.947 E26.83158
G1 X79.397 Y127.196 E26.93763
G1 X78.614 Y125.047 E27.04368
G1 X78.513 Y123.9 E27.09709
G1 X78.513 Y96.103 E28.38616
G1 X78.91 Y93.851 E28.49221
G1 X80.053 Y91.87 E28.59827
G1 X81.285 Y90.836 E28.67285
G1 E27.92285 F600
G92 E0
G1 X124.682 Y117.031 F18000
G1 E.85 F600
;TYPE:Perimeter
;WIDTH:0.629999
G1 F1200
G1 X124.668 Y116.966 E.85308
G1 X124.531 Y116.759 E.86459
G1 X124.312 Y116.58 E.87775
G1 X121.44 Y114.922 E1.03152
;WIDTH:0.668444
G1 X121.348 Y114.868 E1.03681
;WIDTH:0.706889
G1 X121.255 Y114.814 E1.04244
;WIDTH:0.745334
G1 X121.162 Y114.76 E1.04839
G1 X120.838 Y114.76 E1.06638
G1 X120.745 Y114.814 E1.07233
;WIDTH:0.706889
G1 X120.652 Y114.868 E1.07795
;WIDTH:0.668444
G1 X120.56 Y114.922 E1.08325
;WIDTH:0.629999
G1 X117.688 Y116.58 E1.23702
G1 X117.391 Y116.86 E1.25596
G1 X117.286 Y117.086 E1.26749
G1 X117.248 Y117.342 E1.27953
G1 X117.248 Y120.658 E1.43329
G1 X117.261 Y120.81 E1.44037
G1 X117.411 Y121.169 E1.4584
G1 X117.688 Y121.42 E1.47576
G1 X120.42 Y122.998 E1.62207
G1 X114.002 Y122.998 E1.91972
G1 X114.002 Y114.005 E2.33675
G1 X120.314 Y114.005 E2.62948
;WIDTH:0.665212
G1 X120.543 Y114.023 E2.64075
;WIDTH:0.700425
G1 X120.771 Y114.041 E2.65266
;WIDTH:0.735637
G1 X121 Y114.058 E2.6652
G1 X121.229 Y114.041 E2.67775
;WIDTH:0.700425
G1 X121.457 Y114.023 E2.68966
;WIDTH:0.665212
G1 X121.686 Y114.005 E2.70093
;WIDTH:0.629999
G1 X133.998 Y114.005 E3.2719
G1 X133.998 Y122.998 E3.68893
G1 X121.58 Y122.998 E4.26484
G1 X124.312 Y121.42 E4.41114
G1 X124.586 Y121.173 E4.42828
G1 X124.719 Y120.898 E4.44243
G1 X124.752 Y120.658 E4.45368
G1 X124.752 Y117.342 E4.60744
G1 X124.702 Y117.119 E4.61804
G1 X124.137 Y117.217 F18000
;TYPE:External perimeter
G1 F450
G1 X124.165 Y117.342 E4.62398
G1 X124.165 Y120.658 E4.77774
G1 X124.11 Y120.829 E4.7861
G1 X124.018 Y120.912 E4.79182
;WIDTH:0.658251
G1 X122.59 Y121.753 E4.8724
;WIDTH:0.686502
G1 X121.161 Y122.594 E4.95669
;WIDTH:0.734426
G1 X121.13 Y122.631 E4.95929
;WIDTH:0.78235
M73 P4 R12
G1 X121.099 Y122.667 E4.96208
;WIDTH:0.830273
G1 X121.068 Y122.703 E4.96505
G1 X121 Y122.706 E4.96929
;WIDTH:0.824352
G1 X120.963 Y122.672 E4.97238
;WIDTH:0.775764
G1 X120.927 Y122.638 E4.97528
;WIDTH:0.727176
G1 X120.89 Y122.604 E4.97799
;WIDTH:0.678588
G1 X120.853 Y122.57 E4.98051
;WIDTH:0.629999
G1 X117.982 Y120.912 E5.13427
G1 X117.839 Y120.709 E5.14579
G1 X117.835 Y117.342 E5.30191
G1 X117.883 Y117.182 E5.30968
G1 X117.982 Y117.088 E5.31599
G1 X120.853 Y115.43 E5.46976
G1 X121.051 Y115.395 E5.47906
G1 X121.147 Y115.43 E5.4838
G1 X124.018 Y117.088 E5.63756
G1 X124.076 Y117.151 E5.64153
M73 P4 R11
G1 X124.265 Y117.221 F18000
G1 E4.89153 F600
G92 E0
G1 X134.585 Y123.585 F18000
G1 E.85 F600
G1 F750
G1 X124.734 Y123.585 E1.30682
;WIDTH:0.658251
G1 X123.077 Y123.571 E1.3874
;WIDTH:0.686502
G1 X121.419 Y123.557 E1.47169
;WIDTH:0.734426
G1 X121.325 Y123.533 E1.477
;WIDTH:0.78235
G1 X121.23 Y123.509 E1.48268
;WIDTH:0.830273
G1 X121.136 Y123.485 E1.48873
G1 X121.025 Y123.505 E1.49574
;WIDTH:0.790219
G1 X120.914 Y123.525 E1.5024
;WIDTH:0.750164
G1 X120.803 Y123.545 E1.5087
;WIDTH:0.710109
G1 X120.692 Y123.565 E1.51464
;WIDTH:0.670054
G1 X120.581 Y123.585 E1.52023
;WIDTH:0.629999
G1 X113.415 Y123.585 E1.85256
G1 X113.415 Y113.418 E2.32404
G1 X134.585 Y113.418 E3.3058
G1 X134.585 Y118.502 E3.54154
G1 X134.585 Y123.495 E3.77311
G1 E3.02311 F600
G92 E0
G1 X133.822 Y115.376 F18000
G1 E.85 F600
;TYPE:Solid infill
;WIDTH:0.63359
G1 F2250
G1 X132.892 Y114.446 E.91138
G1 X132.056 Y114.446 E.95035
G1 X133.558 Y115.947 E1.04942
M73 P5 R11
G1 X133.558 Y116.782 E1.08839
G1 X131.221 Y114.446 E1.24258
G1 X130.386 Y114.446 E1.28156
G1 X133.558 Y117.618 E1.49086
G1 X133.558 Y118.453 E1.52984
G1 X129.55 Y114.446 E1.79426
G1 X128.715 Y114.446 E1.83324
G1 X133.558 Y119.288 E2.15278
G1 X133.558 Y120.124 E2.19176
G1 X127.88 Y114.446 E2.56642
G1 X127.044 Y114.446 E2.6054
G1 X133.558 Y120.959 E3.03518
G1 X133.558 Y121.794 E3.07416
G1 X126.209 Y114.446 E3.55906
G1 X125.374 Y114.446 E3.59804
G1 X133.486 Y122.558 E4.13331
G1 X132.65 Y122.558 E4.17228
G1 X124.538 Y114.446 E4.70755
G1 X123.703 Y114.446 E4.74653
G1 X131.815 Y122.558 E5.2818
G1 X130.98 Y122.558 E5.32078
G1 X122.868 Y114.446 E5.85605
G1 X122.032 Y114.446 E5.89502
G1 X122.764 Y115.178 E5.94333
G1 X124.542 Y116.204 E6.03911
G1 X124.862 Y116.465 E6.05837
G1 X125.067 Y116.777 E6.07576
G1 X125.166 Y117.077 E6.09053
G1 X125.192 Y117.335 E6.10261
G1 X125.192 Y117.606 E6.11525
G1 X130.144 Y122.558 E6.44201
G1 X129.309 Y122.558 E6.48098
G1 X125.192 Y118.441 E6.75261
G1 X125.192 Y119.276 E6.79159
G1 X128.474 Y122.558 E7.0081
G1 X127.638 Y122.558 E7.04708
G1 X125.192 Y120.112 E7.20847
G1 X125.192 Y120.668 E7.23442
G1 X125.158 Y120.913 E7.24597
G1 X126.803 Y122.558 E7.35449
G1 X125.968 Y122.558 E7.39346
G1 X124.891 Y121.481 E7.46448
G1 X124.545 Y121.794 E7.48624
G1 X124.433 Y121.859 E7.49228
G1 X125.132 Y122.558 E7.53839
G1 X124.297 Y122.558 E7.57737
G1 X123.904 Y122.164 E7.60331
G1 X123.374 Y122.47 E7.63185
G1 X123.726 Y122.822 E7.65505
G1 E6.90505 F600
G92 E0
G1 X120.598 Y114.682 F18000
G1 E.85 F600
G1 F2250
G1 X120.383 Y114.467 E.86416
G1 X120.296 Y114.446 E.86835
G1 X119.526 Y114.446 E.90427
G1 X119.884 Y114.803 E.92787
G1 X119.354 Y115.109 E.95641
G1 X118.691 Y114.446 E1.00018
G1 X117.856 Y114.446 E1.03916
G1 X118.825 Y115.415 E1.10312
G1 X118.295 Y115.721 E1.13165
G1 X117.02 Y114.446 E1.21578
G1 X116.185 Y114.446 E1.25475
G1 X117.766 Y116.026 E1.35906
G1 X117.453 Y116.207 E1.3759
G1 X117.277 Y116.373 E1.3872
G1 X115.35 Y114.446 E1.51439
G1 X114.514 Y114.446 E1.55337
G1 X116.915 Y116.846 E1.71178
G1 X116.863 Y116.957 E1.71749
G1 X116.808 Y117.331 E1.73514
G1 X116.808 Y117.574 E1.74647
G1 X114.442 Y115.209 E1.90255
G1 X114.442 Y116.044 E1.94152
G1 X116.808 Y118.41 E2.09759
G1 X116.808 Y119.245 E2.13657
G1 X114.442 Y116.88 E2.29264
G1 X114.442 Y117.715 E2.33161
G1 X117.072 Y120.344 E2.50512
G1 E1.75512 F600
G92 E0
G1 X118.714 Y122.822 F18000
G1 E.85 F600
G1 F2250
G1 X114.442 Y118.55 E1.13185
G1 X114.442 Y119.386 E1.17083
G1 X117.614 Y122.558 E1.38012
G1 X116.779 Y122.558 E1.4191
G1 X114.442 Y120.221 E1.57328
G1 X114.442 Y121.056 E1.61225
G1 X115.944 Y122.558 E1.71131
G1 X115.108 Y122.558 E1.75029
G1 X114.178 Y121.628 E1.81166
G1 E1.06166 F600
G92 E0
G1 X133.998 Y105.998 F18000
G1 E.85 F600
;TYPE:Perimeter
;WIDTH:0.629999
G1 F1200
G1 X127.58 Y105.998 E1.14765
G1 X130.312 Y104.42 E1.29396
G1 X130.589 Y104.169 E1.31133
G1 X130.721 Y103.89 E1.32562
G1 X130.752 Y103.658 E1.33649
G1 X130.752 Y100.342 E1.49025
G1 X130.714 Y100.086 E1.50228
G1 X130.609 Y99.86 E1.51382
G1 X130.312 Y99.58 E1.53276
G1 X127.44 Y97.922 E1.68653
;WIDTH:0.668444
G1 X127.348 Y97.868 E1.69182
;WIDTH:0.706889
G1 X127.255 Y97.814 E1.69745
;WIDTH:0.745333
G1 X127.162 Y97.76 E1.7034
G1 X126.838 Y97.76 E1.72139
G1 X126.745 Y97.814 E1.72734
;WIDTH:0.706889
G1 X126.652 Y97.868 E1.73296
;WIDTH:0.668444
G1 X126.56 Y97.922 E1.73826
;WIDTH:0.629999
G1 X123.688 Y99.58 E1.89202
G1 X123.469 Y99.759 E1.90519
G1 X123.332 Y99.966 E1.9167
G1 X123.248 Y100.342 E1.93455
G1 X123.248 Y103.658 E2.08831
G1 X123.281 Y103.898 E2.09956
M73 P6 R11
G1 X123.414 Y104.173 E2.11371
G1 X123.688 Y104.42 E2.13084
G1 X126.42 Y105.998 E2.27715
G1 X114.002 Y105.998 E2.85305
G1 X114.002 Y97.005 E3.27008
G1 X126.314 Y97.005 E3.84106
;WIDTH:0.665212
G1 X126.543 Y97.023 E3.85233
;WIDTH:0.700424
G1 X126.771 Y97.041 E3.86424
;WIDTH:0.735636
G1 X127 Y97.058 E3.87678
G1 X127.229 Y97.041 E3.88933
;WIDTH:0.700424
G1 X127.457 Y97.023 E3.90124
;WIDTH:0.665212
G1 X127.686 Y97.005 E3.91251
;WIDTH:0.629999
G1 X133.998 Y97.005 E4.20523
G1 X133.998 Y98.85 E4.2908
G1 X133.998 Y105.908 E4.61809
G1 X134.582 Y106.585 F18000
;TYPE:External perimeter
G1 F750
G1 X130.734 Y106.585 E4.7965
;WIDTH:0.658251
G1 X129.077 Y106.571 E4.87708
;WIDTH:0.686502
G1 X127.419 Y106.557 E4.96137
;WIDTH:0.734426
G1 X127.325 Y106.533 E4.96668
;WIDTH:0.78235
G1 X127.23 Y106.509 E4.97236
;WIDTH:0.830274
G1 X127.136 Y106.485 E4.97841
G1 X127.025 Y106.505 E4.98542
;WIDTH:0.790219
G1 X126.914 Y106.525 E4.99208
;WIDTH:0.750164
G1 X126.803 Y106.545 E4.99838
;WIDTH:0.710109
G1 X126.692 Y106.565 E5.00432
;WIDTH:0.670054
G1 X126.581 Y106.585 E5.00991
;WIDTH:0.629999
G1 X113.415 Y106.585 E5.62049
G1 X113.415 Y96.418 E6.09197
G1 X134.585 Y96.418 E7.07373
G1 X134.585 Y98.85 E7.18652
G1 X134.585 Y106.498 E7.5412
G1 E6.7912 F600
G92 E0
M73 P7 R11
G1 X127.066 Y105.704 F18000
G1 E.85 F600
;WIDTH:0.830274
G1 F450
G1 X127 Y105.706 E.85413
;WIDTH:0.824353
G1 X126.963 Y105.672 E.85722
;WIDTH:0.775765
G1 X126.927 Y105.638 E.86012
;WIDTH:0.727176
G1 X126.89 Y105.604 E.86283
;WIDTH:0.678588
G1 X126.853 Y105.57 E.86535
;WIDTH:0.629999
G1 X123.982 Y103.912 E1.01911
G1 X123.846 Y103.738 E1.02935
G1 X123.835 Y103.658 E1.0331
G1 X123.835 Y100.342 E1.18686
G1 X123.909 Y100.148 E1.1965
G1 X123.982 Y100.088 E1.20088
G1 X126.853 Y98.43 E1.35465
G1 X127.051 Y98.395 E1.36395
G1 X127.147 Y98.43 E1.36869
G1 X130.018 Y100.088 E1.52245
G1 X130.152 Y100.257 E1.53244
G1 X130.165 Y103.658 E1.69018
G1 X130.111 Y103.828 E1.69846
G1 X130.018 Y103.912 E1.70425
;WIDTH:0.658251
G1 X128.59 Y104.753 E1.78484
;WIDTH:0.686502
G1 X127.161 Y105.594 E1.86912
;WIDTH:0.734426
G1 X127.13 Y105.631 E1.87173
;WIDTH:0.78235
G1 X127.125 Y105.636 E1.87215
G1 E1.12215 F600
G92 E0
G1 X133.822 Y98.376 F18000
G1 E.85 F600
;TYPE:Solid infill
;WIDTH:0.63359
G1 F2250
G1 X132.892 Y97.446 E.91138
G1 X132.056 Y97.446 E.95035
G1 X133.558 Y98.947 E1.04942
G1 X133.558 Y99.782 E1.08839
G1 X131.221 Y97.446 E1.24258
G1 X130.386 Y97.446 E1.28156
G1 X133.558 Y100.618 E1.49086
G1 X133.558 Y101.453 E1.52984
G1 X129.55 Y97.446 E1.79426
G1 X128.715 Y97.446 E1.83324
G1 X133.558 Y102.288 E2.15278
G1 X133.558 Y103.124 E2.19176
G1 X131.192 Y100.758 E2.34783
G1 X131.192 Y101.594 E2.3868
G1 X133.558 Y103.959 E2.54287
G1 X133.558 Y104.794 E2.58185
G1 X131.192 Y102.429 E2.73792
G1 X131.192 Y103.264 E2.7769
G1 X133.486 Y105.558 E2.92822
G1 X132.65 Y105.558 E2.96719
G1 X131.132 Y104.04 E3.06736
G1 X130.948 Y104.428 E3.08741
G1 X130.81 Y104.553 E3.09609
G1 X131.815 Y105.558 E3.16238
G1 X130.98 Y105.558 E3.20135
G1 X130.337 Y104.915 E3.24378
G1 X129.807 Y105.22 E3.27232
G1 X130.408 Y105.822 E3.312
G1 E2.562 F600
G92 E0
G1 X129.125 Y98.691 F18000
G1 E.85 F600
G1 F2250
G1 X127.627 Y97.193 E.94887
G1 X126.508 Y97.745 F18000
G1 F2250
G1 X126.209 Y97.446 E.96859
G1 X125.374 Y97.446 E1.00756
G1 X125.787 Y97.859 E1.03485
G1 X125.258 Y98.165 E1.06339
G1 X124.538 Y97.446 E1.11085
G1 X123.703 Y97.446 E1.14983
G1 X124.728 Y98.471 E1.21747
G1 X124.198 Y98.777 E1.246
G1 X122.868 Y97.446 E1.33382
G1 X122.032 Y97.446 E1.37279
G1 X123.669 Y99.082 E1.48079
G1 X123.458 Y99.204 E1.49216
G1 X123.181 Y99.43 E1.50882
G1 X121.197 Y97.446 E1.63976
G1 X120.362 Y97.446 E1.67874
G1 X122.873 Y99.957 E1.84448
G1 X122.834 Y100.077 E1.85037
G1 X122.808 Y100.335 E1.86245
G1 X122.808 Y100.727 E1.88075
G1 X119.526 Y97.446 E2.09727
G1 X118.691 Y97.446 E2.13624
G1 X122.808 Y101.562 E2.40788
G1 X122.808 Y102.398 E2.44686
G1 X117.856 Y97.446 E2.77362
G1 X117.02 Y97.446 E2.81259
G1 X123.072 Y103.497 E3.2119
G1 E2.4619 F600
G92 E0
G1 X124.561 Y105.822 F18000
G1 E.85 F600
G1 F2250
G1 X116.185 Y97.446 E1.4027
G1 X115.35 Y97.446 E1.44168
G1 X123.462 Y105.558 E1.97695
G1 X122.626 Y105.558 E2.01593
M73 P8 R11
G1 X114.514 Y97.446 E2.5512
G1 X114.442 Y97.446 E2.55455
G1 X114.442 Y98.209 E2.59017
G1 X121.791 Y105.558 E3.07507
G1 X120.956 Y105.558 E3.11405
G1 X114.442 Y99.044 E3.54382
G1 X114.442 Y99.88 E3.5828
G1 X120.12 Y105.558 E3.95746
G1 X119.285 Y105.558 E3.99643
G1 X114.442 Y100.715 E4.31597
G1 X114.442 Y101.55 E4.35494
G1 X118.45 Y105.558 E4.61936
G1 X117.614 Y105.558 E4.65834
G1 X114.442 Y102.386 E4.86764
G1 X114.442 Y103.221 E4.90661
G1 X116.779 Y105.558 E5.06079
G1 X115.944 Y105.558 E5.09977
G1 X114.442 Y104.056 E5.19882
G1 X114.442 Y104.892 E5.2378
G1 X115.372 Y105.822 E5.29917
G1 E4.54917 F600
G92 E0
G1 X105.998 Y105.998 F18000
G1 E.85 F600
;TYPE:Perimeter
;WIDTH:0.629999
G1 F1200
G1 X93.58 Y105.998 E1.4259
G1 X96.312 Y104.42 E1.57221
G1 X96.586 Y104.173 E1.58935
G1 X96.719 Y103.898 E1.6035
G1 X96.752 Y103.658 E1.61474
G1 X96.752 Y100.342 E1.7685
G1 X96.668 Y99.966 E1.78636
G1 X96.531 Y99.759 E1.79787
G1 X96.312 Y99.58 E1.81103
G1 X93.44 Y97.922 E1.96479
;WIDTH:0.668444
G1 X93.348 Y97.868 E1.97009
