; G-Code generated by Simplify3D(R) Version 4.1.2
; Jul 23, 2022 at 2:09:36 PM
; Settings Summary
;   processName,Process1
;   applyToModels,cooling-duct
;   profileName,HSBot
;   profileVersion,2019-11-09 11:59:44
;   baseProfile,Default
;   printMaterial,PETG - Eryone
;   printQuality,Medium
;   printExtruders,
;   extruderName,Extruder - v6,Extruder - lgx ace
;   extruderToolheadNumber,0,1
;   extruderDiameter,0.4,0.4
;   extruderAutoWidth,1,1
;   extruderWidth,0.48,0.48
;   extrusionMultiplier,1.03,1.03
;   extruderUseRetract,0,1
;   extruderRetractionDistance,4,1
;   extruderExtraRestartDistance,0,0
;   extruderRetractionZLift,0,0
;   extruderRetractionSpeed,3600,3600
;   extruderUseCoasting,0,0
;   extruderCoastingDistance,0.2,0.2
;   extruderUseWipe,0,1
;   extruderWipeDistance,1,1
;   primaryExtruder,1
;   layerHeight,0.2
;   topSolidLayers,3
;   bottomSolidLayers,3
;   perimeterOutlines,3
;   printPerimetersInsideOut,1
;   startPointOption,2
;   startPointOriginX,0
;   startPointOriginY,0
;   sequentialIslands,0
;   spiralVaseMode,0
;   firstLayerHeightPercentage,100
;   firstLayerWidthPercentage,150
;   firstLayerUnderspeed,0.25
;   useRaft,0
;   raftExtruder,0
;   raftTopLayers,3
;   raftBaseLayers,2
;   raftOffset,3
;   raftSeparationDistance,0.18
;   raftTopInfill,100
;   aboveRaftSpeedMultiplier,0.3
;   useSkirt,0
;   skirtExtruder,1
;   skirtLayers,1
;   skirtOutlines,10
;   skirtOffset,0
;   usePrimePillar,0
;   primePillarExtruder,999
;   primePillarWidth,12
;   primePillarLocation,7
;   primePillarSpeedMultiplier,1
;   useOozeShield,0
;   oozeShieldExtruder,999
;   oozeShieldOffset,2
;   oozeShieldOutlines,1
;   oozeShieldSidewallShape,1
;   oozeShieldSidewallAngle,30
;   oozeShieldSpeedMultiplier,1
;   infillExtruder,1
;   internalInfillPattern,Rectilinear
;   externalInfillPattern,Rectilinear
;   infillPercentage,15
;   outlineOverlapPercentage,20
;   infillExtrusionWidthPercentage,100
;   minInfillLength,3
;   infillLayerInterval,1
;   internalInfillAngles,45,-45
;   overlapInternalInfillAngles,0
;   externalInfillAngles,45,-45
;   generateSupport,0
;   supportExtruder,1
;   supportInfillPercentage,30
;   supportExtraInflation,0
;   supportBaseLayers,1
;   denseSupportExtruder,0
;   denseSupportLayers,0
;   denseSupportInfillPercentage,70
;   supportLayerInterval,1
;   supportHorizontalPartOffset,0.3
;   supportUpperSeparationLayers,1
;   supportLowerSeparationLayers,1
;   supportType,0
;   supportGridSpacing,2
;   maxOverhangAngle,45
;   supportAngles,0
;   temperatureName,v6,Bed,lgx-ace
;   temperatureNumber,0,0,1
;   temperatureSetpointCount,1,1,1
;   temperatureSetpointLayers,1,1,1
;   temperatureSetpointTemperatures,0,85,230
;   temperatureStabilizeAtStartup,1,1,1
;   temperatureHeatedBed,0,1,0
;   fanLayers,1,2,3
;   fanSpeeds,0,15,15
;   blipFanToFullPower,0
;   adjustSpeedForCooling,0
;   minSpeedLayerTime,15
;   minCoolingSpeedSlowdown,50
;   increaseFanForCooling,0
;   minFanLayerTime,45
;   maxCoolingFanSpeed,70
;   increaseFanForBridging,0
;   bridgingFanSpeed,80
;   use5D,1
;   relativeEdistances,0
;   allowEaxisZeroing,1
;   independentExtruderAxes,0
;   includeM10123,0
;   stickySupport,1
;   applyToolheadOffsets,0
;   gcodeXoffset,0
;   gcodeYoffset,0
;   gcodeZoffset,0
;   overrideMachineDefinition,1
;   machineTypeOverride,0
;   strokeXoverride,220
;   strokeYoverride,220
;   strokeZoverride,175
;   originOffsetXoverride,0
;   originOffsetYoverride,0
;   originOffsetZoverride,0
;   homeXdirOverride,-1
;   homeYdirOverride,-1
;   homeZdirOverride,-1
;   flipXoverride,1
;   flipYoverride,-1
;   flipZoverride,1
;   toolheadOffsets,0,0|0,0|0,0|0,0|0,0|0,0
;   overrideFirmwareConfiguration,0
;   firmwareTypeOverride,RepRap (Marlin/Repetier/Sprinter)
;   GPXconfigOverride,r2
;   baudRateOverride,115200
;   overridePrinterModels,0
;   printerModelsOverride
;   startingGcode,G28 ; home all axes,G32 ; run bed.g -- probe bed and enable compensation
;   layerChangeGcode,
;   retractionGcode,
;   toolChangeGcode,
;   endingGcode,M0 ; call stop.g
;   exportFileFormat,gcode
;   celebration,0
;   celebrationSong,Random Song
;   postProcessing,
;   defaultSpeed,7800
;   outlineUnderspeed,1
;   solidInfillUnderspeed,0.75
;   supportUnderspeed,0.8
;   rapidXYspeed,18000
;   rapidZspeed,1200
;   minBridgingArea,60
;   bridgingExtraInflation,0
;   bridgingExtrusionMultiplier,0.96
;   bridgingSpeedMultiplier,1
;   useFixedBridgingAngle,0
;   fixedBridgingAngle,0
;   applyBridgingToPerimeters,0
;   filamentDiameters,1.75|1.75|1.75|1.75|1.75|1.75
;   filamentPricesPerKg,25|46|46|46|46|46
;   filamentDensities,1.29|1.25|1.25|1.25|1.25|1.25
;   useMinPrintHeight,0
;   minPrintHeight,0.3
;   useMaxPrintHeight,1
;   maxPrintHeight,115
;   useDiaphragm,0
;   diaphragmLayerInterval,20
;   robustSlicing,1
;   mergeAllIntoSolid,0
;   onlyRetractWhenCrossingOutline,1
;   retractBetweenLayers,0
;   useRetractionMinTravel,1
;   retractionMinTravel,5
;   retractWhileWiping,1
;   onlyWipeOutlines,1
;   avoidCrossingOutline,1
;   maxMovementDetourFactor,2
;   toolChangeRetractionDistance,3
;   toolChangeExtraRestartDistance,0
;   toolChangeRetractionSpeed,600
;   externalThinWallType,1
;   internalThinWallType,1
;   thinWallAllowedOverlapPercentage,10
;   singleExtrusionMinLength,0.1
;   singleExtrusionMinPrintingWidthPercentage,50
;   singleExtrusionMaxPrintingWidthPercentage,200
;   singleExtrusionEndpointExtension,0.2
;   horizontalSizeCompensation,0
G90
M82
M106 S0
M140 S85
M190 S85
G10 S0 R0 P0
G10 S230 R230 P1
M116 P1
G28 ; home all axes
G32 ; run bed.g -- probe bed and enable compensation
; process Process1
; layer 1, Z = 0.200
T1
G92 E0.0000
G1 E-1.0000 F3600
; feature inner perimeter
; tool H0.200 W0.720
G1 Z0.200 F1200
G1 X6.800 Y81.800 F18000
G1 E0.0000 F3600
G92 E0.0000
G1 X213.200 Y81.800 E12.7275 F1950
G1 X213.200 Y118.256 E14.9755
G1 X6.800 Y118.256 E27.7030
G1 X6.800 Y81.800 E29.9510
G1 X6.080 Y81.080 F18000
G92 E0.0000
G1 X213.920 Y81.080 E12.8163 F1950
G1 X213.920 Y118.976 E15.1531
G1 X6.080 Y118.976 E27.9694
G1 X6.080 Y81.080 E30.3062
; feature outer perimeter
G1 X5.360 Y80.360 F18000
G92 E0.0000
G1 X214.640 Y80.360 E12.9051 F1950
G1 X214.640 Y119.696 E15.3307
G1 X5.360 Y119.696 E28.2358
G1 X5.360 Y80.360 E30.6614
G1 X6.360 Y80.360 F1950
; feature solid layer
G1 X7.376 Y117.345 F18000
G92 E0.0000
G1 X7.710 Y117.680 E0.0292 F1463
G1 X8.729 Y117.680 E0.0919
G1 X7.376 Y116.327 E0.2099
G1 X7.376 Y115.309 E0.2727
G1 X9.747 Y117.680 E0.4794
G1 X10.765 Y117.680 E0.5422
G1 X7.376 Y114.291 E0.8378
G1 X7.376 Y113.272 E0.9005
G1 X11.783 Y117.680 E1.2849
G1 X12.801 Y117.680 E1.3477
G1 X7.376 Y112.254 E1.8208
G1 X7.376 Y111.236 E1.8836
G1 X13.820 Y117.680 E2.4455
G1 X14.838 Y117.680 E2.5083
G1 X7.376 Y110.218 E3.1591
G1 X7.376 Y109.199 E3.2218
G1 X15.856 Y117.680 E3.9614
G1 X16.874 Y117.680 E4.0242
G1 X7.376 Y108.181 E4.8525
G1 X7.376 Y107.163 E4.9153
G1 X17.893 Y117.680 E5.8324
G1 X18.911 Y117.680 E5.8952
G1 X7.376 Y106.145 E6.9011
G1 X7.376 Y105.126 E6.9639
G1 X19.929 Y117.680 E8.0586
G1 X20.947 Y117.680 E8.1214
G1 X7.376 Y104.108 E9.3049
G1 X7.376 Y103.090 E9.3677
G1 X21.966 Y117.680 E10.6400
G1 X22.984 Y117.680 E10.7028
G1 X7.376 Y102.072 E12.0639
G1 X7.376 Y101.053 E12.1267
G1 X24.002 Y117.680 E13.5766
G1 X25.020 Y117.680 E13.6394
G1 X7.376 Y100.035 E15.1780
G1 X7.376 Y99.017 E15.2408
G1 X26.039 Y117.680 E16.8683
G1 X27.057 Y117.680 E16.9311
G1 X7.376 Y97.999 E18.6474
G1 X7.376 Y96.981 E18.7102
G1 X28.075 Y117.680 E20.5153
G1 X29.093 Y117.680 E20.5781
G1 X7.376 Y95.962 E22.4720
G1 X7.376 Y94.944 E22.5347
G1 X30.111 Y117.680 E24.5174
G1 X31.130 Y117.680 E24.5802
G1 X7.376 Y93.926 E26.6517
G1 X7.376 Y92.908 E26.7145
G1 X32.148 Y117.680 E28.8747
G1 X33.166 Y117.680 E28.9375
G1 X7.376 Y91.889 E31.1866
G1 X7.376 Y90.871 E31.2494
G1 X34.184 Y117.680 E33.5873
G1 X35.203 Y117.680 E33.6500
G1 X7.376 Y89.853 E36.0767
G1 X7.376 Y88.835 E36.1395
G1 X36.221 Y117.680 E38.6549
G1 X37.239 Y117.680 E38.7177
G1 X7.376 Y87.816 E41.3220
G1 X7.376 Y86.798 E41.3848
G1 X38.257 Y117.680 E44.0778
G1 X39.276 Y117.680 E44.1406
G1 X7.376 Y85.780 E46.9225
G1 X7.376 Y84.762 E46.9853
G1 X40.294 Y117.680 E49.8559
G1 X41.312 Y117.680 E49.9187
G1 X7.376 Y83.744 E52.8781
G1 X7.376 Y82.725 E52.9409
G1 X42.330 Y117.680 E55.9892
G1 X43.348 Y117.680 E56.0519
G1 X8.045 Y82.376 E59.1306
G1 X9.063 Y82.376 E59.1934
G1 X44.367 Y117.680 E62.2721
G1 X45.385 Y117.680 E62.3349
G1 X10.081 Y82.376 E65.4136
G1 X11.100 Y82.376 E65.4764
G1 X46.403 Y117.680 E68.5551
G1 X47.421 Y117.680 E68.6179
G1 X12.118 Y82.376 E71.6966
G1 X13.136 Y82.376 E71.7594
G1 X48.440 Y117.680 E74.8381
G1 X49.458 Y117.680 E74.9009
G1 X14.154 Y82.376 E77.9796
G1 X15.173 Y82.376 E78.0423
G1 X50.476 Y117.680 E81.1210
G1 X51.494 Y117.680 E81.1838
G1 X16.191 Y82.376 E84.2625
G1 X17.209 Y82.376 E84.3253
G1 X52.513 Y117.680 E87.4040
G1 X53.531 Y117.680 E87.4668
G1 X18.227 Y82.376 E90.5455
G1 X19.246 Y82.376 E90.6083
G1 X54.549 Y117.680 E93.6870
G1 X55.567 Y117.680 E93.7498
G1 X20.264 Y82.376 E96.8285
G1 X21.282 Y82.376 E96.8913
G1 X56.586 Y117.680 E99.9700
G1 X57.604 Y117.680 E100.0327
G1 X22.300 Y82.376 E103.1114
G1 X23.318 Y82.376 E103.1742
G1 X58.622 Y117.680 E106.2529
G1 X59.640 Y117.680 E106.3157
G1 X24.337 Y82.376 E109.3944
G1 X25.355 Y82.376 E109.4572
G1 X60.658 Y117.680 E112.5359
G1 X61.677 Y117.680 E112.5987
G1 X26.373 Y82.376 E115.6774
G1 X27.391 Y82.376 E115.7402
G1 X62.695 Y117.680 E118.8189
G1 X63.713 Y117.680 E118.8817
G1 X28.410 Y82.376 E121.9604
G1 X29.428 Y82.376 E122.0232
G1 X64.731 Y117.680 E125.1018
G1 X65.750 Y117.680 E125.1646
G1 X30.446 Y82.376 E128.2433
G1 X31.464 Y82.376 E128.3061
G1 X66.768 Y117.680 E131.3848
G1 X67.786 Y117.680 E131.4476
G1 X32.483 Y82.376 E134.5263
G1 X33.501 Y82.376 E134.5891
G1 X68.804 Y117.680 E137.6678
G1 X69.823 Y117.680 E137.7306
G1 X34.519 Y82.376 E140.8093
G1 X35.537 Y82.376 E140.8721
G1 X70.841 Y117.680 E143.9508
G1 X71.859 Y117.680 E144.0136
G1 X36.555 Y82.376 E147.0923
G1 X37.574 Y82.376 E147.1550
G1 X72.877 Y117.680 E150.2337
G1 X73.896 Y117.680 E150.2965
G1 X38.592 Y82.376 E153.3752
G1 X39.610 Y82.376 E153.4380
G1 X74.914 Y117.680 E156.5167
G1 X75.932 Y117.680 E156.5795
G1 X40.628 Y82.376 E159.6582
G1 X41.647 Y82.376 E159.7210
G1 X76.950 Y117.680 E162.7997
G1 X77.968 Y117.680 E162.8625
G1 X42.665 Y82.376 E165.9412
G1 X43.683 Y82.376 E166.0040
G1 X78.987 Y117.680 E169.0827
G1 X80.005 Y117.680 E169.1454
G1 X44.701 Y82.376 E172.2241
G1 X45.720 Y82.376 E172.2869
G1 X81.023 Y117.680 E175.3656
G1 X82.041 Y117.680 E175.4284
G1 X46.738 Y82.376 E178.5071
G1 X47.756 Y82.376 E178.5699
G1 X83.060 Y117.680 E181.6486
G1 X84.078 Y117.680 E181.7114
G1 X48.774 Y82.376 E184.7901
G1 X49.793 Y82.376 E184.8529
G1 X85.096 Y117.680 E187.9316
G1 X86.114 Y117.680 E187.9944
G1 X50.811 Y82.376 E191.0731
G1 X51.829 Y82.376 E191.1358
G1 X87.133 Y117.680 E194.2145
G1 X88.151 Y117.680 E194.2773
G1 X52.847 Y82.376 E197.3560
G1 X53.865 Y82.376 E197.4188
G1 X89.169 Y117.680 E200.4975
G1 X90.187 Y117.680 E200.5603
G1 X54.884 Y82.376 E203.6390
G1 X55.902 Y82.376 E203.7018
G1 X91.205 Y117.680 E206.7805
G1 X92.224 Y117.680 E206.8433
G1 X56.920 Y82.376 E209.9220
G1 X57.938 Y82.376 E209.9848
G1 X93.242 Y117.680 E213.0635
G1 X94.260 Y117.680 E213.1262
G1 X58.957 Y82.376 E216.2049
G1 X59.975 Y82.376 E216.2677
G1 X95.278 Y117.680 E219.3464
G1 X96.297 Y117.680 E219.4092
G1 X60.993 Y82.376 E222.4879
G1 X62.011 Y82.376 E222.5507
G1 X97.315 Y117.680 E225.6294
G1 X98.333 Y117.680 E225.6922
G1 X63.030 Y82.376 E228.7709
G1 X64.048 Y82.376 E228.8337
G1 X99.351 Y117.680 E231.9124
G1 X100.370 Y117.680 E231.9752
G1 X65.066 Y82.376 E235.0539
G1 X66.084 Y82.376 E235.1166
G1 X101.388 Y117.680 E238.1953
G1 X102.406 Y117.680 E238.2581
G1 X67.103 Y82.376 E241.3368
G1 X68.121 Y82.376 E241.3996
G1 X103.424 Y117.680 E244.4783
G1 X104.443 Y117.680 E244.5411
G1 X69.139 Y82.376 E247.6198
G1 X70.157 Y82.376 E247.6826
G1 X105.461 Y117.680 E250.7613
G1 X106.479 Y117.680 E250.8241
G1 X71.175 Y82.376 E253.9028
G1 X72.194 Y82.376 E253.9656
G1 X107.497 Y117.680 E257.0443
G1 X108.515 Y117.680 E257.1071
G1 X73.212 Y82.376 E260.1857
G1 X74.230 Y82.376 E260.2485
G1 X109.534 Y117.680 E263.3272
G1 X110.552 Y117.680 E263.3900
G1 X75.248 Y82.376 E266.4687
G1 X76.267 Y82.376 E266.5315
G1 X111.570 Y117.680 E269.6102
G1 X112.588 Y117.680 E269.6730
G1 X77.285 Y82.376 E272.7517
G1 X78.303 Y82.376 E272.8145
G1 X113.607 Y117.680 E275.8932
G1 X114.625 Y117.680 E275.9560
G1 X79.321 Y82.376 E279.0347
G1 X80.340 Y82.376 E279.0975
G1 X115.643 Y117.680 E282.1761
G1 X116.661 Y117.680 E282.2389
G1 X81.358 Y82.376 E285.3176
G1 X82.376 Y82.376 E285.3804
G1 X117.680 Y117.680 E288.4591
G1 X118.698 Y117.680 E288.5219
G1 X83.394 Y82.376 E291.6006
G1 X84.412 Y82.376 E291.6634
G1 X119.716 Y117.680 E294.7421
G1 X120.734 Y117.680 E294.8049
G1 X85.431 Y82.376 E297.8836
G1 X86.449 Y82.376 E297.9464
G1 X121.752 Y117.680 E301.0251
G1 X122.771 Y117.680 E301.0879
G1 X87.467 Y82.376 E304.1666
G1 X88.485 Y82.376 E304.2293
G1 X123.789 Y117.680 E307.3080
G1 X124.807 Y117.680 E307.3708
G1 X89.504 Y82.376 E310.4495
G1 X90.522 Y82.376 E310.5123
G1 X125.825 Y117.680 E313.5910
G1 X126.844 Y117.680 E313.6538
G1 X91.540 Y82.376 E316.7325
G1 X92.558 Y82.376 E316.7953
G1 X127.862 Y117.680 E319.8740
G1 X128.880 Y117.680 E319.9368
G1 X93.577 Y82.376 E323.0155
G1 X94.595 Y82.376 E323.0783
G1 X129.898 Y117.680 E326.1570
G1 X130.917 Y117.680 E326.2197
G1 X95.613 Y82.376 E329.2984
G1 X96.631 Y82.376 E329.3612
G1 X131.935 Y117.680 E332.4399
G1 X132.953 Y117.680 E332.5027
G1 X97.650 Y82.376 E335.5814
G1 X98.668 Y82.376 E335.6442
G1 X133.971 Y117.680 E338.7229
G1 X134.990 Y117.680 E338.7857
G1 X99.686 Y82.376 E341.8644
G1 X100.704 Y82.376 E341.9272
G1 X136.008 Y117.680 E345.0059
G1 X137.026 Y117.680 E345.0687
G1 X101.722 Y82.376 E348.1474
G1 X102.741 Y82.376 E348.2101
G1 X138.044 Y117.680 E351.2888
G1 X139.062 Y117.680 E351.3516
G1 X103.759 Y82.376 E354.4303
G1 X104.777 Y82.376 E354.4931
G1 X140.081 Y117.680 E357.5718
G1 X141.099 Y117.680 E357.6346
G1 X105.795 Y82.376 E360.7133
G1 X106.814 Y82.376 E360.7761
G1 X142.117 Y117.680 E363.8548
G1 X143.135 Y117.680 E363.9176
G1 X107.832 Y82.376 E366.9963
G1 X108.850 Y82.376 E367.0591
G1 X144.154 Y117.680 E370.1378
G1 X145.172 Y117.680 E370.2005
G1 X109.868 Y82.376 E373.2792
G1 X110.887 Y82.376 E373.3420
G1 X146.190 Y117.680 E376.4207
G1 X147.208 Y117.680 E376.4835
G1 X111.905 Y82.376 E379.5622
G1 X112.923 Y82.376 E379.6250
G1 X148.227 Y117.680 E382.7037
G1 X149.245 Y117.680 E382.7665
G1 X113.941 Y82.376 E385.8452
G1 X114.959 Y82.376 E385.9080
G1 X150.263 Y117.680 E388.9867
G1 X151.281 Y117.680 E389.0495
G1 X115.978 Y82.376 E392.1282
G1 X116.996 Y82.376 E392.1909
G1 X152.300 Y117.680 E395.2696
G1 X153.318 Y117.680 E395.3324
G1 X118.014 Y82.376 E398.4111
G1 X119.032 Y82.376 E398.4739
G1 X154.336 Y117.680 E401.5526
G1 X155.354 Y117.680 E401.6154
G1 X120.051 Y82.376 E404.6941
G1 X121.069 Y82.376 E404.7569
G1 X156.372 Y117.680 E407.8356
G1 X157.391 Y117.680 E407.8984
G1 X122.087 Y82.376 E410.9771
G1 X123.105 Y82.376 E411.0399
G1 X158.409 Y117.680 E414.1186
G1 X159.427 Y117.680 E414.1814
G1 X124.124 Y82.376 E417.2600
G1 X125.142 Y82.376 E417.3228
G1 X160.445 Y117.680 E420.4015
G1 X161.464 Y117.680 E420.4643
G1 X126.160 Y82.376 E423.5430
G1 X127.178 Y82.376 E423.6058
G1 X162.482 Y117.680 E426.6845
G1 X163.500 Y117.680 E426.7473
G1 X128.197 Y82.376 E429.8260
G1 X129.215 Y82.376 E429.8888
G1 X164.518 Y117.680 E432.9675
G1 X165.537 Y117.680 E433.0303
G1 X130.233 Y82.376 E436.1090
G1 X131.251 Y82.376 E436.1718
G1 X166.555 Y117.680 E439.2505
G1 X167.573 Y117.680 E439.3132
G1 X132.269 Y82.376 E442.3919
G1 X133.288 Y82.376 E442.4547
G1 X168.591 Y117.680 E445.5334
G1 X169.609 Y117.680 E445.5962
G1 X134.306 Y82.376 E448.6749
G1 X135.324 Y82.376 E448.7377
G1 X170.628 Y117.680 E451.8164
G1 X171.646 Y117.680 E451.8792
G1 X136.342 Y82.376 E454.9579
G1 X137.361 Y82.376 E455.0207
G1 X172.664 Y117.680 E458.0994
G1 X173.682 Y117.680 E458.1622
G1 X138.379 Y82.376 E461.2409
G1 X139.397 Y82.376 E461.3036
