; G-Code generated by Simplify3D(R) Version 4.1.2
; Jul 24, 2022 at 1:49:06 AM
; Settings Summary
;   processName,Process1
;   applyToModels,cooling-duct-v2
;   profileName,HSBot (modified)
;   profileVersion,2019-11-09 11:59:44
;   baseProfile,Default
;   printMaterial,PETG - Eryone
;   printQuality,Medium
;   printExtruders,
;   extruderName,Extruder - v6,Extruder - lgx ace
;   extruderToolheadNumber,0,1
;   extruderDiameter,0.4,0.4
;   extruderAutoWidth,1,1
;   extruderWidth,0.48,0.48
;   extrusionMultiplier,1.03,1.03
;   extruderUseRetract,0,1
;   extruderRetractionDistance,4,1
;   extruderExtraRestartDistance,0,0
;   extruderRetractionZLift,0,0
;   extruderRetractionSpeed,3600,3600
;   extruderUseCoasting,0,0
;   extruderCoastingDistance,0.2,0.2
;   extruderUseWipe,0,1
;   extruderWipeDistance,1,1
;   primaryExtruder,1
;   layerHeight,0.2
;   topSolidLayers,3
;   bottomSolidLayers,3
;   perimeterOutlines,4
;   printPerimetersInsideOut,1
;   startPointOption,2
;   startPointOriginX,0
;   startPointOriginY,0
;   sequentialIslands,0
;   spiralVaseMode,0
;   firstLayerHeightPercentage,100
;   firstLayerWidthPercentage,150
;   firstLayerUnderspeed,0.25
;   useRaft,0
;   raftExtruder,0
;   raftTopLayers,3
;   raftBaseLayers,2
;   raftOffset,3
;   raftSeparationDistance,0.18
;   raftTopInfill,100
;   aboveRaftSpeedMultiplier,0.3
;   useSkirt,1
;   skirtExtruder,1
;   skirtLayers,1
;   skirtOutlines,5
;   skirtOffset,0
;   usePrimePillar,0
;   primePillarExtruder,999
;   primePillarWidth,12
;   primePillarLocation,7
;   primePillarSpeedMultiplier,1
;   useOozeShield,0
;   oozeShieldExtruder,999
;   oozeShieldOffset,2
;   oozeShieldOutlines,1
;   oozeShieldSidewallShape,1
;   oozeShieldSidewallAngle,30
;   oozeShieldSpeedMultiplier,1
;   infillExtruder,1
;   internalInfillPattern,Rectilinear
;   externalInfillPattern,Rectilinear
;   infillPercentage,15
;   outlineOverlapPercentage,20
;   infillExtrusionWidthPercentage,100
;   minInfillLength,3
;   infillLayerInterval,1
;   internalInfillAngles,45,-45
;   overlapInternalInfillAngles,0
;   externalInfillAngles,45,-45
;   generateSupport,0
;   supportExtruder,1
;   supportInfillPercentage,30
;   supportExtraInflation,0
;   supportBaseLayers,1
;   denseSupportExtruder,0
;   denseSupportLayers,0
;   denseSupportInfillPercentage,70
;   supportLayerInterval,1
;   supportHorizontalPartOffset,0.3
;   supportUpperSeparationLayers,1
;   supportLowerSeparationLayers,1
;   supportType,0
;   supportGridSpacing,2
;   maxOverhangAngle,45
;   supportAngles,0
;   temperatureName,v6,Bed,lgx-ace
;   temperatureNumber,0,0,1
;   temperatureSetpointCount,1,1,1
;   temperatureSetpointLayers,1,1,1
;   temperatureSetpointTemperatures,0,85,230
;   temperatureStabilizeAtStartup,1,1,1
;   temperatureHeatedBed,0,1,0
;   fanLayers,1,2,3
;   fanSpeeds,0,15,15
;   blipFanToFullPower,0
;   adjustSpeedForCooling,0
;   minSpeedLayerTime,15
;   minCoolingSpeedSlowdown,50
;   increaseFanForCooling,0
;   minFanLayerTime,45
;   maxCoolingFanSpeed,70
;   increaseFanForBridging,0
;   bridgingFanSpeed,80
;   use5D,1
;   relativeEdistances,0
;   allowEaxisZeroing,1
;   independentExtruderAxes,0
;   includeM10123,0
;   stickySupport,1
;   applyToolheadOffsets,0
;   gcodeXoffset,0
;   gcodeYoffset,0
;   gcodeZoffset,0
;   overrideMachineDefinition,1
;   machineTypeOverride,0
;   strokeXoverride,220
;   strokeYoverride,220
;   strokeZoverride,175
;   originOffsetXoverride,0
;   originOffsetYoverride,0
;   originOffsetZoverride,0
;   homeXdirOverride,-1
;   homeYdirOverride,-1
;   homeZdirOverride,-1
;   flipXoverride,1
;   flipYoverride,-1
;   flipZoverride,1
;   toolheadOffsets,0,0|0,0|0,0|0,0|0,0|0,0
;   overrideFirmwareConfiguration,0
;   firmwareTypeOverride,RepRap (Marlin/Repetier/Sprinter)
;   GPXconfigOverride,r2
;   baudRateOverride,115200
;   overridePrinterModels,0
;   printerModelsOverride
;   startingGcode,G28 ; home all axes,G32 ; run bed.g -- probe bed and enable compensation
;   layerChangeGcode,
;   retractionGcode,
;   toolChangeGcode,
;   endingGcode,M0 ; call stop.g
;   exportFileFormat,gcode
;   celebration,0
;   celebrationSong,Random Song
;   postProcessing,
;   defaultSpeed,8700
;   outlineUnderspeed,1
;   solidInfillUnderspeed,0.75
;   supportUnderspeed,0.8
;   rapidXYspeed,18000
;   rapidZspeed,1200
;   minBridgingArea,60
;   bridgingExtraInflation,0
;   bridgingExtrusionMultiplier,0.96
;   bridgingSpeedMultiplier,1
;   useFixedBridgingAngle,0
;   fixedBridgingAngle,0
;   applyBridgingToPerimeters,0
;   filamentDiameters,1.75|1.75|1.75|1.75|1.75|1.75
;   filamentPricesPerKg,25|46|46|46|46|46
;   filamentDensities,1.29|1.25|1.25|1.25|1.25|1.25
;   useMinPrintHeight,0
;   minPrintHeight,0.3
;   useMaxPrintHeight,1
;   maxPrintHeight,115
;   useDiaphragm,0
;   diaphragmLayerInterval,20
;   robustSlicing,1
;   mergeAllIntoSolid,0
;   onlyRetractWhenCrossingOutline,1
;   retractBetweenLayers,0
;   useRetractionMinTravel,1
;   retractionMinTravel,5
;   retractWhileWiping,1
;   onlyWipeOutlines,1
;   avoidCrossingOutline,1
;   maxMovementDetourFactor,2
;   toolChangeRetractionDistance,3
;   toolChangeExtraRestartDistance,0
;   toolChangeRetractionSpeed,600
;   externalThinWallType,1
;   internalThinWallType,1
;   thinWallAllowedOverlapPercentage,10
;   singleExtrusionMinLength,0.1
;   singleExtrusionMinPrintingWidthPercentage,50
;   singleExtrusionMaxPrintingWidthPercentage,200
;   singleExtrusionEndpointExtension,0.2
;   horizontalSizeCompensation,0
G90
M82
M106 S0
M140 S85
M190 S85
G10 S0 R0 P0
G10 S230 R230 P1
M116 P1
G28 ; home all axes
G32 ; run bed.g -- probe bed and enable compensation
; process Process1
; layer 1, Z = 0.200
T1
G92 E0.0000
G1 E-1.0000 F3600
; feature skirt
; tool H0.200 W0.720
G1 Z0.200 F1200
G1 X3.658 Y71.760 F18000
G1 E0.0000 F3600
G92 E0.0000
G1 X216.342 Y71.760 E13.1150 F2175
G1 X218.240 Y73.658 E13.2805
G1 X218.240 Y107.351 E15.3582
G1 X216.342 Y109.249 E15.5237
G1 X148.106 Y109.249 E19.7314
G1 X147.344 Y109.299 E19.7785
G1 X146.971 Y109.365 E19.8019
G1 X146.569 Y109.472 E19.8275
G1 X146.180 Y109.614 E19.8531
G1 X145.803 Y109.790 E19.8787
G1 X145.475 Y109.979 E19.9021
G1 X144.945 Y110.368 E19.9426
G1 X144.496 Y110.798 E19.9809
G1 X144.084 Y111.310 E20.0215
G1 X143.880 Y111.631 E20.0449
G1 X143.689 Y111.999 E20.0705
G1 X143.530 Y112.382 E20.0961
G1 X143.416 Y112.744 E20.1195
G1 X143.288 Y113.389 E20.1600
G1 X143.240 Y114.115 E20.2049
G1 X143.240 Y146.342 E22.1921
G1 X141.342 Y148.240 E22.3577
G1 X78.658 Y148.240 E26.2230
G1 X76.760 Y146.342 E26.3885
G1 X76.760 Y114.115 E28.3758
G1 X76.712 Y113.389 E28.4207
G1 X76.591 Y112.779 E28.4590
G1 X76.380 Y112.156 E28.4995
G1 X76.219 Y111.812 E28.5230
G1 X76.012 Y111.453 E28.5485
G1 X75.774 Y111.113 E28.5741
G1 X75.507 Y110.795 E28.5997
G1 X75.239 Y110.527 E28.6231
G1 X74.726 Y110.115 E28.6637
G1 X74.164 Y109.775 E28.7042
G1 X73.820 Y109.614 E28.7276
G1 X73.430 Y109.472 E28.7532
G1 X73.029 Y109.365 E28.7788
G1 X72.656 Y109.299 E28.8022
G1 X71.894 Y109.249 E28.8493
G1 X3.658 Y109.249 E33.0570
G1 X1.760 Y107.351 E33.2225
G1 X1.760 Y73.658 E35.3001
G1 X3.658 Y71.760 E35.4657
G1 X3.956 Y72.480 F18000
G92 E0.0000
G1 X216.044 Y72.480 E13.0782 F2175
G1 X217.520 Y73.956 E13.2070
G1 X217.520 Y107.053 E15.2478
G1 X216.044 Y108.529 E15.3766
G1 X148.083 Y108.529 E19.5674
G1 X147.258 Y108.583 E19.6183
G1 X146.815 Y108.661 E19.6461
G1 X146.353 Y108.785 E19.6756
G1 X145.904 Y108.948 E19.7050
G1 X145.471 Y109.150 E19.7345
G1 X145.081 Y109.375 E19.7623
G1 X144.481 Y109.815 E19.8081
G1 X143.964 Y110.310 E19.8523
G1 X143.498 Y110.890 E19.8981
G1 X143.256 Y111.270 E19.9259
G1 X143.036 Y111.694 E19.9554
G1 X142.853 Y112.136 E19.9848
G1 X142.717 Y112.565 E20.0126
G1 X142.572 Y113.294 E20.0585
G1 X142.520 Y114.091 E20.1077
G1 X142.520 Y146.044 E22.0780
G1 X141.044 Y147.520 E22.2068
G1 X78.956 Y147.520 E26.0354
G1 X77.480 Y146.044 E26.1641
G1 X77.480 Y114.092 E28.1344
G1 X77.428 Y113.294 E28.1837
G1 X77.288 Y112.592 E28.2278
G1 X77.049 Y111.888 E28.2737
G1 X76.859 Y111.480 E28.3015
G1 X76.620 Y111.066 E28.3309
G1 X76.346 Y110.674 E28.3604
G1 X76.038 Y110.308 E28.3899
G1 X75.720 Y109.990 E28.4176
G1 X75.140 Y109.524 E28.4635
G1 X74.504 Y109.139 E28.5093
G1 X74.096 Y108.948 E28.5371
G1 X73.647 Y108.785 E28.5666
G1 X73.185 Y108.661 E28.5961
G1 X72.742 Y108.583 E28.6238
G1 X71.917 Y108.529 E28.6748
G1 X3.956 Y108.529 E32.8656
G1 X2.480 Y107.053 E32.9943
G1 X2.480 Y73.956 E35.0352
G1 X3.956 Y72.480 E35.1639
G1 X4.254 Y73.200 F18000
G92 E0.0000
G1 X215.746 Y73.200 E13.0415 F2175
G1 X216.800 Y74.254 E13.1334
G1 X216.800 Y106.755 E15.1375
G1 X215.746 Y107.809 E15.2295
G1 X148.059 Y107.809 E19.4033
G1 X147.171 Y107.867 E19.4581
G1 X146.659 Y107.958 E19.4903
G1 X146.136 Y108.098 E19.5236
G1 X145.628 Y108.283 E19.5570
G1 X145.138 Y108.511 E19.5903
G1 X144.687 Y108.772 E19.6224
G1 X144.017 Y109.262 E19.6736
G1 X143.432 Y109.823 E19.7236
G1 X142.912 Y110.470 E19.7748
G1 X142.632 Y110.910 E19.8069
G1 X142.382 Y111.389 E19.8403
G1 X142.176 Y111.889 E19.8736
G1 X142.019 Y112.386 E19.9057
G1 X141.857 Y113.200 E19.9569
G1 X141.800 Y114.068 E20.0106
G1 X141.800 Y145.746 E21.9639
G1 X140.746 Y146.800 E22.0559
G1 X79.254 Y146.800 E25.8477
G1 X78.200 Y145.746 E25.9397
G1 X78.200 Y114.068 E27.8930
G1 X78.143 Y113.200 E27.9467
G1 X77.985 Y112.405 E27.9966
G1 X77.718 Y111.619 E28.0478
G1 X77.498 Y111.147 E28.0800
G1 X77.228 Y110.679 E28.1133
G1 X76.917 Y110.236 E28.1466
G1 X76.570 Y109.821 E28.1800
G1 X76.201 Y109.453 E28.2121
G1 X75.554 Y108.933 E28.2633
G1 X74.844 Y108.503 E28.3145
G1 X74.372 Y108.282 E28.3466
G1 X73.864 Y108.098 E28.3800
G1 X73.341 Y107.958 E28.4133
G1 X72.829 Y107.867 E28.4454
G1 X71.941 Y107.809 E28.5003
G1 X4.254 Y107.809 E32.6741
G1 X3.200 Y106.755 E32.7661
G1 X3.200 Y74.254 E34.7702
G1 X4.254 Y73.200 E34.8621
G1 X4.553 Y73.920 F18000
G92 E0.0000
G1 X215.447 Y73.920 E13.0047 F2175
G1 X216.080 Y74.553 E13.0598
G1 X216.080 Y106.456 E15.0272
G1 X215.447 Y107.089 E15.0823
G1 X148.035 Y107.089 E19.2392
G1 X147.085 Y107.151 E19.2980
G1 X146.503 Y107.254 E19.3344
G1 X145.919 Y107.410 E19.3717
G1 X145.352 Y107.617 E19.4089
G1 X144.805 Y107.872 E19.4461
G1 X144.293 Y108.168 E19.4826
G1 X143.553 Y108.710 E19.5391
G1 X142.900 Y109.335 E19.5949
G1 X142.326 Y110.050 E19.6515
G1 X142.008 Y110.550 E19.6880
G1 X141.729 Y111.085 E19.7252
G1 X141.498 Y111.642 E19.7624
G1 X141.320 Y112.207 E19.7989
G1 X141.141 Y113.106 E19.8554
G1 X141.080 Y114.044 E19.9134
G1 X141.080 Y145.447 E21.8498
G1 X140.447 Y146.080 E21.9050
G1 X79.553 Y146.080 E25.6600
G1 X78.920 Y145.447 E25.7152
G1 X78.920 Y114.044 E27.6517
G1 X78.859 Y113.106 E27.7096
G1 X78.682 Y112.219 E27.7654
G1 X78.387 Y111.351 E27.8220
G1 X78.137 Y110.814 E27.8585
G1 X77.835 Y110.291 E27.8957
G1 X77.489 Y109.797 E27.9329
G1 X77.101 Y109.335 E27.9701
G1 X76.683 Y108.916 E28.0066
G1 X75.968 Y108.342 E28.0631
G1 X75.184 Y107.867 E28.1197
G1 X74.648 Y107.617 E28.1562
G1 X74.080 Y107.410 E28.1934
G1 X73.498 Y107.254 E28.2306
G1 X72.915 Y107.151 E28.2671
G1 X71.965 Y107.089 E28.3258
G1 X4.553 Y107.089 E32.4827
G1 X3.920 Y106.456 E32.5379
G1 X3.920 Y74.553 E34.5052
G1 X4.553 Y73.920 E34.5604
G1 X4.851 Y74.640 F18000
G92 E0.0000
G1 X215.149 Y74.640 E12.9679 F2175
G1 X215.360 Y74.851 E12.9863
G1 X215.360 Y106.158 E14.9168
G1 X215.149 Y106.369 E14.9352
G1 X148.012 Y106.369 E19.0752
G1 X146.999 Y106.435 E19.1378
G1 X146.346 Y106.550 E19.1786
G1 X145.703 Y106.723 E19.2197
G1 X145.076 Y106.951 E19.2608
G1 X144.472 Y107.232 E19.3019
G1 X143.899 Y107.564 E19.3428
G1 X143.090 Y108.157 E19.4046
G1 X142.368 Y108.848 E19.4663
G1 X141.740 Y109.630 E19.5281
G1 X141.384 Y110.189 E19.5690
G1 X141.076 Y110.780 E19.6101
G1 X140.821 Y111.396 E19.6512
G1 X140.622 Y112.028 E19.6920
G1 X140.426 Y113.012 E19.7539
G1 X140.360 Y114.021 E19.8162
G1 X140.360 Y145.149 E21.7357
G1 X140.149 Y145.360 E21.7541
G1 X79.851 Y145.360 E25.4724
G1 X79.640 Y145.149 E25.4908
G1 X79.640 Y114.021 E27.4103
G1 X79.574 Y113.012 E27.4726
G1 X79.379 Y112.032 E27.5342
G1 X79.056 Y111.082 E27.5961
G1 X78.776 Y110.481 E27.6370
G1 X78.443 Y109.904 E27.6781
G1 X78.061 Y109.358 E27.7192
G1 X77.633 Y108.848 E27.7603
G1 X77.164 Y108.379 E27.8011
G1 X76.382 Y107.751 E27.8630
G1 X75.524 Y107.231 E27.9248
G1 X74.924 Y106.951 E27.9657
G1 X74.297 Y106.723 E28.0068
G1 X73.654 Y106.550 E28.0479
G1 X73.001 Y106.435 E28.0887
G1 X71.988 Y106.369 E28.1513
G1 X4.851 Y106.369 E32.2913
G1 X4.640 Y106.158 E32.3097
G1 X4.640 Y74.851 E34.2402
G1 X4.851 Y74.640 E34.2586
; feature inner perimeter
G1 X5.360 Y75.360 F18000
G1 X5.518 Y75.360
G1 X7.520 Y77.520
G92 E0.0000
G1 X212.480 Y77.520 E12.6387 F2175
G1 X212.480 Y103.489 E14.2401
G1 X147.972 Y103.489 E18.2179
G1 X147.514 Y103.499 E18.2462
G1 X146.627 Y103.577 E18.3011
G1 X145.750 Y103.731 E18.3560
G1 X145.277 Y103.847 E18.3860
G1 X144.810 Y103.983 E18.4160
G1 X143.973 Y104.288 E18.4709
G1 X143.141 Y104.675 E18.5275
G1 X142.370 Y105.121 E18.5824
G1 X141.943 Y105.406 E18.6141
G1 X141.258 Y105.932 E18.6673
G1 X140.872 Y106.270 E18.6990
G1 X140.242 Y106.900 E18.7539
G1 X139.670 Y107.582 E18.8088
G1 X139.366 Y107.997 E18.8405
G1 X138.887 Y108.748 E18.8955
G1 X138.464 Y109.562 E18.9520
G1 X138.112 Y110.410 E19.0087
G1 X137.836 Y111.286 E19.0653
G1 X137.643 Y112.155 E19.1202
G1 X137.565 Y112.663 E19.1519
G1 X137.490 Y113.523 E19.2051
G1 X137.480 Y113.981 E19.2334
G1 X137.480 Y133.481 E20.4358
G1 X136.955 Y133.583 E20.4688
G1 X136.678 Y132.893 E20.5146
G1 X136.290 Y132.263 E20.5602
G1 X135.974 Y131.871 E20.5913
G1 X135.439 Y131.359 E20.6369
G1 X134.782 Y130.915 E20.6859
G1 X134.059 Y130.588 E20.7348
G1 X133.291 Y130.388 E20.7837
G1 X132.554 Y130.325 E20.8294
G1 X132.104 Y130.345 E20.8571
G1 X131.657 Y130.402 E20.8849
G1 X130.941 Y130.588 E20.9305
G1 X130.218 Y130.915 E20.9794
G1 X129.560 Y131.359 E21.0284
G1 X129.026 Y131.871 E21.0740
G1 X128.710 Y132.263 E21.1051
G1 X128.322 Y132.893 E21.1507
G1 X128.026 Y133.630 E21.1996
G1 X127.859 Y134.406 E21.2486
G1 X127.825 Y135.199 E21.2975
G1 X127.919 Y135.932 E21.3431
G1 X128.046 Y136.420 E21.3742
G1 X128.322 Y137.107 E21.4198
G1 X128.738 Y137.782 E21.4688
G1 X129.262 Y138.378 E21.5177
G1 X129.838 Y138.843 E21.5633
G1 X130.267 Y139.107 E21.5944
G1 X130.941 Y139.412 E21.6400
G1 X131.709 Y139.612 E21.6890
G1 X132.500 Y139.679 E21.7379
G1 X133.291 Y139.612 E21.7868
G1 X134.007 Y139.425 E21.8325
G1 X134.474 Y139.237 E21.8635
G1 X135.073 Y138.903 E21.9058
G1 X135.478 Y138.603 E21.9369
G1 X135.974 Y138.129 E21.9792
G1 X136.290 Y137.737 E22.0103
G1 X136.678 Y137.107 E22.0559
G1 X136.955 Y136.417 E22.1017
G1 X137.480 Y136.519 E22.1347
G1 X137.480 Y142.480 E22.5023
G1 X82.520 Y142.480 E25.8913
G1 X82.520 Y136.546 E26.2573
G1 X83.072 Y136.463 E26.2917
G1 X83.158 Y136.745 E26.3098
G1 X83.516 Y137.453 E26.3588
G1 X83.955 Y138.048 E26.4044
G1 X84.304 Y138.412 E26.4355
G1 X84.838 Y138.843 E26.4778
G1 X85.267 Y139.107 E26.5089
G1 X85.941 Y139.412 E26.5545
G1 X86.709 Y139.612 E26.6034
G1 X87.500 Y139.679 E26.6524
G1 X88.291 Y139.612 E26.7013
G1 X89.007 Y139.425 E26.7469
G1 X89.474 Y139.237 E26.7780
G1 X90.073 Y138.903 E26.8203
G1 X90.478 Y138.603 E26.8514
G1 X91.012 Y138.091 E26.8970
G1 X91.484 Y137.453 E26.9459
G1 X91.817 Y136.793 E26.9916
G1 X91.985 Y136.318 E27.0226
G1 X92.141 Y135.594 E27.0682
G1 X92.173 Y134.855 E27.1139
G1 X92.130 Y134.360 E27.1445
G1 X91.975 Y133.632 E27.1904
G1 X91.698 Y132.943 E27.2362
G1 X91.452 Y132.503 E27.2672
G1 X91.013 Y131.909 E27.3129
G1 X90.439 Y131.359 E27.3618
G1 X89.782 Y130.915 E27.4107
G1 X89.059 Y130.588 E27.4597
G1 X88.291 Y130.388 E27.5086
G1 X87.554 Y130.325 E27.5542
G1 X87.104 Y130.345 E27.5820
G1 X86.657 Y130.402 E27.6098
G1 X85.941 Y130.588 E27.6554
G1 X85.218 Y130.915 E27.7043
G1 X84.561 Y131.359 E27.7533
G1 X83.987 Y131.909 E27.8022
G1 X83.516 Y132.547 E27.8512
G1 X83.183 Y133.207 E27.8968
G1 X83.058 Y133.558 E27.9197
G1 X82.520 Y133.466 E27.9534
G1 X82.520 Y113.981 E29.1549
G1 X82.510 Y113.523 E29.1832
G1 X82.435 Y112.663 E29.2364
G1 X82.357 Y112.155 E29.2681
G1 X82.164 Y111.286 E29.3230
G1 X81.896 Y110.436 E29.3780
G1 X81.710 Y109.957 E29.4097
