; G-Code generated by Simplify3D(R) Version 4.1.2
; Jul 23, 2022 at 12:11:22 AM
; Settings Summary
;   processName,Process1
;   applyToModels,cooling-duct-small
;   profileName,HSBot (modified)
;   profileVersion,2019-11-09 11:59:44
;   baseProfile,Default
;   printMaterial,PETG - Eryone
;   printQuality,Medium
;   printExtruders,
;   extruderName,Extruder - v6,Extruder - lgx ace
;   extruderToolheadNumber,0,1
;   extruderDiameter,0.4,0.4
;   extruderAutoWidth,1,1
;   extruderWidth,0.48,0.48
;   extrusionMultiplier,1.03,1.03
;   extruderUseRetract,0,1
;   extruderRetractionDistance,4,1
;   extruderExtraRestartDistance,0,0
;   extruderRetractionZLift,0,0
;   extruderRetractionSpeed,3600,3600
;   extruderUseCoasting,0,0
;   extruderCoastingDistance,0.2,0.2
;   extruderUseWipe,0,1
;   extruderWipeDistance,1,1
;   primaryExtruder,1
;   layerHeight,0.2
;   topSolidLayers,3
;   bottomSolidLayers,3
;   perimeterOutlines,3
;   printPerimetersInsideOut,1
;   startPointOption,2
;   startPointOriginX,0
;   startPointOriginY,0
;   sequentialIslands,0
;   spiralVaseMode,0
;   firstLayerHeightPercentage,100
;   firstLayerWidthPercentage,150
;   firstLayerUnderspeed,0.25
;   useRaft,0
;   raftExtruder,0
;   raftTopLayers,3
;   raftBaseLayers,2
;   raftOffset,3
;   raftSeparationDistance,0.18
;   raftTopInfill,100
;   aboveRaftSpeedMultiplier,0.3
;   useSkirt,0
;   skirtExtruder,1
;   skirtLayers,1
;   skirtOutlines,10
;   skirtOffset,0
;   usePrimePillar,0
;   primePillarExtruder,999
;   primePillarWidth,12
;   primePillarLocation,7
;   primePillarSpeedMultiplier,1
;   useOozeShield,0
;   oozeShieldExtruder,999
;   oozeShieldOffset,2
;   oozeShieldOutlines,1
;   oozeShieldSidewallShape,1
;   oozeShieldSidewallAngle,30
;   oozeShieldSpeedMultiplier,1
;   infillExtruder,1
;   internalInfillPattern,Rectilinear
;   externalInfillPattern,Rectilinear
;   infillPercentage,15
;   outlineOverlapPercentage,20
;   infillExtrusionWidthPercentage,100
;   minInfillLength,3
;   infillLayerInterval,1
;   internalInfillAngles,45,-45
;   overlapInternalInfillAngles,0
;   externalInfillAngles,45,-45
;   generateSupport,1
;   supportExtruder,1
;   supportInfillPercentage,30
;   supportExtraInflation,0
;   supportBaseLayers,1
;   denseSupportExtruder,0
;   denseSupportLayers,0
;   denseSupportInfillPercentage,70
;   supportLayerInterval,1
;   supportHorizontalPartOffset,0.3
;   supportUpperSeparationLayers,1
;   supportLowerSeparationLayers,1
;   supportType,0
;   supportGridSpacing,2
;   maxOverhangAngle,45
;   supportAngles,0
;   temperatureName,v6,Bed,lgx-ace
;   temperatureNumber,0,0,1
;   temperatureSetpointCount,1,1,1
;   temperatureSetpointLayers,1,1,1
;   temperatureSetpointTemperatures,0,85,230
;   temperatureStabilizeAtStartup,1,1,1
;   temperatureHeatedBed,0,1,0
;   fanLayers,1,2,3
;   fanSpeeds,0,15,15
;   blipFanToFullPower,0
;   adjustSpeedForCooling,0
;   minSpeedLayerTime,15
;   minCoolingSpeedSlowdown,50
;   increaseFanForCooling,0
;   minFanLayerTime,45
;   maxCoolingFanSpeed,70
;   increaseFanForBridging,0
;   bridgingFanSpeed,80
;   use5D,1
;   relativeEdistances,0
;   allowEaxisZeroing,1
;   independentExtruderAxes,0
;   includeM10123,0
;   stickySupport,1
;   applyToolheadOffsets,0
;   gcodeXoffset,0
;   gcodeYoffset,0
;   gcodeZoffset,0
;   overrideMachineDefinition,1
;   machineTypeOverride,0
;   strokeXoverride,220
;   strokeYoverride,220
;   strokeZoverride,175
;   originOffsetXoverride,0
;   originOffsetYoverride,0
;   originOffsetZoverride,0
;   homeXdirOverride,-1
;   homeYdirOverride,-1
;   homeZdirOverride,-1
;   flipXoverride,1
;   flipYoverride,-1
;   flipZoverride,1
;   toolheadOffsets,0,0|0,0|0,0|0,0|0,0|0,0
;   overrideFirmwareConfiguration,0
;   firmwareTypeOverride,RepRap (Marlin/Repetier/Sprinter)
;   GPXconfigOverride,r2
;   baudRateOverride,115200
;   overridePrinterModels,0
;   printerModelsOverride
;   startingGcode,G28 ; home all axes,G32 ; run bed.g -- probe bed and enable compensation
;   layerChangeGcode,
;   retractionGcode,
;   toolChangeGcode,
;   endingGcode,M0 ; call stop.g
;   exportFileFormat,gcode
;   celebration,0
;   celebrationSong,Random Song
;   postProcessing,|; 0.2mm layer, 8 bands 5mm each, total height 40mm|{REPLACE "; layer 25" "M572 D0 S0.69\n; layer 10"}|{REPLACE "; layer 50" "M572 D0 S0.70\n; layer 50"}|{REPLACE "; layer 75" "M572 D0 S0.71\n; layer 75"}|{REPLACE "; layer 100" "M572 D0 S0.72\n; layer 100"}|{REPLACE "; layer 125" "M572 D0 S0.73\n; layer 125"}|{REPLACE "; layer 150" "M572 D0 S0.74\n; layer 150"}|{REPLACE "; layer 175" "M572 D0 S0.75\n; layer 175"}|{REPLACE "; layer 200" "M572 D0 S0.76\n; layer 200"}
;   defaultSpeed,7800
;   outlineUnderspeed,1
;   solidInfillUnderspeed,0.75
;   supportUnderspeed,0.8
;   rapidXYspeed,18000
;   rapidZspeed,1200
;   minBridgingArea,60
;   bridgingExtraInflation,0
;   bridgingExtrusionMultiplier,0.96
;   bridgingSpeedMultiplier,1
;   useFixedBridgingAngle,0
;   fixedBridgingAngle,0
;   applyBridgingToPerimeters,0
;   filamentDiameters,1.75|1.75|1.75|1.75|1.75|1.75
;   filamentPricesPerKg,25|46|46|46|46|46
;   filamentDensities,1.29|1.25|1.25|1.25|1.25|1.25
;   useMinPrintHeight,0
;   minPrintHeight,0.3
;   useMaxPrintHeight,1
;   maxPrintHeight,115
;   useDiaphragm,0
;   diaphragmLayerInterval,20
;   robustSlicing,1
;   mergeAllIntoSolid,0
;   onlyRetractWhenCrossingOutline,1
;   retractBetweenLayers,0
;   useRetractionMinTravel,1
;   retractionMinTravel,5
;   retractWhileWiping,1
;   onlyWipeOutlines,1
;   avoidCrossingOutline,1
;   maxMovementDetourFactor,2
;   toolChangeRetractionDistance,12
;   toolChangeExtraRestartDistance,0
;   toolChangeRetractionSpeed,600
;   externalThinWallType,1
;   internalThinWallType,1
;   thinWallAllowedOverlapPercentage,10
;   singleExtrusionMinLength,0.1
;   singleExtrusionMinPrintingWidthPercentage,50
;   singleExtrusionMaxPrintingWidthPercentage,200
;   singleExtrusionEndpointExtension,0.2
;   horizontalSizeCompensation,0
G90
M82
M106 S0
M140 S85
M190 S85
G10 S0 R{0-50} P0
G10 S230 R{230-50} P1
M116 P1
G28 ; home all axes
G32 ; run bed.g -- probe bed and enable compensation
; process Process1
; layer 1, Z = 0.200
T1
G92 E0.0000
G1 E-1.0000 F3600
; feature inner perimeter
; tool H0.200 W0.720
G1 Z0.200 F1200
G1 X6.800 Y118.554 F18000
G1 E0.0000 F3600
G92 E0.0000
G1 X213.200 Y118.554 E12.7275 F1950
G1 X213.200 Y138.200 E13.9390
G1 X6.800 Y138.200 E26.6665
G1 X6.800 Y118.554 E27.8780
G1 X6.080 Y117.834 F18000
G92 E0.0000
G1 X213.920 Y117.834 E12.8163 F1950
G1 X213.920 Y138.920 E14.1166
G1 X6.080 Y138.920 E26.9329
G1 X6.080 Y117.834 E28.2331
; feature outer perimeter
G1 X5.360 Y117.114 F18000
G92 E0.0000
G1 X214.640 Y117.114 E12.9051 F1950
G1 X214.640 Y139.640 E14.2942
G1 X5.360 Y139.640 E27.1993
G1 X5.360 Y117.114 E28.5883
G1 X6.360 Y117.114 F1950
; feature solid layer
G1 X8.308 Y137.624 F18000
G92 E0.0000
G1 X7.376 Y136.692 E0.0813 F1463
G1 X7.376 Y135.673 E0.1441
G1 X9.327 Y137.624 E0.3142
G1 X10.345 Y137.624 E0.3770
G1 X7.376 Y134.655 E0.6359
G1 X7.376 Y133.637 E0.6987
G1 X11.363 Y137.624 E1.0464
G1 X12.381 Y137.624 E1.1092
G1 X7.376 Y132.619 E1.5456
G1 X7.376 Y131.601 E1.6084
G1 X13.399 Y137.624 E2.1337
G1 X14.418 Y137.624 E2.1965
G1 X7.376 Y130.582 E2.8106
G1 X7.376 Y129.564 E2.8734
G1 X15.436 Y137.624 E3.5763
G1 X16.454 Y137.624 E3.6391
G1 X7.376 Y128.546 E4.4307
G1 X7.376 Y127.528 E4.4935
G1 X17.472 Y137.624 E5.3740
G1 X18.491 Y137.624 E5.4368
G1 X7.376 Y126.509 E6.4061
G1 X7.376 Y125.491 E6.4688
G1 X19.509 Y137.624 E7.5269
G1 X20.527 Y137.624 E7.5897
G1 X7.376 Y124.473 E8.7366
G1 X7.376 Y123.455 E8.7993
G1 X21.545 Y137.624 E10.0350
G1 X22.564 Y137.624 E10.0978
G1 X7.376 Y122.436 E11.4223
G1 X7.376 Y121.418 E11.4850
G1 X23.582 Y137.624 E12.8983
G1 X24.600 Y137.624 E12.9611
G1 X7.376 Y120.400 E14.4631
G1 X7.376 Y119.382 E14.5259
G1 X25.618 Y137.624 E16.1168
G1 X26.637 Y137.624 E16.1796
G1 X8.142 Y119.130 E17.7924
G1 X9.161 Y119.130 E17.8552
G1 X27.655 Y137.624 E19.4680
G1 X28.673 Y137.624 E19.5308
G1 X10.179 Y119.130 E21.1436
G1 X11.197 Y119.130 E21.2063
G1 X29.691 Y137.624 E22.8192
G1 X30.709 Y137.624 E22.8819
G1 X12.215 Y119.130 E24.4948
G1 X13.234 Y119.130 E24.5575
G1 X31.728 Y137.624 E26.1704
G1 X32.746 Y137.624 E26.2331
G1 X14.252 Y119.130 E27.8460
G1 X15.270 Y119.130 E27.9087
G1 X33.764 Y137.624 E29.5215
G1 X34.782 Y137.624 E29.5843
G1 X16.288 Y119.130 E31.1971
G1 X17.306 Y119.130 E31.2599
G1 X35.801 Y137.624 E32.8727
G1 X36.819 Y137.624 E32.9355
G1 X18.325 Y119.130 E34.5483
G1 X19.343 Y119.130 E34.6111
G1 X37.837 Y137.624 E36.2239
G1 X38.855 Y137.624 E36.2867
G1 X20.361 Y119.130 E37.8995
G1 X21.379 Y119.130 E37.9623
G1 X39.874 Y137.624 E39.5751
G1 X40.892 Y137.624 E39.6379
G1 X22.398 Y119.130 E41.2507
G1 X23.416 Y119.130 E41.3135
G1 X41.910 Y137.624 E42.9263
G1 X42.928 Y137.624 E42.9891
G1 X24.434 Y119.130 E44.6019
G1 X25.452 Y119.130 E44.6647
G1 X43.947 Y137.624 E46.2775
G1 X44.965 Y137.624 E46.3403
G1 X26.471 Y119.130 E47.9531
G1 X27.489 Y119.130 E48.0159
G1 X45.983 Y137.624 E49.6287
G1 X47.001 Y137.624 E49.6915
G1 X28.507 Y119.130 E51.3043
G1 X29.525 Y119.130 E51.3671
G1 X48.019 Y137.624 E52.9799
G1 X49.038 Y137.624 E53.0427
G1 X30.544 Y119.130 E54.6555
G1 X31.562 Y119.130 E54.7183
G1 X50.056 Y137.624 E56.3311
G1 X51.074 Y137.624 E56.3939
G1 X32.580 Y119.130 E58.0067
G1 X33.598 Y119.130 E58.0695
G1 X52.092 Y137.624 E59.6823
G1 X53.111 Y137.624 E59.7451
G1 X34.616 Y119.130 E61.3579
G1 X35.635 Y119.130 E61.4207
G1 X54.129 Y137.624 E63.0335
G1 X55.147 Y137.624 E63.0963
G1 X36.653 Y119.130 E64.7091
G1 X37.671 Y119.130 E64.7719
G1 X56.165 Y137.624 E66.3847
G1 X57.184 Y137.624 E66.4475
G1 X38.689 Y119.130 E68.0603
G1 X39.708 Y119.130 E68.1231
G1 X58.202 Y137.624 E69.7359
G1 X59.220 Y137.624 E69.7987
G1 X40.726 Y119.130 E71.4115
G1 X41.744 Y119.130 E71.4743
G1 X60.238 Y137.624 E73.0871
G1 X61.256 Y137.624 E73.1499
G1 X42.762 Y119.130 E74.7627
G1 X43.781 Y119.130 E74.8255
G1 X62.275 Y137.624 E76.4383
G1 X63.293 Y137.624 E76.5011
G1 X44.799 Y119.130 E78.1139
G1 X45.817 Y119.130 E78.1767
G1 X64.311 Y137.624 E79.7895
G1 X65.329 Y137.624 E79.8523
G1 X46.835 Y119.130 E81.4651
G1 X47.854 Y119.130 E81.5279
G1 X66.348 Y137.624 E83.1407
G1 X67.366 Y137.624 E83.2035
G1 X48.872 Y119.130 E84.8163
G1 X49.890 Y119.130 E84.8791
G1 X68.384 Y137.624 E86.4919
G1 X69.402 Y137.624 E86.5547
G1 X50.908 Y119.130 E88.1675
G1 X51.926 Y119.130 E88.2302
G1 X70.421 Y137.624 E89.8431
G1 X71.439 Y137.624 E89.9058
G1 X52.945 Y119.130 E91.5187
G1 X53.963 Y119.130 E91.5814
G1 X72.457 Y137.624 E93.1943
G1 X73.475 Y137.624 E93.2570
G1 X54.981 Y119.130 E94.8698
G1 X55.999 Y119.130 E94.9326
G1 X74.494 Y137.624 E96.5454
G1 X75.512 Y137.624 E96.6082
G1 X57.018 Y119.130 E98.2210
G1 X58.036 Y119.130 E98.2838
G1 X76.530 Y137.624 E99.8966
G1 X77.548 Y137.624 E99.9594
G1 X59.054 Y119.130 E101.5722
G1 X60.072 Y119.130 E101.6350
G1 X78.566 Y137.624 E103.2478
G1 X79.585 Y137.624 E103.3106
G1 X61.091 Y119.130 E104.9234
G1 X62.109 Y119.130 E104.9862
G1 X80.603 Y137.624 E106.5990
G1 X81.621 Y137.624 E106.6618
G1 X63.127 Y119.130 E108.2746
G1 X64.145 Y119.130 E108.3374
G1 X82.639 Y137.624 E109.9502
G1 X83.658 Y137.624 E110.0130
G1 X65.163 Y119.130 E111.6258
G1 X66.182 Y119.130 E111.6886
G1 X84.676 Y137.624 E113.3014
G1 X85.694 Y137.624 E113.3642
G1 X67.200 Y119.130 E114.9770
G1 X68.218 Y119.130 E115.0398
G1 X86.712 Y137.624 E116.6526
G1 X87.731 Y137.624 E116.7154
G1 X69.236 Y119.130 E118.3282
G1 X70.255 Y119.130 E118.3910
G1 X88.749 Y137.624 E120.0038
G1 X89.767 Y137.624 E120.0666
G1 X71.273 Y119.130 E121.6794
G1 X72.291 Y119.130 E121.7422
G1 X90.785 Y137.624 E123.3550
G1 X91.803 Y137.624 E123.4178
G1 X73.309 Y119.130 E125.0306
G1 X74.328 Y119.130 E125.0934
G1 X92.822 Y137.624 E126.7062
G1 X93.840 Y137.624 E126.7690
G1 X75.346 Y119.130 E128.3818
G1 X76.364 Y119.130 E128.4446
G1 X94.858 Y137.624 E130.0574
G1 X95.876 Y137.624 E130.1202
G1 X77.382 Y119.130 E131.7330
G1 X78.401 Y119.130 E131.7958
G1 X96.895 Y137.624 E133.4086
G1 X97.913 Y137.624 E133.4714
G1 X79.419 Y119.130 E135.0842
G1 X80.437 Y119.130 E135.1470
G1 X98.931 Y137.624 E136.7598
G1 X99.949 Y137.624 E136.8226
G1 X81.455 Y119.130 E138.4354
G1 X82.473 Y119.130 E138.4982
G1 X100.968 Y137.624 E140.1110
G1 X101.986 Y137.624 E140.1738
G1 X83.492 Y119.130 E141.7866
G1 X84.510 Y119.130 E141.8494
G1 X103.004 Y137.624 E143.4622
G1 X104.022 Y137.624 E143.5250
G1 X85.528 Y119.130 E145.1378
G1 X86.546 Y119.130 E145.2006
G1 X105.041 Y137.624 E146.8134
G1 X106.059 Y137.624 E146.8762
G1 X87.565 Y119.130 E148.4890
G1 X88.583 Y119.130 E148.5518
G1 X107.077 Y137.624 E150.1646
G1 X108.095 Y137.624 E150.2274
G1 X89.601 Y119.130 E151.8402
G1 X90.619 Y119.130 E151.9030
G1 X109.113 Y137.624 E153.5158
G1 X110.132 Y137.624 E153.5785
G1 X91.638 Y119.130 E155.1914
G1 X92.656 Y119.130 E155.2541
G1 X111.150 Y137.624 E156.8670
G1 X112.168 Y137.624 E156.9297
G1 X93.674 Y119.130 E158.5426
G1 X94.692 Y119.130 E158.6053
G1 X113.186 Y137.624 E160.2182
G1 X114.205 Y137.624 E160.2809
G1 X95.710 Y119.130 E161.8937
G1 X96.729 Y119.130 E161.9565
G1 X115.223 Y137.624 E163.5693
G1 X116.241 Y137.624 E163.6321
G1 X97.747 Y119.130 E165.2449
G1 X98.765 Y119.130 E165.3077
G1 X117.259 Y137.624 E166.9205
G1 X118.278 Y137.624 E166.9833
G1 X99.783 Y119.130 E168.5961
G1 X100.802 Y119.130 E168.6589
G1 X119.296 Y137.624 E170.2717
G1 X120.314 Y137.624 E170.3345
G1 X101.820 Y119.130 E171.9473
G1 X102.838 Y119.130 E172.0101
G1 X121.332 Y137.624 E173.6229
G1 X122.351 Y137.624 E173.6857
G1 X103.856 Y119.130 E175.2985
G1 X104.875 Y119.130 E175.3613
G1 X123.369 Y137.624 E176.9741
G1 X124.387 Y137.624 E177.0369
G1 X105.893 Y119.130 E178.6497
G1 X106.911 Y119.130 E178.7125
G1 X125.405 Y137.624 E180.3253
G1 X126.423 Y137.624 E180.3881
G1 X107.929 Y119.130 E182.0009
G1 X108.948 Y119.130 E182.0637
G1 X127.442 Y137.624 E183.6765
G1 X128.460 Y137.624 E183.7393
G1 X109.966 Y119.130 E185.3521
G1 X110.984 Y119.130 E185.4149
G1 X129.478 Y137.624 E187.0277
G1 X130.496 Y137.624 E187.0905
G1 X112.002 Y119.130 E188.7033
G1 X113.020 Y119.130 E188.7661
G1 X131.515 Y137.624 E190.3789
G1 X132.533 Y137.624 E190.4417
G1 X114.039 Y119.130 E192.0545
G1 X115.057 Y119.130 E192.1173
G1 X133.551 Y137.624 E193.7301
G1 X134.569 Y137.624 E193.7929
G1 X116.075 Y119.130 E195.4057
G1 X117.093 Y119.130 E195.4685
G1 X135.588 Y137.624 E197.0813
G1 X136.606 Y137.624 E197.1441
G1 X118.112 Y119.130 E198.7569
G1 X119.130 Y119.130 E198.8197
G1 X137.624 Y137.624 E200.4325
G1 X138.642 Y137.624 E200.4953
G1 X120.148 Y119.130 E202.1081
G1 X121.166 Y119.130 E202.1709
G1 X139.660 Y137.624 E203.7837
G1 X140.679 Y137.624 E203.8465
G1 X122.185 Y119.130 E205.4593
G1 X123.203 Y119.130 E205.5221
G1 X141.697 Y137.624 E207.1349
G1 X142.715 Y137.624 E207.1977
G1 X124.221 Y119.130 E208.8105
G1 X125.239 Y119.130 E208.8733
G1 X143.733 Y137.624 E210.4861
G1 X144.752 Y137.624 E210.5489
G1 X126.258 Y119.130 E212.1617
G1 X127.276 Y119.130 E212.2245
G1 X145.770 Y137.624 E213.8373
G1 X146.788 Y137.624 E213.9001
G1 X128.294 Y119.130 E215.5129
G1 X129.312 Y119.130 E215.5757
G1 X147.806 Y137.624 E217.1885
G1 X148.825 Y137.624 E217.2513
G1 X130.330 Y119.130 E218.8641
G1 X131.349 Y119.130 E218.9269
G1 X149.843 Y137.624 E220.5397
G1 X150.861 Y137.624 E220.6024
G1 X132.367 Y119.130 E222.2153
G1 X133.385 Y119.130 E222.2780
G1 X151.879 Y137.624 E223.8909
G1 X152.898 Y137.624 E223.9536
G1 X134.403 Y119.130 E225.5665
G1 X135.422 Y119.130 E225.6292
G1 X153.916 Y137.624 E227.2420
G1 X154.934 Y137.624 E227.3048
G1 X136.440 Y119.130 E228.9176
G1 X137.458 Y119.130 E228.9804
G1 X155.952 Y137.624 E230.5932
G1 X156.970 Y137.624 E230.6560
G1 X138.476 Y119.130 E232.2688
G1 X139.495 Y119.130 E232.3316
G1 X157.989 Y137.624 E233.9444
G1 X159.007 Y137.624 E234.0072
G1 X140.513 Y119.130 E235.6200
G1 X141.531 Y119.130 E235.6828
G1 X160.025 Y137.624 E237.2956
G1 X161.043 Y137.624 E237.3584
G1 X142.549 Y119.130 E238.9712
G1 X143.567 Y119.130 E239.0340
G1 X162.062 Y137.624 E240.6468
G1 X163.080 Y137.624 E240.7096
G1 X144.586 Y119.130 E242.3224
G1 X145.604 Y119.130 E242.3852
G1 X164.098 Y137.624 E243.9980
