; G-Code generated by Simplify3D(R) Version 4.1.2
; Jul 23, 2022 at 6:37:04 PM
; Settings Summary
;   processName,Process1
;   applyToModels,fan-mount
;   profileName,HSBot
;   profileVersion,2019-11-09 11:59:44
;   baseProfile,Default
;   printMaterial,PETG - Eryone
;   printQuality,Medium
;   printExtruders,
;   extruderName,Extruder - v6,Extruder - lgx ace
;   extruderToolheadNumber,0,1
;   extruderDiameter,0.4,0.4
;   extruderAutoWidth,1,1
;   extruderWidth,0.48,0.48
;   extrusionMultiplier,1.03,1.03
;   extruderUseRetract,0,1
;   extruderRetractionDistance,4,1
;   extruderExtraRestartDistance,0,0
;   extruderRetractionZLift,0,0
;   extruderRetractionSpeed,3600,3600
;   extruderUseCoasting,0,0
;   extruderCoastingDistance,0.2,0.2
;   extruderUseWipe,0,1
;   extruderWipeDistance,1,1
;   primaryExtruder,1
;   layerHeight,0.2
;   topSolidLayers,3
;   bottomSolidLayers,3
;   perimeterOutlines,3
;   printPerimetersInsideOut,1
;   startPointOption,2
;   startPointOriginX,0
;   startPointOriginY,0
;   sequentialIslands,0
;   spiralVaseMode,0
;   firstLayerHeightPercentage,100
;   firstLayerWidthPercentage,150
;   firstLayerUnderspeed,0.25
;   useRaft,0
;   raftExtruder,0
;   raftTopLayers,3
;   raftBaseLayers,2
;   raftOffset,3
;   raftSeparationDistance,0.18
;   raftTopInfill,100
;   aboveRaftSpeedMultiplier,0.3
;   useSkirt,1
;   skirtExtruder,1
;   skirtLayers,1
;   skirtOutlines,10
;   skirtOffset,0
;   usePrimePillar,0
;   primePillarExtruder,999
;   primePillarWidth,12
;   primePillarLocation,7
;   primePillarSpeedMultiplier,1
;   useOozeShield,0
;   oozeShieldExtruder,999
;   oozeShieldOffset,2
;   oozeShieldOutlines,1
;   oozeShieldSidewallShape,1
;   oozeShieldSidewallAngle,30
;   oozeShieldSpeedMultiplier,1
;   infillExtruder,1
;   internalInfillPattern,Rectilinear
;   externalInfillPattern,Rectilinear
;   infillPercentage,15
;   outlineOverlapPercentage,20
;   infillExtrusionWidthPercentage,100
;   minInfillLength,3
;   infillLayerInterval,1
;   internalInfillAngles,45,-45
;   overlapInternalInfillAngles,0
;   externalInfillAngles,45,-45
;   generateSupport,0
;   supportExtruder,1
;   supportInfillPercentage,30
;   supportExtraInflation,0
;   supportBaseLayers,1
;   denseSupportExtruder,0
;   denseSupportLayers,0
;   denseSupportInfillPercentage,70
;   supportLayerInterval,1
;   supportHorizontalPartOffset,0.3
;   supportUpperSeparationLayers,1
;   supportLowerSeparationLayers,1
;   supportType,0
;   supportGridSpacing,2
;   maxOverhangAngle,45
;   supportAngles,0
;   temperatureName,v6,Bed,lgx-ace
;   temperatureNumber,0,0,1
;   temperatureSetpointCount,1,1,1
;   temperatureSetpointLayers,1,1,1
;   temperatureSetpointTemperatures,0,85,230
;   temperatureStabilizeAtStartup,1,1,1
;   temperatureHeatedBed,0,1,0
;   fanLayers,1,2,3
;   fanSpeeds,0,15,15
;   blipFanToFullPower,0
;   adjustSpeedForCooling,0
;   minSpeedLayerTime,15
;   minCoolingSpeedSlowdown,50
;   increaseFanForCooling,0
;   minFanLayerTime,45
;   maxCoolingFanSpeed,70
;   increaseFanForBridging,0
;   bridgingFanSpeed,80
;   use5D,1
;   relativeEdistances,0
;   allowEaxisZeroing,1
;   independentExtruderAxes,0
;   includeM10123,0
;   stickySupport,1
;   applyToolheadOffsets,0
;   gcodeXoffset,0
;   gcodeYoffset,0
;   gcodeZoffset,0
;   overrideMachineDefinition,1
;   machineTypeOverride,0
;   strokeXoverride,220
;   strokeYoverride,220
;   strokeZoverride,175
;   originOffsetXoverride,0
;   originOffsetYoverride,0
;   originOffsetZoverride,0
;   homeXdirOverride,-1
;   homeYdirOverride,-1
;   homeZdirOverride,-1
;   flipXoverride,1
;   flipYoverride,-1
;   flipZoverride,1
;   toolheadOffsets,0,0|0,0|0,0|0,0|0,0|0,0
;   overrideFirmwareConfiguration,0
;   firmwareTypeOverride,RepRap (Marlin/Repetier/Sprinter)
;   GPXconfigOverride,r2
;   baudRateOverride,115200
;   overridePrinterModels,0
;   printerModelsOverride
;   startingGcode,G28 ; home all axes,G32 ; run bed.g -- probe bed and enable compensation
;   layerChangeGcode,
;   retractionGcode,
;   toolChangeGcode,
;   endingGcode,M0 ; call stop.g
;   exportFileFormat,gcode
;   celebration,0
;   celebrationSong,Random Song
;   postProcessing,
;   defaultSpeed,8700
;   outlineUnderspeed,1
;   solidInfillUnderspeed,0.75
;   supportUnderspeed,0.8
;   rapidXYspeed,18000
;   rapidZspeed,1200
;   minBridgingArea,60
;   bridgingExtraInflation,0
;   bridgingExtrusionMultiplier,0.96
;   bridgingSpeedMultiplier,1
;   useFixedBridgingAngle,0
;   fixedBridgingAngle,0
;   applyBridgingToPerimeters,0
;   filamentDiameters,1.75|1.75|1.75|1.75|1.75|1.75
;   filamentPricesPerKg,25|46|46|46|46|46
;   filamentDensities,1.29|1.25|1.25|1.25|1.25|1.25
;   useMinPrintHeight,0
;   minPrintHeight,0.3
;   useMaxPrintHeight,1
;   maxPrintHeight,115
;   useDiaphragm,0
;   diaphragmLayerInterval,20
;   robustSlicing,1
;   mergeAllIntoSolid,0
;   onlyRetractWhenCrossingOutline,1
;   retractBetweenLayers,0
;   useRetractionMinTravel,1
;   retractionMinTravel,5
;   retractWhileWiping,1
;   onlyWipeOutlines,1
;   avoidCrossingOutline,1
;   maxMovementDetourFactor,2
;   toolChangeRetractionDistance,3
;   toolChangeExtraRestartDistance,0
;   toolChangeRetractionSpeed,600
;   externalThinWallType,1
;   internalThinWallType,1
;   thinWallAllowedOverlapPercentage,10
;   singleExtrusionMinLength,0.1
;   singleExtrusionMinPrintingWidthPercentage,50
;   singleExtrusionMaxPrintingWidthPercentage,200
;   singleExtrusionEndpointExtension,0.2
;   horizontalSizeCompensation,0
G90
M82
M106 S0
M140 S85
M190 S85
G10 S0 R0 P0
G10 S230 R230 P1
M116 P1
G28 ; home all axes
G32 ; run bed.g -- probe bed and enable compensation
; process Process1
; layer 1, Z = 0.200
T1
G92 E0.0000
G1 E-1.0000 F3600
; feature skirt
; tool H0.200 W0.720
G1 Z0.200 F1200
G1 X48.147 Y61.403 F18000
G1 E0.0000 F3600
G92 E0.0000
G1 X173.814 Y61.403 E7.7491 F2175
G1 X177.821 Y65.410 E8.0985
G1 X177.821 Y201.076 E16.4643
G1 X173.814 Y205.083 E16.8137
G1 X48.147 Y205.083 E24.5629
G1 X44.141 Y201.076 E24.9123
G1 X44.141 Y65.410 E33.2781
G1 X48.147 Y61.403 E33.6275
G1 X48.446 Y62.123 F18000
G92 E0.0000
G1 X173.516 Y62.123 E7.7123 F2175
G1 X177.101 Y65.708 E8.0250
G1 X177.101 Y200.778 E16.3540
G1 X173.516 Y204.363 E16.6666
G1 X48.446 Y204.363 E24.3790
G1 X44.861 Y200.778 E24.6916
G1 X44.861 Y65.708 E33.0206
G1 X48.446 Y62.123 E33.3332
G1 X48.744 Y62.843 F18000
G92 E0.0000
G1 X173.217 Y62.843 E7.6756 F2175
G1 X176.381 Y66.006 E7.9514
G1 X176.381 Y200.480 E16.2436
G1 X173.217 Y203.643 E16.5195
G1 X48.744 Y203.643 E24.1951
G1 X45.581 Y200.480 E24.4709
G1 X45.581 Y66.006 E32.7631
G1 X48.744 Y62.843 E33.0390
G1 X49.042 Y63.563 F18000
G92 E0.0000
G1 X172.919 Y63.563 E7.6388 F2175
G1 X175.661 Y66.305 E7.8779
G1 X175.661 Y200.182 E16.1333
G1 X172.919 Y202.923 E16.3724
G1 X49.042 Y202.923 E24.0112
G1 X46.301 Y200.182 E24.2502
G1 X46.301 Y66.305 E32.5057
G1 X49.042 Y63.563 E32.7447
G1 X49.340 Y64.283 F18000
G92 E0.0000
G1 X172.621 Y64.283 E7.6020 F2175
G1 X174.941 Y66.603 E7.8043
G1 X174.941 Y199.884 E16.0230
G1 X172.621 Y202.203 E16.2252
G1 X49.340 Y202.203 E23.8273
G1 X47.021 Y199.884 E24.0296
G1 X47.021 Y66.603 E32.2482
G1 X49.340 Y64.283 E32.4505
G1 X49.639 Y65.003 F18000
G92 E0.0000
G1 X172.323 Y65.003 E7.5652 F2175
G1 X174.221 Y66.901 E7.7307
G1 X174.221 Y199.585 E15.9126
G1 X172.323 Y201.483 E16.0781
G1 X49.639 Y201.483 E23.6434
G1 X47.741 Y199.585 E23.8089
G1 X47.741 Y66.901 E31.9907
G1 X49.639 Y65.003 E32.1563
G1 X49.937 Y65.723 F18000
G92 E0.0000
G1 X172.024 Y65.723 E7.5284 F2175
G1 X173.501 Y67.199 E7.6572
G1 X173.501 Y199.287 E15.8023
G1 X172.024 Y200.763 E15.9310
G1 X49.937 Y200.763 E23.4594
G1 X48.461 Y199.287 E23.5882
G1 X48.461 Y67.199 E31.7333
G1 X49.937 Y65.723 E31.8620
G1 X50.235 Y66.443 F18000
G92 E0.0000
G1 X171.726 Y66.443 E7.4917 F2175
G1 X172.781 Y67.498 E7.5836
G1 X172.781 Y198.989 E15.6919
G1 X171.726 Y200.043 E15.7839
G1 X50.235 Y200.043 E23.2755
G1 X49.181 Y198.989 E23.3675
G1 X49.181 Y67.498 E31.4758
G1 X50.235 Y66.443 E31.5678
G1 X50.533 Y67.163 F18000
G92 E0.0000
G1 X171.428 Y67.163 E7.4549 F2175
G1 X172.061 Y67.796 E7.5101
G1 X172.061 Y198.691 E15.5816
G1 X171.428 Y199.323 E15.6368
G1 X50.533 Y199.323 E23.0916
G1 X49.901 Y198.691 E23.1468
G1 X49.901 Y67.796 E31.2183
G1 X50.533 Y67.163 E31.2735
G1 X50.832 Y67.883 F18000
G92 E0.0000
G1 X171.130 Y67.883 E7.4181 F2175
G1 X171.341 Y68.094 E7.4365
G1 X171.341 Y198.392 E15.4712
G1 X171.130 Y198.603 E15.4896
G1 X50.832 Y198.603 E22.9077
G1 X50.621 Y198.392 E22.9261
G1 X50.621 Y68.094 E30.9609
G1 X50.832 Y67.883 E30.9793
; feature inner perimeter
G1 X51.341 Y68.603 F18000
G1 X51.481 Y68.603
G1 X52.781 Y70.043
G92 E0.0000
G1 X169.181 Y70.043 E7.1777 F2175
G1 X169.181 Y113.755 E9.8732
G1 X168.640 Y113.846 E9.9070
G1 X168.175 Y112.500 E9.9949
G1 X167.822 Y111.550 E10.0573
G1 X167.084 Y109.709 E10.1796
G1 X166.685 Y108.778 E10.2421
G1 X165.858 Y106.975 E10.3644
G1 X165.416 Y106.071 E10.4265
G1 X164.959 Y105.174 E10.4886
G1 X164.015 Y103.430 E10.6108
G1 X163.511 Y102.550 E10.6734
G1 X162.483 Y100.854 E10.7956
G1 X161.936 Y100.001 E10.8582
G1 X160.825 Y98.358 E10.9804
G1 X160.237 Y97.532 E11.0429
G1 X159.047 Y95.945 E11.1653
G1 X158.419 Y95.150 E11.2277
G1 X157.148 Y93.618 E11.3505
G1 X155.827 Y92.129 E11.4732
G1 X155.140 Y91.393 E11.5353
G1 X154.442 Y90.668 E11.5974
G1 X153.026 Y89.269 E11.7201
G1 X151.565 Y87.918 E11.8429
G1 X150.804 Y87.248 E11.9054
G1 X149.284 Y85.974 E12.0277
G1 X148.491 Y85.342 E12.0902
G1 X146.910 Y84.146 E12.2125
G1 X146.093 Y83.558 E12.2745
G1 X145.266 Y82.984 E12.3366
G1 X143.604 Y81.889 E12.4593
G1 X141.906 Y80.849 E12.5821
G1 X141.035 Y80.345 E12.6441
G1 X140.099 Y79.824 E12.7102
G1 X138.336 Y78.900 E12.8329
G1 X136.602 Y78.061 E12.9517
G1 X135.620 Y77.616 E13.0182
G1 X133.854 Y76.867 E13.1365
G1 X132.852 Y76.470 E13.2030
G1 X131.050 Y75.809 E13.3213
G1 X130.030 Y75.462 E13.3878
G1 X128.197 Y74.890 E13.5061
G1 X127.161 Y74.594 E13.5726
G1 X125.303 Y74.113 E13.6909
G1 X124.254 Y73.869 E13.7574
G1 X122.374 Y73.480 E13.8758
G1 X121.314 Y73.287 E13.9422
G1 X119.418 Y72.991 E14.0606
G1 X118.349 Y72.851 E14.1270
G1 X116.441 Y72.649 E14.2453
G1 X115.367 Y72.561 E14.3118
G1 X113.450 Y72.454 E14.4301
G1 X112.385 Y72.419 E14.4959
G1 X110.410 Y72.406 E14.6177
G1 X109.379 Y72.424 E14.6813
G1 X107.422 Y72.507 E14.8021
G1 X106.397 Y72.576 E14.8654
G1 X105.396 Y72.660 E14.9273
G1 X103.423 Y72.874 E15.0497
G1 X101.463 Y73.152 E15.1717
G1 X100.410 Y73.329 E15.2376
G1 X98.525 Y73.692 E15.3560
G1 X97.471 Y73.922 E15.4225
G1 X95.607 Y74.378 E15.5409
G1 X94.565 Y74.660 E15.6074
G1 X92.725 Y75.207 E15.7257
G1 X91.700 Y75.539 E15.7922
G1 X89.889 Y76.176 E15.9106
G1 X88.881 Y76.559 E15.9771
G1 X87.103 Y77.285 E16.0955
G1 X86.115 Y77.717 E16.1620
G1 X84.376 Y78.529 E16.2804
G1 X83.410 Y79.009 E16.3469
G1 X81.713 Y79.906 E16.4653
G1 X80.772 Y80.433 E16.5317
G1 X79.121 Y81.412 E16.6501
G1 X78.207 Y81.985 E16.7166
G1 X76.607 Y83.045 E16.8350
G1 X75.722 Y83.662 E16.9015
G1 X74.175 Y84.799 E17.0199
G1 X73.322 Y85.459 E17.0864
G1 X71.834 Y86.671 E17.2047
G1 X71.014 Y87.372 E17.2713
G1 X69.587 Y88.655 E17.3896
G1 X68.803 Y89.396 E17.4561
G1 X67.441 Y90.749 E17.5745
G1 X66.695 Y91.527 E17.6410
G1 X65.400 Y92.945 E17.7594
G1 X64.698 Y93.754 E17.8254
G1 X64.050 Y94.526 E17.8876
G1 X62.808 Y96.082 E18.0103
G1 X61.656 Y97.626 E18.1291
G1 X61.033 Y98.506 E18.1956
G1 X59.962 Y100.099 E18.3140
G1 X59.382 Y101.008 E18.3805
G1 X58.391 Y102.652 E18.4989
G1 X57.857 Y103.589 E18.5654
G1 X56.948 Y105.280 E18.6838
G1 X56.460 Y106.242 E18.7503
G1 X55.636 Y107.976 E18.8686
G1 X55.197 Y108.960 E18.9351
G1 X54.459 Y110.732 E19.0535
G1 X54.068 Y111.738 E19.1200
G1 X53.418 Y113.544 E19.2384
G1 X53.325 Y113.825 E19.2566
G1 X52.781 Y113.737 E19.2906
G1 X52.781 Y70.043 E21.9849
G1 X52.061 Y69.323 F18000
G92 E0.0000
G1 X169.901 Y69.323 E7.2665 F2175
G1 X169.901 Y118.723 E10.3127
G1 X169.334 Y118.795 E10.3479
G1 X168.941 Y117.275 E10.4447
G1 X168.677 Y116.346 E10.5043
G1 X168.116 Y114.535 E10.6212
G1 X167.497 Y112.743 E10.7381
G1 X167.150 Y111.809 E10.7995
G1 X166.419 Y109.985 E10.9207
G1 X166.027 Y109.070 E10.9821
G1 X165.207 Y107.283 E11.1033
G1 X164.771 Y106.392 E11.1645
G1 X164.321 Y105.509 E11.2256
G1 X163.386 Y103.780 E11.3468
G1 X162.891 Y102.916 E11.4083
G1 X161.872 Y101.236 E11.5294
G1 X161.335 Y100.397 E11.5909
G1 X160.234 Y98.768 E11.7121
G1 X159.656 Y97.957 E11.7735
G1 X158.476 Y96.385 E11.8947
G1 X157.860 Y95.603 E11.9561
G1 X156.601 Y94.087 E12.0776
G1 X155.294 Y92.614 E12.1990
G1 X154.618 Y91.889 E12.2601
G1 X153.930 Y91.174 E12.3213
G1 X152.528 Y89.790 E12.4428
G1 X151.083 Y88.452 E12.5642
G1 X150.335 Y87.794 E12.6257
G1 X148.828 Y86.532 E12.7469
G1 X148.049 Y85.911 E12.8083
G1 X146.482 Y84.725 E12.9295
G1 X145.678 Y84.146 E12.9906
G1 X144.863 Y83.580 E13.0518
G1 X143.218 Y82.497 E13.1732
G1 X141.538 Y81.468 E13.2947
G1 X140.680 Y80.971 E13.3558
G1 X139.756 Y80.457 E13.4210
G1 X138.012 Y79.543 E13.5425
G1 X136.297 Y78.714 E13.6600
G1 X135.331 Y78.275 E13.7253
G1 X133.581 Y77.533 E13.8426
G1 X132.595 Y77.143 E13.9080
G1 X130.810 Y76.488 E14.0252
G1 X129.806 Y76.147 E14.0906
G1 X127.991 Y75.580 E14.2078
G1 X126.972 Y75.289 E14.2732
G1 X125.131 Y74.812 E14.3904
G1 X124.099 Y74.572 E14.4558
G1 X122.237 Y74.187 E14.5731
G1 X121.194 Y73.997 E14.6384
G1 X119.315 Y73.704 E14.7557
G1 X118.265 Y73.566 E14.8210
G1 X116.374 Y73.366 E14.9383
G1 X115.317 Y73.280 E15.0036
G1 X113.418 Y73.173 E15.1209
G1 X112.371 Y73.139 E15.1855
G1 X110.414 Y73.126 E15.3062
G1 X109.400 Y73.144 E15.3687
G1 X107.461 Y73.226 E15.4884
G1 X106.451 Y73.294 E15.5509
G1 X105.465 Y73.377 E15.6119
G1 X103.513 Y73.589 E15.7330
G1 X101.573 Y73.864 E15.8537
G1 X100.537 Y74.037 E15.9185
G1 X98.670 Y74.397 E16.0358
G1 X97.633 Y74.624 E16.1012
G1 X95.786 Y75.075 E16.2185
G1 X94.762 Y75.352 E16.2839
G1 X92.939 Y75.894 E16.4012
G1 X91.930 Y76.221 E16.4666
G1 X90.136 Y76.853 E16.5839
G1 X89.145 Y77.229 E16.6492
G1 X87.383 Y77.948 E16.7665
G1 X86.412 Y78.373 E16.8319
G1 X84.688 Y79.177 E16.9492
G1 X83.739 Y79.650 E17.0146
G1 X82.057 Y80.538 E17.1319
G1 X81.132 Y81.057 E17.1973
G1 X79.496 Y82.027 E17.3146
G1 X78.597 Y82.590 E17.3800
G1 X77.011 Y83.640 E17.4973
G1 X76.141 Y84.247 E17.5627
G1 X74.609 Y85.374 E17.6800
G1 X73.770 Y86.023 E17.7454
G1 X72.295 Y87.223 E17.8627
G1 X71.489 Y87.913 E17.9281
G1 X70.075 Y89.185 E18.0453
G1 X69.304 Y89.913 E18.1108
G1 X67.954 Y91.254 E18.2280
G1 X67.220 Y92.019 E18.2934
G1 X65.938 Y93.424 E18.4107
G1 X65.245 Y94.221 E18.4759
G1 X64.607 Y94.982 E18.5371
G1 X63.378 Y96.522 E18.6586
G1 X62.239 Y98.049 E18.7761
G1 X61.625 Y98.915 E18.8415
G1 X60.564 Y100.493 E18.9588
G1 X59.994 Y101.388 E19.0242
G1 X59.012 Y103.016 E19.1415
G1 X58.487 Y103.938 E19.2069
G1 X57.586 Y105.613 E19.3242
G1 X57.107 Y106.559 E19.3896
G1 X56.290 Y108.277 E19.5069
G1 X55.858 Y109.246 E19.5723
G1 X55.127 Y111.001 E19.6895
G1 X54.743 Y111.990 E19.7549
G1 X54.099 Y113.780 E19.8722
G1 X53.764 Y114.786 E19.9376
G1 X53.209 Y116.605 E20.0549
G1 X52.924 Y117.627 E20.1203
G1 X52.629 Y118.799 E20.1949
G1 X52.061 Y118.729 E20.2302
G1 X52.061 Y69.323 E23.2767
; feature outer perimeter
G1 X51.341 Y68.603 F18000
G92 E0.0000
G1 X170.621 Y68.603 E7.3553 F2175
G1 X170.621 Y126.637 E10.9339
G1 X170.008 Y126.671 E10.9717
G1 X169.906 Y125.746 E11.0291
G1 X169.640 Y123.890 E11.1447
G1 X169.483 Y122.958 E11.2030
G1 X169.312 Y122.029 E11.2613
G1 X168.930 Y120.198 E11.3766
G1 X168.715 Y119.275 E11.4350
G1 X168.246 Y117.463 E11.5504
G1 X167.987 Y116.551 E11.6089
G1 X167.431 Y114.759 E11.7246
G1 X166.819 Y112.985 E11.8403
G1 X166.478 Y112.069 E11.9006
G1 X165.754 Y110.261 E12.0207
G1 X165.368 Y109.362 E12.0810
G1 X164.556 Y107.591 E12.2011
G1 X164.127 Y106.713 E12.2614
G1 X163.684 Y105.844 E12.3216
G1 X162.757 Y104.130 E12.4417
G1 X162.270 Y103.281 E12.5021
G1 X161.261 Y101.616 E12.6221
G1 X160.733 Y100.792 E12.6825
G1 X159.642 Y99.179 E12.8026
G1 X159.075 Y98.382 E12.8629
G1 X157.906 Y96.824 E12.9830
G1 X157.300 Y96.056 E13.0433
G1 X156.055 Y94.556 E13.1635
G1 X154.761 Y93.098 E13.2837
G1 X154.095 Y92.384 E13.3439
G1 X153.417 Y91.680 E13.4042
G1 X152.031 Y90.310 E13.5244
