; G-Code generated by Simplify3D(R) Version 4.1.2
; Jul 17, 2022 at 2:35:50 PM
; Settings Summary
;   processName,Process1
;   applyToModels,fan-mount-temporary-higher,fan-mount-temporary-higher(2),fan-mount-temporary-higher(3),fan-mount-temporary-higher(4)
;   profileName,HSBot (modified)
;   profileVersion,2019-11-09 11:59:44
;   baseProfile,Default
;   printMaterial,PETG - Eryone
;   printQuality,Medium
;   printExtruders,
;   extruderName,Extruder - v6,Extruder - lgx ace
;   extruderToolheadNumber,0,1
;   extruderDiameter,0.4,0.4
;   extruderAutoWidth,1,1
;   extruderWidth,0.48,0.48
;   extrusionMultiplier,1.03,1.03
;   extruderUseRetract,0,1
;   extruderRetractionDistance,4,1
;   extruderExtraRestartDistance,0,0
;   extruderRetractionZLift,0,0
;   extruderRetractionSpeed,3600,3600
;   extruderUseCoasting,0,0
;   extruderCoastingDistance,0.2,0.2
;   extruderUseWipe,0,1
;   extruderWipeDistance,1,1
;   primaryExtruder,1
;   layerHeight,0.2
;   topSolidLayers,3
;   bottomSolidLayers,3
;   perimeterOutlines,3
;   printPerimetersInsideOut,1
;   startPointOption,2
;   startPointOriginX,0
;   startPointOriginY,0
;   sequentialIslands,0
;   spiralVaseMode,0
;   firstLayerHeightPercentage,100
;   firstLayerWidthPercentage,150
;   firstLayerUnderspeed,0.25
;   useRaft,0
;   raftExtruder,0
;   raftTopLayers,3
;   raftBaseLayers,2
;   raftOffset,3
;   raftSeparationDistance,0.18
;   raftTopInfill,100
;   aboveRaftSpeedMultiplier,0.3
;   useSkirt,1
;   skirtExtruder,1
;   skirtLayers,1
;   skirtOutlines,10
;   skirtOffset,0
;   usePrimePillar,0
;   primePillarExtruder,999
;   primePillarWidth,12
;   primePillarLocation,7
;   primePillarSpeedMultiplier,1
;   useOozeShield,0
;   oozeShieldExtruder,999
;   oozeShieldOffset,2
;   oozeShieldOutlines,1
;   oozeShieldSidewallShape,1
;   oozeShieldSidewallAngle,30
;   oozeShieldSpeedMultiplier,1
;   infillExtruder,1
;   internalInfillPattern,Rectilinear
;   externalInfillPattern,Rectilinear
;   infillPercentage,10
;   outlineOverlapPercentage,20
;   infillExtrusionWidthPercentage,100
;   minInfillLength,3
;   infillLayerInterval,1
;   internalInfillAngles,45,-45
;   overlapInternalInfillAngles,0
;   externalInfillAngles,45,-45
;   generateSupport,0
;   supportExtruder,1
;   supportInfillPercentage,30
;   supportExtraInflation,0
;   supportBaseLayers,1
;   denseSupportExtruder,0
;   denseSupportLayers,0
;   denseSupportInfillPercentage,70
;   supportLayerInterval,1
;   supportHorizontalPartOffset,0.3
;   supportUpperSeparationLayers,1
;   supportLowerSeparationLayers,1
;   supportType,0
;   supportGridSpacing,2
;   maxOverhangAngle,45
;   supportAngles,0
;   temperatureName,v6,Bed,lgx-ace
;   temperatureNumber,0,0,1
;   temperatureSetpointCount,1,1,1
;   temperatureSetpointLayers,1,1,1
;   temperatureSetpointTemperatures,0,85,240
;   temperatureStabilizeAtStartup,1,1,1
;   temperatureHeatedBed,0,1,0
;   fanLayers,1,2,3
;   fanSpeeds,0,15,15
;   blipFanToFullPower,0
;   adjustSpeedForCooling,0
;   minSpeedLayerTime,15
;   minCoolingSpeedSlowdown,50
;   increaseFanForCooling,0
;   minFanLayerTime,45
;   maxCoolingFanSpeed,70
;   increaseFanForBridging,0
;   bridgingFanSpeed,80
;   use5D,1
;   relativeEdistances,0
;   allowEaxisZeroing,1
;   independentExtruderAxes,0
;   includeM10123,0
;   stickySupport,1
;   applyToolheadOffsets,0
;   gcodeXoffset,0
;   gcodeYoffset,0
;   gcodeZoffset,0
;   overrideMachineDefinition,1
;   machineTypeOverride,0
;   strokeXoverride,220
;   strokeYoverride,220
;   strokeZoverride,175
;   originOffsetXoverride,0
;   originOffsetYoverride,0
;   originOffsetZoverride,0
;   homeXdirOverride,-1
;   homeYdirOverride,-1
;   homeZdirOverride,-1
;   flipXoverride,1
;   flipYoverride,-1
;   flipZoverride,1
;   toolheadOffsets,0,0|0,0|0,0|0,0|0,0|0,0
;   overrideFirmwareConfiguration,0
;   firmwareTypeOverride,RepRap (Marlin/Repetier/Sprinter)
;   GPXconfigOverride,r2
;   baudRateOverride,115200
;   overridePrinterModels,0
;   printerModelsOverride
;   startingGcode,G28 ; home all axes,G32 ; run bed.g -- probe bed and enable compensation
;   layerChangeGcode,
;   retractionGcode,
;   toolChangeGcode,
;   endingGcode,M0 ; call stop.g
;   exportFileFormat,gcode
;   celebration,0
;   celebrationSong,Random Song
;   postProcessing,|; 0.2mm layer, 8 bands 5mm each, total height 40mm|{REPLACE "; layer 25" "M572 D0 S0.69\n; layer 10"}|{REPLACE "; layer 50" "M572 D0 S0.70\n; layer 50"}|{REPLACE "; layer 75" "M572 D0 S0.71\n; layer 75"}|{REPLACE "; layer 100" "M572 D0 S0.72\n; layer 100"}|{REPLACE "; layer 125" "M572 D0 S0.73\n; layer 125"}|{REPLACE "; layer 150" "M572 D0 S0.74\n; layer 150"}|{REPLACE "; layer 175" "M572 D0 S0.75\n; layer 175"}|{REPLACE "; layer 200" "M572 D0 S0.76\n; layer 200"}
;   defaultSpeed,5400
;   outlineUnderspeed,0.8
;   solidInfillUnderspeed,0.75
;   supportUnderspeed,0.8
;   rapidXYspeed,18000
;   rapidZspeed,1200
;   minBridgingArea,60
;   bridgingExtraInflation,0
;   bridgingExtrusionMultiplier,0.96
;   bridgingSpeedMultiplier,1
;   useFixedBridgingAngle,0
;   fixedBridgingAngle,0
;   applyBridgingToPerimeters,0
;   filamentDiameters,1.75|1.75|1.75|1.75|1.75|1.75
;   filamentPricesPerKg,25|46|46|46|46|46
;   filamentDensities,1.29|1.25|1.25|1.25|1.25|1.25
;   useMinPrintHeight,0
;   minPrintHeight,0.3
;   useMaxPrintHeight,0
;   maxPrintHeight,110
;   useDiaphragm,0
;   diaphragmLayerInterval,20
;   robustSlicing,1
;   mergeAllIntoSolid,0
;   onlyRetractWhenCrossingOutline,1
;   retractBetweenLayers,0
;   useRetractionMinTravel,1
;   retractionMinTravel,5
;   retractWhileWiping,1
;   onlyWipeOutlines,1
;   avoidCrossingOutline,1
;   maxMovementDetourFactor,2
;   toolChangeRetractionDistance,12
;   toolChangeExtraRestartDistance,0
;   toolChangeRetractionSpeed,600
;   externalThinWallType,0
;   internalThinWallType,0
;   thinWallAllowedOverlapPercentage,10
;   singleExtrusionMinLength,0.1
;   singleExtrusionMinPrintingWidthPercentage,50
;   singleExtrusionMaxPrintingWidthPercentage,200
;   singleExtrusionEndpointExtension,0.2
;   horizontalSizeCompensation,-0.1
G90
M82
M106 S0
M140 S85
M190 S85
G10 S0 R{0-50} P0
G10 S240 R{240-50} P1
M116 P1
G28 ; home all axes
G32 ; run bed.g -- probe bed and enable compensation
; process Process1
; layer 1, Z = 0.200
T1
G92 E0.0000
G1 E-1.0000 F3600
; feature skirt
; tool H0.200 W0.720
G1 Z0.200 F1200
G1 X54.760 Y49.767 F18000
G1 E0.0000 F3600
G92 E0.0000
G1 X58.767 Y45.760 E0.3494 F1350
G1 X79.233 Y45.760 E1.6115
G1 X83.240 Y49.767 E1.9609
G1 X83.240 Y94.760 E4.7354
G1 X93.233 Y94.760 E5.3516
G1 X97.240 Y98.767 E5.7010
G1 X97.240 Y110.233 E6.4081
G1 X93.233 Y114.240 E6.7575
G1 X58.767 Y114.240 E8.8828
G1 X54.760 Y110.233 E9.2323
G1 X54.760 Y49.767 E12.9609
G1 X55.480 Y50.065 F18000
G92 E0.0000
G1 X59.065 Y46.480 E0.3126 F1350
G1 X78.935 Y46.480 E1.5379
G1 X82.520 Y50.065 E1.8505
G1 X82.520 Y95.480 E4.6510
G1 X92.935 Y95.480 E5.2933
G1 X96.520 Y99.065 E5.6059
G1 X96.520 Y109.935 E6.2762
G1 X92.935 Y113.520 E6.5888
G1 X59.065 Y113.520 E8.6774
G1 X55.480 Y109.935 E8.9900
G1 X55.480 Y50.065 E12.6819
G1 X56.200 Y50.363 F18000
G92 E0.0000
G1 X59.363 Y47.200 E0.2759 F1350
G1 X78.637 Y47.200 E1.4643
G1 X81.800 Y50.363 E1.7402
G1 X81.800 Y96.200 E4.5667
G1 X92.637 Y96.200 E5.2349
G1 X95.800 Y99.363 E5.5108
G1 X95.800 Y109.637 E6.1443
G1 X92.637 Y112.800 E6.4201
G1 X59.363 Y112.800 E8.4719
G1 X56.200 Y109.637 E8.7478
G1 X56.200 Y50.363 E12.4028
G1 X56.920 Y50.661 F18000
G92 E0.0000
G1 X59.661 Y47.920 E0.2391 F1350
G1 X78.338 Y47.920 E1.3908
G1 X81.080 Y50.661 E1.6299
G1 X81.080 Y96.920 E4.4824
G1 X92.338 Y96.920 E5.1766
G1 X95.080 Y99.662 E5.4157
G1 X95.080 Y109.338 E6.0124
G1 X92.338 Y112.080 E6.2515
G1 X59.661 Y112.080 E8.2665
G1 X56.920 Y109.338 E8.5056
G1 X56.920 Y50.661 E12.1238
G1 X57.640 Y50.960 F18000
G92 E0.0000
G1 X59.960 Y48.640 E0.2023 F1350
G1 X78.040 Y48.640 E1.3172
G1 X80.360 Y50.960 E1.5195
G1 X80.360 Y97.640 E4.3980
G1 X92.040 Y97.640 E5.1183
G1 X94.360 Y99.960 E5.3206
G1 X94.360 Y109.040 E5.8805
G1 X92.040 Y111.360 E6.0828
G1 X59.960 Y111.360 E8.0610
G1 X57.640 Y109.040 E8.2633
G1 X57.640 Y50.960 E11.8448
G1 X58.360 Y51.258 F18000
G92 E0.0000
G1 X60.258 Y49.360 E0.1655 F1350
G1 X77.742 Y49.360 E1.2437
G1 X79.640 Y51.258 E1.4092
G1 X79.640 Y98.360 E4.3137
G1 X91.742 Y98.360 E5.0599
G1 X93.640 Y100.258 E5.2255
G1 X93.640 Y108.742 E5.7486
G1 X91.742 Y110.640 E5.9141
G1 X60.258 Y110.640 E7.8556
G1 X58.360 Y108.742 E8.0211
G1 X58.360 Y51.258 E11.5658
G1 X59.080 Y51.556 F18000
G92 E0.0000
G1 X60.556 Y50.080 E0.1287 F1350
G1 X77.444 Y50.080 E1.1701
G1 X78.920 Y51.556 E1.2988
G1 X78.920 Y99.080 E4.2294
G1 X91.444 Y99.080 E5.0016
G1 X92.920 Y100.556 E5.1304
G1 X92.920 Y108.444 E5.6167
G1 X91.444 Y109.920 E5.7455
G1 X60.556 Y109.920 E7.6501
G1 X59.080 Y108.444 E7.7789
G1 X59.080 Y51.556 E11.2868
G1 X59.800 Y51.854 F18000
G92 E0.0000
G1 X60.854 Y50.800 E0.0920 F1350
G1 X77.146 Y50.800 E1.0965
G1 X78.200 Y51.854 E1.1885
G1 X78.200 Y99.800 E4.1450
G1 X91.146 Y99.800 E4.9433
G1 X92.200 Y100.854 E5.0352
G1 X92.200 Y108.146 E5.4849
G1 X91.146 Y109.200 E5.5768
G1 X60.854 Y109.200 E7.4447
G1 X59.800 Y108.146 E7.5366
G1 X59.800 Y51.854 E11.0078
G1 X60.520 Y52.153 F18000
G92 E0.0000
G1 X61.153 Y51.520 E0.0552 F1350
G1 X76.847 Y51.520 E1.0230
G1 X77.480 Y52.153 E1.0781
G1 X77.480 Y100.520 E4.0607
G1 X90.847 Y100.520 E4.8850
G1 X91.480 Y101.153 E4.9401
G1 X91.480 Y107.847 E5.3530
G1 X90.847 Y108.480 E5.4081
G1 X61.153 Y108.480 E7.2392
G1 X60.520 Y107.847 E7.2944
G1 X60.520 Y52.153 E10.7288
G1 X61.240 Y52.451 F18000
G92 E0.0000
G1 X61.451 Y52.240 E0.0184 F1350
G1 X76.549 Y52.240 E0.9494
G1 X76.760 Y52.451 E0.9678
G1 X76.760 Y101.240 E3.9763
G1 X90.549 Y101.240 E4.8266
G1 X90.760 Y101.451 E4.8450
G1 X90.760 Y107.549 E5.2211
G1 X90.549 Y107.760 E5.2395
G1 X61.451 Y107.760 E7.0338
G1 X61.240 Y107.549 E7.0522
G1 X61.240 Y52.451 E10.4498
G92 E0.0000
G1 E-1.0000 F3600
G1 X122.760 Y49.767 F18000
G1 E0.0000 F3600
G92 E0.0000
G1 X126.767 Y45.760 E0.3494 F1350
G1 X147.233 Y45.760 E1.6115
G1 X151.240 Y49.767 E1.9609
G1 X151.240 Y94.760 E4.7354
G1 X161.233 Y94.760 E5.3516
G1 X165.240 Y98.767 E5.7010
G1 X165.240 Y110.233 E6.4081
G1 X161.233 Y114.240 E6.7575
G1 X126.767 Y114.240 E8.8828
G1 X122.760 Y110.233 E9.2323
G1 X122.760 Y49.767 E12.9609
G1 X123.480 Y50.065 F18000
G92 E0.0000
G1 X127.065 Y46.480 E0.3126 F1350
G1 X146.935 Y46.480 E1.5379
G1 X150.520 Y50.065 E1.8505
G1 X150.520 Y95.480 E4.6510
G1 X160.935 Y95.480 E5.2933
G1 X164.520 Y99.065 E5.6059
G1 X164.520 Y109.935 E6.2762
G1 X160.935 Y113.520 E6.5888
G1 X127.065 Y113.520 E8.6774
G1 X123.480 Y109.935 E8.9900
G1 X123.480 Y50.065 E12.6819
G1 X124.200 Y50.363 F18000
G92 E0.0000
G1 X127.363 Y47.200 E0.2759 F1350
G1 X146.637 Y47.200 E1.4643
G1 X149.800 Y50.363 E1.7402
G1 X149.800 Y96.200 E4.5667
G1 X160.637 Y96.200 E5.2349
G1 X163.800 Y99.363 E5.5108
G1 X163.800 Y109.637 E6.1443
G1 X160.637 Y112.800 E6.4202
G1 X127.363 Y112.800 E8.4719
G1 X124.200 Y109.637 E8.7478
G1 X124.200 Y50.363 E12.4029
G1 X124.920 Y50.661 F18000
G92 E0.0000
G1 X127.661 Y47.920 E0.2391 F1350
G1 X146.338 Y47.920 E1.3908
G1 X149.080 Y50.661 E1.6299
G1 X149.080 Y96.920 E4.4824
G1 X160.338 Y96.920 E5.1766
G1 X163.080 Y99.661 E5.4157
G1 X163.080 Y109.339 E6.0124
G1 X160.338 Y112.080 E6.2515
G1 X127.661 Y112.080 E8.2665
G1 X124.920 Y109.338 E8.5056
G1 X124.920 Y50.661 E12.1238
G1 X125.640 Y50.960 F18000
G92 E0.0000
G1 X127.960 Y48.640 E0.2023 F1350
G1 X146.040 Y48.640 E1.3172
G1 X148.360 Y50.960 E1.5195
G1 X148.360 Y97.640 E4.3980
G1 X160.040 Y97.640 E5.1183
G1 X162.360 Y99.960 E5.3206
G1 X162.360 Y109.040 E5.8805
G1 X160.040 Y111.360 E6.0828
G1 X127.960 Y111.360 E8.0610
G1 X125.640 Y109.040 E8.2633
G1 X125.640 Y50.960 E11.8448
G1 X126.360 Y51.258 F18000
G92 E0.0000
G1 X128.258 Y49.360 E0.1655 F1350
G1 X145.742 Y49.360 E1.2437
G1 X147.640 Y51.258 E1.4092
G1 X147.640 Y98.360 E4.3137
G1 X159.742 Y98.360 E5.0599
G1 X161.640 Y100.258 E5.2255
G1 X161.640 Y108.742 E5.7486
G1 X159.742 Y110.640 E5.9141
G1 X128.258 Y110.640 E7.8556
G1 X126.360 Y108.742 E8.0211
G1 X126.360 Y51.258 E11.5658
G1 X127.080 Y51.556 F18000
G92 E0.0000
G1 X128.556 Y50.080 E0.1287 F1350
G1 X145.444 Y50.080 E1.1701
G1 X146.920 Y51.556 E1.2988
G1 X146.920 Y99.080 E4.2294
G1 X159.444 Y99.080 E5.0016
G1 X160.920 Y100.556 E5.1304
G1 X160.920 Y108.444 E5.6167
G1 X159.444 Y109.920 E5.7455
G1 X128.556 Y109.920 E7.6501
G1 X127.080 Y108.444 E7.7789
G1 X127.080 Y51.556 E11.2868
G1 X127.800 Y51.854 F18000
G92 E0.0000
G1 X128.854 Y50.800 E0.0920 F1350
G1 X145.146 Y50.800 E1.0965
G1 X146.200 Y51.854 E1.1885
G1 X146.200 Y99.800 E4.1450
G1 X159.146 Y99.800 E4.9433
G1 X160.200 Y100.854 E5.0352
G1 X160.200 Y108.146 E5.4849
G1 X159.146 Y109.200 E5.5768
G1 X128.854 Y109.200 E7.4447
G1 X127.800 Y108.146 E7.5366
G1 X127.800 Y51.854 E11.0078
G1 X128.520 Y52.153 F18000
G92 E0.0000
G1 X129.153 Y51.520 E0.0552 F1350
G1 X144.847 Y51.520 E1.0230
G1 X145.480 Y52.153 E1.0781
G1 X145.480 Y100.520 E4.0607
G1 X158.847 Y100.520 E4.8850
G1 X159.480 Y101.153 E4.9401
G1 X159.480 Y107.847 E5.3530
G1 X158.847 Y108.480 E5.4081
G1 X129.153 Y108.480 E7.2392
G1 X128.520 Y107.847 E7.2944
G1 X128.520 Y52.153 E10.7288
G1 X129.240 Y52.451 F18000
G92 E0.0000
G1 X129.451 Y52.240 E0.0184 F1350
G1 X144.549 Y52.240 E0.9494
G1 X144.760 Y52.451 E0.9678
G1 X144.760 Y101.240 E3.9763
G1 X158.549 Y101.240 E4.8266
G1 X158.760 Y101.451 E4.8450
G1 X158.760 Y107.549 E5.2211
G1 X158.549 Y107.760 E5.2395
G1 X129.451 Y107.760 E7.0338
G1 X129.240 Y107.549 E7.0522
G1 X129.240 Y52.451 E10.4498
G92 E0.0000
G1 E-1.0000 F3600
G1 X127.221 Y128.420 F18000
G1 E0.0000 F3600
G92 E0.0000
G1 X147.687 Y128.420 E1.2620 F1350
G1 X151.694 Y132.427 E1.6115
G1 X151.694 Y177.420 E4.3859
G1 X161.687 Y177.420 E5.0022
G1 X165.694 Y181.427 E5.3516
G1 X165.694 Y192.893 E6.0587
G1 X161.687 Y196.900 E6.4081
G1 X127.221 Y196.900 E8.5334
G1 X123.214 Y192.893 E8.8828
G1 X123.214 Y132.427 E12.6115
G1 X127.221 Y128.420 E12.9609
G1 X127.519 Y129.140 F18000
G92 E0.0000
G1 X147.389 Y129.140 E1.2253 F1350
G1 X150.974 Y132.725 E1.5379
G1 X150.974 Y178.140 E4.3384
G1 X161.389 Y178.140 E4.9806
G1 X164.974 Y181.725 E5.2933
G1 X164.974 Y192.595 E5.9635
G1 X161.389 Y196.180 E6.2762
G1 X127.519 Y196.180 E8.3648
G1 X123.934 Y192.595 E8.6774
G1 X123.934 Y132.725 E12.3692
G1 X127.519 Y129.140 E12.6819
G1 X127.817 Y129.860 F18000
G92 E0.0000
G1 X147.091 Y129.860 E1.1885 F1350
G1 X150.254 Y133.023 E1.4643
G1 X150.254 Y178.860 E4.2908
G1 X161.091 Y178.860 E4.9591
G1 X164.254 Y182.023 E5.2349
G1 X164.254 Y192.297 E5.8684
G1 X161.091 Y195.460 E6.1443
G1 X127.817 Y195.460 E8.1961
G1 X124.654 Y192.297 E8.4719
G1 X124.654 Y133.023 E12.1270
G1 X127.817 Y129.860 E12.4029
G1 X128.115 Y130.580 F18000
G92 E0.0000
G1 X146.792 Y130.580 E1.1517 F1350
G1 X149.534 Y133.321 E1.3908
G1 X149.534 Y179.580 E4.2433
G1 X160.792 Y179.580 E4.9375
G1 X163.534 Y182.321 E5.1766
G1 X163.534 Y191.998 E5.7733
G1 X160.792 Y194.740 E6.0124
G1 X128.115 Y194.740 E8.0274
G1 X125.374 Y191.998 E8.2665
G1 X125.374 Y133.321 E11.8848
G1 X128.115 Y130.580 E12.1238
G1 X128.414 Y131.300 F18000
G92 E0.0000
G1 X146.494 Y131.300 E1.1149 F1350
G1 X148.814 Y133.620 E1.3172
G1 X148.814 Y180.300 E4.1957
G1 X160.494 Y180.300 E4.9160
G1 X162.814 Y182.620 E5.1183
G1 X162.814 Y191.700 E5.6782
G1 X160.494 Y194.020 E5.8805
G1 X128.414 Y194.020 E7.8587
G1 X126.094 Y191.700 E8.0610
G1 X126.094 Y133.620 E11.6425
G1 X128.414 Y131.300 E11.8448
G1 X128.712 Y132.020 F18000
G92 E0.0000
G1 X146.196 Y132.020 E1.0781 F1350
G1 X148.094 Y133.918 E1.2437
G1 X148.094 Y181.020 E4.1482
G1 X160.196 Y181.020 E4.8944
G1 X162.094 Y182.918 E5.0600
G1 X162.094 Y191.402 E5.5831
G1 X160.196 Y193.300 E5.7486
G1 X128.712 Y193.300 E7.6901
G1 X126.814 Y191.402 E7.8556
G1 X126.814 Y133.918 E11.4003
G1 X128.712 Y132.020 E11.5658
G1 X129.010 Y132.740 F18000
G92 E0.0000
G1 X145.898 Y132.740 E1.0414 F1350
G1 X147.374 Y134.216 E1.1701
G1 X147.374 Y181.740 E4.1006
G1 X159.898 Y181.740 E4.8729
G1 X161.374 Y183.216 E5.0016
G1 X161.374 Y191.104 E5.4880
G1 X159.898 Y192.580 E5.6167
G1 X129.010 Y192.580 E7.5214
