; G-Code generated by Simplify3D(R) Version 4.1.2
; Jul 3, 2022 at 8:23:11 PM
; Settings Summary
;   processName,Process1
;   applyToModels,HevACS_315_340_MidDuct
;   profileName,HSBot (modified)
;   profileVersion,2019-11-09 11:59:44
;   baseProfile,Default
;   printMaterial,PETG - Eryone
;   printQuality,Fast
;   printExtruders,
;   extruderName,Extruder - v6,Extruder - lgx ace
;   extruderToolheadNumber,0,1
;   extruderDiameter,0.4,0.4
;   extruderAutoWidth,1,1
;   extruderWidth,0.48,0.48
;   extrusionMultiplier,1.03,1.03
;   extruderUseRetract,0,1
;   extruderRetractionDistance,4,1
;   extruderExtraRestartDistance,0,0
;   extruderRetractionZLift,0,0
;   extruderRetractionSpeed,3600,3600
;   extruderUseCoasting,0,0
;   extruderCoastingDistance,0.2,0.2
;   extruderUseWipe,0,1
;   extruderWipeDistance,1,1
;   primaryExtruder,1
;   layerHeight,0.28
;   topSolidLayers,3
;   bottomSolidLayers,3
;   perimeterOutlines,3
;   printPerimetersInsideOut,1
;   startPointOption,2
;   startPointOriginX,0
;   startPointOriginY,0
;   sequentialIslands,0
;   spiralVaseMode,0
;   firstLayerHeightPercentage,100
;   firstLayerWidthPercentage,150
;   firstLayerUnderspeed,0.25
;   useRaft,0
;   raftExtruder,0
;   raftTopLayers,3
;   raftBaseLayers,2
;   raftOffset,3
;   raftSeparationDistance,0.18
;   raftTopInfill,100
;   aboveRaftSpeedMultiplier,0.3
;   useSkirt,1
;   skirtExtruder,1
;   skirtLayers,1
;   skirtOutlines,15
;   skirtOffset,0
;   usePrimePillar,0
;   primePillarExtruder,999
;   primePillarWidth,12
;   primePillarLocation,7
;   primePillarSpeedMultiplier,1
;   useOozeShield,0
;   oozeShieldExtruder,999
;   oozeShieldOffset,2
;   oozeShieldOutlines,1
;   oozeShieldSidewallShape,1
;   oozeShieldSidewallAngle,30
;   oozeShieldSpeedMultiplier,1
;   infillExtruder,1
;   internalInfillPattern,Rectilinear
;   externalInfillPattern,Rectilinear
;   infillPercentage,10
;   outlineOverlapPercentage,20
;   infillExtrusionWidthPercentage,100
;   minInfillLength,3
;   infillLayerInterval,1
;   internalInfillAngles,45,-45
;   overlapInternalInfillAngles,0
;   externalInfillAngles,45,-45
;   generateSupport,0
;   supportExtruder,1
;   supportInfillPercentage,25
;   supportExtraInflation,0
;   supportBaseLayers,1
;   denseSupportExtruder,0
;   denseSupportLayers,0
;   denseSupportInfillPercentage,70
;   supportLayerInterval,1
;   supportHorizontalPartOffset,0.3
;   supportUpperSeparationLayers,1
;   supportLowerSeparationLayers,1
;   supportType,0
;   supportGridSpacing,2
;   maxOverhangAngle,45
;   supportAngles,0
;   temperatureName,v6,Bed,lgx-ace
;   temperatureNumber,0,0,1
;   temperatureSetpointCount,1,1,1
;   temperatureSetpointLayers,1,1,1
;   temperatureSetpointTemperatures,0,85,240
;   temperatureStabilizeAtStartup,1,1,1
;   temperatureHeatedBed,0,1,0
;   fanLayers,1,2,3
;   fanSpeeds,0,15,15
;   blipFanToFullPower,0
;   adjustSpeedForCooling,0
;   minSpeedLayerTime,15
;   minCoolingSpeedSlowdown,50
;   increaseFanForCooling,0
;   minFanLayerTime,45
;   maxCoolingFanSpeed,70
;   increaseFanForBridging,0
;   bridgingFanSpeed,80
;   use5D,1
;   relativeEdistances,0
;   allowEaxisZeroing,1
;   independentExtruderAxes,0
;   includeM10123,0
;   stickySupport,1
;   applyToolheadOffsets,0
;   gcodeXoffset,0
;   gcodeYoffset,0
;   gcodeZoffset,0
;   overrideMachineDefinition,1
;   machineTypeOverride,0
;   strokeXoverride,220
;   strokeYoverride,220
;   strokeZoverride,175
;   originOffsetXoverride,0
;   originOffsetYoverride,0
;   originOffsetZoverride,0
;   homeXdirOverride,-1
;   homeYdirOverride,-1
;   homeZdirOverride,-1
;   flipXoverride,1
;   flipYoverride,-1
;   flipZoverride,1
;   toolheadOffsets,0,0|0,0|0,0|0,0|0,0|0,0
;   overrideFirmwareConfiguration,0
;   firmwareTypeOverride,RepRap (Marlin/Repetier/Sprinter)
;   GPXconfigOverride,r2
;   baudRateOverride,115200
;   overridePrinterModels,0
;   printerModelsOverride
;   startingGcode,G28 ; home all axes,G32 ; run bed.g -- probe bed and enable compensation
;   layerChangeGcode,
;   retractionGcode,
;   toolChangeGcode,
;   endingGcode,M0 ; call stop.g
;   exportFileFormat,gcode
;   celebration,0
;   celebrationSong,Random Song
;   postProcessing,|; 0.2mm layer, 8 bands 5mm each, total height 40mm|{REPLACE "; layer 25" "M572 D0 S0.69\n; layer 10"}|{REPLACE "; layer 50" "M572 D0 S0.70\n; layer 50"}|{REPLACE "; layer 75" "M572 D0 S0.71\n; layer 75"}|{REPLACE "; layer 100" "M572 D0 S0.72\n; layer 100"}|{REPLACE "; layer 125" "M572 D0 S0.73\n; layer 125"}|{REPLACE "; layer 150" "M572 D0 S0.74\n; layer 150"}|{REPLACE "; layer 175" "M572 D0 S0.75\n; layer 175"}|{REPLACE "; layer 200" "M572 D0 S0.76\n; layer 200"}
;   defaultSpeed,5400
;   outlineUnderspeed,1
;   solidInfillUnderspeed,0.8
;   supportUnderspeed,0.8
;   rapidXYspeed,18000
;   rapidZspeed,1200
;   minBridgingArea,60
;   bridgingExtraInflation,0
;   bridgingExtrusionMultiplier,0.96
;   bridgingSpeedMultiplier,1
;   useFixedBridgingAngle,0
;   fixedBridgingAngle,0
;   applyBridgingToPerimeters,0
;   filamentDiameters,1.75|1.75|1.75|1.75|1.75|1.75
;   filamentPricesPerKg,25|46|46|46|46|46
;   filamentDensities,1.29|1.25|1.25|1.25|1.25|1.25
;   useMinPrintHeight,0
;   minPrintHeight,0.3
;   useMaxPrintHeight,1
;   maxPrintHeight,110
;   useDiaphragm,1
;   diaphragmLayerInterval,20
;   robustSlicing,1
;   mergeAllIntoSolid,0
;   onlyRetractWhenCrossingOutline,1
;   retractBetweenLayers,0
;   useRetractionMinTravel,1
;   retractionMinTravel,5
;   retractWhileWiping,1
;   onlyWipeOutlines,1
;   avoidCrossingOutline,1
;   maxMovementDetourFactor,2
;   toolChangeRetractionDistance,12
;   toolChangeExtraRestartDistance,0
;   toolChangeRetractionSpeed,600
;   externalThinWallType,0
;   internalThinWallType,1
;   thinWallAllowedOverlapPercentage,10
;   singleExtrusionMinLength,0.1
;   singleExtrusionMinPrintingWidthPercentage,50
;   singleExtrusionMaxPrintingWidthPercentage,200
;   singleExtrusionEndpointExtension,0.2
;   horizontalSizeCompensation,0
G90
M82
M106 S0
M140 S85
M190 S85
G10 S0 R{0-50} P0
G10 S240 R{240-50} P1
M116 P1
G28 ; home all axes
G32 ; run bed.g -- probe bed and enable compensation
; process Process1
; layer 1, Z = 0.280
T1
G92 E0.0000
G1 E-1.0000 F3600
; feature skirt
; tool H0.280 W0.720
G1 Z0.280 F1200
G1 X11.030 Y11.711 F18000
G1 E0.0000 F3600
G92 E0.0000
G1 X11.947 Y10.979 E0.1012 F1350
G1 X14.174 Y9.580 E0.3283
G1 X15.230 Y9.071 E0.4295
G1 X17.710 Y8.203 E0.6564
G1 X18.854 Y7.942 E0.7576
G1 X21.174 Y7.681 E0.9592
G1 X21.759 Y7.648 E1.0098
G1 X191.363 Y7.650 E15.6517
G1 X191.948 Y7.683 E15.7023
G1 X194.249 Y7.942 E15.9022
G1 X195.392 Y8.203 E16.0034
G1 X197.873 Y9.071 E16.2303
G1 X198.929 Y9.580 E16.3315
G1 X201.156 Y10.979 E16.5586
G1 X202.073 Y11.711 E16.6598
G1 X203.930 Y13.568 E16.8865
G1 X204.661 Y14.485 E16.9878
G1 X206.060 Y16.711 E17.2147
G1 X206.568 Y17.767 E17.3160
G1 X207.436 Y20.248 E17.5429
G1 X207.697 Y21.391 E17.6441
G1 X207.959 Y23.711 E17.8456
G1 X207.991 Y24.296 E17.8962
G1 X207.991 Y45.048 E19.6877
G1 X207.959 Y45.633 E19.7383
G1 X207.697 Y47.953 E19.9398
G1 X207.436 Y49.096 E20.0411
G1 X206.568 Y51.577 E20.2680
G1 X206.060 Y52.633 E20.3692
G1 X204.661 Y54.859 E20.5962
G1 X203.930 Y55.776 E20.6974
G1 X202.072 Y57.634 E20.9242
G1 X201.155 Y58.365 E21.0255
G1 X198.929 Y59.764 E21.2524
G1 X197.873 Y60.272 E21.3536
G1 X195.392 Y61.141 E21.5806
G1 X194.248 Y61.401 E21.6818
G1 X191.929 Y61.663 E21.8833
G1 X191.344 Y61.696 E21.9339
G1 X21.759 Y61.696 E36.5741
G1 X21.174 Y61.663 E36.6247
G1 X18.854 Y61.401 E36.8263
G1 X17.711 Y61.141 E36.9275
G1 X15.230 Y60.272 E37.1544
G1 X14.173 Y59.764 E37.2557
G1 X11.948 Y58.366 E37.4825
G1 X11.032 Y57.635 E37.5837
G1 X9.173 Y55.776 E37.8107
G1 X8.442 Y54.859 E37.9119
G1 X7.043 Y52.633 E38.1388
G1 X6.534 Y51.577 E38.2401
G1 X5.666 Y49.096 E38.4670
G1 X5.405 Y47.953 E38.5682
G1 X5.144 Y45.633 E38.7698
G1 X5.111 Y45.048 E38.8203
G1 X5.111 Y24.296 E40.6118
G1 X5.144 Y23.711 E40.6624
G1 X5.405 Y21.391 E40.8639
G1 X5.666 Y20.248 E40.9652
G1 X6.534 Y17.767 E41.1921
G1 X7.043 Y16.710 E41.2933
G1 X8.442 Y14.484 E41.5204
G1 X9.174 Y13.567 E41.6216
G1 X11.030 Y11.711 E41.8483
G1 X11.511 Y12.248 F18000
G92 E0.0000
G1 X12.364 Y11.567 E0.0943 F1350
G1 X14.522 Y10.211 E0.3143
G1 X15.506 Y9.737 E0.4086
G1 X17.910 Y8.896 E0.6285
G1 X18.975 Y8.653 E0.7227
G1 X21.235 Y8.399 E0.9191
G1 X21.779 Y8.368 E0.9662
G1 X191.343 Y8.370 E15.6046
G1 X191.888 Y8.401 E15.6517
G1 X194.128 Y8.653 E15.8463
G1 X195.192 Y8.896 E15.9406
G1 X197.597 Y9.738 E16.1605
G1 X198.580 Y10.211 E16.2547
G1 X200.739 Y11.568 E16.4748
G1 X201.592 Y12.249 E16.5691
G1 X203.392 Y14.048 E16.7888
G1 X204.073 Y14.902 E16.8830
G1 X205.429 Y17.059 E17.1030
G1 X205.902 Y18.043 E17.1973
G1 X206.743 Y20.448 E17.4172
G1 X206.986 Y21.512 E17.5114
G1 X207.241 Y23.772 E17.7077
G1 X207.271 Y24.316 E17.7548
G1 X207.271 Y45.028 E19.5429
G1 X207.241 Y45.572 E19.5900
G1 X206.986 Y47.832 E19.7863
G1 X206.743 Y48.896 E19.8805
G1 X205.902 Y51.301 E20.1004
G1 X205.429 Y52.285 E20.1947
G1 X204.073 Y54.442 E20.4147
G1 X203.392 Y55.295 E20.5089
G1 X201.591 Y57.096 E20.7288
G1 X200.738 Y57.777 E20.8230
G1 X198.580 Y59.133 E21.0430
G1 X197.597 Y59.606 E21.1372
G1 X195.192 Y60.448 E21.3572
G1 X194.128 Y60.690 E21.4514
G1 X191.868 Y60.945 E21.6477
G1 X191.323 Y60.976 E21.6948
G1 X21.779 Y60.976 E36.3316
G1 X21.235 Y60.945 E36.3786
G1 X18.975 Y60.690 E36.5750
G1 X17.911 Y60.448 E36.6692
G1 X15.506 Y59.606 E36.8892
G1 X14.522 Y59.133 E36.9834
G1 X12.366 Y57.778 E37.2033
G1 X11.512 Y57.097 E37.2975
G1 X9.710 Y55.295 E37.5175
G1 X9.030 Y54.442 E37.6117
G1 X7.674 Y52.285 E37.8317
G1 X7.201 Y51.301 E37.9259
G1 X6.359 Y48.896 E38.1459
G1 X6.116 Y47.832 E38.2401
G1 X5.862 Y45.572 E38.4364
G1 X5.831 Y45.028 E38.4835
G1 X5.831 Y24.316 E40.2715
G1 X5.862 Y23.772 E40.3186
G1 X6.116 Y21.512 E40.5149
G1 X6.359 Y20.448 E40.6092
G1 X7.201 Y18.043 E40.8291
G1 X7.674 Y17.059 E40.9234
G1 X9.030 Y14.901 E41.1434
G1 X9.711 Y14.048 E41.2377
G1 X11.511 Y12.248 E41.4573
G1 X11.991 Y12.786 F18000
G92 E0.0000
G1 X12.781 Y12.155 E0.0873 F1350
G1 X14.871 Y10.842 E0.3004
G1 X15.782 Y10.404 E0.3876
G1 X18.110 Y9.589 E0.6005
G1 X19.095 Y9.364 E0.6878
G1 X21.295 Y9.117 E0.8789
G1 X21.799 Y9.088 E0.9225
G1 X191.323 Y9.090 E15.5575
G1 X191.827 Y9.119 E15.6011
G1 X194.007 Y9.364 E15.7905
G1 X194.993 Y9.589 E15.8777
G1 X197.321 Y10.404 E16.0907
G1 X198.232 Y10.842 E16.1779
G1 X200.322 Y12.156 E16.3910
G1 X201.112 Y12.786 E16.4783
G1 X202.854 Y14.529 E16.6911
G1 X203.485 Y15.319 E16.7783
G1 X204.797 Y17.408 E16.9913
G1 X205.236 Y18.319 E17.0786
G1 X206.050 Y20.647 E17.2915
G1 X206.275 Y21.632 E17.3788
G1 X206.523 Y23.832 E17.5699
G1 X206.551 Y24.336 E17.6135
G1 X206.551 Y45.007 E19.3980
G1 X206.523 Y45.512 E19.4416
G1 X206.275 Y47.711 E19.6327
G1 X206.050 Y48.697 E19.7199
G1 X205.236 Y51.025 E19.9329
G1 X204.797 Y51.936 E20.0202
G1 X203.485 Y54.025 E20.2331
G1 X202.854 Y54.815 E20.3204
G1 X201.111 Y56.559 E20.5333
G1 X200.320 Y57.189 E20.6206
G1 X198.232 Y58.501 E20.8335
G1 X197.321 Y58.940 E20.9208
G1 X194.992 Y59.755 E21.1338
G1 X194.007 Y59.979 E21.2210
G1 X191.808 Y60.227 E21.4121
G1 X191.303 Y60.256 E21.4557
G1 X21.799 Y60.256 E36.0890
G1 X21.295 Y60.227 E36.1326
G1 X19.096 Y59.979 E36.3237
G1 X18.110 Y59.755 E36.4109
G1 X15.782 Y58.940 E36.6239
G1 X14.871 Y58.501 E36.7112
G1 X12.783 Y57.189 E36.9240
G1 X11.992 Y56.559 E37.0113
G1 X10.248 Y54.815 E37.2243
G1 X9.618 Y54.025 E37.3116
G1 X8.305 Y51.936 E37.5245
G1 X7.867 Y51.025 E37.6118
G1 X7.052 Y48.697 E37.8247
G1 X6.827 Y47.711 E37.9120
G1 X6.580 Y45.512 E38.1031
G1 X6.551 Y45.007 E38.1467
G1 X6.551 Y24.336 E39.9312
G1 X6.580 Y23.832 E39.9748
G1 X6.827 Y21.633 E40.1659
G1 X7.052 Y20.647 E40.2532
G1 X7.867 Y18.319 E40.4661
G1 X8.305 Y17.408 E40.5534
G1 X9.618 Y15.318 E40.7664
G1 X10.249 Y14.528 E40.8537
G1 X11.991 Y12.786 E41.0664
G1 X12.472 Y13.324 F18000
G92 E0.0000
G1 X13.199 Y12.743 E0.0803 F1350
G1 X15.220 Y11.473 E0.2864
G1 X16.058 Y11.070 E0.3667
G1 X18.309 Y10.282 E0.5726
G1 X19.216 Y10.075 E0.6529
G1 X21.356 Y9.834 E0.8387
G1 X21.820 Y9.808 E0.8789
G1 X191.303 Y9.810 E15.5103
G1 X191.767 Y9.836 E15.5505
G1 X193.886 Y10.075 E15.7346
G1 X194.793 Y10.282 E15.8149
G1 X197.045 Y11.070 E16.0209
G1 X197.883 Y11.474 E16.1011
G1 X199.904 Y12.744 E16.3072
G1 X200.631 Y13.324 E16.3875
G1 X202.317 Y15.009 E16.5933
G1 X202.897 Y15.737 E16.6736
G1 X204.166 Y17.757 E16.8796
G1 X204.570 Y18.595 E16.9599
G1 X205.357 Y20.847 E17.1658
G1 X205.564 Y21.753 E17.2461
G1 X205.805 Y23.893 E17.4320
G1 X205.831 Y24.357 E17.4721
G1 X205.831 Y44.987 E19.2531
G1 X205.805 Y45.451 E19.2933
G1 X205.564 Y47.591 E19.4791
G1 X205.357 Y48.497 E19.5594
G1 X204.570 Y50.749 E19.7653
G1 X204.166 Y51.587 E19.8456
G1 X202.897 Y53.607 E20.0516
G1 X202.317 Y54.334 E20.1319
G1 X200.630 Y56.021 E20.3378
G1 X199.903 Y56.601 E20.4181
G1 X197.883 Y57.870 E20.6241
G1 X197.045 Y58.274 E20.7044
G1 X194.793 Y59.062 E20.9104
G1 X193.886 Y59.269 E20.9907
G1 X191.747 Y59.510 E21.1765
G1 X191.283 Y59.536 E21.2166
G1 X21.820 Y59.536 E35.8464
G1 X21.356 Y59.510 E35.8865
G1 X19.216 Y59.269 E36.0723
G1 X18.310 Y59.062 E36.1526
G1 X16.058 Y58.274 E36.3586
G1 X15.220 Y57.870 E36.4389
G1 X13.200 Y56.601 E36.6448
G1 X12.473 Y56.022 E36.7251
G1 X10.786 Y54.334 E36.9311
G1 X10.206 Y53.607 E37.0114
G1 X8.937 Y51.587 E37.2174
G1 X8.533 Y50.749 E37.2976
G1 X7.745 Y48.497 E37.5036
G1 X7.538 Y47.590 E37.5839
G1 X7.297 Y45.451 E37.7697
G1 X7.271 Y44.987 E37.8099
G1 X7.271 Y24.357 E39.5909
G1 X7.297 Y23.893 E39.6310
G1 X7.538 Y21.753 E39.8169
G1 X7.745 Y20.847 E39.8971
G1 X8.533 Y18.595 E40.1031
G1 X8.937 Y17.757 E40.1834
G1 X10.206 Y15.736 E40.3895
G1 X10.786 Y15.009 E40.4698
G1 X12.472 Y13.324 E40.6755
G1 X12.952 Y13.861 F18000
G92 E0.0000
G1 X13.616 Y13.332 E0.0733 F1350
G1 X15.569 Y12.105 E0.2724
G1 X16.334 Y11.736 E0.3457
G1 X18.509 Y10.975 E0.5446
G1 X19.337 Y10.786 E0.6179
G1 X21.416 Y10.552 E0.7986
G1 X21.840 Y10.528 E0.8352
G1 X191.283 Y10.530 E15.4632
G1 X191.706 Y10.554 E15.4998
G1 X193.766 Y10.786 E15.6788
G1 X194.594 Y10.975 E15.7521
G1 X196.769 Y11.736 E15.9510
G1 X197.534 Y12.105 E16.0243
G1 X199.487 Y13.332 E16.2234
G1 X200.150 Y13.861 E16.2967
G1 X201.779 Y15.490 E16.4956
G1 X202.308 Y16.154 E16.5689
G1 X203.535 Y18.106 E16.7679
G1 X203.903 Y18.871 E16.8412
G1 X204.664 Y21.046 E17.0402
G1 X204.853 Y21.874 E17.1135
G1 X205.088 Y23.953 E17.2941
G1 X205.111 Y24.377 E17.3307
G1 X205.111 Y44.967 E19.1083
G1 X205.088 Y45.391 E19.1449
G1 X204.853 Y47.470 E19.3255
G1 X204.664 Y48.298 E19.3988
G1 X203.903 Y50.473 E19.5978
G1 X203.535 Y51.238 E19.6711
G1 X202.308 Y53.190 E19.8701
G1 X201.779 Y53.854 E19.9434
G1 X200.150 Y55.483 E20.1424
G1 X199.486 Y56.013 E20.2157
G1 X197.534 Y57.239 E20.4147
G1 X196.769 Y57.607 E20.4880
G1 X194.593 Y58.369 E20.6870
G1 X193.765 Y58.558 E20.7603
G1 X191.687 Y58.792 E20.9409
G1 X191.263 Y58.816 E20.9775
G1 X21.840 Y58.816 E35.6038
G1 X21.416 Y58.792 E35.6404
G1 X19.337 Y58.558 E35.8210
G1 X18.509 Y58.369 E35.8944
G1 X16.333 Y57.607 E36.0934
G1 X15.568 Y57.239 E36.1667
G1 X13.617 Y56.013 E36.3656
G1 X12.953 Y55.484 E36.4389
G1 X11.323 Y53.854 E36.6379
G1 X10.794 Y53.190 E36.7112
G1 X9.568 Y51.238 E36.9102
G1 X9.199 Y50.473 E36.9835
G1 X8.438 Y48.297 E37.1825
G1 X8.249 Y47.470 E37.2558
G1 X8.015 Y45.391 E37.4364
G1 X7.991 Y44.967 E37.4730
G1 X7.991 Y24.377 E39.2506
G1 X8.015 Y23.953 E39.2872
G1 X8.249 Y21.874 E39.4678
G1 X8.438 Y21.046 E39.5411
G1 X9.199 Y18.871 E39.7401
G1 X9.568 Y18.106 E39.8134
G1 X10.795 Y16.153 E40.0125
G1 X11.324 Y15.489 E40.0858
G1 X12.952 Y13.861 E40.2846
G1 X13.433 Y14.399 F18000
G92 E0.0000
G1 X14.033 Y13.920 E0.0663 F1350
G1 X15.918 Y12.736 E0.2584
G1 X16.610 Y12.402 E0.3248
G1 X18.709 Y11.668 E0.5167
G1 X19.458 Y11.497 E0.5830
G1 X21.477 Y11.270 E0.7584
G1 X21.860 Y11.248 E0.7916
G1 X191.262 Y11.250 E15.4161
G1 X191.646 Y11.272 E15.4492
G1 X193.645 Y11.497 E15.6229
G1 X194.394 Y11.668 E15.6892
G1 X196.493 Y12.403 E15.8812
G1 X197.185 Y12.736 E15.9476
G1 X199.069 Y13.920 E16.1397
G1 X199.670 Y14.399 E16.2060
G1 X201.241 Y15.971 E16.3979
G1 X201.720 Y16.571 E16.4642
G1 X202.904 Y18.454 E16.6562
