; generated by PrusaSlicer 2.6.0-alpha5+win64 on 2023-03-29 at 13:33:29 UTC


;
;
; 

; external perimeters extrusion width = 0.68mm
; perimeters extrusion width = 0.68mm
; infill extrusion width = 0.68mm
; solid infill extrusion width = 0.68mm
; top infill extrusion width = 0.60mm
; first layer extrusion width = 0.63mm

; external perimeters extrusion width = 0.68mm
; perimeters extrusion width = 0.68mm
; infill extrusion width = 0.68mm
; solid infill extrusion width = 0.68mm
; top infill extrusion width = 0.60mm
; first layer extrusion width = 0.63mm

M73 P0 R33
M107
M190 S85 ; set bed temperature and wait for it to be reached
G10 S230 P1 ; set temperature
;TYPE:Custom
;Set standby temperatures
G10 R200 P0
G10 R220 P1
G28 ; home all axes
G32 ; run bed.g -- probe bed and enable compensation
;workaround for toolchanger when using only one extruder
T1; select tool
G10 S230 P1 ; set temperature
M116 ; wait for temperature to be reached
G21 ; set units to millimeters
G90 ; use absolute coordinates
M82 ; use absolute distances for extrusion
G92 E0
;tool change macro
T1
G92 E0
; Filament gcode
M107
;LAYER_CHANGE
;Z:0.2
;HEIGHT:0.2
G1 Z.2 F18000
G1 E-.75 F1500
G92 E0
G1 X85.371 Y61.056 F18000
G1 E.75 F1500
;TYPE:Skirt/Brim
;WIDTH:0.63
G1 F2700
G1 X87.142 Y59.455 E.86072
G1 X89.34 Y58.524 E.97142
G1 X90.999 Y58.329 E1.04889
G1 X128.996 Y58.326 E2.811
G1 X131.35 Y58.723 E2.92171
G1 X133.444 Y59.87 E3.03243
G1 X135.045 Y61.641 E3.14315
G1 X135.976 Y63.839 E3.25385
G1 X136.171 Y65.5 E3.33141
G1 X136.172 Y138.175 E6.70172
G1 X136.09 Y139.502 E6.76338
G1 X135.88 Y140.814 E6.825
G1 X135.543 Y142.103 E6.88679
G1 X135.083 Y143.348 E6.94834
G1 X134.349 Y144.823 E7.02474
G1 X133.429 Y146.215 E7.10212
G1 X132.326 Y147.506 E7.18087
G1 X131.07 Y148.653 E7.25975
G1 X129.428 Y149.787 E7.35229
G1 X127.937 Y150.545 E7.42986
G1 X126.328 Y151.126 E7.50919
G1 X124.772 Y151.482 E7.58321
G1 X122.529 Y151.673 E7.68761
G1 X97.042 Y151.665 E8.86957
G1 X95.998 Y151.59 E8.91811
G1 X94.686 Y151.38 E8.97973
G1 X93.397 Y151.043 E9.04152
G1 X92.152 Y150.583 E9.10307
G1 X90.373 Y149.668 E9.19584
G1 X89.007 Y148.715 E9.27308
G1 X87.545 Y147.371 E9.36518
G1 X86.445 Y146.045 E9.44508
G1 X85.394 Y144.354 E9.53741
G1 X84.703 Y142.814 E9.61569
G1 X84.199 Y141.167 E9.69557
G1 X83.88 Y139.19 E9.78844
G1 X83.827 Y138.029 E9.84234
G1 X83.826 Y65.503 E13.20574
G1 X84.223 Y63.149 E13.31645
G1 X85.327 Y61.135 E13.42296
G1 X85.855 Y61.439 F18000
G1 F2700
G1 X85.953 Y61.27 E13.43202
G1 X87.704 Y59.8 E13.53804
G1 X89.853 Y59.017 E13.64411
G1 X90.999 Y58.916 E13.69746
G1 X128.996 Y58.913 E15.45957
G1 X131.249 Y59.31 E15.56566
G1 X133.229 Y60.453 E15.67168
G1 X134.7 Y62.204 E15.77773
G1 X135.483 Y64.352 E15.88376
G1 X135.584 Y65.5 E15.9372
G1 X135.585 Y138.16 E19.30681
G1 X135.508 Y139.43 E19.36581
G1 X135.307 Y140.687 E19.42484
G1 X134.985 Y141.921 E19.48398
G1 X134.546 Y143.112 E19.54285
G1 X133.836 Y144.536 E19.61664
G1 X132.964 Y145.857 E19.69004
G1 X131.901 Y147.101 E19.76592
G1 X130.708 Y148.192 E19.84089
G1 X129.137 Y149.278 E19.92946
G1 X127.696 Y150.01 E20.00441
G1 X126.171 Y150.561 E20.07961
G1 X124.666 Y150.905 E20.1512
G1 X122.529 Y151.086 E20.25066
G1 X97.056 Y151.078 E21.43197
G1 X94.813 Y150.807 E21.53675
G1 X93.579 Y150.485 E21.59589
G1 X92.388 Y150.046 E21.65476
G1 X90.685 Y149.171 E21.74355
G1 X89.366 Y148.25 E21.81815
G1 X87.966 Y146.963 E21.90634
G1 X86.924 Y145.705 E21.98209
G1 X85.917 Y144.088 E22.07043
G1 X85.251 Y142.603 E22.14591
G1 X84.772 Y141.039 E22.22177
G1 X84.465 Y139.147 E22.31066
G1 X84.414 Y138.029 E22.36256
G1 X84.413 Y65.503 E25.72596
G1 X84.81 Y63.251 E25.83201
G1 X85.81 Y61.517 E25.92484
G1 E25.17484 F1500
G92 E0
G1 X128.098 Y72.885 F18000
G1 E.75 F1500
;TYPE:Perimeter
;WIDTH:0.629999
G1 F3000
G1 X127.929 Y72.589 E.76581
G1 X127.438 Y71.992 E.80166
G1 X126.792 Y71.496 E.83943
G1 X126.086 Y71.175 E.8754
G1 X125.314 Y71.014 E.91197
G1 X124.764 Y71.008 E.93748
G1 X124.194 Y71.097 E.96423
G1 X123.472 Y71.353 E.99976
G1 X122.812 Y71.773 E1.03604
G1 X122.229 Y72.363 E1.07451
G1 X121.948 Y72.788 E1.09814
G1 X121.71 Y73.31 E1.12475
G1 X121.566 Y73.841 E1.15026
G1 X121.507 Y74.655 E1.18811
G1 X121.599 Y75.336 E1.21998
G1 X121.754 Y75.812 E1.2432
G1 X121.984 Y76.274 E1.26713
G1 X122.164 Y76.531 E1.28168
G1 X122.562 Y77.008 E1.31049
G1 X123.04 Y77.397 E1.33907
G1 X123.295 Y77.547 E1.35279
G1 X123.914 Y77.825 E1.38426
G1 X124.686 Y77.986 E1.42083
G1 X125.236 Y77.992 E1.44634
G1 X125.806 Y77.903 E1.47309
G1 X126.528 Y77.647 E1.50862
G1 X127.188 Y77.227 E1.5449
G1 X127.771 Y76.637 E1.58337
G1 X128.098 Y76.116 E1.6119
G1 X128.098 Y94.465 E2.46284
G1 X128.031 Y95.352 E2.50409
G1 X127.926 Y95.872 E2.52869
G1 X127.754 Y96.424 E2.5555
G1 X127.558 Y96.897 E2.57924
G1 X127.302 Y97.375 E2.60439
G1 X126.981 Y97.853 E2.63109
G1 X126.636 Y98.27 E2.65619
G1 X126.251 Y98.653 E2.68137
G1 X125.803 Y99.017 E2.70814
G1 X125.377 Y99.301 E2.73188
G1 X124.906 Y99.553 E2.75665
G1 X124.418 Y99.742 E2.78092
G1 X123.824 Y99.93 E2.80981
G1 X123.292 Y100.034 E2.83495
G1 X122.751 Y100.091 E2.86018
G1 X97.499 Y100.097 E4.03124
G1 X96.875 Y100.056 E4.06024
G1 X96.047 Y99.901 E4.09931
G1 X95.522 Y99.732 E4.12489
G1 X95.047 Y99.528 E4.14886
G1 X94.567 Y99.263 E4.17429
G1 X94.092 Y98.936 E4.20103
G1 X93.678 Y98.584 E4.22623
G1 X93.298 Y98.191 E4.25158
G1 X92.942 Y97.741 E4.27819
G1 X92.663 Y97.309 E4.30204
G1 X92.411 Y96.813 E4.32784
G1 X92.12 Y96.026 E4.36675
G1 X91.993 Y95.476 E4.39293
G1 X91.909 Y94.751 E4.42678
G1 X91.905 Y76.12 E5.29079
G1 X92.071 Y76.411 E5.30633
G1 X92.562 Y77.008 E5.34218
G1 X93.208 Y77.504 E5.37995
G1 X93.914 Y77.825 E5.41592
G1 X94.686 Y77.986 E5.45249
G1 X95.236 Y77.992 E5.478
G1 X95.806 Y77.903 E5.50475
G1 X96.528 Y77.647 E5.54028
G1 X97.023 Y77.354 E5.56696
G1 X97.346 Y77.074 E5.58678
G1 X97.771 Y76.637 E5.61505
G1 X98.052 Y76.212 E5.63868
G1 X98.29 Y75.69 E5.66529
G1 X98.434 Y75.159 E5.6908
G1 X98.493 Y74.345 E5.72865
G1 X98.387 Y73.617 E5.76277
G1 X98.205 Y73.095 E5.78841
G1 X97.929 Y72.589 E5.81514
G1 X97.438 Y71.992 E5.85099
G1 X96.792 Y71.496 E5.88876
G1 X96.086 Y71.175 E5.92473
G1 X95.314 Y71.014 E5.9613
G1 X94.764 Y71.008 E5.98681
G1 X94.194 Y71.097 E6.01356
G1 X93.472 Y71.353 E6.04909
G1 X92.812 Y71.773 E6.08537
G1 X92.229 Y72.363 E6.12384
G1 X91.904 Y72.88 E6.15216
G1 X91.902 Y66.402 E6.45258
G1 X128.098 Y66.402 E8.13117
G1 X128.098 Y72.795 E8.42765
G1 E7.67765 F1500
G92 E0
G1 X91.315 Y65.815 F18000
G1 E.75 F1500
;TYPE:External perimeter
G1 F2700
G1 X128.685 Y65.815 E2.48303
G1 X128.685 Y68.727 E2.61807
G1 X128.685 Y73.25 E2.82782
;WIDTH:0.673424
G1 X128.663 Y73.433 E2.837
;WIDTH:0.716848
G1 X128.641 Y73.617 E2.84687
;WIDTH:0.760272
G1 X128.62 Y73.8 E2.85731
G1 X128.638 Y74.521 E2.89818
;WIDTH:0.754798
G1 X128.622 Y75.142 E2.93311
G1 X128.643 Y75.315 E2.94291
;WIDTH:0.713199
G1 X128.664 Y75.488 E2.95214
;WIDTH:0.671599
G1 X128.685 Y75.661 E2.96079
;WIDTH:0.629999
G1 X128.685 Y94.487 E3.83385
G1 X128.613 Y95.433 E3.87785
G1 X128.495 Y96.018 E3.90553
G1 X128.307 Y96.624 E3.93495
G1 X128.089 Y97.148 E3.96127
G1 X127.805 Y97.678 E3.98916
G1 X127.452 Y98.204 E4.01854
G1 X127.07 Y98.666 E4.04634
G1 X126.645 Y99.09 E4.07418
G1 X126.151 Y99.49 E4.10366
G1 X125.679 Y99.805 E4.12998
G1 X125.151 Y100.087 E4.15774
G1 X124.63 Y100.289 E4.18365
G1 X123.966 Y100.5 E4.21596
G1 X123.27 Y100.63 E4.2488
G1 X122.771 Y100.678 E4.27205
G1 X97.469 Y100.683 E5.44543
G1 X96.773 Y100.634 E5.47779
G1 X95.873 Y100.461 E5.52029
G1 X95.296 Y100.274 E5.54842
G1 X94.77 Y100.045 E5.57502
G1 X94.24 Y99.75 E5.60315
G1 X93.718 Y99.388 E5.63261
G1 X93.207 Y98.943 E5.66403
G1 X92.766 Y98.468 E5.69409
G1 X92.453 Y98.066 E5.71772
G1 X92.145 Y97.586 E5.74417
G1 X91.864 Y97.025 E5.77327
G1 X91.551 Y96.169 E5.81554
G1 X91.412 Y95.562 E5.84442
G1 X91.322 Y94.771 E5.88134
G1 X91.318 Y75.75 E6.76344
;WIDTH:0.67304
G1 X91.339 Y75.566 E6.77266
;WIDTH:0.71608
G1 X91.361 Y75.383 E6.78246
;WIDTH:0.75912
G1 X91.382 Y75.2 E6.79288
G1 X91.364 Y74.479 E6.83368
;WIDTH:0.753798
G1 X91.379 Y73.858 E6.86856
G1 X91.358 Y73.685 E6.87835
;WIDTH:0.712532
G1 X91.338 Y73.512 E6.88756
;WIDTH:0.671266
G1 X91.317 Y73.34 E6.89616
;WIDTH:0.629999
G1 X91.315 Y65.905 E7.24096
G1 E6.49096 F1500
G92 E0
G1 X127.844 Y73.713 F18000
G1 E.75 F1500
;WIDTH:0.760272
G1 F450
G1 X127.905 Y73.845 E.75824
G1 X127.958 Y74.412 E.79051
;WIDTH:0.754798
G1 X127.912 Y75.107 E.82968
G1 X127.782 Y75.391 E.84724
;WIDTH:0.713199
G1 X127.652 Y75.675 E.86378
;WIDTH:0.671599
G1 X127.522 Y75.96 E.87934
;WIDTH:0.629999
G1 X127.252 Y76.345 E.90115
G1 X126.779 Y76.806 E.93178
G1 X126.229 Y77.142 E.96167
G1 X125.625 Y77.345 E.99122
M73 P1 R33
G1 X125.115 Y77.412 E1.01507
G1 X124.647 Y77.392 E1.03679
G1 X124.046 Y77.253 E1.0654
G1 X123.553 Y77.019 E1.09071
G1 X123.053 Y76.651 E1.1195
G1 X122.886 Y76.505 E1.12979
G1 X122.536 Y76.052 E1.15634
G1 X122.304 Y75.606 E1.17965
G1 X122.163 Y75.167 E1.20103
G1 X122.089 Y74.582 E1.22838
G1 X122.15 Y73.9 E1.26013
G1 X122.287 Y73.443 E1.28226
G1 X122.502 Y72.998 E1.30518
G1 X122.748 Y72.655 E1.32475
G1 X123.221 Y72.194 E1.35538
G1 X123.771 Y71.858 E1.38527
G1 X124.375 Y71.655 E1.41482
G1 X124.876 Y71.588 E1.43826
G1 X125.353 Y71.608 E1.4604
G1 X125.954 Y71.747 E1.48901
G1 X126.533 Y72.023 E1.51876
G1 X127.067 Y72.447 E1.55038
G1 X127.464 Y72.948 E1.58002
G1 X127.701 Y73.406 E1.60393
;WIDTH:0.673424
G1 X127.769 Y73.552 E1.61195
;WIDTH:0.716848
G1 X127.806 Y73.631 E1.61659
G1 E.86659 F1500
G92 E0
G1 X111.723 Y90.573 F18000
G1 E.75 F1500
;TYPE:Perimeter
;WIDTH:0.629999
G1 F450
G1 X112.301 Y90.731 E.77779
G1 X112.623 Y90.847 E.79366
G1 X113.314 Y91.235 E.83041
G1 X113.786 Y91.644 E.85937
G1 X114.009 Y91.868 E.87403
G1 X114.41 Y92.413 E.90541
G1 X114.69 Y92.955 E.9337
G1 X114.919 Y93.706 E.97011
G1 X114.997 Y94.562 E1.00997
G1 X114.89 Y95.421 E1.05011
G1 X114.601 Y96.238 E1.0903
G1 X114.173 Y96.931 E1.12807
G1 X113.772 Y97.383 E1.15609
G1 X113.111 Y97.895 E1.19486
G1 X112.571 Y98.179 E1.22315
G1 X111.773 Y98.423 E1.26185
G1 X110.909 Y98.497 E1.30206
G1 X110.345 Y98.446 E1.32832
G1 X109.553 Y98.227 E1.36643
G1 X108.785 Y97.828 E1.40657
G1 X108.12 Y97.273 E1.44674
G1 X107.59 Y96.587 E1.48694
G1 X107.31 Y96.045 E1.51523
G1 X107.081 Y95.294 E1.55164
G1 X107.026 Y94.778 E1.57571
G1 X107.01 Y94.248 E1.6003
G1 X107.11 Y93.579 E1.63167
G1 X107.399 Y92.762 E1.67186
G1 X107.696 Y92.27 E1.69851
G1 X107.919 Y91.95 E1.7166
G1 X108.262 Y91.582 E1.73993
G1 X108.889 Y91.105 E1.77647
G1 X109.429 Y90.821 E1.80476
G1 X110.227 Y90.577 E1.84346
G1 X110.8 Y90.519 E1.87017
G1 X111.137 Y90.507 E1.88581
G1 X111.635 Y90.553 E1.909
G1 X111.274 Y91.111 F18000
;TYPE:External perimeter
G1 F450
G1 X111.58 Y91.137 E1.92324
G1 X112.34 Y91.361 E1.95998
G1 X112.966 Y91.708 E1.99317
G1 X113.537 Y92.216 E2.02861
G1 X113.937 Y92.761 E2.05996
G1 X114.162 Y93.212 E2.08333
G1 X114.354 Y93.868 E2.11503
G1 X114.412 Y94.603 E2.14922
G1 X114.31 Y95.335 E2.18349
G1 X114.052 Y96.028 E2.21778
G1 X113.681 Y96.611 E2.24983
G1 X113.342 Y96.984 E2.2732
G1 X112.76 Y97.425 E2.30706
G1 X112.311 Y97.653 E2.33041
G1 X111.611 Y97.858 E2.36424
G1 X110.873 Y97.911 E2.39855
G1 X110.364 Y97.853 E2.42231
G1 X109.719 Y97.663 E2.45349
G1 X109.067 Y97.313 E2.48781
G1 X108.507 Y96.831 E2.52207
G1 X108.063 Y96.239 E2.55639
G1 X107.838 Y95.788 E2.57976
G1 X107.646 Y95.132 E2.61146
G1 X107.588 Y94.397 E2.64565
G1 X107.69 Y93.665 E2.67992
G1 X107.948 Y92.972 E2.71421
G1 X108.319 Y92.389 E2.74626
G1 X108.658 Y92.016 E2.76963
G1 X109.24 Y91.575 E2.80349
G1 X109.689 Y91.347 E2.82684
G1 X110.389 Y91.142 E2.86067
G1 X111.039 Y91.092 E2.8909
G1 X111.184 Y91.104 E2.89765
G1 X111.439 Y90.852 F18000
G1 E2.14765 F1500
G92 E0
G1 X95.833 Y96.477 F18000
G1 E.75 F1500
;TYPE:Perimeter
G1 F450
G1 X95.61 Y96.045 E.77255
G1 X95.381 Y95.294 E.80896
G1 X95.323 Y94.734 E.83507
G1 X95.31 Y94.248 E.85762
G1 X95.41 Y93.579 E.88899
G1 X95.699 Y92.762 E.92918
G1 X96.127 Y92.069 E.96695
G1 X96.528 Y91.617 E.99497
G1 X97.189 Y91.105 E1.03374
G1 X97.729 Y90.821 E1.06203
G1 X98.527 Y90.577 E1.10073
G1 X99.299 Y90.506 E1.13668
G1 X99.932 Y90.552 E1.16611
G1 X100.536 Y90.712 E1.19509
G1 X100.932 Y90.852 E1.21457
G1 X101.515 Y91.172 E1.24541
G1 X102.18 Y91.727 E1.28558
G1 X102.568 Y92.219 E1.31464
G1 X102.793 Y92.549 E1.33316
G1 X103.045 Y93.099 E1.36122
G1 X103.219 Y93.706 E1.3905
G1 X103.297 Y94.562 E1.43036
G1 X103.19 Y95.421 E1.4705
G1 X102.901 Y96.238 E1.51069
G1 X102.473 Y96.931 E1.54846
G1 X102.072 Y97.383 E1.57648
G1 X101.411 Y97.895 E1.61525
G1 X100.871 Y98.179 E1.64354
G1 X100.073 Y98.423 E1.68224
G1 X99.209 Y98.497 E1.72245
G1 X98.645 Y98.446 E1.74871
G1 X97.837 Y98.222 E1.78759
G1 X97.085 Y97.828 E1.82696
G1 X96.537 Y97.375 E1.85993
G1 X96.291 Y97.132 E1.87597
G1 X95.874 Y96.557 E1.90891
G1 X96.304 Y96.127 F18000
;TYPE:External perimeter
G1 F450
G1 X96.119 Y95.74 E1.9288
G1 X95.946 Y95.132 E1.95812
G1 X95.891 Y94.334 E1.99522
G1 X95.99 Y93.665 E2.02658
G1 X96.248 Y92.972 E2.06087
G1 X96.619 Y92.389 E2.09292
G1 X96.958 Y92.016 E2.11629
G1 X97.54 Y91.575 E2.15015
G1 X97.989 Y91.347 E2.1735
G1 X98.689 Y91.142 E2.20733
G1 X99.339 Y91.092 E2.23756
G1 X99.88 Y91.137 E2.26274
G1 X100.65 Y91.366 E2.29999
G1 X101.233 Y91.687 E2.33085
G1 X101.793 Y92.169 E2.36511
G1 X102.237 Y92.761 E2.39943
G1 X102.462 Y93.212 E2.4228
G1 X102.654 Y93.868 E2.4545
G1 X102.712 Y94.603 E2.48869
G1 X102.61 Y95.335 E2.52296
G1 X102.352 Y96.028 E2.55725
G1 X101.981 Y96.611 E2.5893
G1 X101.642 Y96.984 E2.61267
G1 X101.06 Y97.425 E2.64653
G1 X100.611 Y97.653 E2.66988
G1 X99.911 Y97.858 E2.70371
G1 X99.173 Y97.911 E2.73802
G1 X98.664 Y97.853 E2.76178
G1 X98.013 Y97.662 E2.79324
G1 X97.367 Y97.313 E2.82729
G1 X96.924 Y96.934 E2.85433
G1 X96.645 Y96.623 E2.87371
G1 X96.343 Y96.208 E2.89751
G1 X95.875 Y96.123 F18000
G1 E2.14751 F1500
G92 E0
G1 X97.793 Y73.702 F18000
G1 E.75 F1500
G1 F450
G1 X97.841 Y73.853 E.75735
G1 X97.911 Y74.418 E.78375
G1 X97.85 Y75.1 E.8155
G1 X97.713 Y75.557 E.83763
G1 X97.498 Y76.002 E.86055
G1 X97.252 Y76.345 E.88012
G1 X96.779 Y76.806 E.91075
G1 X96.229 Y77.142 E.94064
G1 X95.625 Y77.345 E.97019
G1 X95.115 Y77.412 E.99404
G1 X94.647 Y77.392 E1.01576
G1 X94.046 Y77.253 E1.04437
G1 X93.467 Y76.977 E1.07412
G1 X92.933 Y76.553 E1.10574
G1 X92.536 Y76.052 E1.13538
G1 X92.299 Y75.594 E1.15929
;WIDTH:0.67304
G1 X92.231 Y75.448 E1.16731
;WIDTH:0.71608
G1 X92.163 Y75.302 E1.17587
;WIDTH:0.75912
G1 X92.095 Y75.155 E1.18503
G1 X92.043 Y74.588 E1.21724
;WIDTH:0.72386
G1 X92.041 Y74.546 E1.2195
;WIDTH:0.753798
G1 X92.088 Y73.893 E1.25626
G1 X92.218 Y73.609 E1.2738
;WIDTH:0.712532
G1 X92.348 Y73.325 E1.29032
;WIDTH:0.671266
G1 X92.478 Y73.04 E1.30587
;WIDTH:0.629999
G1 X92.748 Y72.655 E1.32768
G1 X93.221 Y72.194 E1.35831
G1 X93.771 Y71.858 E1.3882
G1 X94.375 Y71.655 E1.41775
G1 X94.876 Y71.588 E1.44119
G1 X95.353 Y71.608 E1.46333
G1 X95.954 Y71.747 E1.49194
G1 X96.533 Y72.023 E1.52169
G1 X97.067 Y72.447 E1.55331
G1 X97.464 Y72.948 E1.58295
G1 X97.701 Y73.406 E1.60686
G1 X97.767 Y73.616 E1.61707
G1 X97.948 Y73.731 F18000
G1 E.86707 F1500
G92 E0
G1 X127.386 Y77.28 F18000
G1 E.75 F1500
;TYPE:Solid infill
;WIDTH:0.634568
G1 F2700
G1 X127.658 Y77.551 E.76794
G1 X127.658 Y78.388 E.80706
G1 X127.093 Y77.824 E.84437
G1 X126.745 Y78.03 E.86327
G1 X126.551 Y78.118 E.87323
G1 X127.658 Y79.225 E.9464
G1 X127.658 Y80.061 E.98547
G1 X125.923 Y78.327 E1.10011
G1 X125.71 Y78.375 E1.11031
G1 X125.189 Y78.429 E1.13479
G1 X127.658 Y80.898 E1.29798
G1 X127.658 Y81.735 E1.3371
G1 X123.923 Y78.001 E1.58393
G1 E.83393 F1500
G92 E0
G1 X126.725 Y66.578 F18000
G1 E.75 F1500
G1 F2700
G1 X127.657 Y67.511 E.81163
G1 X127.657 Y68.347 E.8507
G1 X126.153 Y66.843 E.95011
G1 X125.316 Y66.843 E.98923
G1 X127.657 Y69.184 E1.14396
G1 X127.657 Y70.021 E1.18308
G1 X124.479 Y66.843 E1.39313
G1 X123.643 Y66.843 E1.4322
G1 X127.657 Y70.858 E1.69754
G1 X127.657 Y71.603 E1.73236
G1 X127.199 Y71.236 E1.75979
G1 X122.806 Y66.843 E2.05014
G1 X121.969 Y66.843 E2.08926
G1 X125.779 Y70.652 E2.34105
G1 X125.333 Y70.574 E2.36221
G1 X124.861 Y70.571 E2.38427
G1 X121.132 Y66.843 E2.6307
G1 X120.296 Y66.843 E2.66977
G1 X124.121 Y70.668 E2.92258
