; generated by PrusaSlicer 2.6.0-alpha5+win64 on 2023-03-29 at 10:05:24 UTC


;
;
; 

; external perimeters extrusion width = 0.68mm
; perimeters extrusion width = 0.68mm
; infill extrusion width = 0.68mm
; solid infill extrusion width = 0.68mm
; top infill extrusion width = 0.60mm
; first layer extrusion width = 0.63mm

; external perimeters extrusion width = 0.68mm
; perimeters extrusion width = 0.68mm
; infill extrusion width = 0.68mm
; solid infill extrusion width = 0.68mm
; top infill extrusion width = 0.60mm
; first layer extrusion width = 0.63mm

M73 P0 R26
M107
M190 S85 ; set bed temperature and wait for it to be reached
G10 S230 P1 ; set temperature
;TYPE:Custom
;Set standby temperatures
G10 R200 P0
G10 R220 P1
G28 ; home all axes
G32 ; run bed.g -- probe bed and enable compensation
;workaround for toolchanger when using only one extruder
T1; select tool
G10 S230 P1 ; set temperature
M116 ; wait for temperature to be reached
G21 ; set units to millimeters
G90 ; use absolute coordinates
M82 ; use absolute distances for extrusion
G92 E0
;tool change macro
T1
G92 E0
; Filament gcode
M107
;LAYER_CHANGE
;Z:0.2
;HEIGHT:0.2
G1 Z.2 F18000
G1 E-.75 F1500
G92 E0
G1 X87.236 Y67.967 F18000
G1 E.75 F1500
;TYPE:Skirt/Brim
;WIDTH:0.63
G1 F2700
G1 X88.419 Y66.778 E.82778
G1 X89.714 Y65.761 E.90414
G1 X91.146 Y64.894 E.98177
G1 X92.686 Y64.203 E1.06005
G1 X94.333 Y63.699 E1.13993
G1 X95.935 Y63.417 E1.21537
G1 X97.471 Y63.327 E1.28672
G1 X122.675 Y63.328 E2.45556
G1 X124.972 Y63.552 E2.56259
G1 X126.268 Y63.857 E2.62433
G1 X127.527 Y64.285 E2.686
G1 X129.627 Y65.332 E2.79482
G1 X130.469 Y65.89 E2.84166
G1 X131.533 Y66.736 E2.9047
G1 X133.153 Y68.43 E3.0134
G1 X133.933 Y69.502 E3.07488
G1 X134.606 Y70.646 E3.13643
G1 X135.511 Y72.798 E3.24469
G1 X135.801 Y73.833 E3.29454
G1 X136.043 Y75.122 E3.35536
G1 X136.173 Y76.971 E3.44132
G1 X136.174 Y149.497 E6.80472
G1 X135.777 Y151.851 E6.91543
G1 X134.629 Y153.944 E7.02613
G1 X132.858 Y155.545 E7.13685
G1 X130.66 Y156.476 E7.24755
G1 X129.001 Y156.671 E7.32502
G1 X91.004 Y156.674 E9.08713
G1 X88.65 Y156.277 E9.19784
G1 X86.556 Y155.13 E9.30856
G1 X84.955 Y153.359 E9.41928
G1 X84.024 Y151.161 E9.52998
G1 X83.829 Y149.5 E9.60754
G1 X83.826 Y77.002 E12.96964
G1 X83.873 Y75.88 E13.02172
G1 X84.052 Y74.528 E13.08497
G1 X84.671 Y72.27 E13.19355
G1 X85.333 Y70.763 E13.26988
G1 X86.228 Y69.261 E13.35096
G1 X87.18 Y68.038 E13.42283
G1 X87.643 Y68.398 F18000
G1 F2700
G1 X88.804 Y67.222 E13.49947
G1 X90.054 Y66.24 E13.57319
G1 X91.412 Y65.417 E13.64683
G1 X92.897 Y64.751 E13.72231
G1 X94.461 Y64.272 E13.79817
G1 X96.009 Y64 E13.87106
G1 X97.471 Y63.914 E13.93898
G1 X122.66 Y63.915 E15.10712
G1 X124.873 Y64.131 E15.21024
G1 X126.113 Y64.423 E15.26932
G1 X127.317 Y64.833 E15.3283
G1 X129.315 Y65.829 E15.43183
G1 X131.15 Y67.181 E15.53753
G1 X132.692 Y68.792 E15.64095
G1 X133.438 Y69.818 E15.69978
G1 X134.083 Y70.912 E15.75868
G1 X134.955 Y72.987 E15.86306
G1 X135.461 Y75.195 E15.96811
G1 X135.586 Y76.971 E16.05068
G1 X135.587 Y149.497 E19.41408
G1 X135.19 Y151.749 E19.52013
G1 X134.047 Y153.73 E19.62619
G1 X132.296 Y155.2 E19.73221
G1 X130.147 Y155.983 E19.83828
G1 X129.001 Y156.084 E19.89163
G1 X91.004 Y156.087 E21.65374
G1 X88.751 Y155.69 E21.75983
G1 X86.771 Y154.547 E21.86585
G1 X85.3 Y152.796 E21.9719
G1 X84.517 Y150.648 E22.07793
G1 X84.416 Y149.5 E22.13137
G1 X84.413 Y77.001 E25.49352
G1 X84.459 Y75.92 E25.5437
G1 X84.631 Y74.627 E25.60419
G1 X85.22 Y72.48 E25.70744
G1 X85.858 Y71.025 E25.78112
G1 X86.708 Y69.599 E25.85811
G1 X87.588 Y68.469 E25.92453
G1 E25.17453 F1500
G92 E0
G1 X125.05 Y100.49 F18000
G1 E.75 F1500
;TYPE:Perimeter
;WIDTH:0.629999
G1 F3000
G1 X125.133 Y100.495 E.75386
G1 X125.752 Y100.416 E.7828
G1 X126.486 Y100.165 E.81877
G1 X127.182 Y99.734 E.85673
G1 X127.628 Y99.308 E.88533
G1 X127.95 Y98.883 E.91006
G1 X128.098 Y98.596 E.92504
G1 X128.098 Y105.098 E1.22657
G1 X91.902 Y105.098 E2.90516
G1 X91.904 Y98.628 E3.20521
G1 X92.338 Y99.266 E3.24099
G1 X92.948 Y99.836 E3.27971
G1 X93.374 Y100.1 E3.30295
G1 X93.879 Y100.316 E3.32842
G1 X94.438 Y100.453 E3.35511
G1 X95.133 Y100.495 E3.3874
G1 X95.752 Y100.416 E3.41634
G1 X96.486 Y100.165 E3.45231
G1 X97.182 Y99.734 E3.49027
G1 X97.738 Y99.181 E3.52664
G1 X98.034 Y98.736 E3.55143
G1 X98.363 Y97.971 E3.59005
G1 X98.467 Y97.48 E3.61333
G1 X98.497 Y96.903 E3.64012
G1 X98.389 Y96.138 E3.67595
G1 X98.098 Y95.375 E3.71382
G1 X97.82 Y94.938 E3.73784
G1 X97.554 Y94.629 E3.75675
G1 X97.052 Y94.164 E3.78848
G1 X96.626 Y93.9 E3.81172
G1 X96.121 Y93.684 E3.83719
G1 X95.595 Y93.55 E3.86236
G1 X95.063 Y93.503 E3.88713
G1 X94.248 Y93.584 E3.92511
G1 X93.514 Y93.835 E3.96108
G1 X92.818 Y94.266 E3.99904
G1 X92.372 Y94.692 E4.02764
G1 X92.05 Y95.117 E4.05237
G1 X91.905 Y95.398 E4.06703
G1 X91.909 Y76.771 E4.93086
G1 X91.971 Y76.246 E4.95538
G1 X92.087 Y75.605 E4.98559
G1 X92.284 Y74.983 E5.01585
G1 X92.761 Y74.03 E5.06527
G1 X93.05 Y73.614 E5.08876
G1 X93.402 Y73.193 E5.11421
G1 X93.786 Y72.818 E5.1391
G1 X94.206 Y72.479 E5.16413
G1 X94.685 Y72.166 E5.19067
G1 X95.162 Y71.918 E5.2156
G1 X95.632 Y71.728 E5.23911
G1 X96.186 Y71.563 E5.26592
G1 X96.911 Y71.441 E5.30001
G1 X97.517 Y71.402 E5.32817
G1 X122.729 Y71.409 E6.49738
G1 X123.592 Y71.511 E6.53768
G1 X124.138 Y71.648 E6.56379
G1 X124.611 Y71.817 E6.58708
G1 X125.133 Y72.079 E6.61417
G1 X125.803 Y72.483 E6.65045
G1 X126.251 Y72.847 E6.67722
G1 X126.628 Y73.222 E6.70188
G1 X127.145 Y73.88 E6.74069
G1 X127.42 Y74.334 E6.76531
G1 X127.669 Y74.853 E6.79201
G1 X127.849 Y75.354 E6.8167
G1 X128.032 Y76.159 E6.85498
G1 X128.098 Y77.256 E6.90595
G1 X128.098 Y95.375 E7.74622
G1 X127.662 Y94.734 E7.78217
G1 X127.052 Y94.164 E7.82089
G1 X126.626 Y93.9 E7.84413
G1 X126.121 Y93.684 E7.8696
G1 X125.595 Y93.55 E7.89477
G1 X125.063 Y93.503 E7.91954
G1 X124.248 Y93.584 E7.95752
G1 X123.514 Y93.835 E7.99349
G1 X122.818 Y94.266 E8.03145
G1 X122.262 Y94.819 E8.06782
G1 X121.966 Y95.264 E8.09261
G1 X121.637 Y96.029 E8.13123
G1 X121.533 Y96.52 E8.15451
G1 X121.503 Y97.097 E8.1813
G1 X121.611 Y97.862 E8.21713
M73 P1 R26
G1 X121.902 Y98.625 E8.255
G1 X122.338 Y99.266 E8.29095
G1 X122.948 Y99.836 E8.32967
G1 X123.374 Y100.1 E8.35291
G1 X123.879 Y100.316 E8.37838
G1 X124.438 Y100.453 E8.40507
G1 X124.96 Y100.484 E8.42932
G1 E7.67932 F1500
G92 E0
G1 X91.315 Y105.685 F18000
G1 E.75 F1500
;TYPE:External perimeter
G1 F2700
G1 X91.317 Y98.428 E1.08654
;WIDTH:0.671383
G1 X91.338 Y98.169 E1.09944
;WIDTH:0.712767
G1 X91.358 Y97.909 E1.11324
;WIDTH:0.754151
G1 X91.379 Y97.649 E1.12789
G1 X91.363 Y96.947 E1.16734
;WIDTH:0.745533
G1 X91.375 Y96.43 E1.19604
G1 X91.356 Y96.257 E1.2057
;WIDTH:0.707022
G1 X91.337 Y96.084 E1.21483
;WIDTH:0.668511
G1 X91.318 Y95.911 E1.22343
;WIDTH:0.629999
G1 X91.322 Y76.736 E2.11267
G1 X91.433 Y75.802 E2.15629
G1 X91.559 Y75.299 E2.18034
G1 X91.731 Y74.785 E2.20548
G1 X91.994 Y74.224 E2.23421
G1 X92.272 Y73.705 E2.26151
G1 X92.594 Y73.244 E2.28759
G1 X92.986 Y72.779 E2.31579
G1 X93.412 Y72.365 E2.34334
G1 X93.95 Y71.944 E2.37502
G1 X94.409 Y71.648 E2.40035
G1 X94.936 Y71.376 E2.42785
G1 X95.458 Y71.167 E2.45393
G1 X96.07 Y70.987 E2.48351
G1 X96.852 Y70.857 E2.52027
G1 X97.507 Y70.815 E2.55071
G1 X122.764 Y70.822 E3.722
G1 X123.698 Y70.933 E3.76562
G1 X124.308 Y71.086 E3.79479
G1 X124.842 Y71.277 E3.82109
G1 X125.682 Y71.697 E3.86464
G1 X126.151 Y72.01 E3.89079
G1 X126.645 Y72.41 E3.92027
G1 X127.068 Y72.831 E3.94795
G1 X127.629 Y73.546 E3.9901
G1 X127.937 Y74.055 E4.01769
G1 X128.211 Y74.627 E4.0471
G1 X128.413 Y75.189 E4.0748
G1 X128.614 Y76.071 E4.11675
G1 X128.685 Y77.256 E4.1718
G1 X128.685 Y95.571 E5.02116
;WIDTH:0.671716
G1 X128.664 Y95.831 E5.03412
;WIDTH:0.713433
G1 X128.643 Y96.091 E5.04794
;WIDTH:0.75515
G1 X128.622 Y96.351 E5.06262
G1 X128.638 Y96.925 E5.09493
;WIDTH:0.738578
G1 X128.631 Y97.465 E5.12461
G1 X128.649 Y97.623 E5.13335
;WIDTH:0.702385
G1 X128.667 Y97.782 E5.14169
;WIDTH:0.666192
G1 X128.685 Y97.94 E5.14952
;WIDTH:0.629999
G1 X128.685 Y105.685 E5.50869
G1 X91.405 Y105.685 E7.23755
G1 X91.579 Y105.146 F18000
G1 E6.48755 F1500
G92 E0
G1 X111.611 Y73.052 F18000
G1 E.75 F1500
;TYPE:Perimeter
G1 F450
G1 X112.111 Y73.158 E.7737
G1 X112.836 Y73.448 E.80991
G1 X113.351 Y73.763 E.83791
G1 X113.97 Y74.324 E.87665
G1 X114.477 Y75.026 E.91681
G1 X114.82 Y75.822 E.95701
G1 X114.983 Y76.668 E.99696
G1 X114.969 Y77.486 E1.0349
G1 X114.851 Y78.082 E1.06308
G1 X114.54 Y78.858 E1.10185
G1 X114.091 Y79.536 E1.13956
G1 X113.648 Y79.978 E1.16858
G1 X113.324 Y80.253 E1.18829
G1 X112.742 Y80.598 E1.21967
G1 X112.176 Y80.824 E1.24793
G1 X111.356 Y80.982 E1.28666
G1 X110.523 Y80.967 E1.3253
G1 X109.889 Y80.842 E1.35527
G1 X109.164 Y80.552 E1.39148
G1 X108.649 Y80.237 E1.41948
G1 X108.03 Y79.676 E1.45822
G1 X107.566 Y79.036 E1.49488
G1 X107.433 Y78.805 E1.50724
G1 X107.18 Y78.178 E1.5386
G1 X107.012 Y77.302 E1.57996
G1 X107.031 Y76.514 E1.61651
G1 X107.136 Y75.966 E1.64239
G1 X107.433 Y75.195 E1.68071
G1 X107.94 Y74.428 E1.72335
G1 X108.527 Y73.858 E1.76129
G1 X109.258 Y73.402 E1.80125
G1 X110.074 Y73.111 E1.84143
G1 X110.934 Y73.003 E1.88163
G1 X111.522 Y73.036 E1.90894
G1 X111.435 Y73.618 F18000
;TYPE:External perimeter
G1 F450
G1 X112.028 Y73.746 E1.93707
G1 X112.609 Y73.989 E1.96628
G1 X113.033 Y74.257 E1.98954
G1 X113.569 Y74.752 E2.02338
G1 X113.992 Y75.358 E2.05765
G1 X114.276 Y76.041 E2.09195
G1 X114.404 Y76.766 E2.12609
G1 X114.382 Y77.462 E2.15838
G1 X114.278 Y77.955 E2.18175
G1 X113.999 Y78.63 E2.21562
G1 X113.609 Y79.201 E2.24769
G1 X113.025 Y79.748 E2.2848
G1 X112.443 Y80.094 E2.3162
G1 X111.972 Y80.273 E2.33957
G1 X111.255 Y80.404 E2.37337
G1 X110.548 Y80.38 E2.40618
G1 X110.02 Y80.27 E2.43119
G1 X109.391 Y80.011 E2.46274
G1 X108.967 Y79.743 E2.486
G1 X108.431 Y79.248 E2.51984
G1 X108.05 Y78.704 E2.55064
G1 X107.76 Y78.046 E2.58399
G1 X107.594 Y77.225 E2.62283
G1 X107.618 Y76.538 E2.65471
G1 X107.724 Y76.042 E2.67823
G1 X107.977 Y75.415 E2.70959
G1 X108.422 Y74.764 E2.74616
G1 X108.926 Y74.289 E2.77828
G1 X109.557 Y73.906 E2.81251
G1 X110.258 Y73.668 E2.84684
G1 X110.993 Y73.587 E2.88113
G1 X111.345 Y73.612 E2.8975
G1 X111.798 Y73.14 F18000
G1 E2.1475 F1500
G92 E0
G1 X99.911 Y73.052 F18000
G1 E.75 F1500
;TYPE:Perimeter
G1 F450
G1 X100.411 Y73.158 E.7737
G1 X101.136 Y73.448 E.80991
G1 X101.651 Y73.763 E.83791
G1 X102.27 Y74.324 E.87665
G1 X102.777 Y75.026 E.91681
G1 X103.12 Y75.822 E.95701
G1 X103.283 Y76.668 E.99696
G1 X103.269 Y77.474 E1.03434
G1 X103.151 Y78.082 E1.06306
G1 X102.877 Y78.771 E1.09745
G1 X102.751 Y79.019 E1.11035
G1 X102.391 Y79.536 E1.13957
G1 X101.777 Y80.138 E1.17945
G1 X101.042 Y80.598 E1.21966
G1 X100.476 Y80.824 E1.24792
G1 X99.73 Y80.969 E1.28316
G1 X99.288 Y80.987 E1.30367
G1 X98.788 Y80.965 E1.32688
G1 X98.189 Y80.842 E1.35524
G1 X97.464 Y80.552 E1.39145
G1 X96.949 Y80.237 E1.41945
G1 X96.33 Y79.676 E1.45819
G1 X95.823 Y78.974 E1.49835
G1 X95.48 Y78.178 E1.53855
G1 X95.317 Y77.332 E1.5785
G1 X95.331 Y76.514 E1.61644
G1 X95.436 Y75.966 E1.64232
G1 X95.721 Y75.225 E1.67914
G1 X96.191 Y74.499 E1.71925
G1 X96.563 Y74.102 E1.74448
G1 X96.976 Y73.747 E1.76974
G1 X97.558 Y73.402 E1.80112
G1 X97.731 Y73.322 E1.80996
G1 X98.374 Y73.111 E1.84134
G1 X99.234 Y73.003 E1.88154
G1 X99.822 Y73.036 E1.90885
G1 X99.735 Y73.618 F18000
;TYPE:External perimeter
G1 F450
G1 X100.328 Y73.746 E1.93698
G1 X100.909 Y73.989 E1.96619
G1 X101.333 Y74.257 E1.98945
G1 X101.869 Y74.752 E2.02329
G1 X102.292 Y75.358 E2.05756
G1 X102.576 Y76.041 E2.09186
G1 X102.704 Y76.766 E2.126
G1 X102.683 Y77.451 E2.15778
G1 X102.578 Y77.955 E2.18165
G1 X102.336 Y78.543 E2.21114
G1 X101.926 Y79.176 E2.24612
G1 X101.375 Y79.71 E2.2817
G1 X100.743 Y80.094 E2.31599
G1 X100.272 Y80.273 E2.33936
G1 X99.629 Y80.391 E2.36968
G1 X98.815 Y80.379 E2.40743
G1 X98.32 Y80.27 E2.43094
G1 X97.691 Y80.011 E2.46249
G1 X97.267 Y79.743 E2.48575
G1 X96.731 Y79.248 E2.51959
G1 X96.308 Y78.642 E2.55386
G1 X96.024 Y77.959 E2.58816
G1 X95.896 Y77.234 E2.6223
G1 X95.918 Y76.538 E2.65459
G1 X96.025 Y76.042 E2.67812
G1 X96.277 Y75.415 E2.70946
G1 X96.673 Y74.834 E2.74207
G1 X97.226 Y74.289 E2.77808
G1 X97.915 Y73.88 E2.81524
G1 X98.558 Y73.668 E2.84664
G1 X99.293 Y73.587 E2.88093
G1 X99.646 Y73.612 E2.89734
M73 P2 R26
G1 X100.099 Y73.141 F18000
G1 E2.14734 F1500
G92 E0
G1 X92.198 Y96.21 F18000
G1 E.75 F1500
;WIDTH:0.745533
G1 F450
G1 X92.213 Y96.175 E.75211
;WIDTH:0.707022
G1 X92.356 Y95.841 E.77117
;WIDTH:0.668511
G1 X92.5 Y95.506 E.78919
;WIDTH:0.629999
G1 X92.777 Y95.117 E.81134
G1 X93.223 Y94.691 E.83994
G1 X93.808 Y94.343 E.87151
G1 X94.422 Y94.144 E.90144
G1 X95.104 Y94.089 E.93317
G1 X95.569 Y94.142 E.95487
G1 X96.171 Y94.339 E.98424
G1 X96.67 Y94.616 E1.01071
G1 X97.144 Y95.05 E1.04051
G1 X97.324 Y95.253 E1.05309
G1 X97.602 Y95.69 E1.07711
G1 X97.835 Y96.332 E1.10878
G1 X97.913 Y96.968 E1.1385
G1 X97.875 Y97.477 E1.16217
G1 X97.773 Y97.892 E1.18199
G1 X97.5 Y98.494 E1.21264
G1 X97.223 Y98.883 E1.23479
G1 X96.777 Y99.309 E1.26339
G1 X96.192 Y99.657 E1.29496
G1 X95.578 Y99.856 E1.32489
G1 X95.076 Y99.91 E1.3483
G1 X94.485 Y99.868 E1.37578
G1 X93.991 Y99.734 E1.39952
G1 X93.577 Y99.544 E1.42064
G1 X93.221 Y99.307 E1.44047
G1 X92.748 Y98.846 E1.4711
G1 X92.398 Y98.31 E1.50079
;WIDTH:0.674762
G1 X92.26 Y97.996 E1.51791
;WIDTH:0.719524
G1 X92.122 Y97.682 E1.53624
;WIDTH:0.754151
G1 X92.088 Y97.61 E1.54071
G1 X92.041 Y97.038 E1.57295
;WIDTH:0.745533
G1 X92.069 Y96.51 E1.6023
G1 X92.162 Y96.292 E1.61545
G1 X92.173 Y96.181 F18000
G1 E.86545 F1500
G92 E0
G1 X124.842 Y99.894 F18000
G1 E.75 F1500
;WIDTH:0.629999
G1 F450
G1 X124.485 Y99.868 E.7666
G1 X124.034 Y99.75 E.78822
G1 X123.577 Y99.544 E.81147
G1 X123.221 Y99.307 E.8313
G1 X122.748 Y98.846 E.86193
G1 X122.398 Y98.31 E.89162
G1 X122.165 Y97.668 E.92329
G1 X122.087 Y97.032 E.95301
G1 X122.125 Y96.523 E.97668
G1 X122.227 Y96.108 E.9965
G1 X122.5 Y95.506 E1.02715
G1 X122.777 Y95.117 E1.0493
G1 X123.223 Y94.691 E1.0779
G1 X123.808 Y94.343 E1.10947
G1 X124.422 Y94.144 E1.1394
G1 X125.104 Y94.089 E1.17113
G1 X125.569 Y94.142 E1.19283
G1 X126.009 Y94.266 E1.21403
G1 X126.423 Y94.456 E1.23515
G1 X126.779 Y94.693 E1.25498
G1 X127.252 Y95.154 E1.28561
G1 X127.602 Y95.69 E1.3153
;WIDTH:0.666934
G1 X127.736 Y96.005 E1.33217
;WIDTH:0.703868
G1 X127.87 Y96.32 E1.35004
;WIDTH:0.729509
G1 X127.891 Y96.355 E1.35225
;WIDTH:0.75515
G1 X127.912 Y96.39 E1.35455
G1 X127.96 Y96.962 E1.38684
;WIDTH:0.742762
G1 X127.934 Y97.471 E1.41502
G1 X127.789 Y97.812 E1.4355
;WIDTH:0.705175
G1 X127.644 Y98.153 E1.45488
;WIDTH:0.667587
G1 X127.5 Y98.494 E1.47315
;WIDTH:0.629999
G1 X127.223 Y98.883 E1.4953
G1 X126.777 Y99.309 E1.5239
G1 X126.192 Y99.657 E1.55547
G1 X125.578 Y99.856 E1.5854
G1 X125.076 Y99.91 E1.60881
G1 X124.932 Y99.9 E1.6155
G1 X124.654 Y100.198 F18000
G1 E.8655 F1500
G92 E0
G1 X127.326 Y74.546 F18000
G1 E.75 F1500
;TYPE:Solid infill
;WIDTH:0.634565
G1 F2700
G1 X125.947 Y73.167 E.84114
G1 X125.542 Y72.838 E.86553
G1 X125.166 Y72.587 E.88666
G1 X124.438 Y72.223 E.9247
G1 X124.016 Y72.072 E.94565
G1 X127.426 Y75.483 E1.17106
G1 X127.595 Y76.225 E1.20663
G1 X127.617 Y76.51 E1.21999
G1 X122.99 Y71.883 E1.52581
G1 X122.703 Y71.849 E1.53932
G1 X122.119 Y71.849 E1.56661
G1 X127.658 Y77.388 E1.93271
G1 X127.658 Y78.224 E1.97178
G1 X121.282 Y71.849 E2.39316
G1 X120.445 Y71.849 E2.43228
G1 X127.658 Y79.061 E2.90898
G1 X127.658 Y79.898 E2.9481
G1 X119.608 Y71.848 E3.48016
G1 X118.771 Y71.848 E3.51928
G1 X127.658 Y80.734 E4.10663
G1 X127.658 Y81.571 E4.14575
G1 X117.935 Y71.848 E4.78838
G1 X117.098 Y71.848 E4.8275
G1 X127.658 Y82.408 E5.52546
G1 X127.658 Y83.244 E5.56453
G1 X116.261 Y71.848 E6.31777
G1 X115.424 Y71.847 E6.35689
G1 X127.658 Y84.081 E7.16549
G1 X127.658 Y84.918 E7.20461
G1 X114.587 Y71.847 E8.06853
G1 X113.75 Y71.847 E8.10765
G1 X127.658 Y85.755 E9.02689
G1 X127.658 Y86.591 E9.06596
G1 X112.913 Y71.847 E10.04049
G1 X112.076 Y71.846 E10.07961
G1 X127.658 Y87.428 E11.10949
G1 X127.658 Y88.265 E11.14861
G1 X115.3 Y75.907 E11.9654
G1 X115.434 Y76.737 E12.00469
G1 X115.43 Y76.873 E12.01105
G1 X127.658 Y89.101 E12.81925
G1 X127.658 Y89.938 E12.85837
G1 X115.383 Y77.663 E13.66968
