; generated by PrusaSlicer 2.5.0-alpha3+win64 on 2023-03-25 at 10:29:42 UTC


;
;
; 

; external perimeters extrusion width = 0.68mm
; perimeters extrusion width = 0.68mm
; infill extrusion width = 0.68mm
; solid infill extrusion width = 0.68mm
; top infill extrusion width = 0.60mm
; first layer extrusion width = 0.63mm

; external perimeters extrusion width = 0.68mm
; perimeters extrusion width = 0.68mm
; infill extrusion width = 0.68mm
; solid infill extrusion width = 0.68mm
; top infill extrusion width = 0.60mm
; first layer extrusion width = 0.63mm

; external perimeters extrusion width = 0.68mm
; perimeters extrusion width = 0.68mm
; infill extrusion width = 0.68mm
; solid infill extrusion width = 0.68mm
; top infill extrusion width = 0.60mm
; first layer extrusion width = 0.63mm

; external perimeters extrusion width = 0.68mm
; perimeters extrusion width = 0.68mm
; infill extrusion width = 0.68mm
; solid infill extrusion width = 0.68mm
; top infill extrusion width = 0.60mm
; first layer extrusion width = 0.63mm

M73 P0 R56
M107
M190 S85 ; set bed temperature and wait for it to be reached
G10 S230 P1 ; set temperature
;TYPE:Custom
;Set standby temperatures
G10 R200 P0
G10 R220 P1
G28 ; home all axes
G32 ; run bed.g -- probe bed and enable compensation
;workaround for toolchanger when using only one extruder
T1; select tool
G10 S230 P1 ; set temperature
M116 ; wait for temperature to be reached
G21 ; set units to millimeters
G90 ; use absolute coordinates
M82 ; use absolute distances for extrusion
G92 E0
;tool change macro
T1
G92 E0
; Filament gcode
M107
;LAYER_CHANGE
;Z:0.2
;HEIGHT:0.2
G1 Z.2 F18000
G1 E-.75 F600
G92 E0
G1 X71.992 Y86.427 F18000
G1 E.85 F600
;TYPE:Skirt/Brim
;WIDTH:0.63
G1 F2700
G1 X74.19 Y85.496 E.96071
G1 X75.85 Y85.301 E1.03822
G1 X106.943 Y85.301 E2.48016
G1 X144.193 Y85.524 E4.20767
G1 X146.545 Y85.936 E4.31838
G1 X148.631 Y87.096 E4.42909
G1 X150.221 Y88.876 E4.5398
G1 X151.139 Y91.08 E4.65052
G1 X151.324 Y92.698 E4.72605
G1 X151.324 Y183.279 E8.92674
G1 X151.251 Y184.75 E8.99502
G1 X150.931 Y186.695 E9.08646
G1 X150.235 Y188.904 E9.19384
G1 X149.225 Y190.952 E9.29975
G1 X147.897 Y192.849 E9.40713
G1 X146.317 Y194.499 E9.51305
G1 X144.767 Y195.717 E9.60449
G1 X142.762 Y196.874 E9.71187
G1 X140.633 Y197.702 E9.81779
G1 X138.373 Y198.203 E9.92517
G1 X136.249 Y198.354 E10.0239
G1 X120.906 Y198.354 E10.73542
G1 X83.656 Y197.86 E12.46305
G1 X81.627 Y197.71 E12.55738
G1 X79.367 Y197.209 E12.66476
G1 X77.522 Y196.513 E12.7562
G1 X75.52 Y195.415 E12.86211
G1 X73.942 Y194.232 E12.95355
G1 X72.304 Y192.595 E13.06093
G1 X71.122 Y191.017 E13.15237
G1 X70.024 Y189.015 E13.25828
G1 X69.328 Y187.17 E13.34972
G1 X68.827 Y184.91 E13.4571
G1 X68.676 Y182.786 E13.55583
G1 X68.676 Y92.475 E17.74399
G1 X69.073 Y90.121 E17.8547
G1 X70.221 Y88.028 E17.96542
G1 X71.925 Y86.487 E18.07195
G1 X72.325 Y86.964 F18000
G1 F2700
G1 X72.554 Y86.772 E18.08582
G1 X74.703 Y85.989 E18.19187
G1 X75.85 Y85.888 E18.24527
G1 X106.939 Y85.888 E19.68705
G1 X144.189 Y86.111 E21.41455
G1 X146.439 Y86.522 E21.5206
G1 X148.413 Y87.677 E21.62666
G1 X149.873 Y89.437 E21.73271
G1 X150.737 Y92.698 E21.88918
G1 X150.693 Y184.4 E26.14183
G1 X150.361 Y186.556 E26.243
G1 X149.688 Y188.691 E26.34682
G1 X148.723 Y190.647 E26.44799
G1 X147.439 Y192.481 E26.55181
G1 X145.93 Y194.057 E26.65298
G1 X144.441 Y195.229 E26.74086
G1 X142.502 Y196.348 E26.84468
G1 X140.469 Y197.139 E26.94585
G1 X138.624 Y197.571 E27.03372
G1 X136.738 Y197.758 E27.1216
G1 X121.001 Y197.767 E27.85141
G1 X83.664 Y197.273 E29.58308
G1 X81.717 Y197.13 E29.67362
G1 X79.531 Y196.645 E29.77744
G1 X77.758 Y195.976 E29.86532
G1 X75.846 Y194.927 E29.96648
G1 X74.329 Y193.791 E30.05436
G1 X72.746 Y192.208 E30.15818
G1 X71.61 Y190.691 E30.24605
G1 X70.561 Y188.779 E30.34722
G1 X69.892 Y187.006 E30.4351
G1 X69.407 Y184.82 E30.53892
G1 X69.263 Y182.786 E30.6335
G1 X69.263 Y92.475 E34.82166
G1 X69.66 Y90.223 E34.92771
G1 X70.803 Y88.243 E35.03376
G1 X72.256 Y87.022 E35.12178
G1 E34.37178 F600
G92 E0
G1 X114.002 Y145.682 F18000
G1 E.85 F600
;TYPE:Perimeter
;WIDTH:0.629999
G1 F3000
G1 X143.248 Y145.682 E2.20627
G1 X143.248 Y183.26 E3.94891
G1 X143.22 Y183.89 E3.97818
G1 X143.141 Y184.495 E4.00649
G1 X143.009 Y185.091 E4.0348
G1 X142.825 Y185.673 E4.0631
G1 X142.591 Y186.237 E4.09141
G1 X142.31 Y186.779 E4.11972
G1 X141.982 Y187.294 E4.14803
G1 X141.61 Y187.778 E4.17634
G1 X141.198 Y188.228 E4.20465
G1 X140.748 Y188.64 E4.23295
G1 X140.263 Y189.012 E4.26126
G1 X139.749 Y189.34 E4.28957
G1 X139.207 Y189.622 E4.31788
G1 X138.643 Y189.855 E4.34619
G1 X138.061 Y190.039 E4.37449
G1 X137.465 Y190.171 E4.4028
G1 X136.86 Y190.251 E4.43111
G1 X136.229 Y190.278 E4.46038
G1 X121.03 Y190.278 E5.16524
G1 X120.077 Y190.216 E5.20953
G1 X119.486 Y190.111 E5.23739
G1 X118.896 Y189.953 E5.26569
G1 X118.322 Y189.745 E5.294
G1 X117.769 Y189.487 E5.32231
G1 X117.249 Y189.186 E5.35018
G1 X116.495 Y188.634 E5.3935
G1 X116.052 Y188.228 E5.42137
G1 X115.64 Y187.778 E5.44967
G1 X115.274 Y187.301 E5.47754
G1 X114.789 Y186.502 E5.52087
G1 X114.536 Y185.958 E5.54873
G1 X114.327 Y185.384 E5.57704
G1 X114.169 Y184.795 E5.60535
G1 X114.063 Y184.194 E5.63365
G1 X114.01 Y183.585 E5.66197
G1 X114.002 Y145.772 E7.41555
G1 X113.419 Y145.095 F18000
;TYPE:External perimeter
G1 F2700
G1 X143.835 Y145.095 E8.8261
G1 X143.835 Y183.272 E10.59656
G1 X143.806 Y183.941 E10.62762
G1 X143.719 Y184.597 E10.6583
G1 X143.576 Y185.243 E10.68899
G1 X143.377 Y185.874 E10.71967
G1 X143.124 Y186.486 E10.75036
G1 X142.819 Y187.073 E10.78104
G1 X142.463 Y187.631 E10.81173
G1 X142.06 Y188.156 E10.84241
G1 X141.613 Y188.643 E10.8731
G1 X141.125 Y189.09 E10.90378
G1 X140.6 Y189.493 E10.93447
G1 X140.042 Y189.849 E10.96515
G1 X139.455 Y190.154 E10.99584
G1 X138.844 Y190.408 E11.02653
G1 X138.213 Y190.607 E11.05721
G1 X137.567 Y190.75 E11.0879
G1 X136.911 Y190.836 E11.11858
G1 X136.242 Y190.865 E11.14963
G1 X121.011 Y190.865 E11.85598
G1 X120.007 Y190.8 E11.90264
G1 X119.358 Y190.685 E11.93318
G1 X118.719 Y190.514 E11.96386
G1 X118.097 Y190.288 E11.99455
G1 X117.498 Y190.008 E12.02524
G1 X116.927 Y189.679 E12.05578
G1 X116.122 Y189.088 E12.10208
G1 X115.637 Y188.643 E12.13261
G1 X115.19 Y188.156 E12.1633
G1 X114.789 Y187.633 E12.19385
G1 X114.271 Y186.78 E12.24014
G1 X113.993 Y186.183 E12.27068
G1 X113.766 Y185.561 E12.30136
G1 X113.595 Y184.922 E12.33205
G1 X113.48 Y184.27 E12.36273
G1 X113.423 Y183.611 E12.39342
G1 X113.415 Y145.182 E14.17559
G1 X113.939 Y145.395 F18000
G1 E13.42559 F600
G92 E0
G1 X136.236 Y150.89 F18000
G1 E.85 F600
;TYPE:Perimeter
G1 F450
G1 X136.721 Y150.58 E.87666
G1 X137.231 Y150.379 E.90207
G1 X138.008 Y150.241 E.93869
G1 X138.55 Y150.243 E.96384
G1 X139.321 Y150.399 E1.0003
G1 X140.078 Y150.74 E1.03879
G1 X140.734 Y151.248 E1.07729
G1 X141.093 Y151.654 E1.10242
G1 X141.489 Y152.334 E1.13891
G1 X141.737 Y153.126 E1.17741
G1 X141.802 Y153.78 E1.2079
G1 X141.733 Y154.457 E1.23945
G1 X141.587 Y154.984 E1.2648
G1 X141.35 Y155.509 E1.29154
G1 X141.037 Y155.98 E1.31774
G1 X140.514 Y156.512 E1.35234
G1 X139.779 Y156.98 E1.39274
G1 X139.269 Y157.181 E1.41815
G1 X138.492 Y157.32 E1.45477
G1 X137.95 Y157.317 E1.47992
G1 X137.179 Y157.162 E1.51639
G1 X136.422 Y156.821 E1.55487
G1 X135.766 Y156.313 E1.59337
G1 X135.407 Y155.907 E1.6185
G1 X135.011 Y155.227 E1.65499
G1 X134.763 Y154.434 E1.69349
G1 X134.7 Y153.849 E1.7208
G1 X134.767 Y153.104 E1.7555
G1 X134.913 Y152.576 E1.78086
G1 X135.15 Y152.051 E1.8076
G1 X135.463 Y151.581 E1.8338
G1 X135.986 Y151.049 E1.8684
G1 X136.16 Y150.938 E1.87797
G1 X136.498 Y151.407 F18000
;TYPE:External perimeter
G1 F450
G1 X137.023 Y151.084 E1.90656
G1 X137.482 Y150.918 E1.92919
G1 X138.1 Y150.821 E1.95817
G1 X138.584 Y150.837 E1.98066
G1 X139.194 Y150.972 E2.00963
G1 X139.821 Y151.268 E2.04176
G1 X140.362 Y151.701 E2.07392
G1 X140.672 Y152.074 E2.09641
G1 X140.976 Y152.62 E2.12538
G1 X141.172 Y153.285 E2.15754
G1 X141.215 Y153.78 E2.1806
G1 X141.149 Y154.392 E2.20914
G1 X141.011 Y154.851 E2.23138
G1 X140.794 Y155.302 E2.25457
G1 X140.52 Y155.686 E2.27645
G1 X140.104 Y156.091 E2.30338
G1 X139.477 Y156.477 E2.33752
G1 X139.018 Y156.642 E2.36015
G1 X138.4 Y156.74 E2.38913
G1 X137.916 Y156.724 E2.41163
G1 X137.306 Y156.589 E2.44059
G1 X136.679 Y156.293 E2.47272
G1 X136.138 Y155.859 E2.50488
G1 X135.828 Y155.486 E2.52737
G1 X135.524 Y154.941 E2.55634
G1 X135.328 Y154.276 E2.5885
G1 X135.286 Y153.757 E2.61262
G1 X135.351 Y153.168 E2.6401
G1 X135.489 Y152.709 E2.66233
G1 X135.706 Y152.259 E2.68553
G1 X135.98 Y151.875 E2.70741
G1 X136.421 Y151.454 E2.73568
G1 X136.427 Y150.811 F18000
G1 E1.98568 F600
G92 E0
G1 X115.547 Y152.995 F18000
G1 E.85 F600
;TYPE:Perimeter
G1 F450
G1 X115.663 Y152.576 E.87013
G1 X115.9 Y152.051 E.89687
G1 X116.213 Y151.581 E.92307
G1 X116.736 Y151.049 E.95767
G1 X117.471 Y150.58 E.99807
G1 X117.981 Y150.379 E1.02348
G1 X118.758 Y150.241 E1.0601
G1 X119.3 Y150.243 E1.08525
G1 X120.071 Y150.399 E1.12171
G1 X120.828 Y150.74 E1.1602
G1 X121.484 Y151.248 E1.1987
G1 X121.843 Y151.654 E1.22383
G1 X122.239 Y152.334 E1.26032
G1 X122.487 Y153.126 E1.29882
G1 X122.55 Y153.712 E1.32613
G1 X122.483 Y154.457 E1.36083
G1 X122.337 Y154.984 E1.38619
G1 X122.1 Y155.509 E1.41293
G1 X121.787 Y155.98 E1.43913
G1 X121.264 Y156.512 E1.47372
G1 X120.795 Y156.821 E1.49977
G1 X120.373 Y157.054 E1.52212
G1 X119.859 Y157.222 E1.54719
G1 X119.242 Y157.32 E1.57617
G1 X118.7 Y157.317 E1.60132
G1 X117.929 Y157.162 E1.63779
G1 X117.172 Y156.821 E1.67627
G1 X116.516 Y156.313 E1.71477
G1 X116.157 Y155.907 E1.7399
G1 X115.761 Y155.227 E1.77639
G1 X115.513 Y154.434 E1.81489
G1 X115.45 Y153.849 E1.8422
G1 X115.523 Y153.082 E1.87794
G1 X116.092 Y153.25 F18000
;TYPE:External perimeter
G1 F450
G1 X116.101 Y153.168 E1.88174
G1 X116.239 Y152.709 E1.90397
G1 X116.456 Y152.259 E1.92716
G1 X116.73 Y151.875 E1.94905
G1 X117.146 Y151.469 E1.97597
G1 X117.773 Y151.084 E2.01011
G1 X118.232 Y150.918 E2.03274
G1 X118.85 Y150.821 E2.06173
G1 X119.334 Y150.837 E2.08422
G1 X119.944 Y150.972 E2.11318
G1 X120.571 Y151.268 E2.14532
G1 X121.112 Y151.701 E2.17747
G1 X121.422 Y152.074 E2.19997
G1 X121.726 Y152.62 E2.22893
G1 X121.922 Y153.285 E2.26109
G1 X121.964 Y153.803 E2.28521
G1 X121.899 Y154.392 E2.31269
G1 X121.761 Y154.851 E2.33493
G1 X121.544 Y155.302 E2.35812
M73 P1 R56
G1 X121.27 Y155.686 E2.38
G1 X120.854 Y156.091 E2.40693
G1 X120.227 Y156.477 E2.44106
G1 X119.768 Y156.642 E2.4637
G1 X119.15 Y156.74 E2.49268
G1 X118.666 Y156.724 E2.51517
G1 X118.056 Y156.589 E2.54413
G1 X117.429 Y156.293 E2.57627
G1 X116.888 Y155.859 E2.60843
G1 X116.578 Y155.486 E2.63092
G1 X116.274 Y154.941 E2.65989
G1 X116.078 Y154.276 E2.69205
G1 X116.037 Y153.748 E2.7166
G1 X116.082 Y153.339 E2.73567
G1 X116.024 Y153.203 F18000
G1 E1.98567 F600
G92 E0
G1 X120.815 Y179.793 F18000
G1 E.85 F600
;TYPE:Perimeter
G1 F450
G1 X121.206 Y179.786 E.86812
G1 X121.982 Y179.923 E.90465
G1 X122.527 Y180.131 E.93171
M73 P1 R55
G1 X123.001 Y180.408 E.95716
G1 X123.579 Y180.922 E.99303
G1 X124.069 Y181.602 E1.03189
G1 X124.375 Y182.363 E1.06997
G1 X124.483 Y182.937 E1.09702
G1 X124.494 Y183.486 E1.12248
G1 X124.357 Y184.262 E1.15903
G1 X124.035 Y185.019 E1.19718
G1 X123.706 Y185.5 E1.22422
G1 X123.139 Y186.048 E1.26079
G1 X122.651 Y186.367 E1.28783
G1 X121.917 Y186.656 E1.3244
G1 X121.343 Y186.764 E1.35146
G1 X120.794 Y186.774 E1.37693
G1 X120.251 Y186.699 E1.40238
G1 X119.601 Y186.478 E1.43422
G1 X119.121 Y186.227 E1.45935
G1 X118.799 Y185.99 E1.47789
G1 X118.409 Y185.63 E1.5025
G1 X118.053 Y185.168 E1.52954
G1 X117.707 Y184.459 E1.56611
G1 X117.554 Y183.896 E1.59315
G1 X117.507 Y183.11 E1.6297
G1 X117.643 Y182.298 E1.66785
G1 X117.856 Y181.743 E1.69542
G1 X118.275 Y181.088 E1.73152
G1 X118.861 Y180.513 E1.76959
G1 X119.349 Y180.194 E1.79663
G1 X120.083 Y179.905 E1.8332
G1 X120.726 Y179.795 E1.86343
G1 X120.802 Y180.373 F18000
;TYPE:External perimeter
G1 F450
G1 X121.263 Y180.379 E1.88481
G1 X121.867 Y180.499 E1.9134
G1 X122.331 Y180.687 E1.93662
G1 X122.74 Y180.944 E1.95902
G1 X123.199 Y181.37 E1.98802
G1 X123.58 Y181.927 E2.01936
G1 X123.825 Y182.567 E2.0511
G1 X123.907 Y183.075 E2.07497
G1 X123.901 Y183.543 E2.09668
G1 X123.781 Y184.147 E2.12526
G1 X123.502 Y184.773 E2.15704
G1 X123.193 Y185.198 E2.18141
G1 X122.74 Y185.617 E2.21001
G1 X122.292 Y185.891 E2.23438
G1 X121.714 Y186.105 E2.26298
G1 X121.206 Y186.187 E2.28684
G1 X120.652 Y186.169 E2.31252
G1 X120.233 Y186.085 E2.33234
G1 X119.708 Y185.892 E2.35828
G1 X119.26 Y185.617 E2.38265
G1 X118.807 Y185.198 E2.41125
G1 X118.498 Y184.773 E2.43562
G1 X118.24 Y184.213 E2.46422
G1 X118.119 Y183.721 E2.48771
G1 X118.093 Y183.087 E2.51718
G1 X118.219 Y182.413 E2.54896
G1 X118.425 Y181.919 E2.57377
G1 X118.763 Y181.414 E2.60194
G1 X119.26 Y180.944 E2.63369
G1 X119.708 Y180.669 E2.65806
G1 X120.286 Y180.456 E2.68666
G1 X120.713 Y180.387 E2.70668
G1 X120.999 Y179.957 F18000
G1 E1.95668 F600
G92 E0
G1 X135.821 Y186.747 F18000
G1 E.85 F600
;TYPE:Perimeter
G1 F450
G1 X135.334 Y186.656 E.87298
G1 X134.755 Y186.442 E.90158
G1 X134.249 Y186.152 E.92862
G1 X133.659 Y185.63 E.96519
G1 X133.182 Y184.96 E1.00333
G1 X132.875 Y184.197 E1.04146
G1 X132.767 Y183.624 E1.06851
G1 X132.756 Y183.075 E1.09397
G1 X132.893 Y182.299 E1.13051
G1 X133.215 Y181.542 E1.16866
G1 X133.544 Y181.06 E1.19571
G1 X134.099 Y180.524 E1.23148
G1 X134.599 Y180.194 E1.25931
G1 X135.333 Y179.905 E1.29588
G1 X135.918 Y179.796 E1.32345
G1 X136.456 Y179.786 E1.34842
G1 X137.232 Y179.923 E1.38496
G1 X137.777 Y180.131 E1.412
G1 X138.442 Y180.555 E1.44857
G1 X138.873 Y180.963 E1.47614
G1 X139.198 Y181.393 E1.50111
G1 X139.543 Y182.101 E1.53765
G1 X139.696 Y182.664 E1.56469
G1 X139.737 Y183.29 E1.5938
G1 X139.737 Y183.601 E1.60817
G1 X139.607 Y184.262 E1.63944
G1 X139.394 Y184.817 E1.66701
G1 X139.085 Y185.309 E1.69397
G1 X138.841 Y185.629 E1.71262
G1 X138.389 Y186.048 E1.7412
G1 X137.959 Y186.331 E1.76509
G1 X137.434 Y186.557 E1.79157
G1 X136.887 Y186.717 E1.818
G1 X136.456 Y186.774 E1.83818
G1 X135.909 Y186.764 E1.86353
G1 X135.933 Y186.173 F18000
;TYPE:External perimeter
G1 F450
G1 X135.537 Y186.105 E1.88218
G1 X134.958 Y185.892 E1.91078
G1 X134.51 Y185.617 E1.93515
G1 X134.057 Y185.198 E1.96375
G1 X133.67 Y184.633 E1.99551
G1 X133.425 Y183.994 E2.02727
G1 X133.343 Y183.486 E2.05113
G1 X133.349 Y183.018 E2.07285
G1 X133.469 Y182.413 E2.10143
G1 X133.748 Y181.788 E2.1332
G1 X134.056 Y181.363 E2.15753
G1 X134.51 Y180.944 E2.18617
G1 X134.943 Y180.675 E2.20981
G1 X135.536 Y180.456 E2.23915
G1 X136.03 Y180.374 E2.26234
G1 X136.513 Y180.379 E2.28474
G1 X137.117 Y180.499 E2.31333
G1 X137.603 Y180.7 E2.3377
G1 X138.116 Y181.043 E2.3663
G1 X138.487 Y181.412 E2.39059
G1 X138.752 Y181.787 E2.41188
G1 X139.01 Y182.347 E2.44048
G1 X139.133 Y182.858 E2.46484
G1 X139.155 Y183.524 E2.49573
G1 X139.031 Y184.148 E2.52522
G1 X138.842 Y184.614 E2.54855
G1 X138.487 Y185.146 E2.57822
G1 X138.032 Y185.578 E2.60735
G1 X137.594 Y185.866 E2.63164
G1 X136.964 Y186.105 E2.66289
G1 X136.469 Y186.187 E2.68617
G1 X136.022 Y186.184 E2.70686
G1 X135.701 Y186.501 F18000
G1 E1.95686 F600
G92 E0
G1 X143.072 Y147.051 F18000
G1 E.85 F600
;TYPE:Solid infill
;WIDTH:0.632799
G1 F2700
G1 X142.143 Y146.123 E.91119
G1 X141.309 Y146.123 E.95006
G1 X142.808 Y147.621 E1.0488
G1 X142.808 Y148.455 E1.08768
G1 X140.475 Y146.123 E1.2414
G1 X139.641 Y146.123 E1.28027
G1 X142.808 Y149.29 E1.48896
G1 X142.808 Y150.124 E1.52783
G1 X138.806 Y146.123 E1.7915
G1 X137.972 Y146.123 E1.83037
G1 X142.808 Y150.958 E2.14901
G1 X142.808 Y151.792 E2.18788
G1 X137.138 Y146.123 E2.56149
G1 X136.304 Y146.123 E2.60036
G1 X142.808 Y152.626 E3.02894
G1 X142.808 Y153.461 E3.06781
G1 X142.085 Y152.738 E3.11542
G1 X141.989 Y152.397 E3.13194
G1 X141.878 Y152.127 E3.14555
G1 X141.566 Y151.568 E3.17538
G1 X141.436 Y151.378 E3.18613
G1 X141.187 Y151.078 E3.20427
G1 X141.019 Y150.912 E3.21528
G1 X140.524 Y150.505 E3.24513
G1 X140.278 Y150.347 E3.25874
G1 X139.701 Y150.067 E3.28866
G1 X139.287 Y149.94 E3.30882
G1 X135.47 Y146.123 E3.56037
G1 X134.635 Y146.123 E3.59924
G1 X138.307 Y149.794 E3.8412
G1 X137.946 Y149.805 E3.85802
