; generated by PrusaSlicer 2.5.0-alpha3+win64 on 2023-03-25 at 10:03:40 UTC


;
;
; 

; external perimeters extrusion width = 0.68mm
; perimeters extrusion width = 0.68mm
; infill extrusion width = 0.68mm
; solid infill extrusion width = 0.68mm
; top infill extrusion width = 0.60mm
; first layer extrusion width = 0.63mm

; external perimeters extrusion width = 0.68mm
; perimeters extrusion width = 0.68mm
; infill extrusion width = 0.68mm
; solid infill extrusion width = 0.68mm
; top infill extrusion width = 0.60mm
; first layer extrusion width = 0.63mm

; external perimeters extrusion width = 0.68mm
; perimeters extrusion width = 0.68mm
; infill extrusion width = 0.68mm
; solid infill extrusion width = 0.68mm
; top infill extrusion width = 0.60mm
; first layer extrusion width = 0.63mm

M73 P0 R10
M107
M190 S85 ; set bed temperature and wait for it to be reached
G10 S230 P1 ; set temperature
;TYPE:Custom
;Set standby temperatures
G10 R200 P0
G10 R220 P1
G28 ; home all axes
G32 ; run bed.g -- probe bed and enable compensation
;workaround for toolchanger when using only one extruder
T1; select tool
G10 S230 P1 ; set temperature
M116 ; wait for temperature to be reached
G21 ; set units to millimeters
G90 ; use absolute coordinates
M82 ; use absolute distances for extrusion
G92 E0
;tool change macro
T1
G92 E0
; Filament gcode
M107
;LAYER_CHANGE
;Z:0.2
;HEIGHT:0.2
G1 Z.2 F18000
G1 E-.75 F600
G92 E0
G1 X78.577 Y87.945 F18000
G1 E.85 F600
;TYPE:Skirt/Brim
;WIDTH:0.63
G1 F1500
G1 X80.675 Y86.615 E.96518
G1 X83.728 Y85.989 E1.10975
G1 X136.272 Y85.989 E3.54644
G1 X138.723 Y86.386 E3.66162
G1 X140.924 Y87.538 E3.77681
G1 X142.993 Y89.869 E3.92137
G1 X144.523 Y92.519 E4.06327
G1 X145.405 Y94.841 E4.17846
G1 X145.563 Y96.4 E4.25111
G1 X145.563 Y122.2 E5.44759
G1 X145.165 Y124.652 E5.56277
G1 X144.523 Y126.081 E5.63543
G1 X142.185 Y130.131 E5.8523
G1 X140.615 Y132.055 E5.96749
G1 X138.517 Y133.385 E6.08267
G1 X135.463 Y134.011 E6.22723
G1 X84.537 Y134.011 E8.58895
G1 X82.085 Y133.614 E8.70414
M73 P1 R10
G1 X79.884 Y132.462 E8.81932
G1 X77.815 Y130.131 E8.96388
G1 X75.477 Y126.081 E9.18076
G1 X74.595 Y123.759 E9.29594
G1 X74.437 Y122.2 E9.3686
G1 X74.437 Y96.4 E10.56507
G1 X74.835 Y93.948 E10.68026
G1 X75.477 Y92.519 E10.75291
G1 X77.007 Y89.869 E10.89482
G1 X78.52 Y88.015 E11.00583
G1 X78.978 Y88.393 F18000
G1 F1500
G1 X79.036 Y88.323 E11.01006
G1 X81.077 Y87.084 E11.12077
G1 X83.728 Y86.576 E11.24597
G1 X136.272 Y86.576 E13.68266
G1 X138.626 Y86.973 E13.79337
G1 X140.719 Y88.121 E13.90408
G1 X142.485 Y90.163 E14.02928
G1 X144.015 Y92.813 E14.17118
G1 X144.848 Y95.05 E14.2819
G1 X144.976 Y96.4 E14.34478
G1 X144.976 Y122.2 E15.54125
G1 X144.578 Y124.554 E15.65197
M73 P2 R10
G1 X144.015 Y125.787 E15.71484
G1 X141.676 Y129.837 E15.93172
G1 X140.155 Y131.677 E16.04243
G1 X138.115 Y132.916 E16.15314
G1 X135.463 Y133.424 E16.27834
G1 X84.537 Y133.424 E18.64006
G1 X82.183 Y133.027 E18.75077
G1 X80.089 Y131.879 E18.86149
G1 X78.324 Y129.837 E18.98668
G1 X75.985 Y125.787 E19.20356
G1 X75.152 Y123.55 E19.31427
G1 X75.024 Y122.2 E19.37715
G1 X75.024 Y96.4 E20.57362
G1 X75.422 Y94.046 E20.68434
G1 X75.985 Y92.813 E20.74721
G1 X77.515 Y90.163 E20.88912
G1 X78.921 Y88.463 E20.99142
G1 X79.376 Y88.845 F18000
G1 F1500
G1 X79.494 Y88.705 E20.9999
G1 X81.474 Y87.561 E21.10595
G1 X83.728 Y87.163 E21.21212
G1 X136.272 Y87.163 E23.64881
G1 X138.524 Y87.56 E23.75487
M73 P3 R10
G1 X140.504 Y88.703 E23.86092
G1 X141.976 Y90.456 E23.96708
G1 X143.506 Y93.106 E24.10899
G1 X144.288 Y95.255 E24.21504
G1 X144.389 Y96.4 E24.26833
G1 X144.389 Y122.2 E25.46481
G1 X143.992 Y124.452 E25.57086
G1 X143.506 Y125.494 E25.62415
G1 X141.168 Y129.544 E25.84102
G1 X139.698 Y131.295 E25.94707
G1 X137.718 Y132.439 E26.05313
G1 X135.463 Y132.837 E26.15929
G1 X84.537 Y132.837 E28.52102
G1 X82.285 Y132.44 E28.62707
G1 X80.304 Y131.297 E28.73312
G1 X78.832 Y129.544 E28.83929
G1 X76.494 Y125.494 E29.05616
G1 X75.712 Y123.345 E29.16222
G1 X75.611 Y122.2 E29.2155
M73 P4 R10
G1 X75.611 Y96.4 E30.41198
G1 X76.008 Y94.148 E30.51803
G1 X76.494 Y93.106 E30.57132
G1 X78.024 Y90.456 E30.71322
G1 X79.318 Y88.914 E30.80663
G1 E30.05663 F600
G92 E0
G1 X131.217 Y99.488 F18000
M73 P4 R9
G1 E.85 F600
;TYPE:External perimeter
;WIDTH:0.766093
G1 F750
G1 X131.3 Y99.513 E.85497
;WIDTH:0.717882
G1 X131.384 Y99.537 E.8596
;WIDTH:0.669671
G1 X131.467 Y99.561 E.8639
;WIDTH:0.62146
G1 X134.783 Y99.561 E1.01543
;WIDTH:0.662996
G1 X134.938 Y99.54 E1.02309
G1 X135.033 Y99.416 E1.03075
;WIDTH:0.62146
G1 X136.691 Y96.545 E1.18228
;WIDTH:0.625845
G1 X136.714 Y96.5 E1.1846
;WIDTH:0.662997
G1 X136.751 Y96.4 E1.18981
G1 X136.691 Y96.255 E1.19747
;WIDTH:0.62146
G1 X135.424 Y94.061 E1.31328
G1 X136.092 Y94.061 E1.34381
G1 X137.192 Y95.966 E1.44436
;WIDTH:0.662997
G1 X137.419 Y96.4 E1.46833
G1 X137.192 Y96.834 E1.49231
;WIDTH:0.62146
G1 X135.534 Y99.705 E1.64384
;WIDTH:0.662996
G1 X135.272 Y100.119 E1.66781
G1 X134.783 Y100.139 E1.69179
;WIDTH:0.62146
G1 X131.467 Y100.139 E1.84332
;WIDTH:0.669671
G1 X131.3 Y100.115 E1.85167
;WIDTH:0.717882
G1 X131.133 Y100.091 E1.86067
;WIDTH:0.766093
G1 X130.966 Y100.067 E1.87031
;WIDTH:0.814304
G1 X130.799 Y100.043 E1.88059
G1 X130.632 Y100.067 E1.89087
;WIDTH:0.766093
G1 X130.465 Y100.091 E1.90051
;WIDTH:0.717882
G1 X130.298 Y100.115 E1.90951
;WIDTH:0.669671
G1 X130.131 Y100.139 E1.91786
;WIDTH:0.62146
G1 X89.869 Y100.139 E3.75786
;WIDTH:0.669672
G1 X89.702 Y100.115 E3.76622
;WIDTH:0.717883
M73 P5 R9
G1 X89.535 Y100.091 E3.77521
;WIDTH:0.766095
G1 X89.368 Y100.067 E3.78485
;WIDTH:0.814306
G1 X89.201 Y100.043 E3.79513
G1 X89.034 Y100.067 E3.80542
;WIDTH:0.766095
G1 X88.867 Y100.091 E3.81506
;WIDTH:0.717883
G1 X88.7 Y100.115 E3.82405
;WIDTH:0.669672
G1 X88.533 Y100.139 E3.83241
;WIDTH:0.62146
G1 X85.217 Y100.139 E3.98393
;WIDTH:0.662997
G1 X84.728 Y100.119 E4.00791
G1 X84.466 Y99.705 E4.03189
;WIDTH:0.62146
G1 X82.808 Y96.834 E4.18341
;WIDTH:0.662998
G1 X82.581 Y96.4 E4.20739
G1 X82.808 Y95.966 E4.23137
;WIDTH:0.621461
G1 X83.908 Y94.061 E4.33191
G1 X84.576 Y94.061 E4.36244
G1 X83.309 Y96.255 E4.47825
;WIDTH:0.662998
G1 X83.249 Y96.4 E4.48591
G1 X83.309 Y96.545 E4.49358
;WIDTH:0.62146
G1 X84.967 Y99.416 E4.6451
;WIDTH:0.662997
G1 X85.062 Y99.54 E4.65277
G1 X85.217 Y99.561 E4.66043
;WIDTH:0.62146
G1 X88.533 Y99.561 E4.81195
;WIDTH:0.669672
G1 X88.616 Y99.537 E4.81626
;WIDTH:0.717883
G1 X88.7 Y99.513 E4.82089
;WIDTH:0.766095
G1 X88.783 Y99.488 E4.82586
;WIDTH:0.814306
G1 X88.867 Y99.464 E4.83115
G1 X88.929 Y99.308 E4.84143
;WIDTH:0.766095
G1 X88.992 Y99.151 E4.85107
;WIDTH:0.717883
G1 X89.055 Y98.994 E4.86007
;WIDTH:0.669671
G1 X89.117 Y98.838 E4.86842
;WIDTH:0.621459
G1 X90.441 Y96.545 E4.98942
;WIDTH:0.662997
G1 X90.501 Y96.4 E4.99708
G1 X90.441 Y96.255 E5.00474
;WIDTH:0.62146
G1 X89.926 Y95.362 E5.05186
;WIDTH:0.669671
G1 X89.863 Y95.206 E5.06022
;WIDTH:0.717883
G1 X89.8 Y95.049 E5.06922
;WIDTH:0.766095
G1 X89.738 Y94.892 E5.07885
;WIDTH:0.814306
G1 X89.675 Y94.736 E5.08914
G1 X89.341 Y94.157 E5.12984
G1 X90.009 Y94.157 E5.17055
G1 X90.176 Y94.133 E5.18083
;WIDTH:0.766095
G1 X90.343 Y94.109 E5.19047
;WIDTH:0.717883
G1 X90.51 Y94.085 E5.19947
;WIDTH:0.669672
G1 X90.677 Y94.061 E5.20782
;WIDTH:0.62146
G1 X129.323 Y94.061 E6.97394
;WIDTH:0.669671
G1 X129.49 Y94.085 E6.9823
;WIDTH:0.717882
G1 X129.657 Y94.109 E6.9913
;WIDTH:0.766093
G1 X129.824 Y94.133 E7.00094
;WIDTH:0.814304
G1 X129.991 Y94.157 E7.01122
G1 X130.659 Y94.157 E7.05192
G1 X130.325 Y94.736 E7.09263
M73 P6 R9
G1 X130.262 Y94.892 E7.10291
;WIDTH:0.766092
G1 X130.2 Y95.049 E7.11255
;WIDTH:0.71788
G1 X130.137 Y95.206 E7.12155
;WIDTH:0.669668
G1 X130.074 Y95.362 E7.1299
;WIDTH:0.621458
G1 X129.559 Y96.255 E7.17702
;WIDTH:0.662997
G1 X129.499 Y96.4 E7.18468
G1 X129.559 Y96.545 E7.19234
;WIDTH:0.621458
G1 X130.883 Y98.838 E7.31334
;WIDTH:0.669669
G1 X130.945 Y98.994 E7.3217
;WIDTH:0.717881
G1 X131.008 Y99.151 E7.33069
;WIDTH:0.766093
G1 X131.071 Y99.308 E7.34033
;WIDTH:0.814304
G1 X131.132 Y99.461 E7.35043
G1 X130.465 Y99.464 F18000
G1 F750
G1 X130.382 Y99.488 E7.35572
;WIDTH:0.766093
G1 X130.298 Y99.513 E7.36069
;WIDTH:0.717882
G1 X130.215 Y99.537 E7.36532
;WIDTH:0.669671
G1 X130.131 Y99.561 E7.36962
;WIDTH:0.62146
G1 X89.869 Y99.561 E9.20963
;WIDTH:0.669672
G1 X89.785 Y99.537 E9.21393
;WIDTH:0.717883
G1 X89.702 Y99.513 E9.21856
;WIDTH:0.766095
G1 X89.618 Y99.488 E9.22353
;WIDTH:0.814306
G1 X89.535 Y99.464 E9.22882
G1 X89.556 Y99.38 E9.23412
;WIDTH:0.766095
G1 X89.577 Y99.296 E9.23908
;WIDTH:0.717883
G1 X89.598 Y99.211 E9.24372
;WIDTH:0.669671
G1 X89.618 Y99.127 E9.24802
;WIDTH:0.621459
G1 X90.942 Y96.834 E9.36902
;WIDTH:0.662997
G1 X91.169 Y96.4 E9.393
G1 X90.942 Y95.966 E9.41697
;WIDTH:0.62146
G1 X90.427 Y95.073 E9.46409
;WIDTH:0.669671
G1 X90.406 Y94.989 E9.46839
;WIDTH:0.717883
G1 X90.385 Y94.904 E9.47303
;WIDTH:0.766095
G1 X90.364 Y94.82 E9.47799
;WIDTH:0.814306
G1 X90.343 Y94.736 E9.48329
G1 X90.427 Y94.712 E9.48859
;WIDTH:0.766095
G1 X90.51 Y94.687 E9.49355
;WIDTH:0.717883
G1 X90.594 Y94.663 E9.49818
;WIDTH:0.669672
G1 X90.677 Y94.639 E9.50249
;WIDTH:0.62146
G1 X129.323 Y94.639 E11.26861
;WIDTH:0.669671
G1 X129.406 Y94.663 E11.27291
;WIDTH:0.717882
M73 P7 R9
G1 X129.49 Y94.687 E11.27755
;WIDTH:0.766093
G1 X129.573 Y94.712 E11.28251
;WIDTH:0.814304
G1 X129.657 Y94.736 E11.28781
G1 X129.636 Y94.82 E11.2931
;WIDTH:0.766092
G1 X129.615 Y94.904 E11.29807
;WIDTH:0.71788
G1 X129.594 Y94.989 E11.3027
;WIDTH:0.669668
G1 X129.573 Y95.073 E11.30701
;WIDTH:0.621458
G1 X129.058 Y95.966 E11.35413
;WIDTH:0.662997
G1 X128.831 Y96.4 E11.3781
G1 X129.058 Y96.834 E11.40208
;WIDTH:0.621458
G1 X130.382 Y99.127 E11.52308
;WIDTH:0.669669
G1 X130.402 Y99.211 E11.52738
;WIDTH:0.717881
G1 X130.423 Y99.296 E11.53201
;WIDTH:0.766093
G1 X130.443 Y99.377 E11.5368
G1 E10.7868 F600
G92 E0
G1 X131.217 Y112.388 F18000
G1 E.85 F600
;WIDTH:0.766093
G1 F750
G1 X131.3 Y112.413 E.85497
;WIDTH:0.717882
G1 X131.384 Y112.437 E.8596
;WIDTH:0.669671
G1 X131.467 Y112.461 E.8639
;WIDTH:0.62146
G1 X134.783 Y112.461 E1.01543
;WIDTH:0.662996
G1 X134.938 Y112.44 E1.02309
G1 X135.033 Y112.316 E1.03075
;WIDTH:0.62146
G1 X136.691 Y109.445 E1.18228
;WIDTH:0.625845
G1 X136.714 Y109.4 E1.1846
;WIDTH:0.662997
G1 X136.751 Y109.3 E1.18981
G1 X136.691 Y109.155 E1.19747
;WIDTH:0.62146
G1 X135.424 Y106.961 E1.31328
G1 X136.092 Y106.961 E1.34381
G1 X137.192 Y108.866 E1.44436
;WIDTH:0.662997
G1 X137.419 Y109.3 E1.46833
G1 X137.192 Y109.734 E1.49231
;WIDTH:0.62146
G1 X135.534 Y112.605 E1.64384
;WIDTH:0.662996
G1 X135.272 Y113.019 E1.66781
G1 X134.783 Y113.039 E1.69179
;WIDTH:0.62146
G1 X131.467 Y113.039 E1.84332
;WIDTH:0.669671
G1 X131.3 Y113.015 E1.85167
;WIDTH:0.717882
G1 X131.133 Y112.991 E1.86067
;WIDTH:0.766093
G1 X130.966 Y112.967 E1.87031
;WIDTH:0.814304
G1 X130.799 Y112.943 E1.88059
G1 X130.632 Y112.967 E1.89087
;WIDTH:0.766093
G1 X130.465 Y112.991 E1.90051
;WIDTH:0.717882
G1 X130.298 Y113.015 E1.90951
;WIDTH:0.669671
G1 X130.131 Y113.039 E1.91786
;WIDTH:0.62146
G1 X89.869 Y113.039 E3.75786
;WIDTH:0.669672
G1 X89.702 Y113.015 E3.76622
;WIDTH:0.717883
M73 P8 R9
G1 X89.535 Y112.991 E3.77521
;WIDTH:0.766095
G1 X89.368 Y112.967 E3.78485
;WIDTH:0.814306
G1 X89.201 Y112.943 E3.79513
G1 X89.034 Y112.967 E3.80542
;WIDTH:0.766095
G1 X88.867 Y112.991 E3.81506
;WIDTH:0.717883
G1 X88.7 Y113.015 E3.82405
;WIDTH:0.669672
G1 X88.533 Y113.039 E3.83241
;WIDTH:0.62146
G1 X85.217 Y113.039 E3.98393
;WIDTH:0.662997
G1 X84.728 Y113.019 E4.00791
G1 X84.466 Y112.605 E4.03189
;WIDTH:0.62146
G1 X82.808 Y109.734 E4.18341
;WIDTH:0.662998
G1 X82.581 Y109.3 E4.20739
G1 X82.808 Y108.866 E4.23137
;WIDTH:0.621461
G1 X83.908 Y106.961 E4.33191
G1 X84.576 Y106.961 E4.36244
G1 X83.309 Y109.155 E4.47825
;WIDTH:0.662998
G1 X83.249 Y109.3 E4.48591
G1 X83.309 Y109.445 E4.49358
;WIDTH:0.62146
G1 X84.967 Y112.316 E4.6451
;WIDTH:0.662997
G1 X85.062 Y112.44 E4.65277
G1 X85.217 Y112.461 E4.66043
;WIDTH:0.62146
G1 X88.533 Y112.461 E4.81195
;WIDTH:0.669672
G1 X88.616 Y112.437 E4.81626
;WIDTH:0.717883
G1 X88.7 Y112.413 E4.82089
;WIDTH:0.766095
G1 X88.783 Y112.388 E4.82586
;WIDTH:0.814306
G1 X88.867 Y112.364 E4.83115
G1 X88.929 Y112.208 E4.84143
;WIDTH:0.766095
G1 X88.992 Y112.051 E4.85107
;WIDTH:0.717883
G1 X89.055 Y111.894 E4.86007
;WIDTH:0.669671
G1 X89.117 Y111.738 E4.86842
;WIDTH:0.621459
G1 X90.441 Y109.445 E4.98942
;WIDTH:0.662997
G1 X90.501 Y109.3 E4.99708
G1 X90.441 Y109.155 E5.00474
;WIDTH:0.62146
G1 X89.926 Y108.262 E5.05186
;WIDTH:0.669671
G1 X89.863 Y108.106 E5.06022
;WIDTH:0.717883
G1 X89.8 Y107.949 E5.06922
;WIDTH:0.766095
G1 X89.738 Y107.792 E5.07885
;WIDTH:0.814306
G1 X89.675 Y107.636 E5.08914
G1 X89.341 Y107.057 E5.12984
G1 X90.009 Y107.057 E5.17055
G1 X90.176 Y107.033 E5.18083
;WIDTH:0.766095
G1 X90.343 Y107.009 E5.19047
;WIDTH:0.717883
G1 X90.51 Y106.985 E5.19947
;WIDTH:0.669672
G1 X90.677 Y106.961 E5.20782
;WIDTH:0.62146
G1 X129.323 Y106.961 E6.97394
;WIDTH:0.669671
G1 X129.49 Y106.985 E6.9823
;WIDTH:0.717882
G1 X129.657 Y107.009 E6.9913
;WIDTH:0.766093
G1 X129.824 Y107.033 E7.00094
;WIDTH:0.814304
G1 X129.991 Y107.057 E7.01122
G1 X130.659 Y107.057 E7.05192
G1 X130.325 Y107.636 E7.09263
G1 X130.262 Y107.792 E7.10291
;WIDTH:0.766092
G1 X130.2 Y107.949 E7.11255
;WIDTH:0.71788
G1 X130.137 Y108.106 E7.12155
;WIDTH:0.669668
M73 P9 R9
G1 X130.074 Y108.262 E7.1299
;WIDTH:0.621458
G1 X129.559 Y109.155 E7.17702
;WIDTH:0.662997
G1 X129.499 Y109.3 E7.18468
G1 X129.559 Y109.445 E7.19234
;WIDTH:0.621458
G1 X130.883 Y111.738 E7.31334
;WIDTH:0.669669
G1 X130.945 Y111.894 E7.3217
;WIDTH:0.717881
G1 X131.008 Y112.051 E7.33069
;WIDTH:0.766093
G1 X131.071 Y112.208 E7.34033
;WIDTH:0.814304
G1 X131.132 Y112.361 E7.35043
G1 X130.446 Y112.286 F18000
G1 F750
G1 X130.465 Y112.364 E7.35536
G1 X130.394 Y112.388 E7.35991
;WIDTH:0.767189
G1 X130.323 Y112.411 E7.36419
;WIDTH:0.720074
G1 X130.252 Y112.435 E7.36818
;WIDTH:0.672959
G1 X130.181 Y112.459 E7.3719
;WIDTH:0.625844
G1 X130.131 Y112.461 E7.37422
;WIDTH:0.62146
G1 X89.869 Y112.461 E9.21423
;WIDTH:0.669672
G1 X89.785 Y112.437 E9.21853
;WIDTH:0.717883
G1 X89.702 Y112.413 E9.22316
;WIDTH:0.766095
G1 X89.618 Y112.388 E9.22813
;WIDTH:0.814306
G1 X89.535 Y112.364 E9.23342
G1 X89.556 Y112.28 E9.23872
;WIDTH:0.766095
G1 X89.577 Y112.196 E9.24368
;WIDTH:0.717883
G1 X89.598 Y112.111 E9.24832
;WIDTH:0.669671
G1 X89.618 Y112.027 E9.25262
;WIDTH:0.621459
G1 X90.942 Y109.734 E9.37362
;WIDTH:0.662997
G1 X91.169 Y109.3 E9.3976
G1 X90.942 Y108.866 E9.42157
;WIDTH:0.62146
G1 X90.427 Y107.973 E9.46869
;WIDTH:0.669671
G1 X90.406 Y107.889 E9.47299
;WIDTH:0.717883
G1 X90.385 Y107.804 E9.47763
;WIDTH:0.766095
G1 X90.364 Y107.72 E9.48259
;WIDTH:0.814306
G1 X90.343 Y107.636 E9.48789
G1 X90.427 Y107.612 E9.49319
;WIDTH:0.766095
G1 X90.51 Y107.587 E9.49815
;WIDTH:0.717883
G1 X90.594 Y107.563 E9.50278
;WIDTH:0.669672
G1 X90.677 Y107.539 E9.50709
;WIDTH:0.62146
G1 X129.323 Y107.539 E11.27321
;WIDTH:0.669671
G1 X129.406 Y107.563 E11.27751
;WIDTH:0.717882
M73 P10 R9
G1 X129.49 Y107.587 E11.28215
;WIDTH:0.766093
G1 X129.573 Y107.612 E11.28711
;WIDTH:0.814304
G1 X129.657 Y107.636 E11.29241
G1 X129.636 Y107.72 E11.2977
;WIDTH:0.766092
G1 X129.615 Y107.804 E11.30267
;WIDTH:0.71788
G1 X129.594 Y107.889 E11.3073
;WIDTH:0.669668
G1 X129.573 Y107.973 E11.31161
;WIDTH:0.621458
G1 X129.058 Y108.866 E11.35873
;WIDTH:0.662997
G1 X128.831 Y109.3 E11.3827
G1 X129.058 Y109.734 E11.40668
;WIDTH:0.621458
G1 X130.382 Y112.027 E11.52768
;WIDTH:0.669669
G1 X130.402 Y112.111 E11.53198
;WIDTH:0.717881
G1 X130.423 Y112.196 E11.53661
;WIDTH:0.766093
G1 X130.424 Y112.198 E11.53678
G1 E10.78678 F600
G92 E0
G1 X131.217 Y125.288 F18000
G1 E.85 F600
;WIDTH:0.766093
G1 F750
G1 X131.3 Y125.313 E.85497
;WIDTH:0.717882
G1 X131.384 Y125.337 E.8596
;WIDTH:0.669671
G1 X131.467 Y125.361 E.8639
;WIDTH:0.62146
G1 X134.783 Y125.361 E1.01543
;WIDTH:0.662996
G1 X134.938 Y125.34 E1.02309
G1 X135.033 Y125.216 E1.03075
;WIDTH:0.62146
G1 X136.691 Y122.345 E1.18228
;WIDTH:0.625845
G1 X136.714 Y122.3 E1.1846
;WIDTH:0.662997
G1 X136.751 Y122.2 E1.18981
G1 X136.691 Y122.055 E1.19747
;WIDTH:0.62146
G1 X135.424 Y119.861 E1.31328
