; generated by PrusaSlicer 2.6.0-alpha5+win64 on 2023-04-06 at 14:30:47 UTC


;
;
; 

; external perimeters extrusion width = 0.68mm
; perimeters extrusion width = 0.68mm
; infill extrusion width = 0.68mm
; solid infill extrusion width = 0.68mm
; top infill extrusion width = 0.60mm
; first layer extrusion width = 0.63mm

M73 P0 R28
M107
M190 S55 ; set bed temperature and wait for it to be reached
G10 S223 P1 ; set temperature
;TYPE:Custom
;Set standby temperatures
;G10 R200 P0
G10 R223 P1
G28 ; home all axes
G32 ; run bed.g -- probe bed and enable compensation
;workaround for toolchanger when using only one extruder
T1; select tool
G10 S223 P1 ; set temperature
M116 ; wait for temperature to be reached
G21 ; set units to millimeters
G90 ; use absolute coordinates
M82 ; use absolute distances for extrusion
G92 E0
;tool change macro
T1
G92 E0
; Filament gcode
M107
;LAYER_CHANGE
;Z:0.2
;HEIGHT:0.2
G1 Z.2 F18000
G1 E-.4 F2100
G92 E0
G1 X100.523 Y96.001 F18000
G1 E.4 F2100
;TYPE:External perimeter
;WIDTH:0.629999
G1 F2700
G1 X100.923 Y95.598 E.42772
G1 X100.986 Y95.608 E.43083
G1 X101.048 Y95.565 E.43451
G1 X101.528 Y95.135 E.46597
G1 X102.412 Y94.431 E.52114
G1 X102.46 Y94.325 E.52682
G1 X102.931 Y94.008 E.55453
G1 X102.991 Y94.03 E.55765
G1 X103.06 Y94 E.56132
G1 X103.615 Y93.672 E.59279
G1 X104.62 Y93.154 E.64798
G1 X104.688 Y93.059 E.65368
G1 X105.212 Y92.84 E.6814
G1 X105.266 Y92.873 E.68449
G1 X105.34 Y92.858 E.68818
G1 X105.948 Y92.644 E.71964
G1 X107.034 Y92.332 E.7748
G1 X107.119 Y92.253 E.78046
G1 X107.676 Y92.139 E.80821
G1 X107.723 Y92.183 E.81135
G1 X107.798 Y92.182 E.81501
G1 X108.436 Y92.091 E.84647
G1 X109.563 Y91.997 E.90168
G1 X109.662 Y91.935 E.90738
G1 X110.229 Y91.933 E.93506
G1 X110.267 Y91.985 E.9382
G1 X110.341 Y91.998 E.94187
G1 X110.985 Y92.034 E.97336
G1 X112.108 Y92.161 E1.02853
G1 X112.217 Y92.12 E1.03421
G1 X112.774 Y92.229 E1.06192
G1 X112.801 Y92.287 E1.06504
G1 X112.871 Y92.315 E1.06872
G1 X113.495 Y92.475 E1.10017
G1 X114.572 Y92.819 E1.15536
G1 X114.687 Y92.8 E1.16105
G1 X115.212 Y93.016 E1.18876
G1 X115.228 Y93.078 E1.19189
G1 X115.291 Y93.119 E1.19556
G1 X115.872 Y93.398 E1.22702
G1 X116.861 Y93.945 E1.28219
G1 X116.977 Y93.949 E1.28786
G1 X117.45 Y94.263 E1.31557
G1 X117.453 Y94.327 E1.3187
G1 X117.507 Y94.379 E1.32236
G1 X118.022 Y94.766 E1.35381
G1 X118.886 Y95.496 E1.40903
G1 X118.999 Y95.523 E1.4147
G1 X119.402 Y95.923 E1.44242
G1 X119.392 Y95.986 E1.44553
G1 X119.435 Y96.048 E1.44921
G1 X119.865 Y96.528 E1.48067
G1 X120.569 Y97.412 E1.53584
G1 X120.675 Y97.46 E1.54152
G1 X120.992 Y97.931 E1.56923
G1 X120.97 Y97.991 E1.57235
G1 X121 Y98.06 E1.57602
G1 X121.328 Y98.615 E1.60749
G1 X121.846 Y99.62 E1.66268
G1 X121.941 Y99.688 E1.66838
G1 X122.16 Y100.212 E1.6961
G1 X122.127 Y100.266 E1.69919
G1 X122.142 Y100.34 E1.70288
G1 X122.356 Y100.948 E1.73434
G1 X122.668 Y102.034 E1.7895
G1 X122.747 Y102.119 E1.79516
G1 X122.861 Y102.676 E1.82291
G1 X122.817 Y102.723 E1.82605
G1 X122.818 Y102.798 E1.82971
G1 X122.909 Y103.436 E1.86117
G1 X123.003 Y104.563 E1.91638
G1 X123.065 Y104.662 E1.92208
G1 X123.067 Y105.229 E1.94976
G1 X123.015 Y105.267 E1.9529
G1 X123.002 Y105.341 E1.95657
G1 X122.966 Y105.985 E1.98806
G1 X122.839 Y107.108 E2.04323
G1 X122.88 Y107.217 E2.04891
G1 X122.771 Y107.774 E2.07662
G1 X122.713 Y107.801 E2.07974
G1 X122.685 Y107.871 E2.08342
G1 X122.525 Y108.495 E2.11487
G1 X122.181 Y109.572 E2.17006
G1 X122.2 Y109.687 E2.17575
G1 X121.984 Y110.212 E2.20346
G1 X121.922 Y110.228 E2.20659
G1 X121.881 Y110.291 E2.21026
G1 X121.602 Y110.872 E2.24172
G1 X121.055 Y111.861 E2.29689
G1 X121.051 Y111.977 E2.30256
G1 X120.737 Y112.45 E2.33027
G1 X120.673 Y112.453 E2.3334
G1 X120.621 Y112.507 E2.33706
G1 X120.234 Y113.022 E2.36851
G1 X119.504 Y113.886 E2.42373
G1 X119.477 Y113.999 E2.4294
G1 X119.077 Y114.402 E2.45712
G1 X119.014 Y114.392 E2.46023
G1 X118.952 Y114.435 E2.46391
G1 X118.472 Y114.865 E2.49537
G1 X117.588 Y115.569 E2.55054
G1 X117.54 Y115.675 E2.55622
G1 X117.069 Y115.992 E2.58393
G1 X117.009 Y115.97 E2.58705
G1 X116.94 Y116 E2.59072
G1 X116.385 Y116.328 E2.62219
G1 X115.38 Y116.846 E2.67738
G1 X115.312 Y116.941 E2.68308
G1 X114.788 Y117.16 E2.7108
G1 X114.734 Y117.127 E2.71389
G1 X114.66 Y117.142 E2.71758
G1 X114.052 Y117.356 E2.74904
G1 X112.966 Y117.668 E2.8042
G1 X112.881 Y117.747 E2.80986
G1 X112.324 Y117.861 E2.83761
G1 X112.277 Y117.817 E2.84075
G1 X112.202 Y117.818 E2.84441
G1 X111.564 Y117.909 E2.87587
G1 X110.439 Y118.001 E2.93097
G1 X110.34 Y118.065 E2.93672
G1 X109.763 Y118.067 E2.96489
G1 X109.659 Y118.004 E2.97083
G1 X109.017 Y117.966 E3.00222
G1 X107.892 Y117.839 E3.05749
G1 X107.783 Y117.88 E3.06317
G1 X107.226 Y117.771 E3.09088
G1 X107.199 Y117.713 E3.094
G1 X107.129 Y117.685 E3.09768
G1 X106.505 Y117.525 E3.12913
G1 X105.428 Y117.181 E3.18432
G1 X105.313 Y117.2 E3.19001
G1 X104.788 Y116.984 E3.21772
G1 X104.772 Y116.922 E3.22085
G1 X104.709 Y116.881 E3.22452
G1 X104.128 Y116.602 E3.25598
G1 X103.139 Y116.055 E3.31115
G1 X103.023 Y116.051 E3.31682
G1 X102.55 Y115.737 E3.34453
G1 X102.547 Y115.673 E3.34766
G1 X102.493 Y115.621 E3.35132
G1 X101.978 Y115.234 E3.38277
G1 X101.114 Y114.504 E3.43799
G1 X101.001 Y114.477 E3.44366
G1 X100.598 Y114.077 E3.47138
G1 X100.608 Y114.014 E3.47449
G1 X100.565 Y113.952 E3.47817
G1 X100.135 Y113.472 E3.50963
G1 X99.431 Y112.588 E3.5648
G1 X99.325 Y112.54 E3.57048
G1 X99.008 Y112.069 E3.59819
G1 X99.03 Y112.009 E3.60131
G1 X99 Y111.94 E3.60498
G1 X98.672 Y111.385 E3.63645
G1 X98.154 Y110.38 E3.69164
G1 X98.059 Y110.312 E3.69734
G1 X97.84 Y109.788 E3.72506
G1 X97.873 Y109.734 E3.72815
G1 X97.858 Y109.66 E3.73184
G1 X97.644 Y109.052 E3.7633
G1 X97.332 Y107.966 E3.81846
G1 X97.253 Y107.881 E3.82412
G1 X97.139 Y107.324 E3.85187
G1 X97.183 Y107.277 E3.85501
G1 X97.182 Y107.202 E3.85867
G1 X97.091 Y106.564 E3.89013
G1 X96.997 Y105.437 E3.94534
G1 X96.935 Y105.338 E3.95104
G1 X96.933 Y104.771 E3.97872
G1 X96.985 Y104.733 E3.98186
G1 X96.998 Y104.659 E3.98553
G1 X97.034 Y104.015 E4.01702
G1 X97.161 Y102.892 E4.07219
G1 X97.12 Y102.783 E4.07787
G1 X97.229 Y102.226 E4.10558
G1 X97.287 Y102.199 E4.1087
G1 X97.315 Y102.129 E4.11238
G1 X97.475 Y101.505 E4.14383
G1 X97.819 Y100.428 E4.19902
G1 X97.8 Y100.313 E4.20471
G1 X98.016 Y99.788 E4.23242
G1 X98.078 Y99.772 E4.23555
G1 X98.119 Y99.709 E4.23922
G1 X98.398 Y99.128 E4.27068
G1 X98.945 Y98.139 E4.32585
G1 X98.949 Y98.023 E4.33152
G1 X99.263 Y97.55 E4.35923
G1 X99.327 Y97.547 E4.36236
G1 X99.379 Y97.493 E4.36602
G1 X99.766 Y96.978 E4.39747
G1 X100.502 Y96.089 E4.45381
G1 E4.05381 F2100
G92 E0
G1 X121.652 Y99.626 F18000
G1 E.4 F2100
;TYPE:Solid infill
;WIDTH:0.630194
G1 F2700
G1 X115.995 Y93.969 E.79067
G1 X115.67 Y93.789 E.80881
G1 X115.063 Y93.497 E.8417
G1 X114.908 Y93.391 E.85087
G1 X114.902 Y93.364 E.85222
G1 X114.662 Y93.266 E.86488
G1 X114.643 Y93.279 E.866
G1 X114.431 Y93.235 E.87657
G1 X121.753 Y100.558 E1.38225
G1 X121.936 Y101.082 E1.40935
G1 X122.134 Y101.77 E1.44431
G1 X113.225 Y92.86 E2.05959
G1 X112.722 Y92.73 E2.08496
G1 X112.549 Y92.656 E2.09415
G1 X112.538 Y92.632 E2.09544
G1 X112.284 Y92.582 E2.10808
G1 X112.267 Y92.598 E2.10922
G1 X112.136 Y92.601 E2.11562
G1 X122.381 Y102.847 E2.82316
G1 X122.497 Y103.794 E2.86975
G1 X111.206 Y92.502 E3.64953
G1 X110.311 Y92.437 E3.69335
G1 X122.585 Y104.712 E4.54101
G1 X122.606 Y104.804 E4.54562
G1 X122.625 Y104.817 E4.54674
G1 X122.626 Y105.076 E4.55939
G1 X122.604 Y105.092 E4.56072
G1 X122.565 Y105.276 E4.5699
G1 X122.552 Y105.509 E4.5813
G1 X109.487 Y92.444 E5.48355
G1 X108.721 Y92.509 E5.52109
G1 X122.49 Y106.278 E6.47196
G1 X122.406 Y107.024 E6.50862
G1 X107.982 Y92.6 E7.50473
G1 X107.831 Y92.621 E7.51217
G1 X107.632 Y92.621 E7.52189
G1 X107.611 Y92.602 E7.52327
G1 X107.358 Y92.653 E7.53587
G1 X107.348 Y92.675 E7.53705
G1 X107.263 Y92.712 E7.54158
G1 X122.271 Y107.72 E8.57802
G1 X122.1 Y108.379 E8.61127
G1 X106.627 Y92.907 E9.67978
G1 X105.987 Y93.097 E9.71238
G1 X121.899 Y109.009 E10.81125
G1 X121.75 Y109.475 E10.83514
G1 X121.73 Y109.671 E10.84476
G1 X105.361 Y93.302 E11.97519
G1 X105.262 Y93.32 E11.9801
G1 X105.238 Y93.306 E11.98146
G1 X105 Y93.406 E11.99407
G1 X104.995 Y93.429 E11.99522
G1 X104.79 Y93.561 E12.00713
G1 X121.434 Y110.205 E13.15655
G1 X121.16 Y110.762 E13.18686
G1 X104.242 Y93.844 E14.3552
G1 X103.701 Y94.133 E14.38515
G1 X120.864 Y111.296 E15.57041
G1 X120.651 Y111.682 E15.59194
G1 X120.59 Y111.84 E15.60021
G1 X120.598 Y111.861 E15.60131
G1 X103.169 Y94.431 E16.80497
G1 X103.074 Y94.469 E16.80997
G1 X103.049 Y94.46 E16.81127
G1 X102.834 Y94.604 E16.82391
G1 X102.833 Y94.628 E16.82508
G1 X102.684 Y94.777 E16.83537
G1 X120.218 Y112.311 E18.04625
G1 X119.859 Y112.783 E18.07521
G1 X102.222 Y95.145 E19.29324
G1 X101.762 Y95.517 E19.32213
G1 X119.479 Y113.233 E20.54561
G1 X119.106 Y113.691 E20.57445
G1 X101.324 Y95.908 E21.80249
G1 X101.153 Y96.023 E21.81255
G1 X101.126 Y96.018 E21.81389
G1 X100.944 Y96.202 E21.82653
G1 X100.948 Y96.225 E21.82767
G1 X100.894 Y96.31 E21.83259
G1 X118.676 Y114.092 E23.0606
G1 X118.238 Y114.484 E23.0893
G1 X100.521 Y96.767 E24.31282
G1 X100.141 Y97.217 E24.34158
G1 X117.778 Y114.855 E25.55961
G1 X117.316 Y115.223 E25.58845
G1 X99.782 Y97.689 E26.79933
G1 X99.706 Y97.79 E26.8055
G1 X99.572 Y97.921 E26.81465
G1 X99.544 Y97.922 E26.81602
G1 X99.402 Y98.139 E26.82868
G1 X116.831 Y115.569 E28.03234
G1 X116.299 Y115.867 E28.06212
G1 X99.136 Y98.704 E29.24738
G1 X98.84 Y99.239 E29.27724
G1 X115.758 Y116.156 E30.44554
G1 X115.21 Y116.439 E30.47566
G1 X98.566 Y99.795 E31.62508
G1 X98.497 Y99.937 E31.63279
M73 P1 R28
G1 X98.391 Y100.092 E31.64196
G1 X98.364 Y100.098 E31.64331
G1 X98.27 Y100.329 E31.65549
G1 X114.639 Y116.698 E32.78592
G1 X114.013 Y116.903 E32.81809
G1 X98.101 Y100.991 E33.91696
G1 X97.9 Y101.621 E33.94925
G1 X113.373 Y117.093 E35.01776
G1 X112.736 Y117.288 E35.05029
G1 X97.729 Y102.281 E36.08666
G1 X97.656 Y102.451 E36.09569
G1 X97.632 Y102.462 E36.09698
G1 X97.582 Y102.716 E36.10962
G1 X97.598 Y102.733 E36.11076
G1 X97.594 Y102.976 E36.12263
G1 X112.018 Y117.4 E37.11874
G1 X111.278 Y117.491 E37.15515
G1 X97.51 Y103.722 E38.10599
G1 X97.448 Y104.491 E38.14366
G1 X110.511 Y117.554 E39.04578
G1 X110.369 Y117.565 E39.05273
G1 X110.2 Y117.603 E39.06119
G1 X110.184 Y117.625 E39.06252
G1 X109.912 Y117.626 E39.0758
G1 X109.896 Y117.604 E39.07713
G1 X109.693 Y117.566 E39.08722
G1 X97.415 Y105.288 E39.93513
G1 X97.503 Y106.207 E39.98021
G1 X108.794 Y117.498 E40.75995
G1 X107.864 Y117.399 E40.80562
G1 X97.619 Y107.153 E41.51316
G1 X97.62 Y107.368 E41.52366
G1 X97.602 Y107.389 E41.52501
G1 X97.653 Y107.642 E41.53761
G1 X97.675 Y107.652 E41.53879
G1 X97.744 Y107.807 E41.54708
G1 X97.866 Y108.231 E41.56862
G1 X106.775 Y117.14 E42.18387
G1 X105.569 Y116.764 E42.24556
G1 X98.247 Y109.443 E42.75117
G1 X98.32 Y109.738 E42.76601
G1 X98.306 Y109.762 E42.76737
G1 X98.406 Y110 E42.77998
G1 X98.429 Y110.005 E42.78113
G1 X98.527 Y110.144 E42.78944
G1 X98.963 Y110.989 E42.83587
G1 X104.615 Y116.641 E43.22619
;LAYER_CHANGE
;Z:0.4
;HEIGHT:0.2
G1 Z.4 F18000
G10 S217 P1 ; set temperature
G1 X104.466 Y116.93
;TYPE:External perimeter
;WIDTH:0.674999
G1 F5400
G1 X103.125 Y116.226 E43.30579
G1 X102.876 Y116.213 E43.31889
G1 X102.818 Y116.262 E43.32288
G1 X102.606 Y116.127 E43.33609
G1 X102.628 Y116.048 E43.3404
G1 X102.574 Y115.883 E43.34952
G1 X101.067 Y114.669 E43.45123
G1 X100.825 Y114.607 E43.46436
G1 X100.759 Y114.645 E43.46836
G1 X100.578 Y114.471 E43.48156
G1 X100.615 Y114.398 E43.48586
G1 X100.593 Y114.226 E43.49497
G1 X99.353 Y112.74 E43.59669
G1 X99.127 Y112.633 E43.60983
G1 X99.055 Y112.657 E43.61382
G1 X98.911 Y112.451 E43.62703
G1 X98.962 Y112.386 E43.63137
G1 X98.974 Y112.213 E43.64048
G1 X98.047 Y110.514 E43.7422
G1 X97.847 Y110.365 E43.75531
G1 X97.771 Y110.374 E43.75933
G1 X97.671 Y110.144 E43.77251
G1 X97.733 Y110.091 E43.7768
G1 X97.779 Y109.924 E43.7859
G1 X97.201 Y108.076 E43.88767
G1 X97.034 Y107.891 E43.90077
G1 X96.958 Y107.885 E43.90478
G1 X96.904 Y107.64 E43.91797
G1 X96.975 Y107.6 E43.92225
G1 X97.053 Y107.445 E43.93137
G1 X96.847 Y105.52 E44.03312
G1 X96.719 Y105.306 E44.04623
G1 X96.646 Y105.285 E44.05022
G1 X96.64 Y105.034 E44.06342
G1 X96.718 Y105.009 E44.06772
G1 X96.825 Y104.872 E44.07686
G1 X96.998 Y102.944 E44.1786
G1 X96.914 Y102.709 E44.19172
G1 X96.846 Y102.674 E44.19574
G1 X96.89 Y102.427 E44.20893
G1 X96.972 Y102.417 E44.21327
G1 X97.103 Y102.304 E44.22236
G1 X97.649 Y100.447 E44.32409
G1 X97.613 Y100.2 E44.33721
G1 X97.553 Y100.153 E44.34122
M73 P1 R27
G1 X97.644 Y99.919 E44.35442
G1 X97.726 Y99.925 E44.35874
G1 X97.877 Y99.84 E44.36785
G1 X98.774 Y98.125 E44.46957
G1 X98.787 Y97.876 E44.48267
G1 X98.738 Y97.818 E44.48666
G1 X98.873 Y97.606 E44.49987
G1 X98.952 Y97.628 E44.50418
G1 X99.117 Y97.574 E44.5133
G1 X100.331 Y96.067 E44.61501
G1 X100.393 Y95.825 E44.62814
G1 X100.355 Y95.759 E44.63214
G1 X100.529 Y95.578 E44.64534
G1 X100.602 Y95.615 E44.64964
G1 X100.774 Y95.593 E44.65875
G1 X102.26 Y94.353 E44.76047
G1 X102.367 Y94.127 E44.77361
G1 X102.343 Y94.055 E44.7776
G1 X102.549 Y93.911 E44.79081
G1 X102.614 Y93.962 E44.79515
G1 X102.787 Y93.974 E44.80426
G1 X104.486 Y93.047 E44.90598
G1 X104.635 Y92.847 E44.91909
G1 X104.626 Y92.771 E44.92311
G1 X104.856 Y92.671 E44.93629
G1 X104.909 Y92.733 E44.94058
G1 X105.076 Y92.779 E44.94968
G1 X106.924 Y92.201 E45.05145
G1 X107.109 Y92.034 E45.06455
G1 X107.115 Y91.958 E45.06856
G1 X107.36 Y91.904 E45.08175
G1 X107.4 Y91.975 E45.08603
G1 X107.555 Y92.053 E45.09515
G1 X109.48 Y91.847 E45.1969
G1 X109.694 Y91.719 E45.21001
G1 X109.715 Y91.646 E45.214
G1 X109.966 Y91.64 E45.2272
G1 X109.991 Y91.718 E45.2315
G1 X110.128 Y91.825 E45.24064
G1 X112.056 Y91.998 E45.34238
G1 X112.291 Y91.914 E45.3555
G1 X112.326 Y91.846 E45.35952
G1 X112.572 Y91.89 E45.37265
G1 X112.582 Y91.971 E45.37694
G1 X112.696 Y92.103 E45.38611
G1 X114.553 Y92.649 E45.48784
G1 X114.8 Y92.613 E45.50096
G1 X114.847 Y92.553 E45.50497
G1 X115.081 Y92.644 E45.51817
G1 X115.075 Y92.726 E45.52249
G1 X115.16 Y92.877 E45.5316
G1 X116.875 Y93.774 E45.63332
G1 X117.124 Y93.787 E45.64642
G1 X117.182 Y93.738 E45.65041
G1 X117.394 Y93.873 E45.66362
G1 X117.372 Y93.952 E45.66793
G1 X117.426 Y94.117 E45.67705
G1 X118.933 Y95.331 E45.77876
G1 X119.175 Y95.393 E45.79189
G1 X119.241 Y95.355 E45.79589
G1 X119.422 Y95.529 E45.80909
G1 X119.385 Y95.602 E45.81339
G1 X119.407 Y95.774 E45.8225
G1 X120.647 Y97.26 E45.92422
G1 X120.873 Y97.367 E45.93736
G1 X120.945 Y97.343 E45.94135
G1 X121.089 Y97.549 E45.95456
G1 X121.038 Y97.614 E45.9589
G1 X121.026 Y97.787 E45.96801
G1 X121.953 Y99.486 E46.06973
G1 X122.153 Y99.635 E46.08284
G1 X122.229 Y99.626 E46.08686
G1 X122.329 Y99.856 E46.10004
G1 X122.267 Y99.909 E46.10433
G1 X122.221 Y100.076 E46.11343
G1 X122.799 Y101.924 E46.2152
G1 X122.966 Y102.109 E46.2283
G1 X123.042 Y102.115 E46.23231
G1 X123.096 Y102.36 E46.2455
G1 X123.025 Y102.4 E46.24978
G1 X122.947 Y102.555 E46.2589
G1 X123.153 Y104.48 E46.36065
G1 X123.281 Y104.694 E46.37376
G1 X123.354 Y104.715 E46.37775
G1 X123.36 Y104.966 E46.39095
G1 X123.282 Y104.991 E46.39525
G1 X123.175 Y105.128 E46.40439
G1 X123.002 Y107.056 E46.50613
G1 X123.086 Y107.291 E46.51925
G1 X123.154 Y107.326 E46.52327
G1 X123.11 Y107.573 E46.53646
G1 X123.028 Y107.583 E46.5408
G1 X122.897 Y107.696 E46.54989
G1 X122.351 Y109.553 E46.65162
G1 X122.387 Y109.8 E46.66474
G1 X122.447 Y109.847 E46.66875
G1 X122.356 Y110.081 E46.68195
G1 X122.274 Y110.075 E46.68627
G1 X122.123 Y110.16 E46.69538
G1 X121.226 Y111.875 E46.7971
G1 X121.213 Y112.124 E46.8102
G1 X121.262 Y112.182 E46.81419
G1 X121.127 Y112.394 E46.8274
G1 X121.048 Y112.372 E46.83171
G1 X120.883 Y112.426 E46.84083
G1 X119.669 Y113.933 E46.94254
G1 X119.607 Y114.175 E46.95567
G1 X119.645 Y114.241 E46.95967
G1 X119.471 Y114.422 E46.97287
G1 X119.398 Y114.385 E46.97717
G1 X119.226 Y114.407 E46.98628
G1 X117.74 Y115.647 E47.088
G1 X117.633 Y115.873 E47.10114
G1 X117.657 Y115.945 E47.10513
G1 X117.451 Y116.089 E47.11834
G1 X117.386 Y116.038 E47.12268
G1 X117.213 Y116.026 E47.13179
G1 X115.514 Y116.953 E47.23351
G1 X115.365 Y117.153 E47.24662
