; G-Code generated by Simplify3D(R) Version 4.1.2
; Jul 16, 2022 at 7:43:48 PM
; Settings Summary
;   processName,Process1
;   applyToModels,v6-spacer
;   profileName,HSBot (modified)
;   profileVersion,2019-11-09 11:59:44
;   baseProfile,Default
;   printMaterial,PETG - Eryone
;   printQuality,Medium
;   printExtruders,
;   extruderName,Extruder - v6,Extruder - lgx ace
;   extruderToolheadNumber,0,1
;   extruderDiameter,0.4,0.4
;   extruderAutoWidth,1,1
;   extruderWidth,0.48,0.48
;   extrusionMultiplier,1.03,1.03
;   extruderUseRetract,0,1
;   extruderRetractionDistance,4,1
;   extruderExtraRestartDistance,0,0
;   extruderRetractionZLift,0,0
;   extruderRetractionSpeed,3600,3600
;   extruderUseCoasting,0,0
;   extruderCoastingDistance,0.2,0.2
;   extruderUseWipe,0,1
;   extruderWipeDistance,1,1
;   primaryExtruder,1
;   layerHeight,0.2
;   topSolidLayers,3
;   bottomSolidLayers,3
;   perimeterOutlines,3
;   printPerimetersInsideOut,1
;   startPointOption,2
;   startPointOriginX,0
;   startPointOriginY,0
;   sequentialIslands,0
;   spiralVaseMode,0
;   firstLayerHeightPercentage,100
;   firstLayerWidthPercentage,150
;   firstLayerUnderspeed,0.25
;   useRaft,0
;   raftExtruder,0
;   raftTopLayers,3
;   raftBaseLayers,2
;   raftOffset,3
;   raftSeparationDistance,0.18
;   raftTopInfill,100
;   aboveRaftSpeedMultiplier,0.3
;   useSkirt,1
;   skirtExtruder,1
;   skirtLayers,1
;   skirtOutlines,15
;   skirtOffset,0
;   usePrimePillar,0
;   primePillarExtruder,999
;   primePillarWidth,12
;   primePillarLocation,7
;   primePillarSpeedMultiplier,1
;   useOozeShield,0
;   oozeShieldExtruder,999
;   oozeShieldOffset,2
;   oozeShieldOutlines,1
;   oozeShieldSidewallShape,1
;   oozeShieldSidewallAngle,30
;   oozeShieldSpeedMultiplier,1
;   infillExtruder,1
;   internalInfillPattern,Rectilinear
;   externalInfillPattern,Rectilinear
;   infillPercentage,10
;   outlineOverlapPercentage,20
;   infillExtrusionWidthPercentage,100
;   minInfillLength,3
;   infillLayerInterval,1
;   internalInfillAngles,45,-45
;   overlapInternalInfillAngles,0
;   externalInfillAngles,45,-45
;   generateSupport,1
;   supportExtruder,1
;   supportInfillPercentage,30
;   supportExtraInflation,0
;   supportBaseLayers,1
;   denseSupportExtruder,0
;   denseSupportLayers,0
;   denseSupportInfillPercentage,70
;   supportLayerInterval,1
;   supportHorizontalPartOffset,0.3
;   supportUpperSeparationLayers,1
;   supportLowerSeparationLayers,1
;   supportType,0
;   supportGridSpacing,2
;   maxOverhangAngle,45
;   supportAngles,0
;   temperatureName,v6,Bed,lgx-ace
;   temperatureNumber,0,0,1
;   temperatureSetpointCount,1,1,1
;   temperatureSetpointLayers,1,1,1
;   temperatureSetpointTemperatures,0,85,240
;   temperatureStabilizeAtStartup,1,1,1
;   temperatureHeatedBed,0,1,0
;   fanLayers,1,2,3
;   fanSpeeds,0,15,15
;   blipFanToFullPower,0
;   adjustSpeedForCooling,0
;   minSpeedLayerTime,15
;   minCoolingSpeedSlowdown,50
;   increaseFanForCooling,0
;   minFanLayerTime,45
;   maxCoolingFanSpeed,70
;   increaseFanForBridging,0
;   bridgingFanSpeed,80
;   use5D,1
;   relativeEdistances,0
;   allowEaxisZeroing,1
;   independentExtruderAxes,0
;   includeM10123,0
;   stickySupport,1
;   applyToolheadOffsets,0
;   gcodeXoffset,0
;   gcodeYoffset,0
;   gcodeZoffset,0
;   overrideMachineDefinition,1
;   machineTypeOverride,0
;   strokeXoverride,220
;   strokeYoverride,220
;   strokeZoverride,175
;   originOffsetXoverride,0
;   originOffsetYoverride,0
;   originOffsetZoverride,0
;   homeXdirOverride,-1
;   homeYdirOverride,-1
;   homeZdirOverride,-1
;   flipXoverride,1
;   flipYoverride,-1
;   flipZoverride,1
;   toolheadOffsets,0,0|0,0|0,0|0,0|0,0|0,0
;   overrideFirmwareConfiguration,0
;   firmwareTypeOverride,RepRap (Marlin/Repetier/Sprinter)
;   GPXconfigOverride,r2
;   baudRateOverride,115200
;   overridePrinterModels,0
;   printerModelsOverride
;   startingGcode,G28 ; home all axes,G32 ; run bed.g -- probe bed and enable compensation
;   layerChangeGcode,
;   retractionGcode,
;   toolChangeGcode,
;   endingGcode,M0 ; call stop.g
;   exportFileFormat,gcode
;   celebration,0
;   celebrationSong,Random Song
;   postProcessing,|; 0.2mm layer, 8 bands 5mm each, total height 40mm|{REPLACE "; layer 25" "M572 D0 S0.69\n; layer 10"}|{REPLACE "; layer 50" "M572 D0 S0.70\n; layer 50"}|{REPLACE "; layer 75" "M572 D0 S0.71\n; layer 75"}|{REPLACE "; layer 100" "M572 D0 S0.72\n; layer 100"}|{REPLACE "; layer 125" "M572 D0 S0.73\n; layer 125"}|{REPLACE "; layer 150" "M572 D0 S0.74\n; layer 150"}|{REPLACE "; layer 175" "M572 D0 S0.75\n; layer 175"}|{REPLACE "; layer 200" "M572 D0 S0.76\n; layer 200"}
;   defaultSpeed,5400
;   outlineUnderspeed,0.8
;   solidInfillUnderspeed,0.75
;   supportUnderspeed,0.8
;   rapidXYspeed,18000
;   rapidZspeed,1200
;   minBridgingArea,60
;   bridgingExtraInflation,0
;   bridgingExtrusionMultiplier,0.96
;   bridgingSpeedMultiplier,1
;   useFixedBridgingAngle,0
;   fixedBridgingAngle,0
;   applyBridgingToPerimeters,0
;   filamentDiameters,1.75|1.75|1.75|1.75|1.75|1.75
;   filamentPricesPerKg,25|46|46|46|46|46
;   filamentDensities,1.29|1.25|1.25|1.25|1.25|1.25
;   useMinPrintHeight,0
;   minPrintHeight,0.3
;   useMaxPrintHeight,0
;   maxPrintHeight,110
;   useDiaphragm,0
;   diaphragmLayerInterval,20
;   robustSlicing,1
;   mergeAllIntoSolid,0
;   onlyRetractWhenCrossingOutline,1
;   retractBetweenLayers,0
;   useRetractionMinTravel,1
;   retractionMinTravel,5
;   retractWhileWiping,1
;   onlyWipeOutlines,1
;   avoidCrossingOutline,1
;   maxMovementDetourFactor,2
;   toolChangeRetractionDistance,12
;   toolChangeExtraRestartDistance,0
;   toolChangeRetractionSpeed,600
;   externalThinWallType,0
;   internalThinWallType,0
;   thinWallAllowedOverlapPercentage,10
;   singleExtrusionMinLength,0.1
;   singleExtrusionMinPrintingWidthPercentage,50
;   singleExtrusionMaxPrintingWidthPercentage,200
;   singleExtrusionEndpointExtension,0.2
;   horizontalSizeCompensation,-0.1
G90
M82
M106 S0
M140 S85
M190 S85
G10 S0 R{0-50} P0
G10 S240 R{240-50} P1
M116 P1
G28 ; home all axes
G32 ; run bed.g -- probe bed and enable compensation
; process Process1
; layer 1, Z = 0.200
T1
G92 E0.0000
G1 E-1.0000 F3600
; feature skirt
; tool H0.200 W0.720
G1 Z0.200 F1200
G1 X75.549 Y81.253 F18000
G1 E0.0000 F3600
G92 E0.0000
G1 X79.385 Y79.664 E0.2561 F1350
G1 X125.813 Y79.660 E3.1190
G1 X127.203 Y79.847 E3.2055
G1 X127.622 Y79.962 E3.2323
G1 X127.923 Y79.897 E3.2513
G1 X128.470 Y79.810 E3.2854
G1 X129.614 Y79.688 E3.3564
G1 X130.317 Y79.661 E3.3998
G1 X131.892 Y79.706 E3.4969
G1 X132.742 Y79.801 E3.5497
G1 X134.376 Y80.120 E3.6523
G1 X135.205 Y80.353 E3.7054
G1 X136.768 Y80.937 E3.8083
G1 X137.547 Y81.304 E3.8614
G1 X138.928 Y82.099 E3.9597
G1 X139.523 Y82.498 E4.0038
G1 X140.519 Y83.270 E4.0815
G1 X141.055 Y83.749 E4.1259
G1 X142.170 Y84.890 E4.2242
G1 X142.719 Y85.553 E4.2773
G1 X143.631 Y86.861 E4.3757
G1 X143.999 Y87.476 E4.4198
G1 X144.535 Y88.527 E4.4926
G1 X144.768 Y89.052 E4.5280
G1 X145.162 Y90.095 E4.5968
G1 X145.335 Y90.642 E4.6321
G1 X145.612 Y91.714 E4.7004
G1 X145.675 Y92.031 E4.7204
G1 X145.951 Y92.403 E4.7489
G1 X146.146 Y92.683 E4.7700
G1 X146.893 Y93.841 E4.8550
G1 X147.035 Y94.074 E4.8718
G1 X147.720 Y95.268 E4.9567
G1 X147.880 Y95.569 E4.9777
G1 X149.176 Y98.214 E5.1593
G1 X149.715 Y100.541 E5.3066
G1 X149.715 Y119.459 E6.4732
G1 X149.176 Y121.786 E6.6205
G1 X147.880 Y124.431 E6.8021
G1 X147.720 Y124.732 E6.8231
G1 X147.035 Y125.926 E6.9080
G1 X146.893 Y126.159 E6.9248
G1 X146.146 Y127.316 E7.0098
G1 X145.951 Y127.597 E7.0308
G1 X145.675 Y127.969 E7.0593
G1 X145.629 Y128.217 E7.0749
G1 X145.334 Y129.363 E7.1479
G1 X145.161 Y129.910 E7.1833
G1 X144.769 Y130.946 E7.2516
G1 X144.536 Y131.471 E7.2870
G1 X144.030 Y132.463 E7.3557
G1 X143.741 Y132.959 E7.3911
G1 X143.131 Y133.887 E7.4596
G1 X142.790 Y134.349 E7.4950
G1 X142.080 Y135.206 E7.5636
G1 X141.691 Y135.627 E7.5990
G1 X140.891 Y136.402 E7.6676
G1 X140.457 Y136.778 E7.7030
G1 X139.581 Y137.457 E7.7713
G1 X139.110 Y137.783 E7.8067
G1 X138.160 Y138.364 E7.8754
G1 X137.655 Y138.637 E7.9108
G1 X136.649 Y139.110 E7.9793
G1 X136.117 Y139.326 E8.0147
G1 X135.063 Y139.686 E8.0834
G1 X134.511 Y139.842 E8.1188
G1 X133.356 Y140.100 E8.1918
G1 X132.648 Y140.208 E8.2359
G1 X131.069 Y140.339 E8.3336
G1 X130.223 Y140.341 E8.3858
G1 X128.612 Y140.213 E8.4855
G1 X127.792 Y140.082 E8.5366
G1 X127.611 Y140.038 E8.5481
G1 X127.112 Y140.169 E8.5799
G1 X125.783 Y140.340 E8.6626
G1 X79.389 Y140.340 E11.5234
G1 X75.552 Y138.750 E11.7795
G1 X71.874 Y135.072 E12.1003
G1 X70.285 Y131.235 E12.3564
G1 X70.285 Y88.765 E14.9753
G1 X71.874 Y84.928 E15.2314
G1 X75.549 Y81.253 E15.5518
G1 X75.956 Y81.864 F18000
G92 E0.0000
G1 X79.528 Y80.384 E0.2384 F1350
G1 X125.765 Y80.380 E3.0896
G1 X127.059 Y80.554 E3.1701
G1 X127.601 Y80.703 E3.2047
G1 X128.056 Y80.605 E3.2335
G1 X128.565 Y80.524 E3.2652
G1 X129.666 Y80.407 E3.3335
G1 X130.320 Y80.381 E3.3739
G1 X131.842 Y80.425 E3.4677
G1 X132.633 Y80.513 E3.5168
G1 X134.209 Y80.821 E3.6159
G1 X134.981 Y81.038 E3.6653
G1 X136.488 Y81.601 E3.7645
G1 X137.213 Y81.943 E3.8139
G1 X138.548 Y82.711 E3.9089
G1 X139.101 Y83.082 E3.9500
G1 X140.058 Y83.824 E4.0246
G1 X140.557 Y84.269 E4.0659
G1 X141.634 Y85.372 E4.1609
G1 X142.145 Y85.989 E4.2103
G1 X143.026 Y87.253 E4.3053
G1 X143.369 Y87.825 E4.3464
G1 X143.885 Y88.837 E4.4165
G1 X144.101 Y89.325 E4.4494
G1 X144.482 Y90.331 E4.5158
G1 X144.643 Y90.840 E4.5487
G1 X144.909 Y91.875 E4.6146
G1 X145.000 Y92.330 E4.6432
G1 X145.366 Y92.823 E4.6810
G1 X145.548 Y93.084 E4.7007
G1 X146.283 Y94.224 E4.7843
G1 X146.415 Y94.441 E4.8000
G1 X147.090 Y95.617 E4.8835
G1 X147.238 Y95.896 E4.9031
G1 X148.493 Y98.457 E5.0789
G1 X148.995 Y100.623 E5.2160
G1 X148.995 Y119.377 E6.3725
G1 X148.493 Y121.543 E6.5096
G1 X147.238 Y124.104 E6.6854
G1 X147.090 Y124.383 E6.7050
G1 X146.415 Y125.559 E6.7885
G1 X146.283 Y125.776 E6.8042
G1 X145.548 Y126.916 E6.8878
G1 X145.366 Y127.177 E6.9074
G1 X144.998 Y127.673 E6.9456
G1 X144.926 Y128.061 E6.9699
G1 X144.642 Y129.164 E7.0401
G1 X144.480 Y129.673 E7.0731
G1 X144.102 Y130.672 E7.1389
G1 X143.886 Y131.161 E7.1719
G1 X143.397 Y132.119 E7.2382
G1 X143.129 Y132.580 E7.2711
G1 X142.540 Y133.475 E7.3372
G1 X142.223 Y133.905 E7.3701
G1 X141.538 Y134.732 E7.4363
G1 X141.176 Y135.124 E7.4692
G1 X140.405 Y135.871 E7.5354
G1 X140.001 Y136.221 E7.5684
G1 X139.156 Y136.876 E7.6343
G1 X138.717 Y137.179 E7.6672
G1 X137.801 Y137.740 E7.7334
G1 X137.331 Y137.994 E7.7664
G1 X136.360 Y138.451 E7.8325
G1 X135.865 Y138.651 E7.8655
G1 X134.849 Y138.999 E7.9317
G1 X134.335 Y139.144 E7.9646
G1 X133.223 Y139.392 E8.0349
G1 X132.564 Y139.493 E8.0760
G1 X131.038 Y139.619 E8.1704
G1 X130.251 Y139.621 E8.2189
G1 X128.697 Y139.497 E8.3151
G1 X127.934 Y139.375 E8.3627
G1 X127.604 Y139.295 E8.3836
G1 X126.974 Y139.460 E8.4238
G1 X125.737 Y139.620 E8.5008
G1 X79.533 Y139.620 E11.3499
G1 X75.960 Y138.140 E11.5883
G1 X72.485 Y134.664 E11.8914
G1 X71.005 Y131.092 E12.1299
G1 X71.005 Y88.908 E14.7311
G1 X72.485 Y85.336 E14.9696
G1 X75.956 Y81.864 E15.2723
G1 X76.364 Y82.474 F18000
G92 E0.0000
G1 X79.672 Y81.104 E0.2208 F1350
G1 X125.717 Y81.100 E3.0601
G1 X126.915 Y81.261 E3.1346
G1 X127.580 Y81.444 E3.1772
G1 X128.189 Y81.313 E3.2156
G1 X128.660 Y81.238 E3.2450
G1 X129.718 Y81.125 E3.3106
G1 X130.324 Y81.102 E3.3480
G1 X131.791 Y81.144 E3.4385
G1 X132.525 Y81.226 E3.4840
G1 X134.042 Y81.522 E3.5794
G1 X134.757 Y81.723 E3.6251
G1 X136.208 Y82.265 E3.7207
G1 X136.880 Y82.581 E3.7665
G1 X138.167 Y83.322 E3.8580
G1 X138.680 Y83.666 E3.8961
G1 X139.597 Y84.377 E3.9677
G1 X140.059 Y84.790 E4.0059
G1 X141.098 Y85.853 E4.0976
G1 X141.571 Y86.425 E4.1433
G1 X142.421 Y87.644 E4.2350
G1 X142.738 Y88.174 E4.2730
G1 X143.234 Y89.146 E4.3404
G1 X143.435 Y89.599 E4.3709
G1 X143.801 Y90.567 E4.4347
G1 X143.951 Y91.039 E4.4652
G1 X144.207 Y92.035 E4.5287
G1 X144.304 Y92.520 E4.5592
G1 X144.318 Y92.619 E4.5653
G1 X144.781 Y93.243 E4.6132
G1 X144.949 Y93.485 E4.6314
G1 X145.673 Y94.606 E4.7137
G1 X145.796 Y94.808 E4.7282
G1 X146.459 Y95.965 E4.8105
G1 X146.597 Y96.224 E4.8286
G1 X147.810 Y98.699 E4.9986
G1 X148.275 Y100.705 E5.1256
G1 X148.275 Y119.295 E6.2719
G1 X147.810 Y121.301 E6.3988
G1 X146.597 Y123.776 E6.5688
G1 X146.459 Y124.035 E6.5869
G1 X145.796 Y125.192 E6.6692
G1 X145.673 Y125.394 E6.6837
G1 X144.949 Y126.515 E6.7660
G1 X144.781 Y126.757 E6.7842
G1 X144.321 Y127.378 E6.8318
G1 X144.222 Y127.906 E6.8650
G1 X143.950 Y128.965 E6.9324
G1 X143.800 Y129.437 E6.9629
G1 X143.436 Y130.399 E7.0264
G1 X143.236 Y130.852 E7.0569
G1 X142.765 Y131.774 E7.1207
G1 X142.516 Y132.201 E7.1512
G1 X141.950 Y133.063 E7.2148
G1 X141.656 Y133.461 E7.2453
G1 X140.996 Y134.257 E7.3091
G1 X140.661 Y134.620 E7.3396
G1 X139.918 Y135.340 E7.4033
G1 X139.544 Y135.664 E7.4339
G1 X138.730 Y136.295 E7.4974
G1 X138.324 Y136.576 E7.5278
G1 X137.442 Y137.116 E7.5916
G1 X137.006 Y137.351 E7.6221
G1 X136.072 Y137.791 E7.6858
G1 X135.613 Y137.976 E7.7163
G1 X134.635 Y138.311 E7.7801
G1 X134.158 Y138.445 E7.8106
G1 X133.090 Y138.684 E7.8781
G1 X132.480 Y138.777 E7.9162
G1 X131.008 Y138.899 E8.0072
G1 X130.279 Y138.901 E8.0522
G1 X128.783 Y138.782 E8.1448
G1 X128.076 Y138.669 E8.1889
G1 X127.597 Y138.553 E8.2192
G1 X126.836 Y138.752 E8.2678
G1 X125.690 Y138.900 E8.3390
G1 X79.676 Y138.900 E11.1765
G1 X76.368 Y137.530 E11.3972
G1 X73.095 Y134.257 E11.6827
G1 X71.725 Y130.948 E11.9035
G1 X71.725 Y89.052 E14.4870
G1 X73.095 Y85.743 E14.7078
G1 X76.364 Y82.474 E14.9929
G1 X76.772 Y83.085 F18000
G92 E0.0000
G1 X79.815 Y81.824 E0.2031 F1350
G1 X125.668 Y81.820 E3.0306
G1 X126.771 Y81.969 E3.0992
G1 X127.559 Y82.185 E3.1496
G1 X128.322 Y82.021 E3.1977
G1 X128.755 Y81.951 E3.2248
G1 X129.770 Y81.844 E3.2877
G1 X130.327 Y81.822 E3.3221
G1 X131.741 Y81.863 E3.4093
G1 X132.416 Y81.938 E3.4512
G1 X133.875 Y82.223 E3.5429
G1 X134.533 Y82.408 E3.5850
G1 X135.929 Y82.929 E3.6769
G1 X136.546 Y83.220 E3.7190
G1 X137.786 Y83.934 E3.8072
G1 X138.258 Y84.250 E3.8422
G1 X139.136 Y84.931 E3.9108
G1 X139.562 Y85.311 E3.9459
G1 X140.562 Y86.335 E4.0342
G1 X140.997 Y86.861 E4.0763
G1 X141.816 Y88.036 E4.1646
G1 X142.108 Y88.523 E4.1996
G1 X142.584 Y89.456 E4.2642
G1 X142.769 Y89.872 E4.2923
G1 X143.121 Y90.804 E4.3537
G1 X143.258 Y91.237 E4.3818
G1 X143.505 Y92.195 E4.4428
G1 X143.594 Y92.642 E4.4708
G1 X143.631 Y92.902 E4.4870
G1 X144.196 Y93.663 E4.5455
G1 X144.351 Y93.885 E4.5622
G1 X145.063 Y94.989 E4.6432
G1 X145.176 Y95.174 E4.6566
G1 X145.829 Y96.313 E4.7375
G1 X145.956 Y96.551 E4.7541
G1 X147.127 Y98.942 E4.9183
G1 X147.555 Y100.788 E5.0351
G1 X147.555 Y119.212 E6.1713
G1 X147.127 Y121.058 E6.2881
G1 X145.956 Y123.449 E6.4523
G1 X145.829 Y123.687 E6.4689
G1 X145.176 Y124.826 E6.5499
G1 X145.063 Y125.011 E6.5632
G1 X144.351 Y126.115 E6.6442
G1 X144.196 Y126.337 E6.6609
G1 X143.634 Y127.095 E6.7191
G1 X143.623 Y127.191 E6.7251
G1 X143.519 Y127.750 E6.7602
G1 X143.257 Y128.766 E6.8249
G1 X143.120 Y129.200 E6.8530
G1 X142.769 Y130.126 E6.9140
G1 X142.585 Y130.542 E6.9421
G1 X142.133 Y131.429 E7.0034
G1 X141.904 Y131.822 E7.0315
G1 X141.359 Y132.651 E7.0927
G1 X141.088 Y133.017 E7.1208
G1 X140.454 Y133.783 E7.1820
G1 X140.145 Y134.117 E7.2101
G1 X139.431 Y134.809 E7.2714
G1 X139.087 Y135.107 E7.2995
G1 X138.304 Y135.714 E7.3606
G1 X137.930 Y135.972 E7.3886
G1 X137.083 Y136.492 E7.4499
G1 X136.682 Y136.708 E7.4780
G1 X135.783 Y137.131 E7.5393
G1 X135.361 Y137.302 E7.5673
G1 X134.420 Y137.624 E7.6286
G1 X133.982 Y137.747 E7.6567
G1 X132.957 Y137.976 E7.7215
G1 X132.396 Y138.062 E7.7565
G1 X130.977 Y138.179 E7.8443
G1 X130.307 Y138.181 E7.8856
G1 X128.868 Y138.066 E7.9746
G1 X128.218 Y137.962 E8.0152
G1 X127.591 Y137.810 E8.0550
G1 X126.699 Y138.044 E8.1119
G1 X125.644 Y138.180 E8.1774
G1 X79.819 Y138.180 E11.0032
G1 X76.776 Y136.919 E11.2063
G1 X73.705 Y133.849 E11.4741
G1 X72.445 Y130.805 E11.6772
G1 X72.445 Y89.195 E14.2431
G1 X73.705 Y86.151 E14.4462
G1 X76.772 Y83.085 E14.7137
G1 X77.180 Y83.695 F18000
G92 E0.0000
G1 X79.958 Y82.544 E0.1854 F1350
G1 X125.620 Y82.540 E3.0011
G1 X126.627 Y82.676 E3.0638
