; generated by PrusaSlicer 2.6.0-alpha5+win64 on 2023-04-21 at 13:05:00 UTC


;
;
; 

; external perimeters extrusion width = 0.68mm
; perimeters extrusion width = 0.68mm
; infill extrusion width = 0.68mm
; solid infill extrusion width = 0.68mm
; top infill extrusion width = 0.60mm
; support material extrusion width = 0.50mm
; first layer extrusion width = 0.63mm

; external perimeters extrusion width = 0.68mm
; perimeters extrusion width = 0.68mm
; infill extrusion width = 0.68mm
; solid infill extrusion width = 0.68mm
; top infill extrusion width = 0.60mm
; support material extrusion width = 0.50mm
; first layer extrusion width = 0.63mm

M73 P0 R1
M107
M190 S55 ; set bed temperature and wait for it to be reached
G10 S223 P0 ; set temperature
G10 S223 P1 ; set temperature
;TYPE:Custom
;Set standby temperatures
;G10 R217 P0
G10 R223 P1
G10 R223 P0
G28 ; home all axes
G32 ; run bed.g -- probe bed and enable compensation
;workaround for toolchanger when using only one extruder
T0; select tool
G10 S223 P0 ; set temperature
M116 ; wait for temperature to be reached
G10 S223 P1 ; set temperature
M116 ; wait for temperature to be reached
G21 ; set units to millimeters
G90 ; use absolute coordinates
M82 ; use absolute distances for extrusion
G92 E0
;tool change macro
T0
G92 E0
; Filament gcode
M107
;LAYER_CHANGE
;Z:0.2
;HEIGHT:0.2
G1 Z.2 F18000
G1 E-2 F2400
G92 E0
G1 X93.271 Y53.153 F18000
G1 E2 F2400
;TYPE:Skirt/Brim
;WIDTH:0.63
G1 F2700
G1 X95.042 Y51.552 E2.11654
G1 X97.24 Y50.621 E2.23307
G1 X98.61 Y50.432 E2.30058
G1 X122.074 Y49.482 E3.44693
M73 P1 R1
G1 X123.364 Y49.476 E3.5099
G1 X125.718 Y49.873 E3.62644
G1 X127.811 Y51.021 E3.74297
G1 X129.412 Y52.792 E3.85951
G1 X130.344 Y54.99 E3.97605
M73 P2 R1
G1 X130.538 Y56.65 E4.05764
G1 X130.538 Y153.35 E8.77813
G1 X130.141 Y155.704 E8.89467
M73 P5 R1
G1 X128.993 Y157.797 E9.0112
G1 X127.222 Y159.398 E9.12774
G1 X125.024 Y160.329 E9.24427
G1 X123.364 Y160.524 E9.32586
G1 X98.61 Y159.568 E10.53515
G1 X96.274 Y159.076 E10.65169
M73 P6 R1
G1 X94.228 Y157.845 E10.76825
G1 X92.701 Y156.01 E10.88479
G1 X91.859 Y153.776 E11.00133
G1 X91.726 Y152.4 E11.06881
G1 X91.726 Y57.6 E15.69655
G1 X92.123 Y55.246 E15.81309
M73 P9 R1
G1 X93.242 Y53.205 E15.92672
G1 E13.92672 F2400
G92 E0
G1 X122.605 Y146.199 F18000
M73 P10 R1
G1 E2 F2400
;TYPE:External perimeter
;WIDTH:0.601217
G1 F2700
G1 X122.585 Y146.119 E2.00383
;WIDTH:0.641095
G1 X122.565 Y146.039 E2.00793
G1 X122.505 Y146.039 E2.01091
;WIDTH:0.601217
G1 X122.445 Y146.039 E2.0137
;WIDTH:0.561339
G1 X122.386 Y146.039 E2.01624
;WIDTH:0.52146
G1 X112.625 Y146.039 E2.40464
G1 X112.625 Y145.561 E2.42366
G1 X122.386 Y145.561 E2.81206
;WIDTH:0.561339
G1 X122.445 Y145.561 E2.8146
;WIDTH:0.601217
M73 P11 R1
G1 X122.505 Y145.561 E2.81739
;WIDTH:0.641095
G1 X122.565 Y145.561 E2.82037
G1 X122.585 Y145.481 E2.82447
;WIDTH:0.601217
G1 X122.605 Y145.401 E2.8283
;WIDTH:0.561339
G1 X122.625 Y145.321 E2.83185
;WIDTH:0.52146
G1 X122.625 Y141.179 E2.99666
;WIDTH:0.561339
G1 X122.605 Y141.099 E3.00021
;WIDTH:0.601217
G1 X122.585 Y141.019 E3.00404
;WIDTH:0.641095
G1 X122.565 Y140.939 E3.00814
G1 X122.505 Y140.939 E3.01112
;WIDTH:0.601217
G1 X122.445 Y140.939 E3.01391
;WIDTH:0.561339
G1 X122.386 Y140.939 E3.01645
;WIDTH:0.52146
G1 X112.625 Y140.939 E3.40485
G1 X112.625 Y140.461 E3.42387
G1 X122.386 Y140.461 E3.81227
;WIDTH:0.561339
G1 X122.445 Y140.461 E3.81481
;WIDTH:0.601217
M73 P12 R1
G1 X122.505 Y140.461 E3.8176
;WIDTH:0.641095
G1 X122.565 Y140.461 E3.82058
G1 X122.585 Y140.381 E3.82468
;WIDTH:0.601217
G1 X122.605 Y140.301 E3.82851
;WIDTH:0.561339
G1 X122.625 Y140.221 E3.83206
;WIDTH:0.52146
G1 X122.625 Y136.079 E3.99687
;WIDTH:0.561339
G1 X122.605 Y135.999 E4.00042
;WIDTH:0.601217
G1 X122.585 Y135.919 E4.00425
;WIDTH:0.641095
G1 X122.565 Y135.839 E4.00835
G1 X122.505 Y135.839 E4.01133
;WIDTH:0.601217
G1 X122.445 Y135.839 E4.01412
;WIDTH:0.561339
G1 X122.386 Y135.839 E4.01666
;WIDTH:0.52146
G1 X112.625 Y135.839 E4.40506
G1 X112.625 Y135.361 E4.42408
G1 X122.386 Y135.361 E4.81248
;WIDTH:0.561339
G1 X122.445 Y135.361 E4.81502
;WIDTH:0.601217
G1 X122.505 Y135.361 E4.81781
;WIDTH:0.641095
G1 X122.565 Y135.361 E4.82079
G1 X122.585 Y135.281 E4.82489
;WIDTH:0.601217
G1 X122.605 Y135.201 E4.82872
;WIDTH:0.561339
G1 X122.625 Y135.121 E4.83227
;WIDTH:0.52146
G1 X122.625 Y130.979 E4.99708
;WIDTH:0.561339
G1 X122.605 Y130.899 E5.00063
;WIDTH:0.601217
M73 P13 R1
G1 X122.585 Y130.819 E5.00446
;WIDTH:0.641095
G1 X122.565 Y130.739 E5.00856
G1 X122.505 Y130.739 E5.01154
;WIDTH:0.601217
G1 X122.445 Y130.739 E5.01433
;WIDTH:0.561339
G1 X122.386 Y130.739 E5.01687
;WIDTH:0.52146
G1 X112.625 Y130.739 E5.40527
G1 X112.625 Y130.261 E5.42429
G1 X122.386 Y130.261 E5.81269
;WIDTH:0.561339
G1 X122.445 Y130.261 E5.81523
;WIDTH:0.601217
G1 X122.505 Y130.261 E5.81802
;WIDTH:0.641095
G1 X122.565 Y130.261 E5.821
G1 X122.585 Y130.181 E5.8251
;WIDTH:0.601217
G1 X122.605 Y130.101 E5.82893
;WIDTH:0.561339
G1 X122.625 Y130.021 E5.83248
;WIDTH:0.52146
G1 X122.625 Y125.879 E5.99729
;WIDTH:0.561339
G1 X122.605 Y125.799 E6.00084
;WIDTH:0.601217
G1 X122.585 Y125.719 E6.00467
;WIDTH:0.641095
G1 X122.565 Y125.639 E6.00877
G1 X122.505 Y125.639 E6.01175
;WIDTH:0.601217
G1 X122.445 Y125.639 E6.01454
;WIDTH:0.561339
G1 X122.386 Y125.639 E6.01708
;WIDTH:0.52146
G1 X112.625 Y125.639 E6.40548
G1 X112.625 Y125.161 E6.4245
M73 P14 R1
G1 X122.386 Y125.161 E6.8129
;WIDTH:0.561339
G1 X122.445 Y125.161 E6.81544
;WIDTH:0.601217
M73 P14 R0
G1 X122.505 Y125.161 E6.81823
;WIDTH:0.641095
G1 X122.565 Y125.161 E6.82121
G1 X122.585 Y125.081 E6.82531
;WIDTH:0.601217
G1 X122.605 Y125.001 E6.82914
;WIDTH:0.561339
G1 X122.625 Y124.921 E6.83269
;WIDTH:0.52146
G1 X122.625 Y120.779 E6.9975
;WIDTH:0.561339
G1 X122.605 Y120.699 E7.00105
;WIDTH:0.601217
G1 X122.585 Y120.619 E7.00488
;WIDTH:0.641095
G1 X122.565 Y120.539 E7.00898
G1 X122.505 Y120.539 E7.01196
;WIDTH:0.601217
G1 X122.445 Y120.539 E7.01475
;WIDTH:0.561339
G1 X122.386 Y120.539 E7.01729
;WIDTH:0.52146
G1 X112.625 Y120.539 E7.40569
G1 X112.625 Y120.061 E7.42471
M73 P15 R0
G1 X122.386 Y120.061 E7.81311
;WIDTH:0.561339
G1 X122.445 Y120.061 E7.81565
;WIDTH:0.601217
G1 X122.505 Y120.061 E7.81844
;WIDTH:0.641095
G1 X122.565 Y120.061 E7.82142
G1 X122.585 Y119.981 E7.82552
;WIDTH:0.601217
G1 X122.605 Y119.901 E7.82935
;WIDTH:0.561339
G1 X122.625 Y119.821 E7.8329
;WIDTH:0.52146
G1 X122.625 Y115.679 E7.99771
;WIDTH:0.561339
G1 X122.605 Y115.599 E8.00126
;WIDTH:0.601217
G1 X122.585 Y115.519 E8.00509
;WIDTH:0.641095
G1 X122.565 Y115.439 E8.00919
G1 X122.505 Y115.439 E8.01217
;WIDTH:0.601217
G1 X122.445 Y115.439 E8.01496
;WIDTH:0.561339
G1 X122.386 Y115.439 E8.0175
;WIDTH:0.52146
G1 X112.625 Y115.439 E8.4059
G1 X112.625 Y114.961 E8.42492
G1 X122.386 Y114.961 E8.81332
;WIDTH:0.561339
G1 X122.445 Y114.961 E8.81586
;WIDTH:0.601217
M73 P16 R0
G1 X122.505 Y114.961 E8.81865
;WIDTH:0.641095
G1 X122.565 Y114.961 E8.82163
G1 X122.585 Y114.881 E8.82573
;WIDTH:0.601217
G1 X122.605 Y114.801 E8.82956
;WIDTH:0.561339
G1 X122.625 Y114.721 E8.83311
;WIDTH:0.52146
G1 X122.625 Y110.579 E8.99792
;WIDTH:0.561339
G1 X122.605 Y110.499 E9.00147
;WIDTH:0.601217
G1 X122.585 Y110.419 E9.0053
;WIDTH:0.641095
G1 X122.565 Y110.339 E9.0094
G1 X122.505 Y110.339 E9.01238
;WIDTH:0.601217
G1 X122.445 Y110.339 E9.01517
;WIDTH:0.561339
G1 X122.386 Y110.339 E9.01771
;WIDTH:0.52146
G1 X112.625 Y110.339 E9.40611
G1 X112.625 Y109.861 E9.42513
G1 X122.386 Y109.861 E9.81353
;WIDTH:0.561339
G1 X122.445 Y109.861 E9.81607
;WIDTH:0.601217
M73 P17 R0
G1 X122.505 Y109.861 E9.81886
;WIDTH:0.641095
G1 X122.565 Y109.861 E9.82184
G1 X122.585 Y109.781 E9.82594
;WIDTH:0.601217
G1 X122.605 Y109.701 E9.82977
;WIDTH:0.561339
G1 X122.625 Y109.621 E9.83332
;WIDTH:0.52146
G1 X122.625 Y105.479 E9.99813
;WIDTH:0.561339
G1 X122.605 Y105.399 E10.00168
;WIDTH:0.601217
G1 X122.585 Y105.319 E10.00551
;WIDTH:0.641095
G1 X122.565 Y105.239 E10.00961
G1 X122.505 Y105.239 E10.01259
;WIDTH:0.601217
G1 X122.445 Y105.239 E10.01538
;WIDTH:0.561339
G1 X122.386 Y105.239 E10.01792
;WIDTH:0.52146
G1 X112.625 Y105.239 E10.40632
G1 X112.625 Y104.761 E10.42534
G1 X122.386 Y104.761 E10.81374
;WIDTH:0.561339
G1 X122.445 Y104.761 E10.81628
;WIDTH:0.601217
G1 X122.505 Y104.761 E10.81907
;WIDTH:0.641095
G1 X122.565 Y104.761 E10.82205
G1 X122.585 Y104.681 E10.82615
;WIDTH:0.601217
G1 X122.605 Y104.601 E10.82998
;WIDTH:0.561339
G1 X122.625 Y104.521 E10.83353
;WIDTH:0.52146
G1 X122.625 Y100.379 E10.99834
;WIDTH:0.561339
G1 X122.605 Y100.299 E11.00189
;WIDTH:0.601217
M73 P18 R0
G1 X122.585 Y100.219 E11.00572
;WIDTH:0.641095
G1 X122.565 Y100.139 E11.00982
G1 X122.505 Y100.139 E11.0128
;WIDTH:0.601217
G1 X122.445 Y100.139 E11.01559
;WIDTH:0.561339
G1 X122.386 Y100.139 E11.01813
;WIDTH:0.52146
G1 X112.625 Y100.139 E11.40653
G1 X112.625 Y99.661 E11.42555
G1 X122.386 Y99.661 E11.81395
;WIDTH:0.561339
G1 X122.445 Y99.661 E11.81649
;WIDTH:0.601217
G1 X122.505 Y99.661 E11.81928
;WIDTH:0.641095
G1 X122.565 Y99.661 E11.82226
G1 X122.585 Y99.581 E11.82636
;WIDTH:0.601217
G1 X122.605 Y99.501 E11.83019
;WIDTH:0.561339
G1 X122.625 Y99.421 E11.83374
;WIDTH:0.52146
G1 X122.625 Y95.279 E11.99855
;WIDTH:0.561339
G1 X122.605 Y95.199 E12.0021
;WIDTH:0.601217
G1 X122.585 Y95.119 E12.00593
;WIDTH:0.641095
G1 X122.565 Y95.039 E12.01003
G1 X122.505 Y95.039 E12.01301
;WIDTH:0.601217
G1 X122.445 Y95.039 E12.0158
;WIDTH:0.561339
G1 X122.386 Y95.039 E12.01834
;WIDTH:0.52146
G1 X112.625 Y95.039 E12.40674
G1 X112.625 Y94.561 E12.42576
M73 P19 R0
G1 X122.386 Y94.561 E12.81416
;WIDTH:0.561339
G1 X122.445 Y94.561 E12.8167
;WIDTH:0.601217
G1 X122.505 Y94.561 E12.81949
;WIDTH:0.641095
G1 X122.565 Y94.561 E12.82247
G1 X122.585 Y94.481 E12.82657
;WIDTH:0.601217
G1 X122.605 Y94.401 E12.8304
;WIDTH:0.561339
G1 X122.625 Y94.321 E12.83395
;WIDTH:0.52146
G1 X122.625 Y90.179 E12.99876
;WIDTH:0.561339
G1 X122.605 Y90.099 E13.00231
;WIDTH:0.601217
G1 X122.585 Y90.019 E13.00614
;WIDTH:0.641095
G1 X122.565 Y89.939 E13.01024
G1 X122.505 Y89.939 E13.01322
;WIDTH:0.601217
G1 X122.445 Y89.939 E13.01601
;WIDTH:0.561339
G1 X122.386 Y89.939 E13.01855
;WIDTH:0.52146
G1 X112.625 Y89.939 E13.40695
G1 X112.625 Y89.461 E13.42597
M73 P20 R0
G1 X122.386 Y89.461 E13.81437
;WIDTH:0.561339
G1 X122.445 Y89.461 E13.81691
;WIDTH:0.601217
G1 X122.505 Y89.461 E13.8197
;WIDTH:0.641095
G1 X122.565 Y89.461 E13.82268
G1 X122.585 Y89.381 E13.82678
;WIDTH:0.601217
G1 X122.605 Y89.301 E13.83061
;WIDTH:0.561339
G1 X122.625 Y89.221 E13.83416
;WIDTH:0.52146
G1 X122.625 Y85.079 E13.99897
;WIDTH:0.561339
G1 X122.605 Y84.999 E14.00252
;WIDTH:0.601217
G1 X122.585 Y84.919 E14.00635
;WIDTH:0.641095
G1 X122.565 Y84.839 E14.01045
G1 X122.505 Y84.839 E14.01343
;WIDTH:0.601217
G1 X122.445 Y84.839 E14.01622
;WIDTH:0.561339
G1 X122.386 Y84.839 E14.01876
;WIDTH:0.52146
G1 X112.625 Y84.839 E14.40716
G1 X112.625 Y84.361 E14.42618
G1 X122.386 Y84.361 E14.81458
;WIDTH:0.561339
G1 X122.445 Y84.361 E14.81712
;WIDTH:0.601217
M73 P21 R0
G1 X122.505 Y84.361 E14.81991
;WIDTH:0.641095
G1 X122.565 Y84.361 E14.82289
G1 X122.585 Y84.281 E14.82699
;WIDTH:0.601217
G1 X122.605 Y84.201 E14.83082
;WIDTH:0.561339
G1 X122.625 Y84.121 E14.83437
;WIDTH:0.52146
G1 X122.625 Y79.979 E14.99918
;WIDTH:0.561339
G1 X122.605 Y79.899 E15.00273
;WIDTH:0.601217
G1 X122.585 Y79.819 E15.00656
;WIDTH:0.641095
G1 X122.565 Y79.739 E15.01066
G1 X122.505 Y79.739 E15.01364
;WIDTH:0.601217
G1 X122.445 Y79.739 E15.01643
;WIDTH:0.561339
G1 X122.386 Y79.739 E15.01897
;WIDTH:0.52146
G1 X112.625 Y79.739 E15.40737
G1 X112.625 Y79.261 E15.42639
G1 X122.386 Y79.261 E15.81479
;WIDTH:0.561339
G1 X122.445 Y79.261 E15.81733
;WIDTH:0.601217
M73 P22 R0
G1 X122.505 Y79.261 E15.82012
;WIDTH:0.641095
G1 X122.565 Y79.261 E15.8231
G1 X122.585 Y79.181 E15.8272
;WIDTH:0.601217
G1 X122.605 Y79.101 E15.83103
;WIDTH:0.561339
G1 X122.625 Y79.021 E15.83458
;WIDTH:0.52146
G1 X122.625 Y74.879 E15.99939
;WIDTH:0.561339
G1 X122.605 Y74.799 E16.00294
;WIDTH:0.601217
G1 X122.585 Y74.719 E16.00677
;WIDTH:0.641095
G1 X122.565 Y74.639 E16.01087
G1 X122.505 Y74.639 E16.01385
;WIDTH:0.601217
G1 X122.445 Y74.639 E16.01664
;WIDTH:0.561339
G1 X122.386 Y74.639 E16.01918
;WIDTH:0.52146
G1 X112.625 Y74.639 E16.40758
G1 X112.625 Y74.161 E16.4266
G1 X122.386 Y74.161 E16.815
;WIDTH:0.561339
G1 X122.445 Y74.161 E16.81754
;WIDTH:0.601217
G1 X122.505 Y74.161 E16.82033
;WIDTH:0.641095
G1 X122.565 Y74.161 E16.82331
G1 X122.585 Y74.081 E16.82741
;WIDTH:0.601217
G1 X122.605 Y74.001 E16.83124
;WIDTH:0.561339
G1 X122.625 Y73.921 E16.83479
;WIDTH:0.52146
G1 X122.625 Y69.779 E16.9996
;WIDTH:0.561339
G1 X122.605 Y69.699 E17.00315
;WIDTH:0.601217
G1 X122.585 Y69.619 E17.00698
;WIDTH:0.641095
G1 X122.565 Y69.539 E17.01108
G1 X122.505 Y69.539 E17.01406
;WIDTH:0.601217
G1 X122.445 Y69.539 E17.01685
;WIDTH:0.561339
M73 P23 R0
G1 X122.386 Y69.539 E17.01939
;WIDTH:0.52146
G1 X112.625 Y69.539 E17.40779
G1 X112.625 Y69.061 E17.42681
G1 X122.386 Y69.061 E17.81521
;WIDTH:0.561339
G1 X122.445 Y69.061 E17.81775
;WIDTH:0.601217
G1 X122.505 Y69.061 E17.82054
;WIDTH:0.641095
G1 X122.565 Y69.061 E17.82352
G1 X122.585 Y68.981 E17.82762
;WIDTH:0.601217
G1 X122.605 Y68.901 E17.83145
;WIDTH:0.561339
G1 X122.625 Y68.821 E17.835
;WIDTH:0.52146
G1 X122.625 Y64.679 E17.99981
;WIDTH:0.561339
G1 X122.605 Y64.599 E18.00336
;WIDTH:0.601217
G1 X122.585 Y64.519 E18.00719
;WIDTH:0.641095
G1 X122.565 Y64.439 E18.01129
G1 X122.505 Y64.439 E18.01427
;WIDTH:0.601217
G1 X122.445 Y64.439 E18.01706
;WIDTH:0.561339
G1 X122.386 Y64.439 E18.0196
;WIDTH:0.52146
G1 X112.625 Y64.439 E18.408
G1 X112.625 Y63.961 E18.42702
M73 P24 R0
G1 X122.386 Y63.961 E18.81542
;WIDTH:0.561339
G1 X122.445 Y63.961 E18.81796
;WIDTH:0.601217
G1 X122.505 Y63.961 E18.82075
;WIDTH:0.641095
G1 X122.565 Y63.961 E18.82373
G1 X122.585 Y63.881 E18.82783
;WIDTH:0.601217
G1 X122.605 Y63.801 E18.83166
;WIDTH:0.561339
G1 X122.625 Y63.721 E18.83521
;WIDTH:0.52146
G1 X122.625 Y59.579 E19.00002
;WIDTH:0.561339
G1 X122.605 Y59.499 E19.00357
;WIDTH:0.601217
G1 X122.585 Y59.419 E19.0074
;WIDTH:0.641095
G1 X122.565 Y59.339 E19.0115
G1 X122.505 Y59.339 E19.01448
;WIDTH:0.601217
G1 X122.445 Y59.339 E19.01727
;WIDTH:0.561339
G1 X122.386 Y59.339 E19.01981
;WIDTH:0.52146
G1 X112.625 Y59.339 E19.40821
G1 X112.625 Y58.861 E19.42723
G1 X122.386 Y58.861 E19.81563
;WIDTH:0.561339
G1 X122.445 Y58.861 E19.81817
;WIDTH:0.601217
M73 P25 R0
G1 X122.505 Y58.861 E19.82096
;WIDTH:0.641095
G1 X122.565 Y58.861 E19.82394
G1 X122.585 Y58.781 E19.82804
;WIDTH:0.601217
G1 X122.605 Y58.701 E19.83187
;WIDTH:0.561339
G1 X122.625 Y58.621 E19.83542
;WIDTH:0.52146
G1 X122.625 Y56.911 E19.90346
G1 X123.103 Y56.911 E19.92248
G1 X123.103 Y57.15 E19.93199
G1 X123.103 Y58.621 E19.99052
;WIDTH:0.561339
G1 X123.083 Y58.781 E19.99747
;WIDTH:0.601217
G1 X123.063 Y58.94 E20.00491
;WIDTH:0.641095
G1 X123.044 Y59.1 E20.01292
G1 X123.063 Y59.26 E20.02093
;WIDTH:0.601217
G1 X123.083 Y59.419 E20.02837
;WIDTH:0.561339
G1 X123.103 Y59.579 E20.03532
;WIDTH:0.52146
G1 X123.103 Y63.721 E20.20013
;WIDTH:0.561339
G1 X123.083 Y63.881 E20.20708
;WIDTH:0.601217
G1 X123.063 Y64.04 E20.21452
;WIDTH:0.641095
G1 X123.044 Y64.2 E20.22253
G1 X123.063 Y64.36 E20.23054
;WIDTH:0.601217
G1 X123.083 Y64.519 E20.23798
;WIDTH:0.561339
G1 X123.103 Y64.679 E20.24493
;WIDTH:0.52146
G1 X123.103 Y68.821 E20.40974
;WIDTH:0.561339
G1 X123.083 Y68.981 E20.41669
;WIDTH:0.601217
G1 X123.063 Y69.14 E20.42413
;WIDTH:0.641095
G1 X123.044 Y69.3 E20.43214
G1 X123.063 Y69.46 E20.44015
;WIDTH:0.601217
G1 X123.083 Y69.619 E20.44759
;WIDTH:0.561339
G1 X123.103 Y69.779 E20.45454
;WIDTH:0.52146
G1 X123.103 Y73.921 E20.61935
;WIDTH:0.561339
G1 X123.083 Y74.081 E20.6263
;WIDTH:0.601217
G1 X123.063 Y74.24 E20.63374
;WIDTH:0.641095
G1 X123.044 Y74.4 E20.64175
G1 X123.063 Y74.56 E20.64976
;WIDTH:0.601217
G1 X123.083 Y74.719 E20.6572
;WIDTH:0.561339
G1 X123.103 Y74.879 E20.66415
;WIDTH:0.52146
G1 X123.103 Y79.021 E20.82896
;WIDTH:0.561339
G1 X123.083 Y79.181 E20.83591
;WIDTH:0.601217
M73 P26 R0
G1 X123.063 Y79.34 E20.84335
;WIDTH:0.641095
G1 X123.044 Y79.5 E20.85136
G1 X123.063 Y79.66 E20.85937
;WIDTH:0.601217
