; generated by PrusaSlicer 2.6.0-alpha5+win64 on 2023-04-21 at 13:27:07 UTC


;
;
; 

; external perimeters extrusion width = 0.68mm
; perimeters extrusion width = 0.68mm
; infill extrusion width = 0.68mm
; solid infill extrusion width = 0.68mm
; top infill extrusion width = 0.60mm
; support material extrusion width = 0.50mm
; first layer extrusion width = 0.63mm

; external perimeters extrusion width = 0.68mm
; perimeters extrusion width = 0.68mm
; infill extrusion width = 0.68mm
; solid infill extrusion width = 0.68mm
; top infill extrusion width = 0.60mm
; support material extrusion width = 0.50mm
; first layer extrusion width = 0.63mm

M73 P0 R3
M107
M190 S55 ; set bed temperature and wait for it to be reached
G10 S223 P0 ; set temperature
G10 S223 P1 ; set temperature
;TYPE:Custom
;Set standby temperatures
;G10 R217 P0
G10 R223 P1
G10 R223 P0
G28 ; home all axes
G32 ; run bed.g -- probe bed and enable compensation
;workaround for toolchanger when using only one extruder
T0; select tool
G10 S223 P0 ; set temperature
M116 ; wait for temperature to be reached
G10 S223 P1 ; set temperature
M116 ; wait for temperature to be reached
G21 ; set units to millimeters
G90 ; use absolute coordinates
M82 ; use absolute distances for extrusion
G92 E0
;tool change macro
T0
G92 E0
; Filament gcode
M107
;LAYER_CHANGE
;Z:0.2
;HEIGHT:0.2
if (0==0)
	G10 R217 P1
	G10 R217 P0
G1 Z.2 F18000
G1 E-2 F2400
G92 E0
G1 X92.588 Y52.848 F18000
G1 E2 F2400
;TYPE:Skirt/Brim
;WIDTH:0.63
G1 F1500
G1 X94.376 Y51.123 E2.12128
G1 X96.616 Y50.052 E2.24248
G1 X98.486 Y49.745 E2.33499
G1 X121.95 Y48.795 E3.48134
G1 X123.464 Y48.789 E3.55525
G1 X125.916 Y49.186 E3.67651
G1 X128.116 Y50.338 E3.79774
G1 X129.841 Y52.126 E3.91902
G1 X130.912 Y54.366 E4.04022
G1 X131.225 Y56.55 E4.14792
M73 P1 R3
G1 X131.225 Y153.45 E8.87818
G1 X130.828 Y155.902 E8.99944
M73 P2 R3
G1 X129.676 Y158.102 E9.12067
G1 X127.889 Y159.827 E9.24192
G1 X125.648 Y160.898 E9.36317
G1 X123.464 Y161.211 E9.47087
M73 P3 R3
G1 X121.95 Y161.205 E9.54478
G1 X98.486 Y160.255 E10.69113
G1 X96.052 Y159.759 E10.81239
G1 X93.9 Y158.519 E10.93363
G1 X92.25 Y156.663 E11.05486
G1 X91.27 Y154.38 E11.17614
G1 X91.039 Y152.5 E11.2686
G1 X91.039 Y57.5 E15.90611
G1 X91.436 Y55.048 E16.02737
M73 P5 R3
G1 X92.56 Y52.901 E16.14567
G1 X93.094 Y53.193 F18000
G1 F1500
G1 X93.171 Y53.053 E16.15347
G1 X94.942 Y51.452 E16.27001
G1 X97.14 Y50.521 E16.38654
G1 X98.51 Y50.332 E16.45405
G1 X121.974 Y49.382 E17.6004
G1 X123.464 Y49.376 E17.67314
M73 P6 R3
G1 X125.818 Y49.773 E17.78968
G1 X127.911 Y50.921 E17.90621
G1 X129.512 Y52.692 E18.02275
G1 X130.444 Y54.89 E18.13929
G1 X130.638 Y56.55 E18.22088
G1 X130.638 Y153.45 E22.95114
G1 X130.241 Y155.804 E23.06768
M73 P8 R3
G1 X129.093 Y157.897 E23.18421
G1 X127.322 Y159.498 E23.30075
G1 X125.124 Y160.429 E23.41728
G1 X123.464 Y160.624 E23.49887
G1 X121.974 Y160.618 E23.57161
G1 X98.51 Y159.668 E24.71796
G1 X96.174 Y159.176 E24.8345
G1 X94.128 Y157.945 E24.95106
G1 X92.601 Y156.11 E25.0676
G1 X91.759 Y153.876 E25.18414
G1 X91.626 Y152.5 E25.25162
G1 X91.626 Y57.5 E29.88913
G1 X92.023 Y55.146 E30.00567
M73 P10 R3
G1 X93.065 Y53.246 E30.11145
G1 E28.11145 F2400
G92 E0
G1 X122.523 Y150.514 F18000
G1 E2 F2400
;TYPE:External perimeter
;WIDTH:0.71388
M73 P11 R3
G1 F750
G1 X122.549 Y150.418 E2.00555
;WIDTH:0.66767
G1 X122.575 Y150.321 E2.01077
;WIDTH:0.621459
G1 X122.575 Y146.379 E2.2004
;WIDTH:0.669671
G1 X122.551 Y146.282 E2.20561
;WIDTH:0.717883
G1 X122.527 Y146.186 E2.21116
;WIDTH:0.766094
G1 X122.502 Y146.089 E2.21718
G1 X122.43 Y146.089 E2.22151
;WIDTH:0.717883
G1 X122.358 Y146.089 E2.22555
;WIDTH:0.669672
G1 X122.286 Y146.089 E2.2293
;WIDTH:0.62146
G1 X113.233 Y146.089 E2.6648
G1 X112.671 Y146.03 E2.69198
G1 X112.671 Y145.57 E2.71411
G1 X113.233 Y145.511 E2.74129
G1 X122.286 Y145.511 E3.17679
;WIDTH:0.669672
G1 X122.358 Y145.511 E3.18054
;WIDTH:0.717883
G1 X122.43 Y145.511 E3.18458
;WIDTH:0.766094
G1 X122.502 Y145.511 E3.18891
G1 X122.527 Y145.414 E3.19493
;WIDTH:0.717883
G1 X122.551 Y145.318 E3.20048
;WIDTH:0.669671
G1 X122.575 Y145.221 E3.20569
;WIDTH:0.621459
G1 X122.575 Y141.279 E3.39532
;WIDTH:0.669671
G1 X122.551 Y141.182 E3.40053
;WIDTH:0.717883
M73 P12 R3
G1 X122.527 Y141.086 E3.40608
;WIDTH:0.766094
G1 X122.502 Y140.989 E3.4121
G1 X122.43 Y140.989 E3.41643
;WIDTH:0.717883
G1 X122.358 Y140.989 E3.42047
;WIDTH:0.669672
G1 X122.286 Y140.989 E3.42422
;WIDTH:0.62146
G1 X113.233 Y140.989 E3.85972
G1 X112.671 Y140.93 E3.8869
G1 X112.671 Y140.47 E3.90903
G1 X113.233 Y140.411 E3.93621
G1 X122.286 Y140.411 E4.37171
;WIDTH:0.669672
G1 X122.358 Y140.411 E4.37546
;WIDTH:0.717883
G1 X122.43 Y140.411 E4.3795
;WIDTH:0.766094
G1 X122.502 Y140.411 E4.38383
G1 X122.527 Y140.314 E4.38985
;WIDTH:0.717883
G1 X122.551 Y140.218 E4.3954
;WIDTH:0.669671
G1 X122.575 Y140.121 E4.40061
;WIDTH:0.621459
G1 X122.575 Y136.179 E4.59024
;WIDTH:0.669671
G1 X122.551 Y136.082 E4.59545
;WIDTH:0.717883
M73 P13 R3
G1 X122.527 Y135.986 E4.601
;WIDTH:0.766094
G1 X122.502 Y135.889 E4.60702
G1 X122.43 Y135.889 E4.61135
;WIDTH:0.717883
G1 X122.358 Y135.889 E4.61539
;WIDTH:0.669672
G1 X122.286 Y135.889 E4.61914
;WIDTH:0.62146
G1 X113.233 Y135.889 E5.05464
G1 X112.671 Y135.83 E5.08182
G1 X112.671 Y135.37 E5.10395
G1 X113.233 Y135.311 E5.13113
G1 X122.286 Y135.311 E5.56663
;WIDTH:0.669672
G1 X122.358 Y135.311 E5.57038
;WIDTH:0.717883
G1 X122.43 Y135.311 E5.57442
;WIDTH:0.766094
G1 X122.502 Y135.311 E5.57875
G1 X122.527 Y135.214 E5.58477
;WIDTH:0.717883
G1 X122.551 Y135.118 E5.59032
;WIDTH:0.669671
G1 X122.575 Y135.021 E5.59553
;WIDTH:0.621459
G1 X122.575 Y131.079 E5.78516
;WIDTH:0.667081
G1 X122.549 Y130.982 E5.79037
;WIDTH:0.712703
G1 X122.523 Y130.886 E5.79591
;WIDTH:0.758325
G1 X122.497 Y130.79 E5.80183
G1 X122.426 Y130.79 E5.80605
;WIDTH:0.712704
G1 X122.356 Y130.79 E5.80995
;WIDTH:0.667082
G1 X122.286 Y130.789 E5.81358
;WIDTH:0.62146
G1 X113.233 Y130.789 E6.24908
G1 X112.671 Y130.73 E6.27626
M73 P14 R3
G1 X112.671 Y130.27 E6.29839
G1 X113.233 Y130.211 E6.32557
G1 X122.286 Y130.211 E6.76107
;WIDTH:0.667321
G1 X122.356 Y130.211 E6.7647
;WIDTH:0.713181
G1 X122.426 Y130.211 E6.7686
;WIDTH:0.759041
G1 X122.497 Y130.211 E6.77283
G1 X122.523 Y130.114 E6.77881
;WIDTH:0.713181
G1 X122.549 Y130.018 E6.78435
;WIDTH:0.667321
G1 X122.575 Y129.921 E6.78956
;WIDTH:0.62146
G1 X122.575 Y125.988 E6.97876
;WIDTH:0.667986
G1 X122.549 Y125.888 E6.98413
;WIDTH:0.714512
G1 X122.524 Y125.789 E6.98983
;WIDTH:0.761038
G1 X122.498 Y125.689 E6.996
G1 X122.427 Y125.689 E7.00024
;WIDTH:0.714512
G1 X122.356 Y125.689 E7.0042
;WIDTH:0.667986
G1 X122.286 Y125.689 E7.00784
;WIDTH:0.62146
G1 X113.233 Y125.689 E7.44334
G1 X112.671 Y125.63 E7.47052
M73 P15 R3
G1 X112.671 Y125.17 E7.49265
G1 X113.233 Y125.111 E7.51983
G1 X122.286 Y125.111 E7.95533
;WIDTH:0.667986
G1 X122.356 Y125.111 E7.95897
;WIDTH:0.714512
G1 X122.427 Y125.111 E7.96293
;WIDTH:0.761038
G1 X122.498 Y125.111 E7.96717
G1 X122.524 Y125.014 E7.97317
;WIDTH:0.714512
G1 X122.549 Y124.918 E7.97871
;WIDTH:0.667985
G1 X122.575 Y124.821 E7.98393
;WIDTH:0.621458
G1 X122.575 Y120.879 E8.17356
;WIDTH:0.669643
G1 X122.551 Y120.782 E8.17877
;WIDTH:0.717856
G1 X122.527 Y120.686 E8.18432
;WIDTH:0.766069
G1 X122.502 Y120.589 E8.19034
G1 X122.43 Y120.589 E8.19467
;WIDTH:0.717866
G1 X122.358 Y120.589 E8.19871
;WIDTH:0.669663
G1 X122.286 Y120.589 E8.20246
;WIDTH:0.62146
G1 X113.233 Y120.589 E8.63796
G1 X112.671 Y120.53 E8.66514
M73 P16 R3
G1 X112.671 Y120.07 E8.68727
G1 X113.233 Y120.011 E8.71445
G1 X122.286 Y120.011 E9.14995
;WIDTH:0.669663
G1 X122.358 Y120.011 E9.1537
;WIDTH:0.717866
G1 X122.43 Y120.011 E9.15774
;WIDTH:0.766069
G1 X122.502 Y120.011 E9.16207
G1 X122.527 Y119.914 E9.16809
;WIDTH:0.717854
G1 X122.551 Y119.818 E9.17364
;WIDTH:0.669638
G1 X122.575 Y119.721 E9.17885
;WIDTH:0.621422
G1 X122.575 Y115.779 E9.36847
;WIDTH:0.669609
G1 X122.551 Y115.682 E9.37368
;WIDTH:0.717825
G1 X122.527 Y115.586 E9.37923
;WIDTH:0.766041
G1 X122.502 Y115.489 E9.38525
G1 X122.43 Y115.489 E9.38958
;WIDTH:0.717848
G1 X122.358 Y115.489 E9.39362
;WIDTH:0.669654
G1 X122.286 Y115.489 E9.39737
;WIDTH:0.62146
G1 X113.233 Y115.489 E9.83287
G1 X112.671 Y115.43 E9.86005
G1 X112.671 Y114.97 E9.88218
M73 P17 R3
G1 X113.233 Y114.911 E9.90936
G1 X122.286 Y114.911 E10.34486
;WIDTH:0.669654
G1 X122.358 Y114.911 E10.34861
;WIDTH:0.717848
G1 X122.43 Y114.911 E10.35265
;WIDTH:0.766041
G1 X122.502 Y114.911 E10.35698
G1 X122.527 Y114.814 E10.363
;WIDTH:0.717823
G1 X122.551 Y114.718 E10.36855
;WIDTH:0.669604
G1 X122.575 Y114.621 E10.37376
;WIDTH:0.621385
G1 X122.575 Y110.679 E10.56337
;WIDTH:0.66819
G1 X122.549 Y110.582 E10.56859
;WIDTH:0.715024
G1 X122.524 Y110.486 E10.57413
;WIDTH:0.761857
G1 X122.499 Y110.389 E10.58012
G1 X122.428 Y110.389 E10.58436
;WIDTH:0.715058
G1 X122.357 Y110.389 E10.58833
;WIDTH:0.668259
G1 X122.286 Y110.389 E10.59202
;WIDTH:0.62146
G1 X113.233 Y110.389 E11.02752
G1 X112.671 Y110.33 E11.0547
M73 P17 R2
G1 X112.671 Y109.87 E11.07683
G1 X113.233 Y109.811 E11.10401
G1 X122.286 Y109.811 E11.53951
;WIDTH:0.668259
G1 X122.357 Y109.811 E11.5432
;WIDTH:0.715058
M73 P18 R2
G1 X122.428 Y109.811 E11.54717
;WIDTH:0.761857
G1 X122.499 Y109.811 E11.55141
G1 X122.523 Y109.714 E11.55738
;WIDTH:0.712977
G1 X122.547 Y109.618 E11.56289
;WIDTH:0.664097
G1 X122.572 Y109.521 E11.56806
;WIDTH:0.621335
G1 X122.575 Y105.579 E11.75765
;WIDTH:0.662062
G1 X122.551 Y105.487 E11.76254
;WIDTH:0.702789
G1 X122.527 Y105.396 E11.7677
;WIDTH:0.743516
G1 X122.503 Y105.304 E11.77324
G1 X122.431 Y105.299 E11.77744
;WIDTH:0.702831
G1 X122.358 Y105.294 E11.78146
;WIDTH:0.662146
G1 X122.286 Y105.289 E11.78518
;WIDTH:0.62146
G1 X113.233 Y105.289 E12.22068
G1 X112.671 Y105.23 E12.24786
G1 X112.671 Y104.77 E12.26999
G1 X113.233 Y104.711 E12.29717
G1 X122.286 Y104.711 E12.73267
;WIDTH:0.667016
G1 X122.356 Y104.711 E12.7363
;WIDTH:0.712572
M73 P19 R2
G1 X122.426 Y104.711 E12.7402
;WIDTH:0.758127
G1 X122.496 Y104.711 E12.74436
G1 X122.522 Y104.614 E12.75033
;WIDTH:0.71253
G1 X122.548 Y104.518 E12.75587
;WIDTH:0.666933
G1 X122.575 Y104.421 E12.76109
;WIDTH:0.621335
G1 X122.572 Y100.479 E12.95068
;WIDTH:0.664097
G1 X122.547 Y100.382 E12.95585
;WIDTH:0.712977
G1 X122.523 Y100.286 E12.96136
;WIDTH:0.761857
G1 X122.499 Y100.189 E12.96733
G1 X122.428 Y100.189 E12.97157
;WIDTH:0.715058
G1 X122.357 Y100.189 E12.97554
;WIDTH:0.668259
G1 X122.286 Y100.189 E12.97923
;WIDTH:0.62146
G1 X113.233 Y100.189 E13.41473
G1 X112.671 Y100.13 E13.44191
G1 X112.671 Y99.67 E13.46404
G1 X113.233 Y99.611 E13.49122
G1 X122.286 Y99.611 E13.92672
;WIDTH:0.668259
G1 X122.357 Y99.611 E13.93041
;WIDTH:0.715058
M73 P20 R2
G1 X122.428 Y99.611 E13.93438
;WIDTH:0.761857
G1 X122.499 Y99.611 E13.93862
G1 X122.524 Y99.514 E13.94461
;WIDTH:0.715024
G1 X122.549 Y99.418 E13.95015
;WIDTH:0.66819
G1 X122.575 Y99.321 E13.95537
;WIDTH:0.621385
G1 X122.575 Y95.379 E14.14498
;WIDTH:0.669604
G1 X122.551 Y95.282 E14.15019
;WIDTH:0.717823
G1 X122.527 Y95.186 E14.15574
;WIDTH:0.766041
G1 X122.502 Y95.089 E14.16176
G1 X122.43 Y95.089 E14.16609
;WIDTH:0.717848
G1 X122.358 Y95.089 E14.17013
;WIDTH:0.669654
G1 X122.286 Y95.089 E14.17388
;WIDTH:0.62146
G1 X113.233 Y95.089 E14.60938
G1 X112.671 Y95.03 E14.63656
G1 X112.671 Y94.57 E14.65869
G1 X113.233 Y94.511 E14.68587
G1 X122.286 Y94.511 E15.12137
;WIDTH:0.669654
G1 X122.358 Y94.511 E15.12512
;WIDTH:0.717848
G1 X122.43 Y94.511 E15.12916
;WIDTH:0.766041
G1 X122.502 Y94.511 E15.13349
G1 X122.527 Y94.414 E15.13951
;WIDTH:0.717825
M73 P21 R2
G1 X122.551 Y94.318 E15.14506
;WIDTH:0.669609
G1 X122.575 Y94.221 E15.15027
;WIDTH:0.621422
G1 X122.575 Y90.279 E15.33989
;WIDTH:0.669638
G1 X122.551 Y90.182 E15.3451
;WIDTH:0.717854
G1 X122.527 Y90.086 E15.35065
;WIDTH:0.766069
G1 X122.502 Y89.989 E15.35667
G1 X122.43 Y89.989 E15.361
;WIDTH:0.717866
G1 X122.358 Y89.989 E15.36504
;WIDTH:0.669663
G1 X122.286 Y89.989 E15.36879
;WIDTH:0.62146
G1 X113.233 Y89.989 E15.80429
G1 X112.671 Y89.93 E15.83147
G1 X112.671 Y89.47 E15.8536
G1 X113.233 Y89.411 E15.88078
G1 X122.286 Y89.411 E16.31628
;WIDTH:0.669663
G1 X122.358 Y89.411 E16.32003
;WIDTH:0.717866
G1 X122.43 Y89.411 E16.32407
;WIDTH:0.766069
G1 X122.502 Y89.411 E16.3284
G1 X122.527 Y89.314 E16.33442
;WIDTH:0.717856
G1 X122.551 Y89.218 E16.33997
;WIDTH:0.669643
G1 X122.575 Y89.121 E16.34518
;WIDTH:0.621458
G1 X122.575 Y85.179 E16.53481
;WIDTH:0.667985
G1 X122.549 Y85.082 E16.54003
;WIDTH:0.714512
M73 P22 R2
G1 X122.524 Y84.986 E16.54557
;WIDTH:0.761038
G1 X122.498 Y84.889 E16.55157
G1 X122.427 Y84.889 E16.55581
;WIDTH:0.714512
G1 X122.356 Y84.889 E16.55977
;WIDTH:0.667986
G1 X122.286 Y84.889 E16.56341
;WIDTH:0.62146
G1 X113.233 Y84.889 E16.99891
G1 X112.671 Y84.83 E17.02609
G1 X112.671 Y84.37 E17.04822
G1 X113.233 Y84.311 E17.0754
G1 X122.286 Y84.311 E17.5109
;WIDTH:0.667986
G1 X122.356 Y84.311 E17.51454
;WIDTH:0.714512
G1 X122.427 Y84.311 E17.5185
;WIDTH:0.761038
G1 X122.498 Y84.311 E17.52274
G1 X122.524 Y84.211 E17.52891
;WIDTH:0.714512
G1 X122.549 Y84.112 E17.53461
;WIDTH:0.667986
G1 X122.575 Y84.012 E17.53998
;WIDTH:0.62146
G1 X122.575 Y80.079 E17.72918
;WIDTH:0.658748
G1 X122.553 Y79.991 E17.73382
;WIDTH:0.696035
G1 X122.531 Y79.903 E17.73875
;WIDTH:0.733322
G1 X122.509 Y79.816 E17.7439
G1 X122.435 Y79.807 E17.74818
;WIDTH:0.696035
G1 X122.36 Y79.798 E17.75228
;WIDTH:0.658748
G1 X122.286 Y79.789 E17.7561
;WIDTH:0.62146
G1 X113.233 Y79.789 E18.1916
G1 X112.671 Y79.73 E18.21878
M73 P23 R2
G1 X112.671 Y79.27 E18.24091
G1 X113.233 Y79.211 E18.26809
G1 X122.286 Y79.211 E18.70359
;WIDTH:0.667321
G1 X122.356 Y79.211 E18.70722
;WIDTH:0.713181
G1 X122.426 Y79.211 E18.71112
;WIDTH:0.759041
G1 X122.497 Y79.211 E18.71535
G1 X122.523 Y79.114 E18.72133
;WIDTH:0.713181
G1 X122.549 Y79.018 E18.72687
;WIDTH:0.66732
G1 X122.575 Y78.921 E18.73208
;WIDTH:0.621459
G1 X122.575 Y74.979 E18.92171
;WIDTH:0.669671
G1 X122.551 Y74.882 E18.92692
;WIDTH:0.717883
G1 X122.527 Y74.786 E18.93247
;WIDTH:0.766094
G1 X122.502 Y74.689 E18.93849
G1 X122.43 Y74.689 E18.94282
;WIDTH:0.717883
G1 X122.358 Y74.689 E18.94686
;WIDTH:0.669672
G1 X122.286 Y74.689 E18.95061
;WIDTH:0.62146
G1 X113.233 Y74.689 E19.38611
G1 X112.671 Y74.63 E19.41329
M73 P24 R2
G1 X112.671 Y74.17 E19.43542
G1 X113.233 Y74.111 E19.4626
G1 X122.286 Y74.111 E19.8981
;WIDTH:0.669672
G1 X122.358 Y74.111 E19.90185
;WIDTH:0.717883
G1 X122.43 Y74.111 E19.90589
;WIDTH:0.766094
G1 X122.502 Y74.111 E19.91022
G1 X122.527 Y74.014 E19.91624
;WIDTH:0.717883
G1 X122.551 Y73.918 E19.92179
;WIDTH:0.669671
G1 X122.575 Y73.821 E19.927
;WIDTH:0.621459
G1 X122.575 Y69.879 E20.11663
;WIDTH:0.669671
G1 X122.551 Y69.782 E20.12184
;WIDTH:0.717883
G1 X122.527 Y69.686 E20.12739
;WIDTH:0.766094
G1 X122.502 Y69.589 E20.13341
G1 X122.43 Y69.589 E20.13774
;WIDTH:0.717883
G1 X122.358 Y69.589 E20.14178
;WIDTH:0.669672
G1 X122.286 Y69.589 E20.14553
;WIDTH:0.62146
G1 X113.233 Y69.589 E20.58103
G1 X112.671 Y69.53 E20.60821
M73 P25 R2
G1 X112.671 Y69.07 E20.63034
G1 X113.233 Y69.011 E20.65752
G1 X122.286 Y69.011 E21.09302
;WIDTH:0.669672
G1 X122.358 Y69.011 E21.09677
;WIDTH:0.717883
G1 X122.43 Y69.011 E21.10081
;WIDTH:0.766094
G1 X122.502 Y69.011 E21.10514
G1 X122.527 Y68.914 E21.11116
;WIDTH:0.717883
G1 X122.551 Y68.818 E21.11671
;WIDTH:0.669671
G1 X122.575 Y68.721 E21.12192
;WIDTH:0.621459
G1 X122.575 Y64.779 E21.31155
;WIDTH:0.669671
G1 X122.551 Y64.682 E21.31676
;WIDTH:0.717883
G1 X122.527 Y64.586 E21.32231
;WIDTH:0.766094
G1 X122.502 Y64.489 E21.32833
G1 X122.43 Y64.489 E21.33266
;WIDTH:0.717883
G1 X122.358 Y64.489 E21.3367
;WIDTH:0.669672
G1 X122.286 Y64.489 E21.34045
;WIDTH:0.62146
G1 X113.233 Y64.489 E21.77595
G1 X112.671 Y64.43 E21.80313
M73 P26 R2
G1 X112.671 Y63.97 E21.82526
G1 X113.233 Y63.911 E21.85244
G1 X122.286 Y63.911 E22.28794
;WIDTH:0.669672
G1 X122.358 Y63.911 E22.29169
;WIDTH:0.717883
G1 X122.43 Y63.911 E22.29573
;WIDTH:0.766094
G1 X122.502 Y63.911 E22.30006
G1 X122.527 Y63.814 E22.30608
;WIDTH:0.717883
G1 X122.551 Y63.718 E22.31163
;WIDTH:0.669671
G1 X122.575 Y63.621 E22.31684
;WIDTH:0.621459
G1 X122.575 Y59.679 E22.50647
;WIDTH:0.66767
G1 X122.549 Y59.582 E22.51169
