; G-Code generated by Simplify3D(R) Version 4.1.2
; Jul 27, 2022 at 10:34:33 PM
; Settings Summary
;   processName,Process1
;   applyToModels,Wall-E-Stencil
;   profileName,HSBot
;   profileVersion,2019-11-09 11:59:44
;   baseProfile,Default
;   printMaterial,PETG - Eryone
;   printQuality,Medium
;   printExtruders,
;   extruderName,Extruder - v6,Extruder - lgx ace
;   extruderToolheadNumber,0,1
;   extruderDiameter,0.4,0.6
;   extruderAutoWidth,1,1
;   extruderWidth,0.48,0.72
;   extrusionMultiplier,1.03,1.03
;   extruderUseRetract,0,1
;   extruderRetractionDistance,4,1
;   extruderExtraRestartDistance,0,0
;   extruderRetractionZLift,0,0
;   extruderRetractionSpeed,3600,1200
;   extruderUseCoasting,0,0
;   extruderCoastingDistance,0.2,0.2
;   extruderUseWipe,0,1
;   extruderWipeDistance,1,1
;   primaryExtruder,1
;   layerHeight,0.2
;   topSolidLayers,3
;   bottomSolidLayers,5
;   perimeterOutlines,1
;   printPerimetersInsideOut,1
;   startPointOption,2
;   startPointOriginX,0
;   startPointOriginY,0
;   sequentialIslands,0
;   spiralVaseMode,0
;   firstLayerHeightPercentage,100
;   firstLayerWidthPercentage,100
;   firstLayerUnderspeed,0.25
;   useRaft,0
;   raftExtruder,0
;   raftTopLayers,3
;   raftBaseLayers,2
;   raftOffset,3
;   raftSeparationDistance,0.18
;   raftTopInfill,100
;   aboveRaftSpeedMultiplier,0.3
;   useSkirt,1
;   skirtExtruder,1
;   skirtLayers,1
;   skirtOutlines,10
;   skirtOffset,10
;   usePrimePillar,0
;   primePillarExtruder,999
;   primePillarWidth,12
;   primePillarLocation,7
;   primePillarSpeedMultiplier,1
;   useOozeShield,0
;   oozeShieldExtruder,999
;   oozeShieldOffset,2
;   oozeShieldOutlines,1
;   oozeShieldSidewallShape,1
;   oozeShieldSidewallAngle,30
;   oozeShieldSpeedMultiplier,1
;   infillExtruder,1
;   internalInfillPattern,Rectilinear
;   externalInfillPattern,Rectilinear
;   infillPercentage,15
;   outlineOverlapPercentage,20
;   infillExtrusionWidthPercentage,100
;   minInfillLength,3
;   infillLayerInterval,1
;   internalInfillAngles,45,-45
;   overlapInternalInfillAngles,0
;   externalInfillAngles,45,-45
;   generateSupport,0
;   supportExtruder,1
;   supportInfillPercentage,30
;   supportExtraInflation,0
;   supportBaseLayers,1
;   denseSupportExtruder,0
;   denseSupportLayers,0
;   denseSupportInfillPercentage,70
;   supportLayerInterval,1
;   supportHorizontalPartOffset,0.3
;   supportUpperSeparationLayers,1
;   supportLowerSeparationLayers,1
;   supportType,0
;   supportGridSpacing,2
;   maxOverhangAngle,45
;   supportAngles,0
;   temperatureName,v6,Bed,lgx-ace
;   temperatureNumber,0,0,1
;   temperatureSetpointCount,1,1,1
;   temperatureSetpointLayers,1,1,1
;   temperatureSetpointTemperatures,0,85,220
;   temperatureStabilizeAtStartup,1,1,1
;   temperatureHeatedBed,0,1,0
;   fanLayers,1,2,3
;   fanSpeeds,0,15,15
;   blipFanToFullPower,0
;   adjustSpeedForCooling,0
;   minSpeedLayerTime,15
;   minCoolingSpeedSlowdown,50
;   increaseFanForCooling,0
;   minFanLayerTime,45
;   maxCoolingFanSpeed,70
;   increaseFanForBridging,0
;   bridgingFanSpeed,80
;   use5D,1
;   relativeEdistances,0
;   allowEaxisZeroing,1
;   independentExtruderAxes,0
;   includeM10123,0
;   stickySupport,1
;   applyToolheadOffsets,0
;   gcodeXoffset,0
;   gcodeYoffset,0
;   gcodeZoffset,0
;   overrideMachineDefinition,1
;   machineTypeOverride,0
;   strokeXoverride,220
;   strokeYoverride,220
;   strokeZoverride,175
;   originOffsetXoverride,0
;   originOffsetYoverride,0
;   originOffsetZoverride,0
;   homeXdirOverride,-1
;   homeYdirOverride,-1
;   homeZdirOverride,-1
;   flipXoverride,1
;   flipYoverride,-1
;   flipZoverride,1
;   toolheadOffsets,0,0|0,0|0,0|0,0|0,0|0,0
;   overrideFirmwareConfiguration,0
;   firmwareTypeOverride,RepRap (Marlin/Repetier/Sprinter)
;   GPXconfigOverride,r2
;   baudRateOverride,115200
;   overridePrinterModels,0
;   printerModelsOverride
;   startingGcode,G28 ; home all axes,G32 ; run bed.g -- probe bed and enable compensation
;   layerChangeGcode,
;   retractionGcode,
;   toolChangeGcode,
;   endingGcode,M0 ; call stop.g
;   exportFileFormat,gcode
;   celebration,0
;   celebrationSong,Random Song
;   postProcessing,
;   defaultSpeed,4500
;   outlineUnderspeed,0.8
;   solidInfillUnderspeed,0.75
;   supportUnderspeed,0.8
;   rapidXYspeed,18000
;   rapidZspeed,1200
;   minBridgingArea,60
;   bridgingExtraInflation,0
;   bridgingExtrusionMultiplier,0.96
;   bridgingSpeedMultiplier,1
;   useFixedBridgingAngle,0
;   fixedBridgingAngle,0
;   applyBridgingToPerimeters,0
;   filamentDiameters,1.75|1.75|1.75|1.75|1.75|1.75
;   filamentPricesPerKg,25|23|46|46|46|46
;   filamentDensities,1.29|1.25|1.25|1.25|1.25|1.25
;   useMinPrintHeight,0
;   minPrintHeight,0.3
;   useMaxPrintHeight,0
;   maxPrintHeight,115
;   useDiaphragm,0
;   diaphragmLayerInterval,20
;   robustSlicing,1
;   mergeAllIntoSolid,0
;   onlyRetractWhenCrossingOutline,1
;   retractBetweenLayers,0
;   useRetractionMinTravel,1
;   retractionMinTravel,5
;   retractWhileWiping,1
;   onlyWipeOutlines,1
;   avoidCrossingOutline,1
;   maxMovementDetourFactor,2
;   toolChangeRetractionDistance,0
;   toolChangeExtraRestartDistance,0
;   toolChangeRetractionSpeed,600
;   externalThinWallType,1
;   internalThinWallType,1
;   thinWallAllowedOverlapPercentage,10
;   singleExtrusionMinLength,0.1
;   singleExtrusionMinPrintingWidthPercentage,50
;   singleExtrusionMaxPrintingWidthPercentage,200
;   singleExtrusionEndpointExtension,0.2
;   horizontalSizeCompensation,0
G90
M82
M106 S0
M140 S85
M190 S85
G10 S0 R0 P0
G10 S220 R220 P1
M116 P1
G28 ; home all axes
G32 ; run bed.g -- probe bed and enable compensation
; process Process1
; layer 1, Z = 0.200
T1
G92 E0.0000
G1 E-1.0000 F1200
; feature skirt
; tool H0.200 W0.720
G1 Z0.200 F1200
G1 X12.513 Y16.240 F18000
G1 E0.0000 F1200
G92 E0.0000
G1 X22.087 Y17.785 E0.5981 F1125
G1 X22.423 Y17.846 E0.6191
G1 X27.041 Y18.784 E0.9096
G1 X27.405 Y18.866 E0.9327
G1 X31.997 Y20.014 E1.2246
G1 X32.395 Y20.123 E1.2500
G1 X36.947 Y21.500 E1.5433
G1 X37.356 Y21.635 E1.5698
G1 X41.836 Y23.245 E1.8634
G1 X42.220 Y23.394 E1.8888
G1 X46.601 Y25.214 E2.1813
G1 X46.938 Y25.363 E2.2041
G1 X51.223 Y27.368 E2.4957
G1 X51.526 Y27.517 E2.5166
G1 X59.413 Y31.600 E3.0642
G1 X64.222 Y38.747 E3.5955
G1 X64.293 Y39.514 E3.6430
G1 X64.732 Y37.884 E3.7471
G1 X64.986 Y37.097 E3.7981
G1 X65.810 Y34.921 E3.9416
G1 X66.124 Y34.193 E3.9905
G1 X67.151 Y32.098 E4.1343
G1 X67.513 Y31.436 E4.1809
G1 X68.729 Y29.431 E4.3255
G1 X69.123 Y28.840 E4.3692
G1 X70.715 Y26.655 E4.5360
G1 X70.909 Y26.400 E4.5557
G1 X72.035 Y24.970 E4.6680
G1 X72.432 Y24.504 E4.7057
G1 X74.337 Y22.418 E4.8799
G1 X74.685 Y22.059 E4.9107
G1 X76.838 Y19.967 E5.0958
G1 X77.092 Y19.730 E5.1173
G1 X79.477 Y17.596 E5.3146
G1 X79.699 Y17.404 E5.3327
G1 X87.270 Y11.093 E5.9405
G1 X88.398 Y10.106 E6.0329
G1 X90.556 Y8.011 E6.2184
G1 X91.956 Y6.913 E6.3281
G1 X94.727 Y5.177 E6.5298
G1 X98.029 Y3.965 E6.7467
G1 X101.035 Y3.531 E6.9339
G1 X102.619 Y3.453 E7.0317
G1 X103.689 Y3.501 E7.0978
G1 X105.107 Y2.529 E7.2038
G1 X107.615 Y1.258 E7.3771
G1 X109.921 Y0.481 E7.5272
G1 X112.981 Y-0.078 E7.7190
G1 X113.943 Y-0.197 E7.7788
G1 X115.544 Y-0.302 E7.8777
G1 X115.893 Y-0.317 E7.8992
G1 X119.441 Y-0.403 E8.1181
G1 X119.603 Y-0.405 E8.1281
G1 X124.324 Y-0.428 E8.4192
G1 X124.502 Y-0.427 E8.4302
G1 X130.877 Y-0.324 E8.8234
G1 X131.146 Y-0.315 E8.8400
G1 X136.906 Y-0.038 E9.1955
G1 X137.290 Y-0.010 E9.2193
G1 X142.897 Y0.518 E9.5666
G1 X143.306 Y0.567 E9.5920
G1 X146.402 Y1.012 E9.7848
G1 X146.803 Y1.080 E9.8099
G1 X149.586 Y1.619 E9.9847
G1 X150.070 Y1.728 E10.0153
G1 X152.723 Y2.406 E10.1842
G1 X153.332 Y2.586 E10.2233
G1 X155.834 Y3.431 E10.3862
G1 X156.552 Y3.711 E10.4337
G1 X158.879 Y4.742 E10.5907
G1 X159.689 Y5.155 E10.6467
G1 X161.817 Y6.388 E10.7984
G1 X162.660 Y6.946 E10.8607
G1 X164.538 Y8.359 E11.0057
G1 X165.321 Y9.027 E11.0691
G1 X166.921 Y10.570 E11.2062
G1 X167.598 Y11.306 E11.2678
G1 X168.911 Y12.914 E11.3958
G1 X169.434 Y13.627 E11.4504
G1 X170.494 Y15.245 E11.5697
G1 X170.884 Y15.906 E11.6170
G1 X171.763 Y17.560 E11.7325
G1 X172.074 Y18.209 E11.7769
G1 X172.822 Y19.963 E11.8945
G1 X173.064 Y20.602 E11.9366
G1 X173.692 Y22.483 E12.0589
G1 X173.870 Y23.092 E12.0980
G1 X174.381 Y25.123 E12.2272
G1 X174.512 Y25.739 E12.2660
G1 X174.894 Y27.940 E12.4037
G1 X174.980 Y28.577 E12.4434
G1 X175.206 Y30.943 E12.5899
G1 X175.244 Y31.633 E12.6326
G1 X175.278 Y34.160 E12.7884
G1 X175.252 Y34.936 E12.8363
G1 X175.042 Y37.600 E13.0011
G1 X174.926 Y38.478 E13.0556
G1 X174.413 Y41.234 E13.2285
G1 X174.171 Y42.209 E13.2905
G1 X173.301 Y44.990 E13.4701
G1 X172.898 Y46.032 E13.5391
G1 X171.635 Y48.744 E13.7235
G1 X171.052 Y49.793 E13.7975
G1 X169.409 Y52.311 E13.9830
G1 X168.688 Y53.262 E14.0565
G1 X166.745 Y55.478 E14.2382
G1 X165.954 Y56.268 E14.3072
G1 X163.828 Y58.125 E14.4812
G1 X163.048 Y58.730 E14.5421
G1 X162.657 Y58.998 E14.5713
G1 X181.834 Y61.721 E15.7657
G1 X183.537 Y62.147 E15.8740
G1 X190.139 Y64.552 E16.3072
G1 X196.210 Y73.073 E16.9524
G1 X196.788 Y107.617 E19.0828
G1 X197.731 Y107.925 E19.1440
G1 X198.496 Y108.216 E19.1945
G1 X200.561 Y109.121 E19.3335
G1 X201.475 Y109.590 E19.3969
G1 X203.485 Y110.781 E19.5409
G1 X204.389 Y111.399 E19.6084
G1 X205.979 Y112.645 E19.7330
G1 X206.674 Y113.254 E19.7900
G1 X208.104 Y114.654 E19.9134
G1 X208.849 Y115.487 E19.9823
G1 X210.703 Y117.857 E20.1679
G1 X211.320 Y118.762 E20.2354
G1 X218.902 Y131.599 E21.1548
G1 X219.001 Y131.769 E21.1669
G1 X222.051 Y137.220 E21.5521
G1 X222.240 Y137.579 E21.5771
G1 X225.141 Y143.405 E21.9784
G1 X225.325 Y143.800 E22.0053
G1 X227.140 Y147.974 E22.2859
G1 X227.279 Y148.313 E22.3085
G1 X229.474 Y154.030 E22.6862
G1 X230.026 Y157.580 E22.9077
G1 X229.673 Y163.628 E23.2813
G1 X229.553 Y169.860 E23.6657
G1 X229.547 Y170.046 E23.6771
G1 X229.288 Y176.321 E24.0644
G1 X229.171 Y177.415 E24.1322
G1 X228.692 Y180.173 E24.3049
G1 X228.472 Y181.115 E24.3645
G1 X227.710 Y183.701 E24.5307
G1 X227.373 Y184.636 E24.5920
G1 X226.331 Y187.069 E24.7552
G1 X225.920 Y187.899 E24.8124
G1 X224.675 Y190.100 E24.9683
G1 X224.255 Y190.767 E25.0169
G1 X222.893 Y192.723 E25.1639
G1 X222.500 Y193.244 E25.2041
G1 X221.065 Y194.997 E25.3438
G1 X220.694 Y195.420 E25.3785
G1 X219.187 Y197.029 E25.5145
G1 X218.822 Y197.396 E25.5464
G1 X217.217 Y198.910 E25.6824
G1 X216.843 Y199.243 E25.7133
G1 X215.113 Y200.692 E25.8525
G1 X214.736 Y200.990 E25.8821
G1 X212.858 Y202.389 E26.0265
G1 X212.496 Y202.643 E26.0538
G1 X210.386 Y204.049 E26.2101
G1 X209.915 Y204.341 E26.2443
G1 X205.418 Y206.926 E26.5642
G1 X204.989 Y207.156 E26.5942
G1 X201.038 Y209.133 E26.8666
G1 X200.814 Y209.241 E26.8820
G1 X196.647 Y211.174 E27.1652
G1 X196.416 Y211.277 E27.1808
G1 X190.708 Y213.718 E27.5636
G1 X190.473 Y213.814 E27.5793
G1 X185.036 Y215.949 E27.9394
G1 X184.809 Y216.035 E27.9544
G1 X182.143 Y216.993 E28.1291
G1 X181.770 Y217.118 E28.1534
G1 X177.130 Y218.546 E28.4527
G1 X176.600 Y218.688 E28.4866
G1 X175.232 Y219.419 E28.5822
G1 X171.203 Y220.429 E28.8384
G1 X150.207 Y220.429 E30.1330
G1 X149.996 Y218.933 E30.2262
G1 X147.287 Y218.255 E30.3983
G1 X147.007 Y218.180 E30.4162
G1 X143.828 Y217.267 E30.6202
G1 X143.528 Y217.174 E30.6395
G1 X139.157 Y215.741 E30.9232
G1 X138.861 Y215.637 E30.9425
G1 X134.080 Y213.869 E31.2569
G1 X133.636 Y213.690 E31.2864
G1 X130.712 Y212.416 E31.4831
G1 X130.129 Y212.135 E31.5230
G1 X126.999 Y210.474 E31.7415
G1 X126.327 Y210.076 E31.7896
G1 X124.441 Y208.839 E31.9287
G1 X123.557 Y208.172 E31.9970
G1 X121.350 Y206.266 E32.1768
G1 X120.218 Y205.078 E32.2780
G1 X118.303 Y202.631 E32.4696
G1 X117.351 Y201.102 E32.5807
G1 X116.102 Y198.518 E32.7576
G1 X115.594 Y197.194 E32.8451
G1 X114.909 Y194.827 E32.9970
G1 X114.703 Y193.938 E33.0533
G1 X114.331 Y191.815 E33.1862
G1 X114.251 Y191.239 E33.2221
G1 X114.025 Y189.082 E33.3558
G1 X113.982 Y188.418 E33.3968
G1 X113.876 Y184.243 E33.6544
G1 X113.886 Y183.569 E33.6959
G1 X113.944 Y182.511 E33.7613
G1 X101.581 Y188.856 E34.6182
G1 X101.518 Y188.888 E34.6225
G1 X95.601 Y191.862 E35.0308
G1 X95.290 Y192.011 E35.0521
G1 X91.920 Y193.535 E35.2802
G1 X91.409 Y193.746 E35.3143
G1 X87.991 Y195.029 E35.5394
G1 X87.137 Y195.299 E35.5946
G1 X83.478 Y196.243 E35.8277
G1 X82.355 Y196.454 E35.8981
G1 X78.451 Y196.913 E36.1405
G1 X77.316 Y196.969 E36.2106
G1 X73.298 Y196.897 E36.4584
G1 X72.430 Y196.836 E36.5121
G1 X69.322 Y196.458 E36.7051
G1 X68.826 Y196.382 E36.7361
G1 X65.738 Y195.817 E36.9297
G1 X65.321 Y195.730 E36.9559
G1 X63.019 Y195.188 E37.1018
G1 X62.617 Y195.083 E37.1274
G1 X58.421 Y193.872 E37.3967
G1 X57.914 Y193.709 E37.4295
G1 X53.659 Y192.184 E37.7082
G1 X52.890 Y191.865 E37.7596
G1 X47.458 Y189.288 E38.1303
G1 X46.545 Y188.784 E38.1946
G1 X44.588 Y187.539 E38.3377
G1 X43.964 Y187.101 E38.3847
G1 X42.271 Y185.794 E38.5165
G1 X41.532 Y185.152 E38.5769
G1 X39.951 Y183.608 E38.7131
G1 X39.169 Y182.729 E38.7857
G1 X37.788 Y180.942 E38.9250
G1 X37.081 Y179.865 E39.0045
G1 X36.005 Y177.915 E39.1418
G1 X35.486 Y176.788 E39.2183
G1 X34.761 Y174.845 E39.3462
G1 X34.463 Y173.869 E39.4091
G1 X34.003 Y171.960 E39.5302
G1 X33.829 Y170.991 E39.5909
G1 X33.486 Y168.130 E39.7686
G1 X33.434 Y167.488 E39.8083
G1 X33.314 Y164.677 E39.9818
G1 X33.306 Y164.313 E40.0043
G1 X33.307 Y161.393 E40.1843
G1 X33.319 Y160.955 E40.2113
G1 X33.486 Y157.769 E40.4081
G1 X33.545 Y157.126 E40.4479
G1 X33.989 Y153.706 E40.6605
G1 X34.137 Y152.887 E40.7118
G1 X34.948 Y149.391 E40.9332
G1 X35.181 Y148.573 E40.9856
G1 X36.346 Y145.161 E41.2079
G1 X36.607 Y144.491 E41.2523
G1 X38.039 Y141.235 E41.4716
G1 X38.251 Y140.790 E41.5020
G1 X39.862 Y137.642 E41.7201
G1 X40.001 Y137.381 E41.7383
G1 X43.437 Y131.209 E42.1739
G1 X43.445 Y131.086 E42.1815
G1 X50.015 Y117.611 E43.1059
G1 X30.257 Y86.416 E45.3829
G1 X28.477 Y85.904 E45.4972
G1 X27.900 Y85.716 E45.5346
G1 X25.251 Y84.744 E45.7086
G1 X24.819 Y84.572 E45.7372
G1 X19.868 Y82.437 E46.0697
G1 X19.574 Y82.304 E46.0896
G1 X15.400 Y80.312 E46.3748
G1 X15.207 Y80.217 E46.3880
G1 X8.163 Y76.632 E46.8754
G1 X7.994 Y76.543 E46.8873
G1 X-0.427 Y72.014 E47.4769
G1 X-1.486 Y71.338 E47.5543
G1 X-4.165 Y69.333 E47.7607
G1 X-6.357 Y66.905 E47.9624
G1 X-8.302 Y63.668 E48.1953
G1 X-9.403 Y60.667 E48.3924
G1 X-9.876 Y57.781 E48.5727
G1 X-9.974 Y55.938 E48.6865
G1 X-9.862 Y53.967 E48.8082
G1 X-9.689 Y52.680 E48.8883
G1 X-9.267 Y50.708 E49.0127
G1 X-9.087 Y50.014 E49.0569
G1 X-8.543 Y48.227 E49.1721
G1 X-8.410 Y47.828 E49.1980
G1 X-7.219 Y44.523 E49.4147
G1 X-7.023 Y44.030 E49.4474
G1 X-5.712 Y41.002 E49.6508
G1 X-5.404 Y40.368 E49.6943
G1 X-5.249 Y40.079 E49.7145
G1 X-4.678 Y37.185 E49.8964
G1 X-4.478 Y36.384 E49.9473
G1 X-3.414 Y32.856 E50.1745
G1 X-3.047 Y31.868 E50.2395
G1 X-1.560 Y28.523 E50.4653
G1 X-1.074 Y27.590 E50.5301
G1 X3.162 Y20.572 E51.0356
G1 X12.513 Y16.240 E51.6711
G92 E0.0000
G1 E-1.0000 F1200
G1 X22.286 Y18.553 F18000
G1 E0.0000 F1200
G92 E0.0000
G1 X26.889 Y19.488 E0.2896 F1125
G1 X27.238 Y19.567 E0.3117
G1 X31.814 Y20.710 E0.6026
G1 X32.195 Y20.815 E0.6269
G1 X36.730 Y22.187 E0.9190
G1 X37.121 Y22.316 E0.9445
G1 X41.584 Y23.920 E1.2369
G1 X41.952 Y24.062 E1.2612
G1 X46.318 Y25.876 E1.5528
G1 X46.640 Y26.019 E1.5745
G1 X50.911 Y28.017 E1.8653
G1 X51.201 Y28.160 E1.8852
G1 X58.918 Y32.154 E2.4210
G1 X63.522 Y38.997 E2.9296
G1 X63.862 Y42.705 E3.1592
G1 X64.319 Y43.145 E3.1983
G1 X64.653 Y41.103 E3.3259
G1 X64.826 Y40.304 E3.3763
G1 X65.423 Y38.089 E3.5178
G1 X65.666 Y37.336 E3.5666
G1 X66.477 Y35.191 E3.7080
G1 X66.778 Y34.495 E3.7547
G1 X67.791 Y32.430 E3.8966
G1 X68.137 Y31.795 E3.9412
G1 X69.337 Y29.818 E4.0838
G1 X69.714 Y29.252 E4.1257
G1 X71.293 Y27.084 E4.2911
G1 X71.478 Y26.840 E4.3100
G1 X72.593 Y25.426 E4.4210
G1 X72.972 Y24.980 E4.4571
G1 X74.862 Y22.912 E4.6299
G1 X75.195 Y22.568 E4.6594
G1 X77.334 Y20.489 E4.8434
G1 X77.578 Y20.262 E4.8639
G1 X79.952 Y18.137 E5.0604
G1 X80.165 Y17.953 E5.0777
G1 X87.737 Y11.640 E5.6856
G1 X88.886 Y10.636 E5.7797
G1 X91.030 Y8.554 E5.9640
G1 X92.370 Y7.503 E6.0690
G1 X95.046 Y5.827 E6.2637
G1 X98.207 Y4.667 E6.4713
G1 X101.104 Y4.249 E6.6519
G1 X102.621 Y4.174 E6.7455
