; generated by PrusaSlicer 2.6.0-alpha5+win64 on 2023-04-05 at 13:41:18 UTC


;
;
; 

; external perimeters extrusion width = 0.68mm
; perimeters extrusion width = 0.68mm
; infill extrusion width = 0.68mm
; solid infill extrusion width = 0.68mm
; top infill extrusion width = 0.60mm
; first layer extrusion width = 0.63mm

M73 P0 R13
M107
M190 S85 ; set bed temperature and wait for it to be reached
G10 S230 P1 ; set temperature
;TYPE:Custom
;Set standby temperatures
;G10 R200 P0
G10 R230 P1
G28 ; home all axes
G32 ; run bed.g -- probe bed and enable compensation
;workaround for toolchanger when using only one extruder
T1; select tool
G10 S230 P1 ; set temperature
M116 ; wait for temperature to be reached
G21 ; set units to millimeters
G90 ; use absolute coordinates
M82 ; use absolute distances for extrusion
G92 E0
;tool change macro
T1
G92 E0
; Filament gcode
M107
;LAYER_CHANGE
;Z:0.2
;HEIGHT:0.2
G1 Z.2 F18000
G1 E-.4 F2100
G92 E0
G1 X36.635 Y76.897 F18000
G1 E.4 F2100
;TYPE:Skirt/Brim
;WIDTH:0.63
G1 F2700
G1 X38.834 Y75.966 E.52007
G1 X40.494 Y75.771 E.60411
G1 X44.852 Y75.771 E.82323
G1 X47.206 Y76.169 E.94327
G1 X49.925 Y77.873 E1.10461
G1 X50.613 Y78.656 E1.15702
G1 X66.213 Y99.256 E2.45628
G1 X67.317 Y101.372 E2.57628
G1 X67.668 Y103.587 E2.68904
G1 X67.668 Y108.009 E2.91138
G1 X67.271 Y110.363 E3.03141
G1 X65.965 Y112.649 E3.16379
G1 X56.755 Y123.508 E3.87972
G1 X54.929 Y125.046 E3.99976
G1 X52.7 Y125.9 E4.11978
G1 X51.284 Y126.042 E4.19133
G1 X40.494 Y126.042 E4.73385
G1 X38.14 Y125.644 E4.85389
G1 X36.046 Y124.497 E4.97394
G1 X34.445 Y122.726 E5.09398
G1 X33.514 Y120.528 E5.214
G1 X33.319 Y118.867 E5.29809
G1 X33.319 Y82.946 E7.10421
G1 X33.717 Y80.592 E7.22425
G1 X34.864 Y78.498 E7.3443
G1 X36.569 Y76.958 E7.45982
G1 X36.969 Y77.435 F18000
G1 F2700
G1 X37.198 Y77.242 E7.47488
G1 X39.347 Y76.459 E7.58988
G1 X40.494 Y76.359 E7.64777
G1 X44.852 Y76.359 E7.86689
G1 X47.104 Y76.756 E7.98187
G1 X49.51 Y78.288 E8.12529
G1 X50.145 Y79.01 E8.17364
G1 X65.745 Y99.61 E9.4729
G1 X66.788 Y101.645 E9.58788
G1 X67.081 Y103.587 E9.68663
G1 X67.081 Y108.009 E9.90897
G1 X66.684 Y110.261 E10.02395
G1 X65.517 Y112.27 E10.14077
G1 X56.307 Y123.128 E10.85666
G1 X54.548 Y124.589 E10.97163
G1 X51.284 Y125.455 E11.14142
G1 X40.494 Y125.455 E11.68394
G1 X38.242 Y125.058 E11.79892
G1 X36.261 Y123.915 E11.91392
G1 X34.79 Y122.163 E12.02894
G1 X34.007 Y120.015 E12.14389
G1 X33.907 Y118.867 E12.20183
G1 X33.907 Y82.946 E14.00795
G1 X34.304 Y80.693 E14.12298
G1 X35.447 Y78.713 E14.23793
G1 X36.9 Y77.492 E14.33336
G1 E13.93336 F2100
G92 E0
G1 X44.741 Y104.433 F18000
G1 E.4 F2100
;TYPE:Perimeter
;WIDTH:0.629999
G1 F3000
G1 X44.872 Y104.448 E.40663
G1 X59.592 Y104.448 E1.14676
G1 X59.592 Y107.678 E1.30917
G1 X50.866 Y117.965 E1.98742
G1 X41.396 Y117.965 E2.46357
G1 X41.396 Y83.848 E4.17898
G1 X43.992 Y83.848 E4.30951
G1 X43.992 Y103.567 E5.30099
G1 X44.059 Y103.906 E5.31836
M73 P1 R13
G1 X44.234 Y104.174 E5.33445
G1 X44.458 Y104.344 E5.34859
G1 X44.653 Y104.417 E5.35906
G1 X44.579 Y103.567 F18000
;TYPE:External perimeter
G1 F2700
G1 X44.601 Y103.68 E5.36485
G1 X44.734 Y103.826 E5.37478
G1 X44.872 Y103.861 E5.38194
G1 X60.179 Y103.861 E6.15158
G1 X60.179 Y107.893 E6.35431
G1 X51.138 Y118.552 E7.05707
G1 X40.809 Y118.552 E7.57642
G1 X40.809 Y83.261 E9.35086
G1 X44.579 Y83.261 E9.54042
G1 X44.579 Y103.477 E10.55689
G1 X44.492 Y103.643 F18000
G1 E10.15689 F2100
G92 E0
G1 X43.815 Y85.225 F18000
G1 E.4 F2100
;TYPE:Solid infill
;WIDTH:0.636995
G1 F2700
G1 X42.878 Y84.288 E.46742
G1 X42.038 Y84.288 E.51016
G1 X43.551 Y85.801 E.61903
G1 X43.551 Y86.642 E.66182
G1 X41.836 Y84.926 E.78526
G1 X41.836 Y85.766 E.828
G1 X43.551 Y87.482 E.95144
G1 X43.551 Y88.322 E.99418
G1 X41.836 Y86.607 E1.11758
G1 X41.836 Y87.447 E1.16032
G1 X43.551 Y89.162 E1.28372
G1 X43.551 Y90.002 E1.32646
G1 X41.836 Y88.287 E1.44986
G1 X41.836 Y89.127 E1.4926
G1 X43.551 Y90.842 E1.616
G1 X43.551 Y91.682 E1.65874
G1 X41.836 Y89.967 E1.78214
G1 X41.836 Y90.807 E1.82488
G1 X43.551 Y92.523 E1.94832
G1 X43.551 Y93.363 E1.99106
G1 X41.836 Y91.648 E2.11446
G1 X41.836 Y92.488 E2.1572
G1 X43.551 Y94.203 E2.2806
G1 X43.551 Y95.043 E2.32334
G1 X41.836 Y93.328 E2.44674
G1 X41.836 Y94.168 E2.48948
G1 X43.551 Y95.883 E2.61288
G1 X43.551 Y96.723 E2.65562
G1 X41.836 Y95.008 E2.77902
G1 X41.836 Y95.848 E2.82176
G1 X43.551 Y97.563 E2.94516
G1 X43.551 Y98.404 E2.98795
G1 X41.836 Y96.688 E3.11139
G1 X41.836 Y97.529 E3.15418
G1 X43.551 Y99.244 E3.27758
G1 X43.551 Y100.084 E3.32032
G1 X41.836 Y98.369 E3.44372
G1 X41.836 Y99.209 E3.48646
G1 X43.551 Y100.924 E3.60986
G1 X43.551 Y101.764 E3.6526
G1 X41.836 Y100.049 E3.776
G1 X41.836 Y100.889 E3.81874
G1 X43.815 Y102.869 E3.96117
G1 E3.56117 F2100
G92 E0
G1 X58.173 Y104.624 F18000
G1 E.4 F2100
G1 F2700
G1 X59.151 Y105.602 E.47037
G1 X59.151 Y106.442 E.51311
G1 X57.597 Y104.888 E.62493
G1 X56.757 Y104.888 E.66767
G1 X59.151 Y107.282 E.83993
G1 X59.151 Y107.516 E.85184
G1 X58.873 Y107.844 E.87372
G1 X55.917 Y104.888 E1.08642
G1 X55.077 Y104.888 E1.12916
G1 X58.487 Y108.299 E1.37456
G1 X58.102 Y108.754 E1.40489
G1 X54.236 Y104.888 E1.68307
G1 X53.396 Y104.888 E1.72581
G1 X57.716 Y109.208 E2.03665
G1 X57.331 Y109.663 E2.06698
G1 X52.556 Y104.888 E2.41056
G1 X51.716 Y104.888 E2.4533
G1 X56.945 Y110.117 E2.82955
G1 X56.56 Y110.572 E2.85988
G1 X50.876 Y104.888 E3.26887
G1 X50.036 Y104.888 E3.31161
G1 X56.174 Y111.026 E3.75327
G1 X55.789 Y111.481 E3.7836
G1 X49.196 Y104.888 E4.258
G1 X48.355 Y104.888 E4.30079
G1 X55.403 Y111.936 E4.80792
G1 X55.017 Y112.39 E4.83824
G1 X47.515 Y104.888 E5.37804
G1 X46.675 Y104.888 E5.42078
G1 X54.632 Y112.845 E5.99332
G1 X54.246 Y113.299 E6.02364
G1 X45.571 Y104.624 E6.64784
G1 E6.24784 F2100
G92 E0
G1 X41.572 Y101.465 F18000
G1 E.4 F2100
G1 F2700
G1 X43.551 Y103.445 E.54243
G1 X43.571 Y103.797 E.56037
G1 X43.654 Y104.081 E.57542
G1 X43.913 Y104.478 E.59954
G1 X44.248 Y104.733 E.62096
G1 X44.58 Y104.857 E.63899
G1 X44.995 Y104.888 E.66016
G1 X53.861 Y113.754 E1.29811
G1 X53.475 Y114.209 E1.32847
G1 X41.836 Y102.569 E2.16598
G1 X41.836 Y103.41 E2.20877
M73 P2 R13
G1 X53.09 Y114.663 E3.01851
G1 X52.704 Y115.118 E3.04887
G1 X41.836 Y104.25 E3.83087
G1 X41.836 Y105.09 E3.87361
G1 X52.318 Y115.572 E4.62784
G1 X51.933 Y116.027 E4.65817
G1 X41.836 Y105.93 E5.38469
G1 X41.836 Y106.77 E5.42743
G1 X51.547 Y116.481 E6.12618
G1 X51.162 Y116.936 E6.15651
G1 X41.836 Y107.61 E6.82756
G1 X41.836 Y108.45 E6.8703
G1 X50.776 Y117.391 E7.51361
G1 X50.662 Y117.525 E7.52256
G1 X50.07 Y117.525 E7.55268
G1 X41.836 Y109.291 E8.14515
G1 X41.836 Y110.131 E8.18789
G1 X49.23 Y117.525 E8.71992
G1 X48.39 Y117.525 E8.76266
G1 X41.836 Y110.971 E9.23425
G1 X41.836 Y111.811 E9.27699
G1 X47.55 Y117.525 E9.68814
G1 X46.71 Y117.525 E9.73088
G1 X41.836 Y112.651 E10.08159
G1 X41.836 Y113.491 E10.12433
G1 X45.87 Y117.525 E10.41459
G1 X45.03 Y117.525 E10.45733
G1 X41.836 Y114.332 E10.68712
G1 X41.836 Y115.172 E10.72986
G1 X44.189 Y117.525 E10.89917
G1 X43.349 Y117.525 E10.94191
G1 X41.836 Y116.012 E11.05078
G1 X41.836 Y116.852 E11.09352
G1 X42.773 Y117.789 E11.16094
;LAYER_CHANGE
;Z:0.4
;HEIGHT:0.2
G1 Z.4 F18000
G10 S220 P1 ; set temperature
G1 E10.76094 F2100
G92 E0
G1 X44.896 Y104.28 F18000
G1 E.4 F2100
;TYPE:Perimeter
;WIDTH:0.674999
G1 F6000
G1 X45.072 Y104.315 E.40971
G1 X59.524 Y104.315 E1.19206
G1 X59.524 Y107.653 E1.37276
G1 X50.737 Y118.013 E2.10815
G1 X41.463 Y118.013 E2.61019
G1 X41.463 Y83.915 E4.45606
G1 X44.124 Y83.915 E4.60011
G1 X44.124 Y103.367 E5.65313
G1 X44.138 Y103.531 E5.66204
G1 X44.314 Y103.936 E5.68595
G1 X44.503 Y104.126 E5.70046
G1 X44.708 Y104.242 E5.71321
G1 X44.807 Y104.262 E5.71868
G1 X44.756 Y103.367 F18000
;TYPE:External perimeter
G1 F5400
G1 X44.773 Y103.47 E5.72433
G1 X44.883 Y103.62 E5.7344
G1 X45.072 Y103.683 E5.74518
G1 X60.112 Y103.683 E6.55936
G1 X60.156 Y103.758 E6.56407
G1 X60.156 Y107.885 E6.78748
G1 X51.03 Y118.645 E7.55126
G1 X40.831 Y118.645 E8.10338
G1 X40.831 Y83.283 E10.01768
G1 X44.682 Y83.283 E10.22615
G1 X44.756 Y83.327 E10.23081
G1 X44.756 Y103.277 E11.31079
G1 X44.672 Y103.429 F18000
G1 E10.91079 F2100
G92 E0
G1 X58.026 Y109.126 F18000
G1 E.4 F2100
;TYPE:Solid infill
;WIDTH:0.687207
G1 F5400
G1 X49.613 Y117.539 E1.05652
G1 X48.702 Y117.539 E1.10679
G1 X59.05 Y107.191 E1.91431
G1 X59.05 Y106.28 E1.96458
G1 X47.791 Y117.539 E2.84319
G1 X46.879 Y117.539 E2.89351
G1 X59.05 Y105.369 E3.84325
G1 X59.05 Y104.789 E3.87525
G1 X58.718 Y104.789 E3.89357
G1 X45.968 Y117.539 E4.88853
G1 X45.057 Y117.539 E4.9388
G1 X57.807 Y104.789 E5.93376
G1 X56.896 Y104.789 E5.98403
G1 X44.146 Y117.539 E6.97899
G1 X43.235 Y117.539 E7.02926
G1 X55.985 Y104.789 E8.02422
G1 X55.074 Y104.789 E8.07449
M73 P3 R13
G1 X42.324 Y117.539 E9.06945
G1 X41.937 Y117.539 E9.0908
G1 X41.937 Y117.015 E9.11971
G1 X54.162 Y104.789 E10.07374
G1 X53.251 Y104.789 E10.12401
G1 X41.937 Y116.103 E11.00691
G1 X41.937 Y115.192 E11.05718
G1 X52.34 Y104.789 E11.86899
G1 X51.429 Y104.789 E11.91926
G1 X41.937 Y114.281 E12.65998
G1 X41.937 Y113.37 E12.71025
G1 X50.518 Y104.789 E13.37988
G1 X49.607 Y104.789 E13.43015
G1 X41.937 Y112.459 E14.02869
G1 X41.937 Y111.548 E14.07896
G1 X48.696 Y104.789 E14.60641
G1 X47.784 Y104.789 E14.65673
G1 X41.937 Y110.636 E15.11301
G1 X41.937 Y109.725 E15.16328
G1 X46.873 Y104.789 E15.54847
G1 X45.962 Y104.789 E15.59874
G1 X41.937 Y108.814 E15.91284
G1 X41.937 Y107.903 E15.96311
G1 X45.052 Y104.788 E16.20619
G1 X44.814 Y104.767 E16.21937
G1 X44.523 Y104.68 E16.23613
G1 X44.349 Y104.58 E16.2472
G1 X41.937 Y106.992 E16.43542
G1 X41.937 Y106.081 E16.48569
G1 X43.886 Y104.132 E16.63778
G1 X43.728 Y103.835 E16.65634
G1 X43.671 Y103.612 E16.66904
G1 X43.657 Y103.45 E16.67801
G1 X41.937 Y105.169 E16.81219
G1 X41.937 Y104.258 E16.86246
G1 X43.65 Y102.546 E16.9961
G1 X43.65 Y101.634 E17.04642
G1 X41.937 Y103.347 E17.1801
G1 X41.937 Y102.436 E17.23037
G1 X43.65 Y100.723 E17.36405
G1 X43.65 Y99.812 E17.41432
G1 X41.937 Y101.525 E17.548
G1 X41.937 Y100.614 E17.59827
G1 X43.65 Y98.901 E17.73195
G1 X43.65 Y97.99 E17.78222
G1 X41.937 Y99.702 E17.91586
G1 X41.937 Y98.791 E17.96613
G1 X43.65 Y97.079 E18.09977
G1 X43.65 Y96.167 E18.15009
G1 X41.937 Y97.88 E18.28377
G1 X41.937 Y96.969 E18.33404
G1 X43.65 Y95.256 E18.46772
G1 X43.65 Y94.345 E18.51799
G1 X41.937 Y96.058 E18.65167
G1 X41.937 Y95.147 E18.70194
G1 X43.65 Y93.434 E18.83562
G1 X43.65 Y92.523 E18.88589
G1 X41.937 Y94.236 E19.01957
G1 X41.937 Y93.324 E19.06989
G1 X43.65 Y91.612 E19.20353
G1 X43.65 Y90.7 E19.25385
G1 X41.937 Y92.413 E19.38753
G1 X41.937 Y91.502 E19.4378
G1 X43.65 Y89.789 E19.57148
G1 X43.65 Y88.878 E19.62175
G1 X41.937 Y90.591 E19.75543
G1 X41.937 Y89.68 E19.8057
G1 X43.65 Y87.967 E19.93938
G1 X43.65 Y87.056 E19.98965
G1 X41.937 Y88.769 E20.12333
G1 X41.937 Y87.857 E20.17365
G1 X43.65 Y86.145 E20.30729
G1 X43.65 Y85.234 E20.35756
G1 X41.937 Y86.946 E20.4912
G1 X41.937 Y86.035 E20.54147
G1 X43.583 Y84.389 E20.66992
G1 X42.672 Y84.389 E20.72019
G1 X41.653 Y85.408 E20.79971
;LAYER_CHANGE
;Z:0.6
;HEIGHT:0.2
G1 Z.6 F18000
G1 E20.39971 F2100
G92 E0
G1 X45.095 Y104.08 F18000
G1 E.4 F2100
;TYPE:Perimeter
;WIDTH:0.674999
G1 F6000
G1 X45.272 Y104.115 E.40977
G1 X59.524 Y104.115 E1.18129
G1 X59.524 Y107.653 E1.37282
G1 X50.639 Y118.129 E2.11643
G1 X41.463 Y118.129 E2.61317
G1 X41.463 Y83.915 E4.46532
G1 X44.324 Y83.915 E4.6202
G1 X44.324 Y103.167 E5.66239
G1 X44.338 Y103.331 E5.6713
G1 X44.514 Y103.736 E5.69521
G1 X44.703 Y103.926 E5.70972
G1 X44.908 Y104.042 E5.72247
G1 X45.007 Y104.062 E5.72794
G1 X44.956 Y103.167 F18000
;TYPE:External perimeter
G1 F5400
G1 X44.973 Y103.27 E5.73359
G1 X45.083 Y103.42 E5.74366
G1 X45.272 Y103.483 E5.75444
G1 X59.912 Y103.483 E6.54697
G1 X60.156 Y103.727 E6.56565
G1 X60.156 Y107.885 E6.79074
G1 X50.932 Y118.761 E7.56274
G1 X40.831 Y118.761 E8.10955
G1 X40.831 Y83.283 E10.03013
G1 X44.712 Y83.283 E10.24023
G1 X44.956 Y83.527 E10.25891
G1 X44.956 Y103.077 E11.31724
G1 X44.873 Y103.229 F18000
G1 E10.91724 F2100
G92 E0
G1 X44.134 Y85.408 F18000
G1 E.4 F2100
;TYPE:Solid infill
;WIDTH:0.687136
G1 F5400
G1 X43.115 Y84.389 E.47951
G1 X42.204 Y84.389 E.52977
G1 X43.85 Y86.035 E.6582
G1 X43.85 Y86.946 E.70846
G1 X41.937 Y85.033 E.85773
G1 X41.937 Y85.944 E.90799
G1 X43.85 Y87.857 E1.05726
G1 X43.85 Y88.768 E1.10752
G1 X41.937 Y86.855 E1.25679
G1 X41.937 Y87.766 E1.30705
G1 X43.85 Y89.679 E1.45632
G1 X43.85 Y90.59 E1.50658
G1 X41.937 Y88.677 E1.65585
G1 X41.937 Y89.589 E1.70617
G1 X43.85 Y91.501 E1.8554
G1 X43.85 Y92.412 E1.90566
G1 X41.937 Y90.5 E2.05489
G1 X41.937 Y91.411 E2.10515
G1 X43.85 Y93.323 E2.25438
G1 X43.85 Y94.234 E2.30464
G1 X41.937 Y92.322 E2.45387
G1 X41.937 Y93.233 E2.50413
G1 X43.85 Y95.146 E2.6534
G1 X43.85 Y96.057 E2.70366
G1 X41.937 Y94.144 E2.85293
G1 X41.937 Y95.055 E2.90319
G1 X43.85 Y96.968 E3.05246
G1 X43.85 Y97.879 E3.10272
G1 X41.937 Y95.966 E3.25199
G1 X41.937 Y96.877 E3.30225
G1 X43.85 Y98.79 E3.45152
G1 X43.85 Y99.701 E3.50178
G1 X41.937 Y97.788 E3.65105
G1 X41.937 Y98.699 E3.70131
G1 X43.85 Y100.612 E3.85058
G1 X43.85 Y101.523 E3.90084
G1 X41.937 Y99.61 E4.05011
G1 X41.937 Y100.521 E4.10037
G1 X44.134 Y102.718 E4.2718
G1 E3.8718 F2100
G92 E0
G1 X58.476 Y104.305 F18000
G1 E.4 F2100
G1 F5400
G1 X59.05 Y104.879 E.44479
G1 X59.05 Y105.79 E.49505
G1 X57.849 Y104.589 E.58876
G1 X56.938 Y104.589 E.63902
G1 X59.05 Y106.701 E.80381
G1 X59.05 Y107.479 E.84674
G1 X58.989 Y107.551 E.85195
G1 X56.027 Y104.589 E1.08307
G1 X55.116 Y104.589 E1.13333
G1 X58.571 Y108.044 E1.40292
G1 X58.153 Y108.537 E1.43858
G1 X54.205 Y104.589 E1.74663
G1 X53.294 Y104.589 E1.79689
G1 X57.735 Y109.03 E2.14341
G1 X57.316 Y109.523 E2.17911
G1 X52.383 Y104.589 E2.56406
G1 X51.472 Y104.589 E2.61432
G1 X56.898 Y110.016 E3.03774
G1 X56.48 Y110.509 E3.0734
G1 X50.561 Y104.589 E3.53528
G1 X49.65 Y104.589 E3.58554
M73 P4 R13
G1 X56.062 Y111.002 E4.08589
G1 X55.644 Y111.495 E4.12155
G1 X48.738 Y104.589 E4.66041
G1 X47.827 Y104.589 E4.71067
G1 X55.226 Y111.988 E5.288
G1 X54.808 Y112.481 E5.32366
G1 X46.916 Y104.589 E5.93945
G1 X46.005 Y104.589 E5.98971
G1 X54.39 Y112.974 E6.64397
G1 X53.972 Y113.467 E6.67963
G1 X41.937 Y101.432 E7.61869
G1 X41.937 Y102.343 E7.66895
G1 X53.554 Y113.96 E8.5754
G1 X53.135 Y114.453 E8.6111
G1 X41.937 Y103.254 E9.48489
G1 X41.937 Y104.166 E9.53521
G1 X52.717 Y114.946 E10.37635
G1 X52.299 Y115.438 E10.41197
G1 X41.937 Y105.077 E11.22045
G1 X41.937 Y105.988 E11.27071
G1 X51.881 Y115.931 E12.04658
G1 X51.463 Y116.424 E12.08224
G1 X41.937 Y106.899 E12.82549
G1 X41.937 Y107.81 E12.87575
G1 X51.045 Y116.917 E13.58639
G1 X50.627 Y117.41 E13.62205
G1 X41.937 Y108.721 E14.30007
G1 X41.937 Y109.632 E14.35033
G1 X49.96 Y117.655 E14.97634
G1 X49.049 Y117.655 E15.0266
G1 X41.937 Y110.543 E15.58153
G1 X41.937 Y111.454 E15.63179
G1 X48.138 Y117.655 E16.11564
G1 X47.227 Y117.655 E16.1659
G1 X41.937 Y112.365 E16.57867
G1 X41.937 Y113.276 E16.62893
G1 X46.316 Y117.655 E16.97061
G1 X45.405 Y117.655 E17.02087
G1 X41.937 Y114.187 E17.29147
G1 X41.937 Y115.098 E17.34173
G1 X44.494 Y117.655 E17.54125
G1 X43.583 Y117.655 E17.59151
G1 X41.937 Y116.009 E17.71994
G1 X41.937 Y116.92 E17.7702
G1 X42.956 Y117.939 E17.84971
M106 S252.45
;LAYER_CHANGE
;Z:0.8
;HEIGHT:0.2
G1 Z.8 F18000
G1 E17.44971 F2100
G92 E0
G1 X45.946 Y104.115 F18000
G1 E.4 F2100
;TYPE:Perimeter
;WIDTH:0.674999
G1 F6000
G1 X59.524 Y104.115 E1.13504
G1 X59.524 Y107.653 E1.32657
G1 X50.541 Y118.244 E2.07836
G1 X41.463 Y118.244 E2.56979
G1 X41.463 Y83.915 E4.42817
G1 X44.324 Y83.915 E4.58305
G1 X44.324 Y103.167 E5.62524
G1 X44.338 Y103.331 E5.63415
G1 X44.514 Y103.736 E5.65806
G1 X44.703 Y103.926 E5.67257
G1 X44.908 Y104.042 E5.68532
G1 X45.272 Y104.115 E5.70542
G1 X45.856 Y104.115 E5.73703
G1 X45.083 Y103.42 F18000
;TYPE:External perimeter
G1 F5400
G1 X45.272 Y103.483 E5.74781
G1 X59.912 Y103.483 E6.54034
G1 X60.156 Y103.727 E6.55902
G1 X60.156 Y107.885 E6.78411
G1 X50.834 Y118.876 E7.56429
G1 X40.831 Y118.876 E8.1058
G1 X40.831 Y83.283 E10.0326
G1 X44.712 Y83.283 E10.2427
G1 X44.956 Y83.527 E10.26138
G1 X44.956 Y103.167 E11.32458
G1 X44.973 Y103.27 E11.33023
G1 X45.03 Y103.347 E11.33542
