; generated by PrusaSlicer 2.6.0-alpha5+win64 on 2023-04-05 at 13:53:22 UTC


;
;
; 

; external perimeters extrusion width = 0.68mm
; perimeters extrusion width = 0.68mm
; infill extrusion width = 0.68mm
; solid infill extrusion width = 0.68mm
; top infill extrusion width = 0.60mm
; first layer extrusion width = 0.63mm

M73 P0 R14
M107
M190 S85 ; set bed temperature and wait for it to be reached
G10 S230 P1 ; set temperature
;TYPE:Custom
;Set standby temperatures
;G10 R200 P0
G10 R230 P1
G28 ; home all axes
G32 ; run bed.g -- probe bed and enable compensation
;workaround for toolchanger when using only one extruder
T1; select tool
G10 S230 P1 ; set temperature
M116 ; wait for temperature to be reached
G21 ; set units to millimeters
G90 ; use absolute coordinates
M82 ; use absolute distances for extrusion
G92 E0
;tool change macro
T1
G92 E0
; Filament gcode
M107
;LAYER_CHANGE
;Z:0.2
;HEIGHT:0.2
G1 Z.2 F18000
G1 E-.4 F2100
G92 E0
G1 X36.555 Y76.897 F18000
G1 E.4 F2100
;TYPE:Skirt/Brim
;WIDTH:0.63
G1 F2700
G1 X38.753 Y75.966 E.52002
G1 X40.413 Y75.771 E.60406
G1 X44.771 Y75.771 E.82318
G1 X47.126 Y76.169 E.94327
G1 X49.844 Y77.873 E1.10457
G1 X50.532 Y78.656 E1.15698
G1 X66.132 Y99.256 E2.45624
G1 X67.237 Y101.372 E2.57627
G1 X67.587 Y103.587 E2.68902
G1 X67.587 Y108.009 E2.91136
G1 X67.19 Y110.363 E3.03139
G1 X65.884 Y112.649 E3.16377
G1 X56.674 Y123.508 E3.8797
G1 X54.849 Y125.046 E3.9997
G1 X52.619 Y125.9 E4.11977
G1 X51.203 Y126.042 E4.19132
G1 X40.413 Y126.042 E4.73384
G1 X38.059 Y125.644 E4.85388
G1 X35.965 Y124.497 E4.97393
G1 X34.365 Y122.726 E5.09394
G1 X33.433 Y120.528 E5.21398
G1 X33.239 Y118.867 E5.29806
G1 X33.239 Y82.946 E7.10418
G1 X33.636 Y80.592 E7.22421
G1 X34.784 Y78.498 E7.34428
G1 X36.488 Y76.958 E7.45976
G1 X36.888 Y77.435 F18000
G1 F2700
G1 X37.117 Y77.242 E7.47482
G1 X39.266 Y76.459 E7.58982
G1 X40.413 Y76.359 E7.64771
G1 X44.771 Y76.359 E7.86683
G1 X47.024 Y76.756 E7.98186
G1 X49.429 Y78.288 E8.12523
G1 X50.064 Y79.01 E8.17358
G1 X65.664 Y99.61 E9.47284
G1 X66.707 Y101.645 E9.58782
G1 X67 Y103.587 E9.68657
G1 X67 Y108.009 E9.90891
G1 X66.603 Y110.261 E10.02389
G1 X65.436 Y112.27 E10.14071
G1 X56.227 Y123.128 E10.85657
G1 X54.467 Y124.589 E10.97158
G1 X51.203 Y125.455 E11.14137
G1 X40.413 Y125.455 E11.68389
G1 X38.161 Y125.058 E11.79887
G1 X36.18 Y123.915 E11.91387
G1 X34.71 Y122.163 E12.02886
G1 X33.926 Y120.015 E12.14383
G1 X33.826 Y118.867 E12.20177
G1 X33.826 Y82.946 E14.00789
G1 X34.223 Y80.693 E14.12292
G1 X35.366 Y78.713 E14.23787
G1 X36.819 Y77.492 E14.3333
G1 E13.9333 F2100
G92 E0
G1 X44.66 Y104.433 F18000
G1 E.4 F2100
;TYPE:Perimeter
;WIDTH:0.629999
G1 F3000
G1 X44.791 Y104.448 E.40663
G1 X59.511 Y104.448 E1.14676
G1 X59.511 Y107.678 E1.30917
G1 X50.785 Y117.965 E1.98742
G1 X41.315 Y117.965 E2.46357
G1 X41.315 Y83.848 E4.17898
G1 X43.911 Y83.848 E4.30951
G1 X43.911 Y103.567 E5.30099
G1 X43.979 Y103.906 E5.31837
M73 P1 R14
G1 X44.154 Y104.174 E5.33446
G1 X44.377 Y104.344 E5.34856
G1 X44.572 Y104.417 E5.35903
G1 X44.498 Y103.567 F18000
;TYPE:External perimeter
G1 F2700
G1 X44.52 Y103.68 E5.36482
G1 X44.653 Y103.826 E5.37475
G1 X44.791 Y103.861 E5.38191
G1 X60.098 Y103.861 E6.15155
G1 X60.098 Y107.893 E6.35428
G1 X51.057 Y118.552 E7.05704
G1 X40.728 Y118.552 E7.57639
G1 X40.728 Y83.261 E9.35083
G1 X44.498 Y83.261 E9.54039
G1 X44.498 Y103.477 E10.55686
G1 X44.411 Y103.643 F18000
G1 E10.15686 F2100
G92 E0
G1 X43.735 Y85.225 F18000
G1 E.4 F2100
;TYPE:Solid infill
;WIDTH:0.636995
G1 F2700
G1 X42.797 Y84.288 E.46746
G1 X41.957 Y84.288 E.5102
G1 X43.471 Y85.801 E.6191
G1 X43.471 Y86.642 E.66189
G1 X41.755 Y84.926 E.78536
G1 X41.755 Y85.766 E.8281
G1 X43.471 Y87.482 E.95157
G1 X43.471 Y88.322 E.99431
G1 X41.755 Y86.607 E1.11775
G1 X41.755 Y87.447 E1.16049
G1 X43.471 Y89.162 E1.28393
G1 X43.471 Y90.002 E1.32667
G1 X41.755 Y88.287 E1.45011
G1 X41.755 Y89.127 E1.49285
G1 X43.471 Y90.842 E1.61629
G1 X43.471 Y91.682 E1.65903
G1 X41.755 Y89.967 E1.78247
G1 X41.755 Y90.807 E1.82521
G1 X43.471 Y92.523 E1.94868
G1 X43.471 Y93.363 E1.99142
G1 X41.755 Y91.648 E2.11486
G1 X41.755 Y92.488 E2.1576
G1 X43.471 Y94.203 E2.28104
G1 X43.471 Y95.043 E2.32378
G1 X41.755 Y93.328 E2.44722
G1 X41.755 Y94.168 E2.48996
G1 X43.471 Y95.883 E2.6134
G1 X43.471 Y96.723 E2.65614
G1 X41.755 Y95.008 E2.77958
G1 X41.755 Y95.848 E2.82232
G1 X43.471 Y97.563 E2.94576
G1 X43.471 Y98.404 E2.98855
G1 X41.755 Y96.688 E3.11202
G1 X41.755 Y97.529 E3.15481
G1 X43.471 Y99.244 E3.27825
G1 X43.471 Y100.084 E3.32099
G1 X41.755 Y98.369 E3.44443
G1 X41.755 Y99.209 E3.48717
G1 X43.471 Y100.924 E3.61061
G1 X43.471 Y101.764 E3.65335
G1 X41.755 Y100.049 E3.77679
G1 X41.755 Y100.889 E3.81953
G1 X43.735 Y102.869 E3.962
G1 E3.562 F2100
G92 E0
G1 X58.092 Y104.624 F18000
G1 E.4 F2100
G1 F2700
G1 X59.071 Y105.602 E.47041
G1 X59.071 Y106.442 E.51315
G1 X57.516 Y104.888 E.625
G1 X56.676 Y104.888 E.66774
G1 X59.071 Y107.282 E.84003
G1 X59.071 Y107.516 E.85194
G1 X58.792 Y107.844 E.87385
G1 X55.836 Y104.888 E1.08655
G1 X54.996 Y104.888 E1.12929
G1 X58.407 Y108.299 E1.37473
G1 X58.021 Y108.754 E1.40509
G1 X54.156 Y104.888 E1.68323
G1 X53.316 Y104.888 E1.72597
G1 X57.636 Y109.208 E2.03681
G1 X57.25 Y109.663 E2.06717
G1 X52.475 Y104.888 E2.41075
G1 X51.635 Y104.888 E2.45349
G1 X56.864 Y110.117 E2.82974
G1 X56.479 Y110.572 E2.86007
G1 X50.795 Y104.888 E3.26906
G1 X49.955 Y104.888 E3.3118
G1 X56.093 Y111.026 E3.75346
G1 X55.708 Y111.481 E3.78379
G1 X49.115 Y104.888 E4.25819
G1 X48.275 Y104.888 E4.30093
G1 X55.322 Y111.936 E4.80803
G1 X54.937 Y112.39 E4.83832
G1 X47.434 Y104.888 E5.37816
G1 X46.594 Y104.888 E5.4209
G1 X54.551 Y112.845 E5.99344
G1 X54.166 Y113.299 E6.02373
G1 X45.49 Y104.624 E6.64797
G1 E6.24797 F2100
G92 E0
G1 X41.491 Y101.465 F18000
G1 E.4 F2100
G1 F2700
G1 X43.471 Y103.445 E.54247
G1 X43.49 Y103.797 E.56041
G1 X43.573 Y104.081 E.57546
G1 X43.832 Y104.478 E.59958
G1 X44.167 Y104.733 E.621
G1 X44.5 Y104.857 E.63908
G1 X44.914 Y104.888 E.6602
G1 X53.78 Y113.754 E1.29815
G1 X53.394 Y114.209 E1.32851
G1 X41.755 Y102.569 E2.16602
G1 X41.755 Y103.41 E2.20881
G1 X53.009 Y114.663 E3.01855
G1 X52.623 Y115.118 E3.04891
M73 P2 R14
G1 X41.755 Y104.25 E3.83091
G1 X41.755 Y105.09 E3.87365
G1 X52.238 Y115.572 E4.62791
G1 X51.852 Y116.027 E4.65827
G1 X41.755 Y105.93 E5.38479
G1 X41.755 Y106.77 E5.42753
G1 X51.467 Y116.481 E6.12632
G1 X51.081 Y116.936 E6.15668
G1 X41.755 Y107.61 E6.82773
G1 X41.755 Y108.45 E6.87047
G1 X50.695 Y117.391 E7.51378
G1 X50.581 Y117.525 E7.52273
G1 X49.99 Y117.525 E7.5528
G1 X41.755 Y109.291 E8.14531
M73 P2 R13
G1 X41.755 Y110.131 E8.18805
G1 X49.15 Y117.525 E8.72012
G1 X48.309 Y117.525 E8.76291
G1 X41.755 Y110.971 E9.2345
G1 X41.755 Y111.811 E9.27724
G1 X47.469 Y117.525 E9.68839
G1 X46.629 Y117.525 E9.73113
G1 X41.755 Y112.651 E10.08184
G1 X41.755 Y113.491 E10.12458
G1 X45.789 Y117.525 E10.41484
G1 X44.949 Y117.525 E10.45758
G1 X41.755 Y114.332 E10.68737
G1 X41.755 Y115.172 E10.73011
G1 X44.109 Y117.525 E10.89945
G1 X43.269 Y117.525 E10.94219
G1 X41.755 Y116.012 E11.05109
G1 X41.755 Y116.852 E11.09383
G1 X42.693 Y117.789 E11.16129
;LAYER_CHANGE
;Z:0.4
;HEIGHT:0.2
G1 Z.4 F18000
G10 S220 P1 ; set temperature
G1 E10.76129 F2100
G92 E0
G1 X44.815 Y104.28 F18000
G1 E.4 F2100
;TYPE:Perimeter
;WIDTH:0.674999
G1 F6000
G1 X44.991 Y104.315 E.40971
G1 X59.443 Y104.315 E1.19206
G1 X59.443 Y107.653 E1.37276
G1 X50.656 Y118.013 E2.10815
G1 X41.382 Y118.013 E2.61019
G1 X41.382 Y83.915 E4.45606
G1 X44.043 Y83.915 E4.60011
G1 X44.043 Y103.367 E5.65313
G1 X44.058 Y103.531 E5.66205
G1 X44.233 Y103.936 E5.68593
G1 X44.423 Y104.126 E5.70048
G1 X44.627 Y104.242 E5.71318
G1 X44.727 Y104.262 E5.7187
G1 X44.675 Y103.367 F18000
;TYPE:External perimeter
G1 F5400
G1 X44.693 Y103.47 E5.72436
G1 X44.802 Y103.62 E5.7344
G1 X44.991 Y103.683 E5.74518
G1 X60.032 Y103.683 E6.55941
G1 X60.075 Y103.758 E6.56409
G1 X60.075 Y107.885 E6.7875
G1 X50.949 Y118.645 E7.55128
G1 X40.75 Y118.645 E8.1034
G1 X40.75 Y83.283 E10.0177
G1 X44.601 Y83.283 E10.22617
G1 X44.675 Y83.327 E10.23083
G1 X44.675 Y103.277 E11.31081
G1 X44.592 Y103.429 F18000
G1 E10.91081 F2100
G92 E0
G1 X57.945 Y109.126 F18000
G1 E.4 F2100
;TYPE:Solid infill
;WIDTH:0.687207
G1 F5400
G1 X49.532 Y117.539 E1.05652
G1 X48.621 Y117.539 E1.10679
G1 X58.969 Y107.191 E1.91431
G1 X58.969 Y106.28 E1.96458
G1 X47.71 Y117.539 E2.84319
G1 X46.799 Y117.539 E2.89346
G1 X58.969 Y105.369 E3.84316
G1 X58.969 Y104.789 E3.87516
G1 X58.638 Y104.789 E3.89342
G1 X45.888 Y117.539 E4.88838
G1 X44.976 Y117.539 E4.9387
G1 X57.726 Y104.789 E5.93366
G1 X56.815 Y104.789 E5.98393
G1 X44.065 Y117.539 E6.97889
G1 X43.154 Y117.539 E7.02916
G1 X55.904 Y104.789 E8.02412
G1 X54.993 Y104.789 E8.07439
G1 X42.243 Y117.539 E9.06935
G1 X41.857 Y117.539 E9.09065
G1 X41.857 Y117.015 E9.11956
G1 X54.082 Y104.789 E10.07359
G1 X53.171 Y104.789 E10.12386
G1 X41.857 Y116.103 E11.00676
M73 P3 R13
G1 X41.857 Y115.192 E11.05703
G1 X52.259 Y104.789 E11.8688
G1 X51.348 Y104.789 E11.91907
G1 X41.857 Y114.281 E12.65975
G1 X41.857 Y113.37 E12.71002
G1 X50.437 Y104.789 E13.37961
G1 X49.526 Y104.789 E13.42988
G1 X41.857 Y112.459 E14.02838
G1 X41.857 Y111.548 E14.07865
G1 X48.615 Y104.789 E14.60606
G1 X47.704 Y104.789 E14.65633
G1 X41.857 Y110.636 E15.11261
G1 X41.857 Y109.725 E15.16288
G1 X46.793 Y104.789 E15.54807
G1 X45.881 Y104.789 E15.59839
G1 X41.857 Y108.814 E15.91245
G1 X41.857 Y107.903 E15.96272
G1 X44.971 Y104.788 E16.20576
G1 X44.734 Y104.767 E16.21889
G1 X44.443 Y104.68 E16.23565
G1 X44.268 Y104.58 E16.24677
G1 X41.857 Y106.992 E16.43495
G1 X41.857 Y106.081 E16.48522
G1 X43.805 Y104.132 E16.63727
G1 X43.647 Y103.835 E16.65583
G1 X43.59 Y103.612 E16.66853
G1 X43.576 Y103.45 E16.6775
G1 X41.857 Y105.169 E16.81164
G1 X41.857 Y104.258 E16.86191
G1 X43.569 Y102.546 E16.99551
G1 X43.569 Y101.634 E17.04583
G1 X41.857 Y103.347 E17.17947
G1 X41.857 Y102.436 E17.22974
G1 X43.569 Y100.723 E17.36338
G1 X43.569 Y99.812 E17.41365
G1 X41.857 Y101.525 E17.54729
G1 X41.857 Y100.614 E17.59756
G1 X43.569 Y98.901 E17.7312
G1 X43.569 Y97.99 E17.78147
G1 X41.857 Y99.702 E17.91507
G1 X41.857 Y98.791 E17.96534
G1 X43.569 Y97.079 E18.09894
G1 X43.569 Y96.167 E18.14926
G1 X41.857 Y97.88 E18.2829
G1 X41.857 Y96.969 E18.33317
G1 X43.569 Y95.256 E18.46681
G1 X43.569 Y94.345 E18.51708
G1 X41.857 Y96.058 E18.65072
G1 X41.857 Y95.147 E18.70099
G1 X43.569 Y93.434 E18.83463
G1 X43.569 Y92.523 E18.8849
G1 X41.857 Y94.236 E19.01854
G1 X41.857 Y93.324 E19.06886
G1 X43.569 Y91.612 E19.20246
G1 X43.569 Y90.7 E19.25278
G1 X41.857 Y92.413 E19.38642
G1 X41.857 Y91.502 E19.43669
G1 X43.569 Y89.789 E19.57033
G1 X43.569 Y88.878 E19.6206
G1 X41.857 Y90.591 E19.75424
G1 X41.857 Y89.68 E19.80451
G1 X43.569 Y87.967 E19.93815
G1 X43.569 Y87.056 E19.98842
G1 X41.857 Y88.769 E20.12206
G1 X41.857 Y87.857 E20.17238
G1 X43.569 Y86.145 E20.30598
G1 X43.569 Y85.234 E20.35625
G1 X41.857 Y86.946 E20.48985
G1 X41.857 Y86.035 E20.54012
G1 X43.502 Y84.389 E20.66853
G1 X42.591 Y84.389 E20.7188
G1 X41.572 Y85.408 E20.79832
;LAYER_CHANGE
;Z:0.6
;HEIGHT:0.2
G1 Z.6 F18000
G1 E20.39832 F2100
G92 E0
G1 X45.015 Y104.08 F18000
G1 E.4 F2100
;TYPE:Perimeter
;WIDTH:0.674999
G1 F6000
G1 X45.191 Y104.115 E.40971
G1 X59.443 Y104.115 E1.18123
G1 X59.443 Y107.653 E1.37276
G1 X50.558 Y118.129 E2.11637
G1 X41.382 Y118.129 E2.61311
G1 X41.382 Y83.915 E4.46526
G1 X44.243 Y83.915 E4.62014
G1 X44.243 Y103.167 E5.66233
G1 X44.258 Y103.331 E5.67125
G1 X44.433 Y103.736 E5.69513
G1 X44.623 Y103.926 E5.70968
G1 X44.827 Y104.042 E5.72238
G1 X44.926 Y104.062 E5.72785
G1 X44.875 Y103.167 F18000
;TYPE:External perimeter
G1 F5400
G1 X44.893 Y103.27 E5.73351
G1 X45.002 Y103.42 E5.74355
G1 X45.191 Y103.483 E5.75433
G1 X59.832 Y103.483 E6.54691
G1 X60.075 Y103.727 E6.56555
G1 X60.075 Y107.885 E6.79064
G1 X50.851 Y118.761 E7.56264
G1 X40.75 Y118.761 E8.10945
G1 X40.75 Y83.283 E10.03003
G1 X44.632 Y83.283 E10.24018
G1 X44.875 Y83.527 E10.25882
G1 X44.875 Y103.077 E11.31715
G1 X44.792 Y103.229 F18000
G1 E10.91715 F2100
G92 E0
G1 X44.054 Y85.408 F18000
G1 E.4 F2100
;TYPE:Solid infill
;WIDTH:0.687136
G1 F5400
G1 X43.035 Y84.389 E.47951
G1 X42.124 Y84.389 E.52977
G1 X43.769 Y86.035 E.65816
G1 X43.769 Y86.946 E.70842
G1 X41.857 Y85.033 E.85765
G1 X41.857 Y85.944 E.90791
G1 X43.769 Y87.857 E1.05714
G1 X43.769 Y88.768 E1.1074
G1 X41.857 Y86.855 E1.25663
G1 X41.857 Y87.766 E1.30689
G1 X43.769 Y89.679 E1.45612
G1 X43.769 Y90.59 E1.50638
G1 X41.857 Y88.677 E1.65561
G1 X41.857 Y89.589 E1.70593
G1 X43.769 Y91.501 E1.85512
G1 X43.769 Y92.412 E1.90538
G1 X41.857 Y90.5 E2.05457
G1 X41.857 Y91.411 E2.10483
G1 X43.769 Y93.323 E2.25402
G1 X43.769 Y94.234 E2.30428
G1 X41.857 Y92.322 E2.45347
G1 X41.857 Y93.233 E2.50373
G1 X43.769 Y95.146 E2.65296
G1 X43.769 Y96.057 E2.70322
G1 X41.857 Y94.144 E2.85245
G1 X41.857 Y95.055 E2.90271
G1 X43.769 Y96.968 E3.05194
G1 X43.769 Y97.879 E3.1022
G1 X41.857 Y95.966 E3.25143
G1 X41.857 Y96.877 E3.30169
G1 X43.769 Y98.79 E3.45092
G1 X43.769 Y99.701 E3.50118
G1 X41.857 Y97.788 E3.65041
G1 X41.857 Y98.699 E3.70067
G1 X43.769 Y100.612 E3.8499
G1 X43.769 Y101.523 E3.90016
G1 X41.857 Y99.61 E4.04939
G1 X41.857 Y100.521 E4.09965
G1 X44.054 Y102.718 E4.27108
G1 E3.87108 F2100
G92 E0
G1 X58.395 Y104.305 F18000
G1 E.4 F2100
G1 F5400
G1 X58.969 Y104.879 E.44479
G1 X58.969 Y105.79 E.49505
G1 X57.768 Y104.589 E.58876
G1 X56.857 Y104.589 E.63902
G1 X58.969 Y106.701 E.80381
G1 X58.969 Y107.479 E.84674
G1 X58.908 Y107.551 E.85195
G1 X55.946 Y104.589 E1.08307
G1 X55.035 Y104.589 E1.13333
G1 X58.49 Y108.044 E1.40292
G1 X58.072 Y108.537 E1.43858
G1 X54.124 Y104.589 E1.74663
G1 X53.213 Y104.589 E1.79689
G1 X57.654 Y109.03 E2.14341
G1 X57.236 Y109.523 E2.17907
G1 X52.302 Y104.589 E2.56406
G1 X51.391 Y104.589 E2.61432
G1 X56.818 Y110.016 E3.03778
G1 X56.4 Y110.509 E3.07344
G1 X50.48 Y104.589 E3.53536
G1 X49.569 Y104.589 E3.58562
G1 X55.981 Y111.002 E4.08597
G1 X55.563 Y111.495 E4.12163
G1 X48.658 Y104.589 E4.66045
G1 X47.747 Y104.589 E4.71071
G1 X55.145 Y111.988 E5.288
G1 X54.727 Y112.481 E5.32366
G1 X46.836 Y104.589 E5.93941
G1 X45.925 Y104.589 E5.98967
G1 X54.309 Y112.974 E6.64389
G1 X53.891 Y113.467 E6.67955
G1 X41.857 Y101.432 E7.61857
G1 X41.857 Y102.343 E7.66883
M73 P4 R13
G1 X53.473 Y113.96 E8.57524
G1 X53.055 Y114.453 E8.6109
G1 X41.857 Y103.254 E9.48469
G1 X41.857 Y104.166 E9.53501
G1 X52.637 Y114.946 E10.37615
G1 X52.218 Y115.438 E10.41181
G1 X41.857 Y105.077 E11.22025
G1 X41.857 Y105.988 E11.27051
G1 X51.8 Y115.931 E12.04634
G1 X51.382 Y116.424 E12.082
G1 X41.857 Y106.899 E12.82521
G1 X41.857 Y107.81 E12.87547
G1 X50.964 Y116.917 E13.58607
G1 X50.546 Y117.41 E13.62173
G1 X41.857 Y108.721 E14.29971
G1 X41.857 Y109.632 E14.34997
G1 X49.879 Y117.655 E14.97595
G1 X48.968 Y117.655 E15.02621
G1 X41.857 Y110.543 E15.5811
G1 X41.857 Y111.454 E15.63136
G1 X48.057 Y117.655 E16.11517
G1 X47.146 Y117.655 E16.16543
G1 X41.857 Y112.365 E16.57816
G1 X41.857 Y113.276 E16.62842
G1 X46.235 Y117.655 E16.97006
G1 X45.324 Y117.655 E17.02032
G1 X41.857 Y114.187 E17.29088
G1 X41.857 Y115.098 E17.34114
G1 X44.413 Y117.655 E17.54062
G1 X43.502 Y117.655 E17.59088
G1 X41.857 Y116.009 E17.71927
G1 X41.857 Y116.92 E17.76953
G1 X42.875 Y117.939 E17.849
M106 S252.45
;LAYER_CHANGE
;Z:0.8
;HEIGHT:0.2
G1 Z.8 F18000
G1 E17.449 F2100
G92 E0
G1 X45.865 Y104.115 F18000
G1 E.4 F2100
;TYPE:Perimeter
;WIDTH:0.674999
G1 F6000
G1 X59.443 Y104.115 E1.13504
G1 X59.443 Y107.653 E1.32657
G1 X50.46 Y118.244 E2.07836
G1 X41.382 Y118.244 E2.56979
G1 X41.382 Y83.915 E4.42817
G1 X44.243 Y83.915 E4.58305
G1 X44.243 Y103.167 E5.62524
G1 X44.258 Y103.331 E5.63416
G1 X44.433 Y103.736 E5.65804
G1 X44.623 Y103.926 E5.67259
G1 X44.827 Y104.042 E5.68529
G1 X45.191 Y104.115 E5.70539
G1 X45.775 Y104.115 E5.737
G1 X45.002 Y103.42 F18000
;TYPE:External perimeter
G1 F5400
G1 X45.191 Y103.483 E5.74778
G1 X59.832 Y103.483 E6.54036
G1 X60.075 Y103.727 E6.559
G1 X60.075 Y107.885 E6.78409
G1 X50.753 Y118.876 E7.56427
G1 X40.75 Y118.876 E8.10578
G1 X40.75 Y83.283 E10.03258
G1 X44.632 Y83.283 E10.24273
G1 X44.875 Y83.527 E10.26137
G1 X44.875 Y103.167 E11.32457
G1 X44.893 Y103.27 E11.33023
