; generated by PrusaSlicer 2.6.0-alpha5+win64 on 2023-04-05 at 09:22:31 UTC


;
;
; 

; external perimeters extrusion width = 0.68mm
; perimeters extrusion width = 0.68mm
; infill extrusion width = 0.68mm
; solid infill extrusion width = 0.68mm
; top infill extrusion width = 0.60mm
; first layer extrusion width = 0.63mm

; external perimeters extrusion width = 0.68mm
; perimeters extrusion width = 0.68mm
; infill extrusion width = 0.68mm
; solid infill extrusion width = 0.68mm
; top infill extrusion width = 0.60mm
; first layer extrusion width = 0.63mm

; external perimeters extrusion width = 0.68mm
; perimeters extrusion width = 0.68mm
; infill extrusion width = 0.68mm
; solid infill extrusion width = 0.68mm
; top infill extrusion width = 0.60mm
; first layer extrusion width = 0.63mm

M73 P0 R5
M107
M190 S85 ; set bed temperature and wait for it to be reached
G10 S230 P1 ; set temperature
;TYPE:Custom
;Set standby temperatures
;G10 R200 P0
G10 R230 P1
G28 ; home all axes
G32 ; run bed.g -- probe bed and enable compensation
;workaround for toolchanger when using only one extruder
T1; select tool
G10 S230 P1 ; set temperature
M116 ; wait for temperature to be reached
G21 ; set units to millimeters
G90 ; use absolute coordinates
M82 ; use absolute distances for extrusion
G92 E0
;tool change macro
T1
G92 E0
; Filament gcode
M107
;LAYER_CHANGE
;Z:0.2
;HEIGHT:0.2
G1 Z.2 F18000
G1 E-.4 F2100
G92 E0
G1 X82.471 Y64.653 F18000
G1 E.4 F2100
;TYPE:Skirt/Brim
;WIDTH:0.63
G1 F2700
G1 X84.242 Y63.052 E.52004
G1 X86.44 Y62.121 E.64006
G1 X88.1 Y61.926 E.7241
G1 X131.9 Y61.926 E2.92638
G1 X134.254 Y62.323 E3.04641
G1 X136.347 Y63.471 E3.16644
G1 X137.948 Y65.242 E3.28648
G1 X138.879 Y67.44 E3.4065
G1 X139.074 Y69.1 E3.49054
G1 X139.074 Y140.9 E7.10067
G1 X138.677 Y143.254 E7.2207
M73 P1 R5
G1 X137.529 Y145.347 E7.34073
G1 X135.758 Y146.948 E7.46077
G1 X133.56 Y147.879 E7.58079
G1 X131.9 Y148.074 E7.66483
G1 X88.1 Y148.074 E9.86711
G1 X85.746 Y147.677 E9.98714
G1 X83.653 Y146.529 E10.10717
G1 X82.052 Y144.758 E10.22721
G1 X81.121 Y142.56 E10.34723
G1 X80.926 Y140.9 E10.43127
G1 X80.926 Y69.1 E14.0414
G1 X81.323 Y66.746 E14.16143
M73 P2 R5
G1 X82.427 Y64.731 E14.27695
G1 X82.955 Y65.036 F18000
G1 F2700
G1 X83.053 Y64.867 E14.28677
G1 X84.804 Y63.397 E14.40172
G1 X86.953 Y62.614 E14.51672
G1 X88.1 Y62.513 E14.57461
G1 X131.9 Y62.513 E16.77689
G1 X134.152 Y62.91 E16.89187
G1 X136.133 Y64.053 E17.00687
G1 X137.603 Y65.804 E17.12182
G1 X138.386 Y67.953 E17.23682
G1 X138.487 Y69.1 E17.29471
G1 X138.487 Y140.9 E20.90484
G1 X138.09 Y143.152 E21.01982
M73 P3 R4
G1 X136.947 Y145.133 E21.13482
G1 X135.196 Y146.603 E21.24977
G1 X133.047 Y147.386 E21.36477
G1 X131.9 Y147.487 E21.42266
G1 X88.1 Y147.487 E23.62494
G1 X85.848 Y147.09 E23.73992
G1 X83.867 Y145.947 E23.85492
G1 X82.397 Y144.196 E23.96987
G1 X81.614 Y142.047 E24.08487
G1 X81.513 Y140.9 E24.14276
G1 X81.513 Y69.1 E27.75289
G1 X81.91 Y66.848 E27.86787
M73 P4 R4
G1 X82.91 Y65.114 E27.96852
G1 E27.56852 F2100
G92 E0
G1 X130.368 Y87.998 F18000
G1 E.4 F2100
;TYPE:Perimeter
;WIDTH:0.629999
G1 F3000
G1 X114.351 Y87.998 E1.20534
G1 X114.848 Y87.748 E1.23331
G1 X115.563 Y87.312 E1.27542
G1 X116.252 Y86.806 E1.3184
G1 X117.148 Y85.995 E1.37917
G1 X117.679 Y85.408 E1.41897
G1 X118.022 Y84.962 E1.44726
G1 X118.161 Y85.337 E1.46737
G1 X118.536 Y85.593 E1.4902
G1 X118.829 Y85.644 E1.50515
G1 X129.271 Y85.644 E2.03018
G1 X129.424 Y85.63 E2.03791
G1 X129.78 Y85.482 E2.05729
G1 X130.041 Y85.19 E2.07698
;WIDTH:0.676419
G1 X130.097 Y85.103 E2.08259
;WIDTH:0.722838
G1 X130.152 Y85.015 E2.08863
;WIDTH:0.769257
G1 X130.207 Y84.927 E2.09509
G1 X130.217 Y84.763 E2.10531
;WIDTH:0.759381
G1 X130.217 Y73.237 E2.81256
G1 X130.158 Y73.095 E2.822
;WIDTH:0.716254
G1 X130.1 Y72.952 E2.8309
;WIDTH:0.673127
G1 X130.041 Y72.81 E2.8392
;WIDTH:0.629999
G1 X129.78 Y72.518 E2.85889
G1 X129.489 Y72.384 E2.875
G1 X129.271 Y72.356 E2.88605
G1 X118.829 Y72.356 E3.41108
G1 X118.536 Y72.406 E3.42603
G1 X118.211 Y72.609 E3.4453
G1 X118.022 Y73.038 E3.46887
G1 X117.68 Y72.593 E3.49709
G1 X117.117 Y71.973 E3.5392
G1 X116.504 Y71.403 E3.58129
G1 X115.846 Y70.885 E3.6234
G1 X115.147 Y70.425 E3.66547
G1 X114.362 Y70.002 E3.71031
G1 X130.998 Y70.002 E4.54677
G1 X130.998 Y71.212 E4.60761
G1 X130.998 Y72.562 E4.67549
;WIDTH:0.673127
G1 X130.976 Y72.787 E4.68769
;WIDTH:0.716254
G1 X130.955 Y73.012 E4.70072
;WIDTH:0.759381
G1 X130.933 Y73.237 E4.71459
G1 X130.933 Y84.763 E5.42184
;WIDTH:0.769257
G1 X130.928 Y84.99 E5.43596
G1 X130.952 Y85.139 E5.44535
;WIDTH:0.722838
G1 X130.975 Y85.289 E5.45419
;WIDTH:0.676419
G1 X130.998 Y85.438 E5.46237
;WIDTH:0.629999
G1 X130.998 Y87.998 E5.59109
G1 X130.458 Y87.998 E5.61824
G1 E5.21824 F2100
G92 E0
G1 X102.096 Y70.002 F18000
G1 E.4 F2100
G1 F3000
G1 X105.649 Y70.002 E.57865
G1 X105.152 Y70.252 E.60662
G1 X104.437 Y70.688 E.64873
G1 X103.761 Y71.183 E.69086
G1 X103.13 Y71.732 E.73291
G1 X102.546 Y72.332 E.77501
G1 X102.014 Y72.979 E.81713
G1 X101.989 Y72.909 E.82087
G1 X101.566 Y72.45 E.85225
G1 X101.171 Y72.356 E.87267
G1 X90.729 Y72.356 E1.3977
G1 X90.576 Y72.37 E1.40543
M73 P5 R4
G1 X90.22 Y72.518 E1.42481
G1 X89.959 Y72.81 E1.4445
;WIDTH:0.673127
G1 X89.9 Y72.952 E1.4528
;WIDTH:0.716254
G1 X89.842 Y73.095 E1.4617
;WIDTH:0.759381
G1 X89.783 Y73.237 E1.47114
G1 X89.783 Y84.763 E2.17839
;WIDTH:0.769258
G1 X89.793 Y84.927 E2.18861
G1 X89.848 Y85.015 E2.19507
;WIDTH:0.722839
G1 X89.903 Y85.103 E2.20111
;WIDTH:0.676419
G1 X89.959 Y85.19 E2.20672
;WIDTH:0.629999
G1 X90.22 Y85.482 E2.22641
G1 X90.511 Y85.616 E2.24252
G1 X90.729 Y85.644 E2.25357
G1 X101.171 Y85.644 E2.7786
G1 X101.464 Y85.594 E2.79355
G1 X101.851 Y85.323 E2.8173
G1 X101.984 Y84.953 E2.83707
G1 X102.32 Y85.407 E2.86547
G1 X102.883 Y86.027 E2.90758
G1 X103.51 Y86.608 E2.95056
G1 X104.498 Y87.352 E3.01275
G1 X105.152 Y87.748 E3.05119
G1 X105.649 Y87.998 E3.07916
G1 X89.002 Y87.998 E3.91618
G1 X89.002 Y85.438 E4.0449
;WIDTH:0.676419
G1 X89.025 Y85.289 E4.05308
;WIDTH:0.722839
G1 X89.048 Y85.139 E4.06192
;WIDTH:0.769258
G1 X89.072 Y84.99 E4.07131
G1 X89.067 Y84.763 E4.08543
;WIDTH:0.759381
G1 X89.067 Y73.237 E4.79268
G1 X89.045 Y73.012 E4.80655
;WIDTH:0.716254
G1 X89.024 Y72.787 E4.81958
;WIDTH:0.673127
G1 X89.002 Y72.562 E4.83178
;WIDTH:0.629999
G1 X89.002 Y70.002 E4.9605
G1 X102.006 Y70.002 E5.61434
G1 E5.21434 F2100
G92 E0
G1 X131.585 Y88.585 F18000
G1 E.4 F2100
;TYPE:External perimeter
G1 F2700
G1 X112.377 Y88.585 E1.36578
G1 X112.11 Y88.609 E1.37926
;WIDTH:0.582331
G1 X111.843 Y88.633 E1.39164
;WIDTH:0.534662
G1 X111.576 Y88.657 E1.40293
;WIDTH:0.486993
G1 X110.779 Y88.681 E1.43326
;WIDTH:0.43759
G1 X109.976 Y88.689 E1.4604
;WIDTH:0.457794
G1 X108.831 Y88.671 E1.50109
;WIDTH:0.460304
G1 X108.788 Y88.67 E1.50263
;WIDTH:0.497711
G1 X108.386 Y88.651 E1.51831
;WIDTH:0.535118
G1 X107.984 Y88.632 E1.53527
;WIDTH:0.582559
G1 X107.602 Y88.609 E1.55296
;WIDTH:0.629999
G1 X107.22 Y88.585 E1.5722
G1 X88.415 Y88.585 E2.51772
G1 X88.415 Y69.415 E3.48159
G1 X107.623 Y69.415 E4.44737
M73 P6 R4
G1 X107.893 Y69.391 E4.461
;WIDTH:0.582138
G1 X108.164 Y69.367 E4.47356
;WIDTH:0.534276
G1 X108.434 Y69.343 E4.48497
;WIDTH:0.486414
G1 X109.02 Y69.328 E4.50724
;WIDTH:0.456288
G1 X109.606 Y69.313 E4.52799
;WIDTH:0.426107
G1 X110.414 Y69.313 E4.55451
;WIDTH:0.460286
G1 X111.212 Y69.33 E4.58304
;WIDTH:0.497702
G1 X111.614 Y69.349 E4.59872
;WIDTH:0.535118
G1 X112.016 Y69.368 E4.61568
;WIDTH:0.582559
G1 X112.398 Y69.391 E4.63337
;WIDTH:0.629999
G1 X112.78 Y69.415 E4.65261
G1 X131.585 Y69.415 E5.59813
G1 X131.585 Y71.212 E5.68848
G1 X131.585 Y88.495 E6.55747
G1 E6.15747 F2100
G92 E0
G1 X129.528 Y84.905 F18000
G1 E.4 F2100
G1 F2700
G1 X129.322 Y85.052 E.41272
G1 X118.829 Y85.056 E.94031
G1 X118.623 Y84.973 E.95148
G1 X118.535 Y84.763 E.96293
G1 X118.535 Y82.971 E1.05303
G1 X118.157 Y83.701 E1.09436
G1 X117.735 Y84.367 E1.134
G1 X117.259 Y84.995 E1.17362
G1 X116.691 Y85.622 E1.21616
G1 X115.859 Y86.369 E1.27238
G1 X115.218 Y86.837 E1.31229
G1 X114.544 Y87.245 E1.3519
G1 X113.839 Y87.597 E1.39152
G1 X113.106 Y87.888 E1.43117
G1 X112.352 Y88.116 E1.47078
G1 X112.091 Y88.149 E1.48401
;WIDTH:0.58475
G1 X111.829 Y88.182 E1.49626
;WIDTH:0.539501
G1 X111.567 Y88.215 E1.50749
;WIDTH:0.494251
G1 X111.177 Y88.25 E1.52263
;WIDTH:0.466614
G1 X110.788 Y88.286 E1.53681
;WIDTH:0.438977
G1 X110.008 Y88.311 E1.56328
;WIDTH:0.421812
G1 X109.988 Y88.311 E1.56393
;WIDTH:0.457794
G1 X108.844 Y88.257 E1.60462
;WIDTH:0.491083
G1 X108.454 Y88.208 E1.61971
;WIDTH:0.524371
G1 X108.064 Y88.16 E1.63591
;WIDTH:0.559581
G1 X107.807 Y88.112 E1.64748
;WIDTH:0.59479
G1 X107.549 Y88.065 E1.65988
;WIDTH:0.629999
G1 X107.263 Y88.008 E1.67454
G1 X106.189 Y87.609 E1.73215
G1 X105.477 Y87.257 E1.77209
G1 X104.777 Y86.833 E1.81324
G1 X103.865 Y86.141 E1.8708
G1 X103.285 Y85.599 E1.91071
G1 X102.756 Y85.014 E1.95037
G1 X102.063 Y84.064 E2.00949
G1 X101.665 Y83.377 E2.04941
G1 X101.465 Y82.956 E2.07285
G1 X101.465 Y84.763 E2.16371
G1 X101.377 Y84.972 E2.17511
G1 X101.171 Y85.056 E2.1863
G1 X90.729 Y85.056 E2.71133
G1 X90.559 Y85.003 E2.72028
G1 X90.439 Y84.814 E2.73154
G1 X90.435 Y84.763 E2.73411
G1 X90.435 Y73.237 E3.31364
G1 X90.472 Y73.095 E3.32102
M73 P7 R4
G1 X90.656 Y72.953 E3.33271
G1 X90.729 Y72.944 E3.33641
G1 X101.171 Y72.944 E3.86144
G1 X101.324 Y72.986 E3.86942
G1 X101.452 Y73.151 E3.87992
G1 X101.465 Y75.044 E3.9751
G1 X102.047 Y73.962 E4.03687
G1 X102.355 Y73.516 E4.06412
G1 X102.998 Y72.706 E4.11612
G1 X103.549 Y72.143 E4.15573
G1 X104.145 Y71.627 E4.19537
G1 X104.782 Y71.163 E4.23499
G1 X105.456 Y70.755 E4.2746
G1 X106.161 Y70.403 E4.31422
G1 X106.894 Y70.112 E4.35387
G1 X107.648 Y69.884 E4.39348
G1 X107.909 Y69.851 E4.40671
;WIDTH:0.58475
G1 X108.171 Y69.818 E4.41896
;WIDTH:0.539501
G1 X108.433 Y69.785 E4.43019
;WIDTH:0.494252
G1 X108.457 Y69.786 E4.43112
;WIDTH:0.486414
G1 X109.041 Y69.74 E4.45337
;WIDTH:0.456288
G1 X109.626 Y69.695 E4.47414
;WIDTH:0.426161
G1 X110.382 Y69.695 E4.49895
;WIDTH:0.458093
G1 X111.16 Y69.743 E4.52667
;WIDTH:0.491232
G1 X111.548 Y69.792 E4.54169
;WIDTH:0.52437
G1 X111.936 Y69.84 E4.55781
;WIDTH:0.55958
G1 X112.193 Y69.888 E4.56938
;WIDTH:0.59479
G1 X112.451 Y69.935 E4.58177
;WIDTH:0.629999
G1 X112.708 Y69.983 E4.59492
G1 X113.453 Y70.241 E4.63456
G1 X114.173 Y70.561 E4.67418
G1 X114.864 Y70.939 E4.71378
G1 X115.522 Y71.374 E4.75344
G1 X116.14 Y71.863 E4.79306
G1 X116.715 Y72.401 E4.83265
G1 X117.244 Y72.986 E4.87231
G1 X117.66 Y73.532 E4.90682
G1 X118.145 Y74.278 E4.95156
G1 X118.535 Y75.029 E4.99411
G1 X118.535 Y73.237 E5.08421
G1 X118.623 Y73.028 E5.09561
G1 X118.829 Y72.944 E5.1068
G1 X129.271 Y72.944 E5.63183
G1 X129.441 Y72.997 E5.64078
G1 X129.528 Y73.095 E5.64737
G1 X129.565 Y73.237 E5.65475
G1 X129.565 Y84.763 E6.23428
G1 X129.551 Y84.818 E6.23713
G1 X129.629 Y85.137 F18000
G1 X130.071 Y85.41
;TYPE:Solid infill
;WIDTH:0.647942
G1 F2700
G1 X130.558 Y85.897 E6.27282
G1 X130.558 Y86.753 E6.31718
G1 X129.771 Y85.966 E6.37485
G1 X129.603 Y86.043 E6.38443
G1 X129.281 Y86.084 E6.40125
G1 X129.033 Y86.084 E6.4141
G1 X130.507 Y87.558 E6.52212
G1 X129.651 Y87.558 E6.56648
G1 X128.177 Y86.084 E6.6745
G1 X127.322 Y86.084 E6.7188
G1 X128.795 Y87.558 E6.82678
G1 X127.94 Y87.558 E6.87108
G1 X126.466 Y86.084 E6.9791
G1 X125.61 Y86.084 E7.02346
G1 X127.084 Y87.558 E7.13148
G1 X126.229 Y87.558 E7.17578
G1 X124.755 Y86.084 E7.2838
G1 X123.899 Y86.084 E7.32816
G1 X125.373 Y87.558 E7.43618
G1 X124.517 Y87.558 E7.48054
G1 X123.044 Y86.084 E7.58852
G1 X122.188 Y86.084 E7.63288
G1 X123.662 Y87.558 E7.7409
G1 X122.806 Y87.558 E7.78526
G1 X121.332 Y86.084 E7.89328
G1 X120.477 Y86.084 E7.93758
G1 X121.95 Y87.558 E8.04556
G1 X121.095 Y87.558 E8.08986
G1 X119.621 Y86.084 E8.19788
G1 X118.755 Y86.073 E8.24276
G1 X120.239 Y87.558 E8.35154
G1 X119.384 Y87.558 E8.39584
G1 X117.776 Y85.95 E8.51367
G1 X117.367 Y86.396 E8.54503
G1 X118.528 Y87.558 E8.63015
G1 X117.672 Y87.558 E8.67451
G1 X116.916 Y86.801 E8.72995
G1 X116.458 Y87.199 E8.76139
G1 X117.081 Y87.822 E8.80704
G1 E8.40704 F2100
G92 E0
G1 X103.435 Y87.822 F18000
G1 E.4 F2100
;WIDTH:0.656411
G1 F2700
G1 X101.62 Y86.007 E.53487
G1 X101.399 Y86.065 E.54688
G1 X100.829 Y86.084 E.57685
G1 X102.303 Y87.558 E.68638
G1 X101.436 Y87.558 E.73193
G1 X99.962 Y86.084 E.84146
G1 X99.094 Y86.084 E.88707
G1 X100.568 Y87.558 E.9966
G1 X99.7 Y87.558 E1.04221
G1 X98.227 Y86.084 E1.1517
G1 X97.359 Y86.084 E1.19731
M73 P8 R4
G1 X98.833 Y87.558 E1.30684
G1 X97.965 Y87.558 E1.35245
G1 X96.491 Y86.084 E1.46198
G1 X95.624 Y86.084 E1.50753
G1 X97.098 Y87.558 E1.61706
G1 X96.23 Y87.558 E1.66267
G1 X94.756 Y86.084 E1.7722
G1 X93.889 Y86.084 E1.81775
G1 X95.362 Y87.558 E1.92724
G1 X94.495 Y87.558 E1.97279
G1 X93.021 Y86.084 E2.08232
G1 X92.153 Y86.084 E2.12793
G1 X93.627 Y87.558 E2.23746
G1 X92.759 Y87.558 E2.28307
G1 X91.286 Y86.084 E2.39256
G1 X90.719 Y86.084 E2.42235
G1 X90.361 Y86.027 E2.4414
G1 X91.892 Y87.558 E2.55516
G1 X91.024 Y87.558 E2.60077
G1 X89.442 Y85.976 E2.71832
G1 X89.442 Y86.843 E2.76387
G1 X90.421 Y87.822 E2.83662
G1 E2.43662 F2100
G92 E0
G1 X102.931 Y70.178 F18000
G1 E.4 F2100
;WIDTH:0.641266
G1 F2700
G1 X103.546 Y70.793 E.44457
G1 X103.089 Y71.183 E.47536
G1 X102.349 Y70.442 E.52903
G1 X101.503 Y70.442 E.57238
G1 X102.653 Y71.593 E.65576
G1 X102.236 Y72.022 E.68642
G1 X100.656 Y70.442 E.80093
G1 X99.81 Y70.442 E.84428
G1 X101.305 Y71.937 E.95263
G1 X101.184 Y71.916 E.95892
G1 X100.438 Y71.916 E.99715
G1 X98.964 Y70.442 E1.10397
G1 X98.118 Y70.442 E1.14732
G1 X99.592 Y71.916 E1.25414
G1 X98.745 Y71.916 E1.29754
G1 X97.272 Y70.442 E1.40433
G1 X96.425 Y70.442 E1.44773
G1 X97.899 Y71.916 E1.55455
G1 X97.053 Y71.916 E1.5979
G1 X95.579 Y70.442 E1.70472
G1 X94.733 Y70.442 E1.74807
G1 X96.207 Y71.916 E1.85489
G1 X95.361 Y71.916 E1.89824
G1 X93.887 Y70.442 E2.00506
G1 X93.041 Y70.442 E2.04841
G1 X94.514 Y71.916 E2.1552
G1 X93.668 Y71.916 E2.19855
G1 X92.195 Y70.442 E2.30534
G1 X91.348 Y70.442 E2.34874
G1 X92.822 Y71.916 E2.45556
G1 X91.976 Y71.916 E2.49891
G1 X90.502 Y70.442 E2.60573
G1 X89.656 Y70.442 E2.64908
G1 X91.13 Y71.916 E2.7559
G1 X90.719 Y71.916 E2.77696
G1 X90.397 Y71.957 E2.79359
G1 X90.347 Y71.98 E2.79641
G1 X89.442 Y71.075 E2.862
G1 X89.442 Y71.921 E2.90535
G1 X90.015 Y72.494 E2.94688
G1 E2.54688 F2100
G92 E0
G1 X129.579 Y70.178 F18000
G1 E.4 F2100
;WIDTH:0.656555
G1 F2700
G1 X130.558 Y71.157 E.47276
G1 X130.558 Y72.025 E.51838
G1 X128.975 Y70.442 E.63603
G1 X128.107 Y70.442 E.68165
G1 X129.638 Y71.973 E.79544
G1 X129.281 Y71.916 E.81444
G1 X128.713 Y71.916 E.84429
G1 X127.239 Y70.442 E.95384
G1 X126.372 Y70.442 E.9994
G1 X127.845 Y71.916 E1.10892
G1 X126.978 Y71.916 E1.15448
G1 X125.504 Y70.442 E1.26403
G1 X124.636 Y70.442 E1.30965
G1 X126.11 Y71.916 E1.4192
G1 X125.242 Y71.916 E1.46482
G1 X123.768 Y70.442 E1.57437
G1 X122.9 Y70.442 E1.61999
G1 X124.374 Y71.916 E1.72954
G1 X123.506 Y71.916 E1.77516
M73 P9 R4
G1 X122.033 Y70.442 E1.88468
G1 X121.165 Y70.442 E1.9303
G1 X122.639 Y71.916 E2.03985
G1 X121.771 Y71.916 E2.08547
G1 X120.297 Y70.442 E2.19502
G1 X119.429 Y70.442 E2.24064
G1 X120.903 Y71.916 E2.35019
G1 X120.035 Y71.916 E2.39581
G1 X118.561 Y70.442 E2.50536
G1 X117.694 Y70.442 E2.55092
G1 X119.167 Y71.916 E2.66044
G1 X118.601 Y71.935 E2.6902
G1 X118.378 Y71.994 E2.70232
G1 X116.562 Y70.178 E2.83729
G1 E2.43729 F2100
G92 E0
G1 X130.368 Y113.998 F18000
G1 E.4 F2100
;TYPE:Perimeter
;WIDTH:0.629999
G1 F3000
G1 X114.351 Y113.998 E1.20534
G1 X114.848 Y113.748 E1.23331
G1 X115.563 Y113.312 E1.27542
G1 X116.252 Y112.806 E1.3184
G1 X117.148 Y111.995 E1.37917
G1 X117.679 Y111.408 E1.41897
G1 X118.022 Y110.962 E1.44726
G1 X118.161 Y111.337 E1.46737
G1 X118.536 Y111.593 E1.4902
G1 X118.829 Y111.644 E1.50515
G1 X129.271 Y111.644 E2.03018
G1 X129.424 Y111.63 E2.03791
G1 X129.78 Y111.482 E2.05729
G1 X130.041 Y111.19 E2.07698
;WIDTH:0.676419
G1 X130.097 Y111.103 E2.08259
;WIDTH:0.722838
G1 X130.152 Y111.015 E2.08863
;WIDTH:0.769257
G1 X130.207 Y110.927 E2.09509
G1 X130.217 Y110.763 E2.10531
;WIDTH:0.759381
G1 X130.217 Y99.237 E2.81256
G1 X130.158 Y99.095 E2.822
;WIDTH:0.716254
G1 X130.1 Y98.952 E2.8309
;WIDTH:0.673127
