; generated by PrusaSlicer 2.6.0-alpha5+win64 on 2023-04-04 at 21:07:19 UTC


;
;
; 

; external perimeters extrusion width = 0.68mm
; perimeters extrusion width = 0.68mm
; infill extrusion width = 0.68mm
; solid infill extrusion width = 0.68mm
; top infill extrusion width = 0.60mm
; first layer extrusion width = 0.63mm

M73 P0 R9
M107
M190 S85 ; set bed temperature and wait for it to be reached
G10 S230 P1 ; set temperature
;TYPE:Custom
;Set standby temperatures
G10 R200 P0
G10 R220 P1
G28 ; home all axes
G32 ; run bed.g -- probe bed and enable compensation
;workaround for toolchanger when using only one extruder
T1; select tool
G10 S230 P1 ; set temperature
M116 ; wait for temperature to be reached
G21 ; set units to millimeters
G90 ; use absolute coordinates
M82 ; use absolute distances for extrusion
G92 E0
;tool change macro
T1
G92 E0
; Filament gcode
M107
;LAYER_CHANGE
;Z:0.2
;HEIGHT:0.2
G1 Z.2 F18000
G1 E-.4 F2100
G92 E0
G1 X49.22 Y78.643 F18000
G1 E.4 F2100
;TYPE:Skirt/Brim
;WIDTH:0.63
G1 F2700
G1 X52.347 Y77.926 E.56131
G1 X67.747 Y77.926 E1.33563
G1 X70.101 Y78.323 E1.45566
G1 X72.82 Y80.027 E1.617
G1 X85.02 Y92.227 E2.48451
G1 X86.404 Y94.172 E2.60454
G1 X87.121 Y97.3 E2.7659
G1 X87.121 Y112.7 E3.54022
G1 X86.724 Y115.054 E3.66025
G1 X85.02 Y117.773 E3.82159
G1 X72.82 Y129.973 E4.6891
G1 X70.875 Y131.357 E4.80913
G1 X67.747 Y132.074 E4.97049
G1 X52.347 Y132.074 E5.74481
G1 X49.993 Y131.677 E5.86484
G1 X47.274 Y129.973 E6.02618
G1 X35.074 Y117.773 E6.89369
G1 X33.691 Y115.828 E7.01369
G1 X32.973 Y112.7 E7.17506
G1 X32.973 Y97.3 E7.94938
G1 X33.37 Y94.946 E8.06941
G1 X35.074 Y92.227 E8.23075
G1 X47.274 Y80.027 E9.09826
G1 X49.146 Y78.696 E9.21375
G1 X49.488 Y79.183 F18000
G1 F2700
G1 X49.563 Y79.13 E9.21837
G1 X52.347 Y78.513 E9.36175
G1 X67.747 Y78.513 E10.13607
G1 X69.999 Y78.91 E10.25105
G1 X72.405 Y80.442 E10.39447
G1 X84.605 Y92.642 E11.26198
G1 X85.917 Y94.515 E11.37696
G1 X86.534 Y97.3 E11.52039
G1 X86.534 Y112.7 E12.29471
G1 X86.137 Y114.952 E12.40969
M73 P1 R9
G1 X84.605 Y117.358 E12.55311
G1 X72.405 Y129.558 E13.42062
G1 X70.532 Y130.87 E13.5356
G1 X67.747 Y131.487 E13.67903
G1 X52.347 Y131.487 E14.45335
G1 X50.095 Y131.09 E14.56833
M73 P1 R8
G1 X47.689 Y129.558 E14.71175
G1 X35.49 Y117.358 E15.57922
G1 X34.178 Y115.485 E15.6942
G1 X33.56 Y112.7 E15.83764
G1 X33.56 Y97.3 E16.61196
G1 X33.957 Y95.048 E16.72694
G1 X35.49 Y92.642 E16.87038
G1 X47.689 Y80.442 E17.73785
G1 X49.414 Y79.235 E17.84371
G1 E17.44371 F2100
G92 E0
G1 X64.639 Y96.402 F18000
G1 E.4 F2100
;TYPE:Perimeter
;WIDTH:0.629999
G1 F3000
G1 X65.69 Y96.402 E.45284
G1 X66.209 Y96.307 E.47937
G1 X66.526 Y96.034 E.5004
G1 X66.654 Y95.773 E.51502
G1 X66.691 Y95.521 E.52783
G1 X66.691 Y86.002 E1.00645
G1 X67.374 Y86.002 E1.04079
G1 X79.045 Y97.674 E1.87072
G1 X79.045 Y100.853 E2.03056
G1 X78.867 Y100.642 E2.04444
G1 X78.33 Y100.109 E2.08248
G1 X77.764 Y99.668 E2.11856
G1 X76.865 Y99.143 E2.17091
G1 X75.919 Y98.774 E2.22197
G1 X75.306 Y98.623 E2.25371
G1 X74.62 Y98.525 E2.28855
G1 X73.991 Y98.504 E2.32019
G1 X73.235 Y98.551 E2.35828
G1 X72.552 Y98.674 E2.39317
G1 X71.717 Y98.942 E2.43726
G1 X71.111 Y99.206 E2.4705
G1 X70.635 Y99.467 E2.4978
G1 X70.184 Y99.774 E2.52523
G1 X69.746 Y100.135 E2.55377
G1 X69.269 Y100.601 E2.5873
G1 X68.935 Y101.004 E2.61362
G1 X68.716 Y100.534 E2.63969
G1 X68.433 Y100.033 E2.66862
G1 X68.126 Y99.552 E2.69731
G1 X67.768 Y99.049 E2.72835
G1 X67.318 Y98.502 E2.76396
G1 X66.744 Y97.911 E2.80538
G1 X66.121 Y97.371 E2.84683
G1 X65.456 Y96.886 E2.88821
G1 X64.717 Y96.448 E2.9314
G1 E2.5314 F2100
G92 E0
G1 X79.739 Y103.847 F18000
G1 E.4 F2100
;TYPE:External perimeter
;WIDTH:0.417354
G1 F2700
G1 X79.797 Y104.987 E.43661
;WIDTH:0.38292
G1 X79.777 Y105.664 E.45633
;WIDTH:0.430604
G1 X79.732 Y106.224 E.47498
;WIDTH:0.43096
G1 X79.732 Y106.227 E.47508
G1 E.07508 F2100
G92 E0
G1 X64.639 Y113.598 F18000
G1 E.4 F2100
;TYPE:Perimeter
;WIDTH:0.629999
G1 F3000
G1 X64.816 Y113.506 E.41003
G1 X65.614 Y113.001 E.45751
G1 X66.179 Y112.582 E.49288
G1 X66.798 Y112.037 E.53435
G1 X67.368 Y111.442 E.57578
G1 X68.017 Y110.608 E.62891
G1 X68.347 Y110.119 E.65857
G1 X68.716 Y109.466 E.69628
G1 X68.932 Y109.001 E.72206
G1 X69.081 Y109.194 E.73432
G1 X69.489 Y109.635 E.76453
G1 X69.871 Y109.96 E.78975
G1 X70.426 Y110.393 E.82514
G1 X71.231 Y110.86 E.87193
G1 X72.263 Y111.25 E.9274
G1 X73.283 Y111.455 E.97971
G1 X74.298 Y111.496 E1.03079
G1 X74.927 Y111.44 E1.06254
G1 X75.628 Y111.304 E1.09844
G1 X76.614 Y110.971 E1.15077
G1 X77.534 Y110.485 E1.20309
G1 X78.365 Y109.858 E1.25543
G1 X79.045 Y109.154 E1.30464
G1 X79.045 Y112.326 E1.46413
G1 X67.374 Y123.998 E2.29406
G1 X66.691 Y123.998 E2.3284
G1 X66.686 Y114.39 E2.81149
G1 X66.567 Y114.028 E2.83065
G1 X66.274 Y113.73 E2.85166
G1 X65.81 Y113.598 E2.87592
G1 X64.729 Y113.598 E2.93027
G1 E2.53027 F2100
G92 E0
G1 X53.459 Y95.772 F18000
G1 E.4 F2100
G1 F3000
G1 X53.528 Y95.972 E.41064
G1 X53.821 Y96.27 E.43165
G1 X54.284 Y96.402 E.45586
G1 X55.455 Y96.402 E.51474
M73 P2 R8
G1 X55.278 Y96.494 E.52477
G1 X54.48 Y96.999 E.57225
G1 X53.915 Y97.418 E.60762
G1 X53.297 Y97.963 E.64905
G1 X52.727 Y98.558 E.69048
G1 X52.209 Y99.199 E.73192
G1 X51.748 Y99.881 E.77331
G1 X51.379 Y100.534 E.81102
G1 X51.162 Y100.999 E.83682
G1 X50.538 Y100.3 E.88393
G1 X50.059 Y99.888 E.9157
G1 X49.439 Y99.454 E.95375
G1 X48.829 Y99.124 E.98862
G1 X48.205 Y98.872 E1.02246
G1 X47.518 Y98.668 E1.05849
G1 X46.836 Y98.547 E1.09332
G1 X46.204 Y98.503 E1.12517
G1 X45.405 Y98.534 E1.16537
G1 X44.285 Y98.746 E1.22268
G1 X43.481 Y99.029 E1.26554
G1 X42.579 Y99.502 E1.31675
G1 X42.064 Y99.867 E1.34849
G1 X41.492 Y100.362 E1.38652
G1 X41.049 Y100.844 E1.41944
G1 X41.049 Y97.674 E1.57883
G1 X52.721 Y86.002 E2.40879
G1 X53.404 Y86.002 E2.44313
G1 X53.404 Y95.067 E2.89892
G1 X53.411 Y95.634 E2.92743
G1 X53.429 Y95.687 E2.93024
G1 E2.53024 F2100
G92 E0
G1 X40.357 Y106.167 F18000
G1 E.4 F2100
;TYPE:External perimeter
;WIDTH:0.419204
G1 F2700
G1 X40.356 Y106.153 E.40045
;WIDTH:0.417352
G1 X40.298 Y105.013 E.43706
;WIDTH:0.38292
G1 X40.317 Y104.336 E.45678
;WIDTH:0.430534
G1 X40.363 Y103.776 E.47543
G1 E.07543 F2100
G92 E0
G1 X53.978 Y113.676 F18000
G1 E.4 F2100
;TYPE:Perimeter
;WIDTH:0.629999
G1 F3000
G1 X53.886 Y113.693 E.4047
G1 X53.568 Y113.966 E.42577
G1 X53.441 Y114.227 E.44036
G1 X53.404 Y114.479 E.45317
G1 X53.404 Y123.998 E.93179
G1 X52.721 Y123.998 E.96613
G1 X41.049 Y112.326 E1.79609
G1 X41.049 Y109.156 E1.95548
G1 X41.527 Y109.67 E1.99077
G1 X42.331 Y110.332 E2.04314
G1 X43.229 Y110.857 E2.09544
G1 X44.175 Y111.226 E2.1465
G1 X44.788 Y111.377 E2.17824
G1 X45.496 Y111.475 E2.21418
G1 X46.537 Y111.48 E2.26652
G1 X47.565 Y111.319 E2.31884
G1 X48.554 Y110.996 E2.37115
G1 X49.18 Y110.682 E2.40636
G1 X49.698 Y110.362 E2.43697
G1 X50.316 Y109.901 E2.47574
G1 X50.826 Y109.391 E2.512
G1 X51.163 Y109.002 E2.53788
G1 X51.379 Y109.466 E2.56361
G1 X51.854 Y110.28 E2.611
G1 X52.276 Y110.888 E2.64821
G1 X52.776 Y111.498 E2.68787
G1 X53.351 Y112.089 E2.72933
G1 X53.973 Y112.629 E2.77075
G1 X54.639 Y113.114 E2.81218
G1 X55.455 Y113.598 E2.85988
G1 X54.405 Y113.598 E2.91267
G1 X54.066 Y113.66 E2.93
G1 X54.151 Y114.217 F18000
;TYPE:External perimeter
G1 F2700
G1 X54.046 Y114.308 E2.93699
G1 X53.991 Y114.479 E2.94602
G1 X53.991 Y124.585 E3.45415
G1 X52.478 Y124.585 E3.53022
G1 X40.462 Y112.57 E4.38461
G1 X40.462 Y106.922 E4.66859
G1 X40.783 Y107.694 E4.71063
G1 X41.071 Y108.191 E4.73951
G1 X41.474 Y108.75 E4.77416
G1 X41.905 Y109.221 E4.80626
G1 X42.632 Y109.828 E4.85388
G1 X43.447 Y110.312 E4.90154
G1 X44.32 Y110.657 E4.94874
G1 X44.876 Y110.796 E4.97756
G1 X45.505 Y110.888 E5.00952
G1 X46.452 Y110.899 E5.05714
G1 X47.389 Y110.759 E5.10478
G1 X48.291 Y110.472 E5.15237
G1 X48.917 Y110.157 E5.18761
G1 X49.354 Y109.886 E5.21346
G1 X49.901 Y109.486 E5.24753
G1 X50.563 Y108.82 E5.29475
G1 X50.914 Y108.357 E5.32396
G1 X51.283 Y107.724 E5.3608
G1 X51.567 Y108.474 E5.40112
G1 X51.89 Y109.178 E5.44007
G1 X52.339 Y109.95 E5.48497
G1 X52.731 Y110.517 E5.51963
G1 X53.199 Y111.09 E5.55683
G1 X53.737 Y111.647 E5.59577
G1 X54.321 Y112.156 E5.63472
G1 X54.945 Y112.613 E5.67361
G1 X55.606 Y113.017 E5.71256
G1 X56.299 Y113.363 E5.75151
G1 X57.018 Y113.65 E5.79044
G1 X57.759 Y113.875 E5.82938
G1 X57.913 Y113.885 E5.83714
;WIDTH:0.586264
G1 X58.067 Y113.896 E5.84432
;WIDTH:0.542529
G1 X58.221 Y113.906 E5.85092
;WIDTH:0.498794
G1 X58.375 Y113.917 E5.85695
;WIDTH:0.455059
G1 X58.529 Y113.927 E5.8624
;WIDTH:0.411323
G1 X59.291 Y113.999 E5.88655
;WIDTH:0.36247
G1 X60.054 Y114.023 E5.90744
;WIDTH:0.363479
G1 X60.814 Y113.999 E5.92832
;WIDTH:0.391847
G1 X61.198 Y113.964 E5.93984
;WIDTH:0.420215
G1 X61.581 Y113.929 E5.95227
;WIDTH:0.462172
G1 X61.737 Y113.917 E5.95789
;WIDTH:0.504129
G1 X61.892 Y113.905 E5.96403
;WIDTH:0.546086
G1 X62.048 Y113.893 E5.97077
;WIDTH:0.588043
G1 X62.204 Y113.881 E5.97807
;WIDTH:0.629999
G1 X62.359 Y113.868 E5.98589
G1 X63.1 Y113.642 E6.02484
G1 X63.818 Y113.353 E6.06376
G1 X64.51 Y113.005 E6.10271
G1 X65.267 Y112.528 E6.1477
G1 X65.793 Y112.14 E6.18056
G1 X66.375 Y111.63 E6.21947
G1 X66.912 Y111.072 E6.25841
G1 X67.532 Y110.277 E6.3091
G1 X68.048 Y109.455 E6.3579
G1 X68.34 Y108.885 E6.3901
G1 X68.81 Y107.747 E6.45201
G1 X69.224 Y108.404 E6.49106
G1 X69.703 Y109.002 E6.52958
G1 X70.245 Y109.507 E6.56683
G1 X70.681 Y109.862 E6.5951
G1 X71.369 Y110.265 E6.63519
G1 X72.385 Y110.676 E6.6903
G1 X73.312 Y110.868 E6.7379
G1 X74.25 Y110.911 E6.78511
G1 X74.821 Y110.863 E6.81392
G1 X75.446 Y110.745 E6.8459
G1 X76.345 Y110.449 E6.89349
G1 X77.186 Y110.012 E6.94114
G1 X77.946 Y109.447 E6.98876
G1 X78.606 Y108.768 E7.03637
G1 X79.145 Y107.999 E7.08359
G1 X79.41 Y107.489 E7.11249
G1 X79.632 Y106.937 E7.14241
G1 X79.632 Y112.57 E7.42564
G1 X67.617 Y124.585 E8.27999
G1 X66.104 Y124.585 E8.35606
G1 X66.095 Y114.407 E8.86781
G1 X65.965 Y114.229 E8.87889
G1 X65.81 Y114.185 E8.88699
G1 X62.368 Y114.185 E9.06005
G1 X62.212 Y114.207 E9.06797
;WIDTH:0.586254
G1 X62.056 Y114.229 E9.0753
;WIDTH:0.542509
G1 X61.9 Y114.251 E9.08204
;WIDTH:0.498764
G1 X61.744 Y114.272 E9.08819
;WIDTH:0.455019
G1 X61.588 Y114.294 E9.09375
;WIDTH:0.411273
G1 X60.807 Y114.319 E9.1184
;WIDTH:0.362335
G1 X60.035 Y114.327 E9.13952
;WIDTH:0.363617
G1 X59.257 Y114.318 E9.16089
;WIDTH:0.388795
G1 X58.866 Y114.306 E9.17248
;WIDTH:0.413972
G1 X58.475 Y114.293 E9.18491
;WIDTH:0.457178
G1 X58.325 Y114.271 E9.19029
;WIDTH:0.500383
G1 X58.175 Y114.25 E9.19622
;WIDTH:0.543589
G1 X58.026 Y114.228 E9.20268
;WIDTH:0.586794
G1 X57.876 Y114.207 E9.20974
;WIDTH:0.629999
G1 X57.726 Y114.185 E9.21736
G1 X54.502 Y114.185 E9.37946
G1 X54.241 Y114.209 E9.39264
G1 X54.034 Y114.141 F18000
G1 E8.99264 F2100
G92 E0
G1 X53.999 Y95.589 F18000
G1 E.4 F2100
M73 P3 R8
G1 F2700
G1 X54.13 Y95.771 E.41128
G1 X54.284 Y95.815 E.41933
G1 X57.726 Y95.815 E.59239
G1 X57.882 Y95.793 E.60031
;WIDTH:0.586254
G1 X58.038 Y95.771 E.60764
;WIDTH:0.542509
G1 X58.195 Y95.749 E.61442
;WIDTH:0.498764
G1 X58.351 Y95.728 E.62057
;WIDTH:0.455019
G1 X58.507 Y95.706 E.62613
;WIDTH:0.411273
G1 X59.287 Y95.681 E.65075
;WIDTH:0.362339
G1 X60.055 Y95.673 E.67176
;WIDTH:0.363616
G1 X60.838 Y95.682 E.69327
;WIDTH:0.388794
G1 X61.229 Y95.694 E.70486
;WIDTH:0.413972
G1 X61.62 Y95.707 E.71729
;WIDTH:0.457178
G1 X61.769 Y95.729 E.72263
;WIDTH:0.500383
G1 X61.919 Y95.75 E.72856
;WIDTH:0.543589
G1 X62.069 Y95.772 E.73506
;WIDTH:0.586794
G1 X62.219 Y95.793 E.74212
;WIDTH:0.629999
G1 X62.368 Y95.815 E.74969
G1 X65.592 Y95.815 E.91179
G1 X65.943 Y95.783 E.92951
G1 X66.049 Y95.692 E.93653
G1 X66.104 Y95.521 E.94556
G1 X66.104 Y85.415 E1.45369
G1 X67.617 Y85.415 E1.52976
G1 X79.632 Y97.43 E2.38411
G1 X79.632 Y98.199 E2.42278
G1 X79.632 Y103.07 E2.6677
G1 X79.469 Y102.644 E2.69063
G1 X79.161 Y102.028 E2.72526
G1 X78.815 Y101.5 E2.757
G1 X78.451 Y101.055 E2.78591
G1 X77.964 Y100.568 E2.82054
G1 X77.462 Y100.172 E2.85269
G1 X76.648 Y99.688 E2.90031
G1 X75.775 Y99.343 E2.94751
G1 X75.219 Y99.204 E2.97633
G1 X74.596 Y99.112 E3.00799
G1 X74.022 Y99.09 E3.03687
G1 X73.335 Y99.129 E3.07147
G1 X72.713 Y99.238 E3.10322
G1 X72.161 Y99.398 E3.13212
G1 X71.521 Y99.652 E3.16674
G1 X70.965 Y99.952 E3.19851
G1 X70.492 Y100.277 E3.22737
G1 X69.965 Y100.721 E3.26202
G1 X69.527 Y101.187 E3.29418
G1 X68.791 Y102.254 E3.35935
G1 X68.528 Y101.526 E3.39827
G1 X68.204 Y100.822 E3.43724
G1 X67.922 Y100.322 E3.4661
G1 X67.641 Y99.882 E3.49235
G1 X67.312 Y99.42 E3.52087
G1 X66.896 Y98.91 E3.55396
G1 X66.357 Y98.353 E3.59293
G1 X65.774 Y97.844 E3.63184
G1 X65.149 Y97.387 E3.67077
G1 X64.488 Y96.983 E3.70972
G1 X63.796 Y96.637 E3.74862
G1 X63.076 Y96.35 E3.78759
G1 X62.335 Y96.125 E3.82653
G1 X62.181 Y96.115 E3.83429
;WIDTH:0.586264
G1 X62.027 Y96.104 E3.84147
;WIDTH:0.542529
G1 X61.873 Y96.094 E3.84807
;WIDTH:0.498794
G1 X61.719 Y96.083 E3.8541
;WIDTH:0.455059
G1 X61.565 Y96.073 E3.85955
;WIDTH:0.411323
G1 X60.804 Y96.001 E3.88367
;WIDTH:0.362466
G1 X60.036 Y95.977 E3.9047
;WIDTH:0.36348
G1 X59.28 Y96.001 E3.92547
;WIDTH:0.391848
G1 X58.897 Y96.036 E3.93696
;WIDTH:0.420215
G1 X58.514 Y96.071 E3.94939
;WIDTH:0.462172
G1 X58.358 Y96.083 E3.95501
;WIDTH:0.504129
G1 X58.202 Y96.095 E3.96119
;WIDTH:0.546086
G1 X58.047 Y96.107 E3.96789
;WIDTH:0.588043
G1 X57.891 Y96.119 E3.97519
;WIDTH:0.629999
G1 X57.735 Y96.132 E3.98306
G1 X56.995 Y96.358 E4.02196
G1 X56.276 Y96.647 E4.06092
G1 X55.585 Y96.995 E4.09982
G1 X54.828 Y97.472 E4.14481
G1 X54.302 Y97.86 E4.17767
G1 X53.719 Y98.37 E4.21662
G1 X52.935 Y99.232 E4.27521
G1 X52.457 Y99.877 E4.31558
G1 X52.127 Y100.403 E4.3468
G1 X51.879 Y100.844 E4.37224
G1 X51.557 Y101.549 E4.41121
G1 X51.295 Y102.28 E4.45025
G1 X51.13 Y101.977 E4.4676
G1 X50.774 Y101.447 E4.4997
G1 X50.152 Y100.742 E4.54697
G1 X49.718 Y100.366 E4.57584
G1 X49.156 Y99.968 E4.61047
G1 X48.602 Y99.666 E4.6422
G1 X48.033 Y99.433 E4.67312
G1 X47.412 Y99.245 E4.70574
G1 X46.791 Y99.132 E4.73748
G1 X46.218 Y99.089 E4.76637
G1 X45.514 Y99.11 E4.80178
G1 X44.394 Y99.323 E4.8591
G1 X43.749 Y99.551 E4.8935
G1 X42.915 Y99.984 E4.94075
G1 X42.445 Y100.313 E4.9696
G1 X41.922 Y100.762 E5.00426
G1 X41.489 Y101.232 E5.03639
G1 X40.949 Y102.001 E5.08364
G1 X40.684 Y102.511 E5.11254
G1 X40.462 Y103.063 E5.14246
G1 X40.462 Y97.43 E5.42569
G1 X52.478 Y85.415 E6.28008
G1 X53.991 Y85.415 E6.35615
G1 X53.997 Y95.499 E6.86318
G1 X53.876 Y95.777 F18000
G1 E6.46318 F2100
G92 E0
G1 X53.228 Y87.394 F18000
G1 E.4 F2100
;TYPE:Solid infill
;WIDTH:0.643525
G1 F2700
G1 X52.59 Y86.756 E.44641
G1 X52.165 Y87.181 E.47733
G1 X52.963 Y87.979 E.53538
G1 X52.963 Y88.828 E.57905
G1 X51.74 Y87.605 E.66802
G1 X51.316 Y88.03 E.6989
G1 X52.963 Y89.678 E.81875
G1 X52.963 Y90.527 E.86242
G1 X50.891 Y88.455 E1.01315
G1 X50.466 Y88.879 E1.04403
G1 X52.963 Y91.376 E1.22568
G1 X52.963 Y92.226 E1.2694
G1 X50.042 Y89.304 E1.48193
G1 X49.617 Y89.729 E1.51285
G1 X52.963 Y93.075 E1.75626
G1 X52.963 Y93.925 E1.79998
G1 X49.192 Y90.153 E2.07434
G1 X48.768 Y90.578 E2.10522
G1 X52.963 Y94.774 E2.41042
G1 X52.963 Y95.532 E2.44941
G1 X52.979 Y95.639 E2.45498
G1 X48.343 Y91.003 E2.79223
G1 X47.918 Y91.427 E2.82311
G1 X53.6 Y97.109 E3.23645
G1 X53.147 Y97.505 E3.2674
G1 X47.493 Y91.852 E3.67867
G1 X47.069 Y92.277 E3.70955
G1 X52.721 Y97.929 E4.12071
G1 X52.313 Y98.37 E4.15161
G1 X46.644 Y92.702 E4.56397
G1 X46.219 Y93.126 E4.59485
G1 X51.931 Y98.838 E5.01037
G1 X51.582 Y99.339 E5.04178
G1 X45.795 Y93.551 E5.46279
G1 X45.37 Y93.976 E5.49371
M73 P4 R8
G1 X51.257 Y99.862 E5.92193
G1 X51.056 Y100.217 E5.94291
G1 X50.833 Y99.973 E5.95991
G1 X50.319 Y99.533 E5.99471
G1 X49.568 Y99.023 E6.04141
G1 X44.945 Y94.4 E6.37771
G1 X44.521 Y94.825 E6.40859
G1 X48.067 Y98.372 E6.66658
G1 X47.739 Y98.269 E6.68426
G1 X46.968 Y98.122 E6.72463
G1 X44.096 Y95.25 E6.93355
G1 X43.671 Y95.674 E6.96443
G1 X46.066 Y98.07 E7.13869
G1 X45.531 Y98.078 E7.16621
G1 X45.26 Y98.113 E7.18027
G1 X43.247 Y96.099 E7.32674
G1 X42.822 Y96.524 E7.35766
G1 X44.547 Y98.248 E7.48311
G1 X44.193 Y98.316 E7.50165
G1 X43.872 Y98.423 E7.51905
G1 X42.397 Y96.948 E7.62635
G1 X41.972 Y97.373 E7.65727
G1 X43.259 Y98.66 E7.75089
G1 X42.698 Y98.948 E7.78333
G1 X41.548 Y97.798 E7.86699
