; generated by PrusaSlicer 2.6.0-alpha5+win64 on 2023-04-04 at 20:13:13 UTC


;
;
; 

; external perimeters extrusion width = 0.68mm
; perimeters extrusion width = 0.68mm
; infill extrusion width = 0.68mm
; solid infill extrusion width = 0.68mm
; top infill extrusion width = 0.60mm
; first layer extrusion width = 0.63mm

M73 P0 R11
M107
M190 S85 ; set bed temperature and wait for it to be reached
G10 S230 P1 ; set temperature
;TYPE:Custom
;Set standby temperatures
G10 R200 P0
G10 R220 P1
G28 ; home all axes
G32 ; run bed.g -- probe bed and enable compensation
;workaround for toolchanger when using only one extruder
T1; select tool
G10 S230 P1 ; set temperature
M116 ; wait for temperature to be reached
G21 ; set units to millimeters
G90 ; use absolute coordinates
M82 ; use absolute distances for extrusion
G92 E0
;tool change macro
T1
G92 E0
; Filament gcode
M107
;LAYER_CHANGE
;Z:0.2
;HEIGHT:0.2
G1 Z.2 F18000
G1 E-.4 F2100
G92 E0
G1 X46.12 Y91.279 F18000
G1 E.4 F2100
;TYPE:Skirt/Brim
;WIDTH:0.63
G1 F2700
G1 X47.423 Y90.624 E.47333
G1 X62.806 Y84.82 E1.30001
G1 X64.604 Y84.364 E1.39328
G1 X66.214 Y84.096 E1.47535
G1 X68.062 Y83.942 E1.56859
G1 X69.457 Y83.934 E1.63873
G1 X71.086 Y84.042 E1.72082
G1 X72.919 Y84.318 E1.81402
G1 X74.279 Y84.63 E1.88418
G1 X75.839 Y85.109 E1.96623
G1 X90.333 Y90.624 E2.74597
G1 X92.391 Y91.833 E2.86598
G1 X93.939 Y93.651 E2.98604
G1 X94.804 Y95.876 E3.10607
G1 X94.952 Y97.327 E3.17941
G1 X94.952 Y112.673 E3.95101
G1 X94.555 Y115.027 E4.07104
G1 X93.408 Y117.12 E4.19104
G1 X91.637 Y118.721 E4.31108
G1 X90.333 Y119.376 E4.38445
G1 X74.95 Y125.18 E5.21113
G1 X73.152 Y125.636 E5.3044
G1 X71.543 Y125.904 E5.38642
G1 X69.694 Y126.058 E5.47971
G1 X68.3 Y126.066 E5.5498
G1 X66.671 Y125.958 E5.63189
G1 X65.289 Y125.766 E5.70204
G1 X63.478 Y125.37 E5.79525
G1 X61.917 Y124.891 E5.87735
G1 X47.423 Y119.376 E6.65709
G1 X45.365 Y118.167 E6.7771
G1 X43.818 Y116.349 E6.89713
G1 X42.952 Y114.124 E7.01718
G1 X42.804 Y112.673 E7.09052
G1 X42.804 Y97.327 E7.86212
G1 X43.201 Y94.973 E7.98215
G1 X44.349 Y92.88 E8.10218
G1 X46.053 Y91.339 E8.2177
G1 X46.505 Y91.974 F18000
G1 F2700
G1 X47.633 Y91.172 E8.28729
G1 X62.969 Y85.384 E9.11148
G1 X64.729 Y84.938 E9.20277
G1 X66.282 Y84.679 E9.28193
G1 X68.091 Y84.529 E9.3732
G1 X69.447 Y84.521 E9.44138
G1 X71.018 Y84.626 E9.52055
G1 X72.813 Y84.895 E9.61181
G1 X74.134 Y85.199 E9.67997
G1 X75.639 Y85.661 E9.75913
G1 X90.124 Y91.172 E10.53837
G1 X92.087 Y92.345 E10.65335
G1 X93.531 Y94.119 E10.76836
G1 X94.365 Y97.327 E10.93502
G1 X94.365 Y112.673 E11.70662
G1 X93.968 Y114.925 E11.8216
G1 X92.825 Y116.905 E11.93655
G1 X90.124 Y118.828 E12.10326
G1 X74.787 Y124.616 E12.9275
G1 X73.027 Y125.062 E13.01879
G1 X71.475 Y125.321 E13.0979
G1 X69.665 Y125.471 E13.18922
G1 X68.309 Y125.479 E13.2574
G1 X66.739 Y125.374 E13.33652
G1 X65.396 Y125.188 E13.40469
G1 X63.622 Y124.801 E13.49599
G1 X62.117 Y124.339 E13.57515
G1 X47.633 Y118.828 E14.35435
G1 X45.669 Y117.655 E14.46937
G1 X44.226 Y115.881 E14.58435
G1 X43.391 Y112.673 E14.75102
G1 X43.391 Y97.327 E15.52262
G1 X43.788 Y95.075 E15.6376
M73 P1 R11
G1 X44.931 Y93.095 E15.75255
G1 X46.432 Y92.027 E15.84518
G1 E15.44518 F2100
G92 E0
G1 X77.473 Y98.809 F18000
G1 E.4 F2100
;TYPE:Perimeter
;WIDTH:0.629999
G1 F3000
G1 X77.338 Y98.862 E.40729
G1 X77.066 Y99.09 E.42514
G1 X76.9 Y99.435 E.44439
G1 X76.876 Y99.637 E.45462
G1 X76.876 Y109.224 E.93666
G1 X76.903 Y110.577 E1.0047
G1 X76.994 Y110.803 E1.01695
G1 X77.182 Y111.03 E1.03177
G1 X77.532 Y111.215 E1.05168
G1 X77.757 Y111.244 E1.06309
G1 X86.876 Y111.244 E1.5216
G1 X86.876 Y112.051 E1.56218
G1 X73.103 Y117.292 E2.30313
G1 X72.275 Y117.546 E2.34668
G1 X71.45 Y117.74 E2.38929
G1 X70.155 Y117.934 E2.45513
G1 X69.308 Y117.99 E2.49781
G1 X68.448 Y117.99 E2.54105
G1 X67.59 Y117.933 E2.58429
G1 X66.744 Y117.821 E2.6272
G1 X65.47 Y117.542 E2.69278
G1 X64.654 Y117.292 E2.73569
G1 X50.88 Y112.051 E3.47669
G1 X50.88 Y111.244 E3.51727
G1 X60 Y111.244 E3.97583
G1 X60.224 Y111.215 E3.98719
G1 X60.418 Y111.138 E3.99768
G1 X60.69 Y110.91 E4.01553
G1 X60.816 Y110.692 E4.02819
G1 X60.88 Y110.363 E4.04504
G1 X60.88 Y100.774 E4.52718
G1 X60.854 Y99.423 E4.59512
G1 X60.763 Y99.197 E4.60737
G1 X60.574 Y98.969 E4.62226
G1 X60.224 Y98.785 E4.64214
G1 X60 Y98.756 E4.6535
G1 X50.88 Y98.756 E5.11206
G1 X50.88 Y97.949 E5.15264
G1 X64.654 Y92.708 E5.89364
G1 X65.481 Y92.454 E5.93714
G1 X66.307 Y92.26 E5.9798
G1 X67.59 Y92.067 E6.04504
G1 X68.89 Y92.003 E6.11048
G1 X69.731 Y92.031 E6.15279
G1 X71.02 Y92.181 E6.21804
G1 X72.287 Y92.458 E6.28325
G1 X73.102 Y92.708 E6.32611
G1 X86.876 Y97.949 E7.06711
G1 X86.876 Y98.756 E7.10769
G1 X77.757 Y98.756 E7.5662
G1 X77.558 Y98.782 E7.57629
G1 X77.682 Y99.353 F18000
;TYPE:External perimeter
G1 F2700
G1 X77.527 Y99.455 E7.58562
G1 X77.463 Y99.637 E7.59532
G1 X77.472 Y110.434 E8.1382
G1 X77.565 Y110.586 E8.14716
G1 X77.757 Y110.657 E8.15745
G1 X87.463 Y110.657 E8.64547
G1 X87.463 Y112.455 E8.73587
G1 X73.293 Y117.847 E9.49818
G1 X72.429 Y118.113 E9.54363
G1 X71.561 Y118.317 E9.58846
G1 X70.218 Y118.518 E9.65674
G1 X69.328 Y118.577 E9.70159
G1 X68.429 Y118.577 E9.74679
G1 X67.531 Y118.518 E9.79204
G1 X66.642 Y118.399 E9.83714
G1 X65.321 Y118.111 E9.90512
G1 X64.463 Y117.847 E9.95026
G1 X50.293 Y112.455 E10.71257
G1 X50.293 Y110.657 E10.80297
G1 X60 Y110.657 E11.29104
G1 X60.074 Y110.647 E11.29479
G1 X60.23 Y110.546 E11.30413
G1 X60.293 Y110.363 E11.31386
G1 X60.293 Y100.774 E11.796
G1 X60.284 Y99.565 E11.85679
G1 X60.191 Y99.414 E11.86571
G1 X60 Y99.343 E11.87596
G1 X50.293 Y99.343 E12.36403
G1 X50.293 Y97.545 E12.45443
G1 X64.463 Y92.153 E13.21674
G1 X65.328 Y91.887 E13.26224
G1 X66.196 Y91.683 E13.30707
G1 X67.532 Y91.482 E13.375
G1 X68.886 Y91.415 E13.44316
G1 X69.775 Y91.445 E13.48788
G1 X71.116 Y91.601 E13.55576
G1 X72.436 Y91.889 E13.62369
G1 X73.293 Y92.153 E13.66878
G1 X87.463 Y97.545 E14.43109
G1 X87.463 Y99.343 E14.52149
G1 X77.771 Y99.343 E15.00881
G1 X77.529 Y99.248 F18000
G1 E14.60881 F2100
G92 E0
G1 X64.172 Y100.893 F18000
G1 E.4 F2100
;TYPE:Perimeter
G1 F450
G1 X64.609 Y100.434 E.43187
G1 X65.137 Y99.992 E.46649
G1 X65.711 Y99.611 E.50113
G1 X66.323 Y99.295 E.53576
G1 X66.933 Y99.061 E.56861
G1 X67.632 Y98.874 E.60499
M73 P2 R11
G1 X68.78 Y98.751 E.66304
G1 X69.672 Y98.801 E.70796
G1 X70.366 Y98.929 E.74344
G1 X70.999 Y99.121 E.7767
G1 X71.947 Y99.556 E.82914
G1 X72.407 Y99.847 E.85651
G1 X73.307 Y100.591 E.91522
G1 X73.781 Y101.122 E.95101
G1 X74.178 Y101.685 E.98565
G1 X74.51 Y102.288 E1.02026
G1 X74.874 Y103.237 E1.07137
G1 X75.036 Y103.924 E1.10686
G1 X75.117 Y104.607 E1.14144
G1 X75.122 Y105.296 E1.17608
G1 X75.052 Y105.981 E1.2107
G1 X74.812 Y106.961 E1.26143
G1 X74.552 Y107.624 E1.29724
G1 X74.229 Y108.232 E1.33186
G1 X73.638 Y109.05 E1.3826
G1 X73.147 Y109.566 E1.41841
G1 X72.619 Y110.008 E1.45303
G1 X71.764 Y110.543 E1.50374
G1 X71.115 Y110.837 E1.53956
G1 X70.46 Y111.048 E1.57416
G1 X69.785 Y111.185 E1.60879
G1 X68.65 Y111.247 E1.66594
G1 X68.067 Y111.198 E1.69536
G1 X67.391 Y111.071 E1.72994
G1 X66.757 Y110.879 E1.76325
G1 X66.099 Y110.599 E1.79921
G1 X65.5 Y110.259 E1.83384
G1 X64.699 Y109.647 E1.88452
G1 X63.911 Y108.795 E1.94287
G1 X63.578 Y108.314 E1.97229
G1 X63.246 Y107.712 E2.00686
G1 X62.883 Y106.763 E2.05795
G1 X62.721 Y106.076 E2.09344
G1 X62.64 Y105.393 E2.12802
G1 X62.634 Y104.704 E2.16266
G1 X62.705 Y104.019 E2.19729
G1 X62.944 Y103.039 E2.24801
G1 X63.205 Y102.376 E2.28384
G1 X63.528 Y101.768 E2.31846
G1 X64.112 Y100.96 E2.36859
G1 X64.453 Y101.488 F18000
;TYPE:External perimeter
G1 F450
G1 X64.596 Y101.293 E2.38075
G1 X65.03 Y100.843 E2.41218
G1 X65.51 Y100.445 E2.44353
G1 X66.032 Y100.102 E2.47494
G1 X66.588 Y99.819 E2.50631
G1 X67.139 Y99.611 E2.53592
G1 X67.776 Y99.444 E2.56903
G1 X68.747 Y99.337 E2.61815
G1 X69.64 Y99.387 E2.66312
G1 X70.253 Y99.505 E2.69451
G1 X70.824 Y99.681 E2.72455
G1 X71.696 Y100.087 E2.77291
G1 X72.22 Y100.426 E2.80429
G1 X72.921 Y101.033 E2.85091
G1 X73.338 Y101.508 E2.88269
G1 X73.696 Y102.02 E2.9141
G1 X73.994 Y102.568 E2.94546
G1 X74.324 Y103.443 E2.99248
G1 X74.463 Y104.052 E3.02389
G1 X74.533 Y104.672 E3.05526
G1 X74.535 Y105.296 E3.08664
G1 X74.468 Y105.916 E3.118
G1 X74.243 Y106.817 E3.16469
G1 X74.008 Y107.403 E3.19644
G1 X73.712 Y107.953 E3.22784
G1 X73.165 Y108.702 E3.27447
G1 X72.727 Y109.157 E3.30623
M73 P3 R11
G1 X72.246 Y109.555 E3.33762
G1 X71.457 Y110.043 E3.38427
G1 X70.88 Y110.299 E3.41601
G1 X70.284 Y110.487 E3.44743
G1 X69.672 Y110.609 E3.47881
G1 X68.981 Y110.649 E3.51361
G1 X68.253 Y110.625 E3.55023
G1 X67.503 Y110.495 E3.5885
G1 X66.933 Y110.319 E3.61849
G1 X66.335 Y110.062 E3.65122
G1 X65.793 Y109.751 E3.68264
G1 X65.06 Y109.183 E3.72927
G1 X64.394 Y108.461 E3.77866
G1 X64.061 Y107.98 E3.80808
G1 X63.762 Y107.432 E3.83947
G1 X63.433 Y106.557 E3.88647
G1 X63.293 Y105.948 E3.91789
G1 X63.223 Y105.328 E3.94926
G1 X63.221 Y104.704 E3.98064
G1 X63.288 Y104.084 E4.012
G1 X63.513 Y103.184 E4.05864
G1 X63.748 Y102.597 E4.09043
G1 X64.044 Y102.047 E4.12183
G1 X64.4 Y101.56 E4.15216
G1 X64.351 Y101.269 F18000
G1 E3.75216 F2100
G92 E0
G1 X85.998 Y98.58 F18000
G1 E.4 F2100
;TYPE:Solid infill
;WIDTH:0.637384
G1 F2700
G1 X85.201 Y97.783 E.45739
G1 X83.843 Y97.266 E.53137
G1 X84.893 Y98.316 E.60697
G1 X84.052 Y98.316 E.64979
G1 X82.486 Y96.75 E.76254
G1 X81.129 Y96.234 E.83645
G1 X83.212 Y98.316 E.98639
G1 X82.371 Y98.316 E1.02921
G1 X79.772 Y95.717 E1.21634
G1 X78.415 Y95.201 E1.29025
G1 X81.53 Y98.316 E1.51453
G1 X80.689 Y98.316 E1.55735
G1 X77.058 Y94.684 E1.81882
G1 X75.701 Y94.168 E1.89273
G1 X79.849 Y98.316 E2.19139
G1 X79.008 Y98.316 E2.23421
G1 X74.344 Y93.652 E2.57003
G1 X72.987 Y93.135 E2.64396
G1 X78.167 Y98.316 E3.01696
G1 X77.747 Y98.316 E3.03834
G1 X77.384 Y98.373 E3.05705
G1 X71.816 Y92.806 E3.45792
G1 X70.947 Y92.616 E3.50321
G1 X70.764 Y92.594 E3.51259
G1 X76.851 Y98.681 E3.95086
G1 X76.721 Y98.816 E3.9604
G1 X76.592 Y99.012 E3.97235
G1 X76.523 Y99.194 E3.98226
G1 X69.813 Y92.484 E4.46539
G1 X68.94 Y92.451 E4.50987
G1 X76.436 Y99.947 E5.04959
G1 X76.436 Y100.788 E5.09241
G1 X68.133 Y92.485 E5.69024
G1 X67.633 Y92.506 E5.71572
G1 X67.355 Y92.548 E5.73003
G1 X76.436 Y101.629 E6.38388
G1 X76.436 Y102.469 E6.42665
G1 X66.624 Y92.657 E7.13313
G1 X66.39 Y92.692 E7.14518
G1 X65.927 Y92.802 E7.16941
G1 X76.436 Y103.31 E7.92604
G1 X76.436 Y104.151 E7.96886
G1 X75.224 Y102.939 E8.05613
G1 X75.336 Y103.249 E8.07291
G1 X75.498 Y104.053 E8.11467
G1 X76.436 Y104.991 E8.18221
G1 X76.436 Y105.832 E8.22503
G1 X75.56 Y104.956 E8.2881
G1 X75.555 Y105.434 E8.31244
G1 X75.519 Y105.756 E8.32894
G1 X76.436 Y106.673 E8.39497
G1 X76.436 Y107.513 E8.43774
G1 X75.386 Y106.464 E8.51331
G1 X75.213 Y107.131 E8.54839
G1 X76.436 Y108.354 E8.63645
G1 X76.436 Y109.195 E8.67927
G1 X74.976 Y107.735 E8.78439
G1 X74.901 Y107.916 E8.79437
G1 X74.691 Y108.29 E8.81621
G1 X76.7 Y110.3 E8.9609
G1 E8.5609 F2100
G92 E0
G1 X86.117 Y112.151 F18000
G1 E.4 F2100
G1 F2700
G1 X85.651 Y111.684 E.43359
G1 X84.81 Y111.684 E.47641
G1 X85.304 Y112.178 E.51198
G1 X84.695 Y112.41 E.54516
G1 X83.969 Y111.684 E.59743
G1 X83.128 Y111.684 E.64025
G1 X84.086 Y112.641 E.70919
G1 X83.477 Y112.873 E.74237
G1 X82.288 Y111.684 E.82798
G1 X81.447 Y111.684 E.8708
G1 X82.868 Y113.105 E.97311
G1 X82.259 Y113.337 E1.00629
G1 X80.606 Y111.684 E1.12531
G1 X79.766 Y111.684 E1.16808
G1 X81.65 Y113.568 E1.30373
G1 X81.041 Y113.8 E1.33691
G1 X78.925 Y111.684 E1.48927
G1 X78.084 Y111.684 E1.53209
G1 X80.432 Y114.032 E1.70115
G1 X79.823 Y114.263 E1.73431
M73 P4 R11
G1 X74.364 Y108.804 E2.12737
G1 X74.005 Y109.286 E2.15797
G1 X79.214 Y114.495 E2.53303
G1 X78.605 Y114.727 E2.56621
G1 X73.605 Y109.727 E2.92622
G1 X73.457 Y109.879 E2.93702
G1 X73.159 Y110.122 E2.9566
G1 X77.996 Y114.959 E3.30487
G1 X77.387 Y115.19 E3.33803
G1 X72.689 Y110.492 E3.67629
G1 X72.168 Y110.812 E3.70742
G1 X76.778 Y115.422 E4.03935
G1 X76.169 Y115.654 E4.07253
G1 X71.61 Y111.094 E4.40082
G1 X71.232 Y111.265 E4.42194
G1 X71.009 Y111.335 E4.43384
G1 X75.56 Y115.886 E4.76152
G1 X74.951 Y116.117 E4.79468
G1 X70.355 Y111.521 E5.1256
G1 X69.808 Y111.628 E5.15398
G1 X69.631 Y111.638 E5.16301
G1 X74.342 Y116.349 E5.50221
G1 X73.733 Y116.581 E5.53539
G1 X68.836 Y111.684 E5.88798
G1 X68.721 Y111.69 E5.89384
G1 X67.934 Y111.622 E5.93406
G1 X73.124 Y116.812 E6.30775
G1 X72.49 Y117.019 E6.34171
G1 X66.389 Y110.918 E6.78099
G1 E6.38099 F2100
G92 E0
G1 X71.388 Y99.103 F18000
G1 E.4 F2100
G1 F2700
G1 X65.266 Y92.981 E.84079
G1 X64.632 Y93.188 E.87475
G1 X69.824 Y98.38 E1.24858
G1 X68.93 Y98.326 E1.29418
G1 X64.023 Y93.419 E1.64749
G1 X63.414 Y93.651 E1.68067
G1 X68.136 Y98.373 E2.02066
G1 X67.552 Y98.441 E2.05059
G1 X67.401 Y98.479 E2.05852
G1 X62.805 Y93.883 E2.38944
G1 X62.196 Y94.115 E2.42262
G1 X66.746 Y98.664 E2.75019
G1 X66.137 Y98.896 E2.78337
G1 X61.587 Y94.346 E3.11098
G1 X60.978 Y94.578 E3.14416
G1 X65.58 Y99.18 E3.47551
G1 X65.067 Y99.507 E3.50648
G1 X60.369 Y94.81 E3.84471
G1 X59.76 Y95.041 E3.87787
G1 X64.592 Y99.873 E4.22578
G1 X64.347 Y100.074 E4.24191
G1 X64.152 Y100.274 E4.25613
G1 X59.151 Y95.273 E4.61621
G1 X58.542 Y95.505 E4.64939
G1 X63.752 Y100.715 E5.02452
G1 X63.398 Y101.202 E5.05517
G1 X57.933 Y95.737 E5.44866
G1 X57.324 Y95.968 E5.48182
G1 X59.672 Y98.316 E5.65088
G1 X58.831 Y98.316 E5.6937
G1 X56.715 Y96.2 E5.84606
G1 X56.106 Y96.432 E5.87924
G1 X57.991 Y98.316 E6.01493
G1 X57.15 Y98.316 E6.05775
G1 X55.497 Y96.664 E6.17673
G1 X54.889 Y96.895 E6.20984
G1 X56.309 Y98.316 E6.31212
G1 X55.469 Y98.316 E6.35489
G1 X54.28 Y97.127 E6.4405
G1 X53.671 Y97.359 E6.47368
G1 X54.628 Y98.316 E6.54259
G1 X53.787 Y98.316 E6.58541
G1 X53.062 Y97.59 E6.63765
G1 X52.453 Y97.822 E6.67083
G1 X52.946 Y98.316 E6.70636
G1 X52.106 Y98.316 E6.74913
G1 X51.639 Y97.849 E6.78275
G1 E6.38275 F2100
G92 E0
G1 X61.055 Y99.699 F18000
G1 E.4 F2100
G1 F2700
G1 X63.061 Y101.705 E.54444
G1 X62.855 Y102.085 E.56645
G1 X62.78 Y102.265 E.57638
G1 X61.32 Y100.804 E.68154
G1 X61.32 Y101.645 E.72436
G1 X62.544 Y102.87 E.81253
G1 X62.375 Y103.541 E.84776
G1 X61.32 Y102.486 E.92372
G1 X61.32 Y103.327 E.96654
G1 X62.237 Y104.244 E1.03257
G1 X62.201 Y104.566 E1.04907
G1 X62.196 Y105.044 E1.07341
G1 X61.32 Y104.168 E1.13648
G1 X61.32 Y105.009 E1.1793
G1 X62.262 Y105.95 E1.24709
G1 X62.278 Y106.111 E1.25533
G1 X62.421 Y106.753 E1.28882
G1 X62.538 Y107.067 E1.30588
G1 X61.321 Y105.849 E1.39354
G1 X61.321 Y106.69 E1.43636
G1 X71.829 Y117.198 E2.19295
G1 X71.366 Y117.308 E2.21718
G1 X71.132 Y117.343 E2.22923
G1 X61.321 Y107.531 E2.93567
G1 X61.321 Y108.372 E2.97849
G1 X70.401 Y117.452 E3.63226
G1 X70.107 Y117.496 E3.6474
G1 X69.636 Y117.527 E3.67143
G1 X61.321 Y109.212 E4.27012
G1 X61.321 Y110.053 E4.31294
M73 P5 R11
G1 X68.818 Y117.55 E4.85274
G1 X68.463 Y117.55 E4.87081
G1 X67.942 Y117.516 E4.89739
G1 X61.239 Y110.812 E5.38005
G1 X61.038 Y111.182 E5.40149
G1 X60.905 Y111.319 E5.41121
G1 X66.996 Y117.41 E5.84977
G1 X65.94 Y117.194 E5.90465
G1 X60.373 Y111.627 E6.30548
G1 X60.009 Y111.684 E6.32424
G1 X59.589 Y111.684 E6.34562
G1 X64.77 Y116.865 E6.71866
G1 X63.412 Y116.348 E6.79264
G1 X58.748 Y111.684 E7.12846
G1 X57.908 Y111.684 E7.17123
G1 X62.055 Y115.832 E7.46986
G1 X60.698 Y115.315 E7.54379
G1 X57.067 Y111.684 E7.80523
G1 X56.226 Y111.684 E7.84805
G1 X59.341 Y114.799 E8.07233
G1 X57.984 Y114.283 E8.14624
G1 X55.385 Y111.684 E8.33337
G1 X54.545 Y111.684 E8.37614
G1 X56.627 Y113.766 E8.52605
G1 X55.27 Y113.25 E8.59996
G1 X53.704 Y111.684 E8.71271
G1 X52.863 Y111.684 E8.75553
G1 X53.913 Y112.733 E8.8311
G1 X52.556 Y112.217 E8.90501
G1 X51.758 Y111.42 E8.96243
;LAYER_CHANGE
;Z:0.4
;HEIGHT:0.2
G1 Z.4 F18000
G10 S220 P1 ; set temperature
G1 E8.56243 F2100
G92 E0
G1 X64.373 Y100.579 F18000
G1 E.4 F2100
;TYPE:Perimeter
;WIDTH:0.674999
G1 F900
G1 X65.088 Y99.947 E.45166
G1 X65.674 Y99.554 E.48986
G1 X66.606 Y99.106 E.54584
G1 X67.277 Y98.888 E.58403
G1 X67.959 Y98.749 E.62171
G1 X68.652 Y98.686 E.65938
G1 X69.814 Y98.752 E.72239
G1 X70.379 Y98.862 E.75355
G1 X71.479 Y99.242 E.81655
G1 X71.993 Y99.502 E.84773
G1 X72.445 Y99.791 E.87677
G1 X73.351 Y100.54 E.94041
G1 X73.832 Y101.078 E.97948
