; generated by PrusaSlicer 2.5.0-alpha3+win64 on 2023-03-24 at 13:26:01 UTC


;
;
; 

; external perimeters extrusion width = 0.68mm
; perimeters extrusion width = 0.68mm
; infill extrusion width = 0.68mm
; solid infill extrusion width = 0.68mm
; top infill extrusion width = 0.60mm
; first layer extrusion width = 0.63mm

M73 P0 R7
M107
M190 S85 ; set bed temperature and wait for it to be reached
G10 S230 P1 ; set temperature
;TYPE:Custom
;Set standby temperatures
G10 R200 P0
G10 R220 P1
G28 ; home all axes
G32 ; run bed.g -- probe bed and enable compensation
;workaround for toolchanger when using only one extruder
T1; select tool
G10 S230 P1 ; set temperature
M116 ; wait for temperature to be reached
G21 ; set units to millimeters
G90 ; use absolute coordinates
M82 ; use absolute distances for extrusion
G92 E0
;tool change macro
T1
G92 E0
; Filament gcode
M107
;LAYER_CHANGE
;Z:0.2
;HEIGHT:0.2
G1 Z.2 F18000
G1 E-.75 F600
G92 E0
G1 X33.453 Y94.878 F18000
G1 E.75 F600
;TYPE:Skirt/Brim
;WIDTH:0.63
G1 F2700
G1 X36.749 Y94.076 E.9073
G1 X183.251 Y94.076 E7.70135
G1 X186.547 Y94.878 E7.85865
G1 X195.634 Y99.578 E8.3331
G1 X197.543 Y101.012 E8.44382
G1 X198.551 Y102.363 E8.522
G1 X200.89 Y106.413 E8.73888
G1 X201.723 Y108.65 E8.84959
G1 X201.775 Y111.037 E8.9603
G1 X200.89 Y113.587 E9.0855
G1 X198.551 Y117.637 E9.30237
G1 X197.03 Y119.477 E9.41309
M73 P1 R7
G1 X195.634 Y120.422 E9.49127
G1 X186.547 Y125.122 E9.96572
G1 X183.251 Y125.924 E10.12302
G1 X36.749 Y125.924 E16.91707
G1 X33.453 Y125.122 E17.07438
G1 X24.366 Y120.422 E17.54883
G1 X22.457 Y118.988 E17.65954
G1 X21.449 Y117.637 E17.73773
G1 X19.11 Y113.587 E17.9546
G1 X18.277 Y111.35 E18.06531
G1 X18.225 Y108.963 E18.17603
G1 X19.11 Y106.413 E18.30122
G1 X21.449 Y102.363 E18.5181
G1 X22.97 Y100.523 E18.62881
G1 X24.366 Y99.578 E18.707
G1 X33.373 Y94.919 E19.17727
G1 X33.643 Y95.441 F18000
M73 P2 R7
G1 F2700
G1 X33.723 Y95.399 E19.18144
G1 X36.749 Y94.663 E19.32588
G1 X183.251 Y94.663 E26.11992
G1 X186.277 Y95.399 E26.26435
G1 X195.364 Y100.099 E26.7388
G1 X197.182 Y101.486 E26.84486
G1 X198.043 Y102.656 E26.91221
G1 X200.381 Y106.706 E27.12908
G1 X201.163 Y108.855 E27.23514
G1 X201.164 Y111.142 E27.34119
G1 X200.381 Y113.294 E27.44736
G1 X198.043 Y117.344 E27.66423
G1 X196.573 Y119.095 E27.77028
G1 X195.364 Y119.901 E27.83764
G1 X186.277 Y124.601 E28.31209
G1 X183.251 Y125.337 E28.45652
G1 X36.749 Y125.337 E35.25057
G1 X33.723 Y124.601 E35.395
M73 P3 R7
G1 X24.636 Y119.901 E35.86944
G1 X22.818 Y118.514 E35.9755
G1 X21.957 Y117.344 E36.04285
G1 X19.619 Y113.294 E36.25973
G1 X18.837 Y111.145 E36.36578
G1 X18.836 Y108.858 E36.47183
G1 X19.619 Y106.706 E36.578
G1 X21.957 Y102.656 E36.79487
G1 X23.427 Y100.905 E36.90093
G1 X24.636 Y100.099 E36.96828
G1 X33.563 Y95.482 E37.43438
G1 E36.68438 F600
G92 E0
G1 X188.114 Y113.116 F18000
G1 E.75 F600
;TYPE:External perimeter
;WIDTH:0.712578
M73 P4 R7
G1 F450
G1 X188.045 Y112.967 E.75871
;WIDTH:0.66702
G1 X187.977 Y112.817 E.76684
;WIDTH:0.621461
G1 X186.434 Y110.145 E.90785
;WIDTH:0.662998
G1 X186.374 Y110 E.91551
G1 X186.434 Y109.855 E.92317
;WIDTH:0.621462
G1 X187.977 Y107.183 E1.06418
;WIDTH:0.656024
G1 X188.059 Y107.028 E1.07268
;WIDTH:0.690586
G1 X188.142 Y106.874 E1.08166
G1 X188.242 Y106.857 E1.08685
;WIDTH:0.656023
G1 X188.342 Y106.839 E1.09176
;WIDTH:0.62146
G1 X191.658 Y106.839 E1.24329
;WIDTH:0.662996
G1 X191.813 Y106.86 E1.25095
G1 X191.908 Y106.984 E1.25861
;WIDTH:0.621461
G1 X193.566 Y109.855 E1.41014
;WIDTH:0.662999
G1 X193.626 Y110 E1.4178
G1 X193.589 Y110.1 E1.42301
;WIDTH:0.625846
G1 X193.566 Y110.145 E1.42533
;WIDTH:0.621461
G1 X191.908 Y113.016 E1.57686
;WIDTH:0.662996
G1 X191.813 Y113.14 E1.58452
G1 X191.658 Y113.161 E1.59218
;WIDTH:0.62146
G1 X188.342 Y113.161 E1.74371
;WIDTH:0.667019
G1 X188.228 Y113.139 E1.74944
;WIDTH:0.712578
G1 X188.202 Y113.134 E1.75083
G1 E1.00083 F600
G92 E0
G1 X152.086 Y106.305 F18000
G1 E.75 F600
;WIDTH:0.712579
G1 F2700
G1 X152.139 Y106.256 E.75381
;WIDTH:0.66554
G1 X152.192 Y106.207 E.75735
;WIDTH:0.618501
G1 X152.245 Y106.158 E.76063
;WIDTH:0.571461
G1 X156.635 Y101.768 E1.01985
;WIDTH:0.592371
G1 X156.872 Y101.546 E1.03393
G1 X157.196 Y101.536 E1.048
;WIDTH:0.57146
G1 X162.804 Y101.536 E1.28217
;WIDTH:0.592372
G1 X163.128 Y101.546 E1.29624
G1 X163.365 Y101.768 E1.31031
;WIDTH:0.571461
G1 X167.755 Y106.158 E1.56954
;WIDTH:0.618498
G1 X167.808 Y106.207 E1.57282
;WIDTH:0.665538
G1 X167.861 Y106.256 E1.57636
;WIDTH:0.712578
G1 X167.914 Y106.305 E1.58017
G1 X168.128 Y106.283 E1.59156
;WIDTH:0.667019
G1 X168.342 Y106.261 E1.60217
;WIDTH:0.62146
G1 X171.658 Y106.261 E1.7537
;WIDTH:0.667019
G1 X171.872 Y106.283 E1.76431
;WIDTH:0.712578
G1 X172.086 Y106.305 E1.7757
G1 X172.139 Y106.256 E1.77951
;WIDTH:0.665538
G1 X172.192 Y106.207 E1.78305
;WIDTH:0.618498
G1 X172.245 Y106.158 E1.78632
;WIDTH:0.571461
G1 X176.635 Y101.768 E2.04555
;WIDTH:0.592372
G1 X176.872 Y101.546 E2.05963
G1 X177.196 Y101.536 E2.0737
;WIDTH:0.57146
G1 X182.804 Y101.536 E2.30787
;WIDTH:0.592372
G1 X183.128 Y101.546 E2.32194
G1 X183.365 Y101.768 E2.33601
;WIDTH:0.57146
G1 X187.755 Y106.158 E2.59524
;WIDTH:0.618499
G1 X187.808 Y106.207 E2.59851
;WIDTH:0.665538
G1 X187.861 Y106.256 E2.60206
;WIDTH:0.712577
G1 X187.914 Y106.305 E2.60587
G1 X188.128 Y106.283 E2.61725
;WIDTH:0.667019
G1 X188.342 Y106.261 E2.62787
;WIDTH:0.62146
G1 X191.658 Y106.261 E2.7794
;WIDTH:0.662996
G1 X192.147 Y106.281 E2.80337
G1 X192.409 Y106.695 E2.82735
;WIDTH:0.621461
G1 X194.067 Y109.566 E2.97888
;WIDTH:0.662999
G1 X194.294 Y110 E3.00285
M73 P5 R7
G1 X194.204 Y110.155 E3.01162
G1 X194.067 Y110.434 E3.02684
;WIDTH:0.621461
G1 X192.409 Y113.305 E3.17837
;WIDTH:0.662996
G1 X192.147 Y113.719 E3.20234
G1 X191.658 Y113.739 E3.22632
;WIDTH:0.62146
G1 X188.342 Y113.739 E3.37785
;WIDTH:0.667019
G1 X188.128 Y113.717 E3.38846
;WIDTH:0.712578
G1 X187.914 Y113.695 E3.39985
G1 X187.861 Y113.744 E3.40366
;WIDTH:0.665539
G1 X187.808 Y113.793 E3.4072
;WIDTH:0.618499
G1 X187.755 Y113.842 E3.41047
;WIDTH:0.571459
G1 X183.365 Y118.232 E3.6697
;WIDTH:0.592372
G1 X183.128 Y118.454 E3.68378
G1 X182.804 Y118.464 E3.69785
;WIDTH:0.57146
G1 X177.196 Y118.464 E3.93202
;WIDTH:0.592372
G1 X176.872 Y118.454 E3.94609
G1 X176.635 Y118.232 E3.96016
;WIDTH:0.571461
G1 X172.245 Y113.842 E4.21939
;WIDTH:0.618498
G1 X172.192 Y113.793 E4.22266
;WIDTH:0.665538
G1 X172.139 Y113.744 E4.22621
;WIDTH:0.712578
G1 X172.086 Y113.695 E4.23001
G1 X171.872 Y113.717 E4.2414
;WIDTH:0.667019
G1 X171.658 Y113.739 E4.25202
;WIDTH:0.62146
G1 X168.342 Y113.739 E4.40354
;WIDTH:0.667019
G1 X168.128 Y113.717 E4.41416
;WIDTH:0.712578
G1 X167.914 Y113.695 E4.42555
G1 X167.861 Y113.744 E4.42936
;WIDTH:0.665538
G1 X167.808 Y113.793 E4.4329
;WIDTH:0.618498
G1 X167.755 Y113.842 E4.43617
;WIDTH:0.571461
G1 X163.365 Y118.232 E4.6954
;WIDTH:0.592372
G1 X163.128 Y118.454 E4.70947
G1 X162.804 Y118.464 E4.72355
;WIDTH:0.57146
G1 X157.196 Y118.464 E4.95772
;WIDTH:0.59237
G1 X156.872 Y118.454 E4.97179
G1 X156.635 Y118.232 E4.98586
;WIDTH:0.571461
G1 X152.245 Y113.842 E5.24509
;WIDTH:0.618501
G1 X152.192 Y113.793 E5.24836
;WIDTH:0.66554
G1 X152.139 Y113.744 E5.2519
;WIDTH:0.712579
G1 X152.086 Y113.695 E5.25571
G1 X151.872 Y113.717 E5.2671
;WIDTH:0.66702
G1 X151.658 Y113.739 E5.27772
;WIDTH:0.62146
G1 X148.342 Y113.739 E5.42924
;WIDTH:0.667019
G1 X148.128 Y113.717 E5.43986
;WIDTH:0.712578
G1 X147.914 Y113.695 E5.45125
G1 X147.861 Y113.744 E5.45506
;WIDTH:0.665539
G1 X147.808 Y113.793 E5.4586
;WIDTH:0.6185
G1 X147.755 Y113.842 E5.46187
;WIDTH:0.571461
G1 X143.365 Y118.232 E5.7211
;WIDTH:0.59237
G1 X143.128 Y118.454 E5.73517
G1 X142.804 Y118.464 E5.74925
;WIDTH:0.57146
G1 X137.196 Y118.464 E5.98341
;WIDTH:0.59237
G1 X136.872 Y118.454 E5.99749
G1 X136.635 Y118.232 E6.01156
;WIDTH:0.571461
G1 X132.245 Y113.842 E6.27079
;WIDTH:0.618501
G1 X132.192 Y113.793 E6.27406
;WIDTH:0.66554
G1 X132.139 Y113.744 E6.2776
;WIDTH:0.712579
G1 X132.086 Y113.695 E6.28141
G1 X131.872 Y113.717 E6.2928
;WIDTH:0.66702
G1 X131.658 Y113.739 E6.30342
;WIDTH:0.62146
G1 X128.342 Y113.739 E6.45494
;WIDTH:0.667019
G1 X128.128 Y113.717 E6.46556
;WIDTH:0.712578
G1 X127.914 Y113.695 E6.47695
G1 X127.861 Y113.744 E6.48076
;WIDTH:0.665539
G1 X127.808 Y113.793 E6.4843
;WIDTH:0.6185
G1 X127.755 Y113.842 E6.48757
;WIDTH:0.571461
G1 X123.365 Y118.232 E6.7468
;WIDTH:0.592369
G1 X123.128 Y118.454 E6.76087
G1 X122.804 Y118.464 E6.77495
;WIDTH:0.57146
G1 X117.196 Y118.464 E7.00911
;WIDTH:0.59237
G1 X116.872 Y118.454 E7.02319
G1 X116.635 Y118.232 E7.03726
;WIDTH:0.571463
G1 X112.245 Y113.842 E7.29649
;WIDTH:0.618501
G1 X112.192 Y113.793 E7.29976
;WIDTH:0.665538
G1 X112.139 Y113.744 E7.3033
;WIDTH:0.712575
G1 X112.086 Y113.695 E7.30711
G1 X111.872 Y113.717 E7.3185
;WIDTH:0.667018
G1 X111.658 Y113.739 E7.32912
;WIDTH:0.62146
G1 X108.342 Y113.739 E7.48064
;WIDTH:0.667017
G1 X108.128 Y113.717 E7.49126
;WIDTH:0.712574
G1 X107.914 Y113.695 E7.50265
G1 X107.861 Y113.744 E7.50646
;WIDTH:0.665537
G1 X107.808 Y113.793 E7.51
;WIDTH:0.6185
G1 X107.755 Y113.842 E7.51327
;WIDTH:0.571463
G1 X103.365 Y118.232 E7.7725
;WIDTH:0.59237
G1 X103.128 Y118.454 E7.78657
G1 X102.804 Y118.464 E7.80065
;WIDTH:0.57146
G1 X97.196 Y118.464 E8.03481
;WIDTH:0.59237
G1 X96.872 Y118.454 E8.04889
G1 X96.635 Y118.232 E8.06296
;WIDTH:0.571464
G1 X92.245 Y113.842 E8.32219
;WIDTH:0.618501
G1 X92.192 Y113.793 E8.32546
;WIDTH:0.665538
G1 X92.139 Y113.744 E8.32901
;WIDTH:0.712575
G1 X92.086 Y113.695 E8.33282
G1 X91.872 Y113.717 E8.3442
;WIDTH:0.667018
G1 X91.658 Y113.739 E8.35482
;WIDTH:0.62146
G1 X88.342 Y113.739 E8.50634
;WIDTH:0.667016
G1 X88.128 Y113.717 E8.51696
;WIDTH:0.712571
G1 X87.914 Y113.695 E8.52835
G1 X87.861 Y113.744 E8.53216
;WIDTH:0.665529
G1 X87.808 Y113.793 E8.5357
;WIDTH:0.618487
G1 X87.755 Y113.842 E8.53897
;WIDTH:0.57147
G1 X83.365 Y118.232 E8.79821
;WIDTH:0.592377
G1 X83.128 Y118.454 E8.81228
G1 X82.804 Y118.464 E8.82635
;WIDTH:0.57146
G1 X77.196 Y118.464 E9.06052
;WIDTH:0.592377
G1 X76.872 Y118.454 E9.07459
G1 X76.635 Y118.232 E9.08866
;WIDTH:0.571469
G1 X72.245 Y113.842 E9.3479
;WIDTH:0.618487
G1 X72.192 Y113.793 E9.35117
;WIDTH:0.665529
G1 X72.139 Y113.744 E9.35471
;WIDTH:0.71257
G1 X72.086 Y113.695 E9.35852
G1 X71.872 Y113.717 E9.36991
;WIDTH:0.667015
G1 X71.658 Y113.739 E9.38052
;WIDTH:0.62146
G1 X68.342 Y113.739 E9.53205
;WIDTH:0.667016
G1 X68.128 Y113.717 E9.54267
;WIDTH:0.712571
G1 X67.914 Y113.695 E9.55405
G1 X67.861 Y113.744 E9.55786
;WIDTH:0.665529
G1 X67.808 Y113.793 E9.56141
;WIDTH:0.618487
G1 X67.755 Y113.842 E9.56468
;WIDTH:0.57147
G1 X63.365 Y118.232 E9.82391
;WIDTH:0.592378
G1 X63.128 Y118.454 E9.83799
G1 X62.804 Y118.464 E9.85206
;WIDTH:0.57146
G1 X57.196 Y118.464 E10.08622
;WIDTH:0.592376
G1 X56.872 Y118.454 E10.1003
G1 X56.635 Y118.232 E10.11437
;WIDTH:0.571468
G1 X52.245 Y113.842 E10.3736
;WIDTH:0.618484
G1 X52.192 Y113.793 E10.37688
;WIDTH:0.665526
G1 X52.139 Y113.744 E10.38042
;WIDTH:0.712568
G1 X52.086 Y113.695 E10.38423
G1 X51.872 Y113.717 E10.39562
;WIDTH:0.667014
G1 X51.658 Y113.739 E10.40623
;WIDTH:0.62146
G1 X48.342 Y113.739 E10.55776
;WIDTH:0.667014
G1 X48.128 Y113.717 E10.56837
;WIDTH:0.712568
G1 X47.914 Y113.695 E10.57976
G1 X47.861 Y113.744 E10.58357
;WIDTH:0.665526
G1 X47.808 Y113.793 E10.58711
;WIDTH:0.618484
G1 X47.755 Y113.842 E10.59039
;WIDTH:0.571466
G1 X43.365 Y118.232 E10.84962
;WIDTH:0.592375
G1 X43.128 Y118.454 E10.86369
G1 X42.804 Y118.464 E10.87776
;WIDTH:0.57146
G1 X37.196 Y118.464 E11.11193
;WIDTH:0.592375
G1 X36.872 Y118.454 E11.126
G1 X36.635 Y118.232 E11.14007
;WIDTH:0.571466
G1 X32.245 Y113.842 E11.39931
;WIDTH:0.618486
G1 X32.192 Y113.793 E11.40258
;WIDTH:0.665528
G1 X32.139 Y113.744 E11.40612
;WIDTH:0.71257
G1 X32.086 Y113.695 E11.40993
G1 X31.872 Y113.717 E11.42132
;WIDTH:0.667015
G1 X31.658 Y113.739 E11.43193
;WIDTH:0.62146
G1 X28.342 Y113.739 E11.58346
;WIDTH:0.662999
G1 X27.853 Y113.719 E11.60744
G1 X27.591 Y113.305 E11.63141
;WIDTH:0.621472
G1 X25.933 Y110.434 E11.78294
;WIDTH:0.66301
G1 X25.706 Y110 E11.80692
M73 P6 R7
G1 X25.933 Y109.566 E11.8309
;WIDTH:0.621472
G1 X27.591 Y106.695 E11.98243
;WIDTH:0.662999
G1 X27.853 Y106.281 E12.0064
G1 X28.342 Y106.261 E12.03038
;WIDTH:0.62146
G1 X31.658 Y106.261 E12.18191
;WIDTH:0.656027
G1 X31.858 Y106.278 E12.19163
;WIDTH:0.690594
G1 X32.058 Y106.295 E12.2019
G1 X32.12 Y106.25 E12.20585
;WIDTH:0.650877
G1 X32.182 Y106.204 E12.20956
;WIDTH:0.611159
G1 X32.245 Y106.158 E12.21303
;WIDTH:0.571466
G1 X36.635 Y101.768 E12.47226
;WIDTH:0.592375
G1 X36.872 Y101.546 E12.48633
G1 X37.196 Y101.536 E12.5004
;WIDTH:0.57146
G1 X42.804 Y101.536 E12.73457
;WIDTH:0.592375
G1 X43.128 Y101.546 E12.74864
G1 X43.365 Y101.768 E12.76271
;WIDTH:0.571466
G1 X47.755 Y106.158 E13.02195
;WIDTH:0.618484
G1 X47.808 Y106.207 E13.02522
;WIDTH:0.665526
G1 X47.861 Y106.256 E13.02876
;WIDTH:0.712568
G1 X47.914 Y106.305 E13.03257
G1 X48.128 Y106.283 E13.04396
;WIDTH:0.667014
G1 X48.342 Y106.261 E13.05457
;WIDTH:0.62146
G1 X51.658 Y106.261 E13.2061
;WIDTH:0.656027
G1 X51.858 Y106.278 E13.21582
;WIDTH:0.690594
G1 X52.058 Y106.295 E13.22609
G1 X52.12 Y106.25 E13.23004
;WIDTH:0.650877
G1 X52.182 Y106.204 E13.23375
;WIDTH:0.611159
G1 X52.245 Y106.158 E13.23722
;WIDTH:0.571468
G1 X56.635 Y101.768 E13.49645
;WIDTH:0.592376
G1 X56.872 Y101.546 E13.51052
G1 X57.196 Y101.536 E13.5246
;WIDTH:0.57146
G1 X62.804 Y101.536 E13.75876
;WIDTH:0.592378
G1 X63.128 Y101.546 E13.77284
G1 X63.365 Y101.768 E13.78691
;WIDTH:0.571471
G1 X67.755 Y106.158 E14.04614
;WIDTH:0.618487
G1 X67.808 Y106.207 E14.04942
;WIDTH:0.665529
G1 X67.861 Y106.256 E14.05296
;WIDTH:0.71257
G1 X67.914 Y106.305 E14.05677
G1 X68.128 Y106.283 E14.06816
;WIDTH:0.667015
G1 X68.342 Y106.261 E14.07877
;WIDTH:0.62146
G1 X71.658 Y106.261 E14.2303
;WIDTH:0.667015
G1 X71.872 Y106.283 E14.24091
;WIDTH:0.71257
G1 X72.086 Y106.305 E14.2523
G1 X72.139 Y106.256 E14.25611
;WIDTH:0.665529
G1 X72.192 Y106.207 E14.25965
;WIDTH:0.618487
G1 X72.245 Y106.158 E14.26293
;WIDTH:0.571469
G1 X76.635 Y101.768 E14.52216
;WIDTH:0.592377
G1 X76.872 Y101.546 E14.53623
G1 X77.196 Y101.536 E14.55031
;WIDTH:0.57146
G1 X82.804 Y101.536 E14.78447
;WIDTH:0.592378
G1 X83.128 Y101.546 E14.79854
G1 X83.365 Y101.768 E14.81262
;WIDTH:0.571471
G1 X87.755 Y106.158 E15.07185
;WIDTH:0.618487
G1 X87.808 Y106.207 E15.07513
;WIDTH:0.665529
G1 X87.861 Y106.256 E15.07867
;WIDTH:0.71257
G1 X87.914 Y106.305 E15.08248
G1 X88.128 Y106.283 E15.09387
;WIDTH:0.667015
G1 X88.342 Y106.261 E15.10448
;WIDTH:0.62146
G1 X91.658 Y106.261 E15.25601
;WIDTH:0.667018
G1 X91.872 Y106.283 E15.26662
;WIDTH:0.712575
G1 X92.086 Y106.305 E15.27801
G1 X92.139 Y106.256 E15.28182
;WIDTH:0.665539
G1 X92.192 Y106.207 E15.28536
;WIDTH:0.618502
G1 X92.245 Y106.158 E15.28863
;WIDTH:0.571465
G1 X96.635 Y101.768 E15.54786
;WIDTH:0.59237
G1 X96.872 Y101.546 E15.56194
G1 X97.196 Y101.536 E15.57601
;WIDTH:0.57146
G1 X102.804 Y101.536 E15.81018
;WIDTH:0.59237
G1 X103.128 Y101.546 E15.82425
G1 X103.365 Y101.768 E15.83832
;WIDTH:0.571463
G1 X107.755 Y106.158 E16.09755
;WIDTH:0.6185
G1 X107.808 Y106.207 E16.10083
;WIDTH:0.665537
G1 X107.861 Y106.256 E16.10437
;WIDTH:0.712574
G1 X107.914 Y106.305 E16.10818
G1 X108.128 Y106.283 E16.11957
;WIDTH:0.667017
G1 X108.342 Y106.261 E16.13018
;WIDTH:0.62146
G1 X111.658 Y106.261 E16.28171
;WIDTH:0.667017
G1 X111.872 Y106.283 E16.29232
;WIDTH:0.712574
G1 X112.086 Y106.305 E16.30371
G1 X112.139 Y106.256 E16.30752
;WIDTH:0.665537
G1 X112.192 Y106.207 E16.31106
;WIDTH:0.6185
G1 X112.245 Y106.158 E16.31434
;WIDTH:0.571463
G1 X116.635 Y101.768 E16.57357
;WIDTH:0.59237
G1 X116.872 Y101.546 E16.58764
G1 X117.196 Y101.536 E16.60171
;WIDTH:0.57146
G1 X122.804 Y101.536 E16.83588
;WIDTH:0.592369
G1 X123.128 Y101.546 E16.84995
G1 X123.365 Y101.768 E16.86402
;WIDTH:0.571461
G1 X127.755 Y106.158 E17.12325
;WIDTH:0.6185
G1 X127.808 Y106.207 E17.12653
;WIDTH:0.665539
G1 X127.861 Y106.256 E17.13007
;WIDTH:0.712578
G1 X127.914 Y106.305 E17.13388
G1 X128.128 Y106.283 E17.14527
;WIDTH:0.667019
G1 X128.342 Y106.261 E17.15588
;WIDTH:0.62146
G1 X131.658 Y106.261 E17.30741
;WIDTH:0.66702
G1 X131.872 Y106.283 E17.31802
