; generated by PrusaSlicer 2.5.0-alpha3+win64 on 2023-03-24 at 13:26:38 UTC


;
;
; 

; external perimeters extrusion width = 0.68mm
; perimeters extrusion width = 0.68mm
; infill extrusion width = 0.68mm
; solid infill extrusion width = 0.68mm
; top infill extrusion width = 0.60mm
; first layer extrusion width = 0.63mm

; external perimeters extrusion width = 0.68mm
; perimeters extrusion width = 0.68mm
; infill extrusion width = 0.68mm
; solid infill extrusion width = 0.68mm
; top infill extrusion width = 0.60mm
; first layer extrusion width = 0.63mm

M73 P0 R15
M107
M190 S85 ; set bed temperature and wait for it to be reached
G10 S230 P1 ; set temperature
;TYPE:Custom
;Set standby temperatures
G10 R200 P0
G10 R220 P1
G28 ; home all axes
G32 ; run bed.g -- probe bed and enable compensation
;workaround for toolchanger when using only one extruder
T1; select tool
G10 S230 P1 ; set temperature
M116 ; wait for temperature to be reached
G21 ; set units to millimeters
G90 ; use absolute coordinates
M82 ; use absolute distances for extrusion
G92 E0
;tool change macro
T1
G92 E0
; Filament gcode
M107
;LAYER_CHANGE
;Z:0.2
;HEIGHT:0.2
G1 Z.2 F18000
G1 E-.75 F600
G92 E0
G1 X33.453 Y106.728 F18000
G1 E.75 F600
;TYPE:Skirt/Brim
;WIDTH:0.63
G1 F2700
G1 X36.749 Y105.926 E.9073
G1 X183.251 Y105.926 E7.70135
G1 X186.547 Y106.728 E7.85865
G1 X195.634 Y111.428 E8.3331
G1 X197.543 Y112.862 E8.44382
G1 X198.551 Y114.213 E8.522
G1 X200.89 Y118.263 E8.73888
G1 X201.723 Y120.5 E8.84959
G1 X201.851 Y121.85 E8.91247
G1 X201.851 Y155.726 E10.48347
G1 X201.453 Y158.08 E10.59418
G1 X200.89 Y159.313 E10.65706
G1 X198.551 Y163.363 E10.87394
G1 X197.03 Y165.203 E10.98465
G1 X195.634 Y166.148 E11.06284
G1 X186.547 Y170.848 E11.53728
G1 X183.251 Y171.65 E11.69459
G1 X36.749 Y171.65 E18.48864
G1 X33.453 Y170.848 E18.64594
G1 X24.366 Y166.148 E19.12039
M73 P1 R15
G1 X22.457 Y164.714 E19.2311
G1 X21.449 Y163.363 E19.30929
G1 X19.11 Y159.313 E19.52616
G1 X18.277 Y157.076 E19.63688
G1 X18.149 Y155.726 E19.69975
G1 X18.149 Y121.85 E21.27076
G1 X18.547 Y119.496 E21.38147
G1 X19.11 Y118.263 E21.44435
G1 X21.449 Y114.213 E21.66122
G1 X22.97 Y112.373 E21.77193
G1 X24.366 Y111.428 E21.85012
G1 X33.373 Y106.769 E22.3204
G1 X33.643 Y107.291 F18000
G1 F2700
G1 X33.723 Y107.249 E22.32457
G1 X36.749 Y106.513 E22.469
G1 X183.251 Y106.513 E29.26305
G1 X186.277 Y107.249 E29.40748
M73 P1 R14
G1 X195.364 Y111.949 E29.88193
G1 X197.182 Y113.336 E29.98798
G1 X198.043 Y114.506 E30.05533
G1 X200.381 Y118.556 E30.27221
G1 X201.163 Y120.705 E30.37826
G1 X201.264 Y121.85 E30.43155
G1 X201.264 Y155.726 E32.00255
G1 X200.867 Y157.978 E32.1086
G1 X200.381 Y159.019 E32.16189
G1 X198.043 Y163.07 E32.37876
G1 X196.573 Y164.821 E32.48482
G1 X195.364 Y165.627 E32.55217
G1 X186.277 Y170.327 E33.02662
G1 X183.251 Y171.063 E33.17105
G1 X36.749 Y171.063 E39.9651
G1 X33.723 Y170.327 E40.10953
M73 P2 R14
G1 X24.636 Y165.627 E40.58398
G1 X22.818 Y164.24 E40.69003
G1 X21.957 Y163.07 E40.75738
G1 X19.619 Y159.02 E40.97426
G1 X18.837 Y156.871 E41.08031
G1 X18.736 Y155.726 E41.1336
G1 X18.736 Y121.85 E42.7046
G1 X19.133 Y119.598 E42.81065
G1 X19.619 Y118.556 E42.86394
G1 X21.957 Y114.506 E43.08081
G1 X23.427 Y112.755 E43.18686
G1 X24.636 Y111.949 E43.25422
G1 X33.563 Y107.332 E43.72032
G1 E42.97032 F600
G92 E0
G1 X188.114 Y158.842 F18000
G1 E.75 F600
;TYPE:External perimeter
;WIDTH:0.712578
G1 F450
G1 X188.045 Y158.693 E.75871
;WIDTH:0.66702
G1 X187.977 Y158.543 E.76684
;WIDTH:0.621461
G1 X186.434 Y155.871 E.90785
;WIDTH:0.662998
G1 X186.374 Y155.726 E.91551
G1 X186.434 Y155.581 E.92317
;WIDTH:0.621462
G1 X187.977 Y152.909 E1.06418
;WIDTH:0.656024
G1 X188.059 Y152.754 E1.07268
;WIDTH:0.690586
G1 X188.142 Y152.6 E1.08166
G1 X188.242 Y152.583 E1.08685
;WIDTH:0.656023
G1 X188.342 Y152.565 E1.09176
;WIDTH:0.62146
G1 X191.658 Y152.565 E1.24329
;WIDTH:0.662996
G1 X191.813 Y152.586 E1.25095
G1 X191.908 Y152.71 E1.25861
;WIDTH:0.621461
G1 X193.566 Y155.581 E1.41014
;WIDTH:0.662999
G1 X193.626 Y155.726 E1.4178
G1 X193.589 Y155.826 E1.42301
;WIDTH:0.625846
G1 X193.566 Y155.871 E1.42533
;WIDTH:0.621461
G1 X191.908 Y158.742 E1.57686
;WIDTH:0.662996
G1 X191.813 Y158.866 E1.58452
G1 X191.658 Y158.887 E1.59218
;WIDTH:0.62146
G1 X188.342 Y158.887 E1.74371
;WIDTH:0.667019
G1 X188.228 Y158.865 E1.74944
;WIDTH:0.712578
G1 X188.202 Y158.859 E1.75083
G1 E1.00083 F600
G92 E0
G1 X152.086 Y152.031 F18000
G1 E.75 F600
;WIDTH:0.712579
G1 F2700
G1 X152.139 Y151.982 E.75381
;WIDTH:0.66554
G1 X152.192 Y151.933 E.75735
;WIDTH:0.618501
G1 X152.245 Y151.884 E.76063
;WIDTH:0.571461
G1 X156.635 Y147.494 E1.01985
;WIDTH:0.592371
G1 X156.872 Y147.272 E1.03393
G1 X157.196 Y147.262 E1.048
;WIDTH:0.57146
G1 X162.804 Y147.262 E1.28217
;WIDTH:0.592372
G1 X163.128 Y147.272 E1.29624
G1 X163.365 Y147.494 E1.31031
;WIDTH:0.571461
G1 X167.755 Y151.884 E1.56954
;WIDTH:0.618498
G1 X167.808 Y151.933 E1.57282
;WIDTH:0.665538
G1 X167.861 Y151.982 E1.57636
;WIDTH:0.712578
G1 X167.914 Y152.031 E1.58017
G1 X168.128 Y152.009 E1.59156
;WIDTH:0.667019
G1 X168.342 Y151.987 E1.60217
;WIDTH:0.62146
G1 X171.658 Y151.987 E1.7537
;WIDTH:0.667019
G1 X171.872 Y152.009 E1.76431
;WIDTH:0.712578
G1 X172.086 Y152.031 E1.7757
G1 X172.139 Y151.982 E1.77951
;WIDTH:0.665538
G1 X172.192 Y151.933 E1.78305
;WIDTH:0.618498
G1 X172.245 Y151.884 E1.78632
;WIDTH:0.571461
G1 X176.635 Y147.494 E2.04555
;WIDTH:0.592372
G1 X176.872 Y147.272 E2.05963
G1 X177.196 Y147.262 E2.0737
;WIDTH:0.57146
G1 X182.804 Y147.262 E2.30787
;WIDTH:0.592372
G1 X183.128 Y147.272 E2.32194
G1 X183.365 Y147.494 E2.33601
;WIDTH:0.57146
G1 X187.755 Y151.884 E2.59524
;WIDTH:0.618499
G1 X187.808 Y151.933 E2.59851
;WIDTH:0.665538
G1 X187.861 Y151.982 E2.60206
;WIDTH:0.712577
G1 X187.914 Y152.031 E2.60587
G1 X188.128 Y152.009 E2.61725
;WIDTH:0.667019
G1 X188.342 Y151.987 E2.62787
;WIDTH:0.62146
G1 X191.658 Y151.987 E2.7794
;WIDTH:0.662996
G1 X192.147 Y152.007 E2.80337
G1 X192.409 Y152.421 E2.82735
;WIDTH:0.621461
G1 X194.067 Y155.292 E2.97888
;WIDTH:0.662999
G1 X194.294 Y155.726 E3.00285
G1 X194.204 Y155.881 E3.01162
G1 X194.067 Y156.16 E3.02684
;WIDTH:0.621461
G1 X192.409 Y159.031 E3.17837
;WIDTH:0.662996
G1 X192.147 Y159.444 E3.20234
G1 X191.658 Y159.465 E3.22632
;WIDTH:0.62146
G1 X188.342 Y159.465 E3.37785
;WIDTH:0.667019
G1 X188.128 Y159.443 E3.38846
;WIDTH:0.712578
G1 X187.914 Y159.421 E3.39985
G1 X187.861 Y159.47 E3.40366
;WIDTH:0.665539
G1 X187.808 Y159.519 E3.4072
;WIDTH:0.618499
G1 X187.755 Y159.568 E3.41047
;WIDTH:0.571459
G1 X183.365 Y163.958 E3.6697
;WIDTH:0.592372
G1 X183.128 Y164.18 E3.68378
G1 X182.804 Y164.19 E3.69785
;WIDTH:0.57146
G1 X177.196 Y164.19 E3.93202
;WIDTH:0.592372
G1 X176.872 Y164.18 E3.94609
G1 X176.635 Y163.958 E3.96016
;WIDTH:0.571461
G1 X172.245 Y159.568 E4.21939
;WIDTH:0.618498
G1 X172.192 Y159.519 E4.22266
;WIDTH:0.665538
G1 X172.139 Y159.47 E4.22621
;WIDTH:0.712578
G1 X172.086 Y159.421 E4.23001
G1 X171.872 Y159.443 E4.2414
;WIDTH:0.667019
G1 X171.658 Y159.465 E4.25202
;WIDTH:0.62146
G1 X168.342 Y159.465 E4.40354
;WIDTH:0.667019
G1 X168.128 Y159.443 E4.41416
;WIDTH:0.712578
G1 X167.914 Y159.421 E4.42555
G1 X167.861 Y159.47 E4.42936
;WIDTH:0.665538
G1 X167.808 Y159.519 E4.4329
;WIDTH:0.618498
G1 X167.755 Y159.568 E4.43617
;WIDTH:0.571461
G1 X163.365 Y163.958 E4.6954
;WIDTH:0.592372
G1 X163.128 Y164.18 E4.70947
G1 X162.804 Y164.19 E4.72355
;WIDTH:0.57146
G1 X157.196 Y164.19 E4.95772
;WIDTH:0.59237
G1 X156.872 Y164.18 E4.97179
G1 X156.635 Y163.958 E4.98586
;WIDTH:0.571461
M73 P3 R14
G1 X152.245 Y159.568 E5.24509
;WIDTH:0.618501
G1 X152.192 Y159.519 E5.24836
;WIDTH:0.66554
G1 X152.139 Y159.47 E5.2519
;WIDTH:0.712579
G1 X152.086 Y159.421 E5.25571
G1 X151.872 Y159.443 E5.2671
;WIDTH:0.66702
G1 X151.658 Y159.465 E5.27772
;WIDTH:0.62146
G1 X148.342 Y159.465 E5.42924
;WIDTH:0.667019
G1 X148.128 Y159.443 E5.43986
;WIDTH:0.712578
G1 X147.914 Y159.421 E5.45125
G1 X147.861 Y159.47 E5.45506
;WIDTH:0.665539
G1 X147.808 Y159.519 E5.4586
;WIDTH:0.6185
G1 X147.755 Y159.568 E5.46187
;WIDTH:0.571461
G1 X143.365 Y163.958 E5.7211
;WIDTH:0.59237
G1 X143.128 Y164.18 E5.73517
G1 X142.804 Y164.19 E5.74925
;WIDTH:0.57146
G1 X137.196 Y164.19 E5.98341
;WIDTH:0.59237
G1 X136.872 Y164.18 E5.99749
G1 X136.635 Y163.958 E6.01156
;WIDTH:0.571461
G1 X132.245 Y159.568 E6.27079
;WIDTH:0.618501
G1 X132.192 Y159.519 E6.27406
;WIDTH:0.66554
G1 X132.139 Y159.47 E6.2776
;WIDTH:0.712579
G1 X132.086 Y159.421 E6.28141
G1 X131.872 Y159.443 E6.2928
;WIDTH:0.66702
G1 X131.658 Y159.465 E6.30342
;WIDTH:0.62146
G1 X128.342 Y159.465 E6.45494
;WIDTH:0.667019
G1 X128.128 Y159.443 E6.46556
;WIDTH:0.712578
G1 X127.914 Y159.421 E6.47695
G1 X127.861 Y159.47 E6.48076
;WIDTH:0.665539
G1 X127.808 Y159.519 E6.4843
;WIDTH:0.6185
G1 X127.755 Y159.568 E6.48757
;WIDTH:0.571461
G1 X123.365 Y163.958 E6.7468
;WIDTH:0.592369
G1 X123.128 Y164.18 E6.76087
G1 X122.804 Y164.19 E6.77495
;WIDTH:0.57146
G1 X117.196 Y164.19 E7.00911
;WIDTH:0.59237
G1 X116.872 Y164.18 E7.02319
G1 X116.635 Y163.958 E7.03726
;WIDTH:0.571463
G1 X112.245 Y159.568 E7.29649
;WIDTH:0.618501
G1 X112.192 Y159.519 E7.29976
;WIDTH:0.665538
G1 X112.139 Y159.47 E7.3033
;WIDTH:0.712575
G1 X112.086 Y159.421 E7.30711
G1 X111.872 Y159.443 E7.3185
;WIDTH:0.667018
G1 X111.658 Y159.465 E7.32912
;WIDTH:0.62146
G1 X108.342 Y159.465 E7.48064
;WIDTH:0.667017
G1 X108.128 Y159.443 E7.49126
;WIDTH:0.712574
G1 X107.914 Y159.421 E7.50265
G1 X107.861 Y159.47 E7.50646
;WIDTH:0.665537
G1 X107.808 Y159.519 E7.51
;WIDTH:0.6185
G1 X107.755 Y159.568 E7.51327
;WIDTH:0.571463
G1 X103.365 Y163.958 E7.7725
;WIDTH:0.59237
G1 X103.128 Y164.18 E7.78657
G1 X102.804 Y164.19 E7.80065
;WIDTH:0.57146
G1 X97.196 Y164.19 E8.03481
;WIDTH:0.59237
G1 X96.872 Y164.18 E8.04889
G1 X96.635 Y163.958 E8.06296
;WIDTH:0.571464
G1 X92.245 Y159.568 E8.32219
;WIDTH:0.618501
G1 X92.192 Y159.519 E8.32546
;WIDTH:0.665538
G1 X92.139 Y159.47 E8.32901
;WIDTH:0.712575
G1 X92.086 Y159.421 E8.33282
G1 X91.872 Y159.443 E8.3442
;WIDTH:0.667018
G1 X91.658 Y159.465 E8.35482
;WIDTH:0.62146
G1 X88.342 Y159.465 E8.50634
;WIDTH:0.667016
G1 X88.128 Y159.443 E8.51696
;WIDTH:0.712571
G1 X87.914 Y159.421 E8.52835
G1 X87.861 Y159.47 E8.53216
;WIDTH:0.665529
G1 X87.808 Y159.519 E8.5357
;WIDTH:0.618487
G1 X87.755 Y159.568 E8.53897
;WIDTH:0.57147
G1 X83.365 Y163.958 E8.79821
;WIDTH:0.592377
G1 X83.128 Y164.18 E8.81228
G1 X82.804 Y164.19 E8.82635
;WIDTH:0.57146
G1 X77.196 Y164.19 E9.06052
;WIDTH:0.592377
G1 X76.872 Y164.18 E9.07459
G1 X76.635 Y163.958 E9.08866
;WIDTH:0.571469
G1 X72.245 Y159.568 E9.3479
;WIDTH:0.618487
G1 X72.192 Y159.519 E9.35117
;WIDTH:0.665529
G1 X72.139 Y159.47 E9.35471
;WIDTH:0.71257
G1 X72.086 Y159.421 E9.35852
G1 X71.872 Y159.443 E9.36991
;WIDTH:0.667015
G1 X71.658 Y159.465 E9.38052
;WIDTH:0.62146
G1 X68.342 Y159.465 E9.53205
;WIDTH:0.667016
G1 X68.128 Y159.443 E9.54267
;WIDTH:0.712571
G1 X67.914 Y159.421 E9.55405
G1 X67.861 Y159.47 E9.55786
;WIDTH:0.665529
G1 X67.808 Y159.519 E9.56141
;WIDTH:0.618487
G1 X67.755 Y159.568 E9.56468
;WIDTH:0.57147
G1 X63.365 Y163.958 E9.82391
;WIDTH:0.592378
G1 X63.128 Y164.18 E9.83799
G1 X62.804 Y164.19 E9.85206
;WIDTH:0.57146
G1 X57.196 Y164.19 E10.08622
;WIDTH:0.592376
G1 X56.872 Y164.18 E10.1003
G1 X56.635 Y163.958 E10.11437
;WIDTH:0.571468
G1 X52.245 Y159.568 E10.3736
;WIDTH:0.618484
G1 X52.192 Y159.519 E10.37688
;WIDTH:0.665526
G1 X52.139 Y159.47 E10.38042
;WIDTH:0.712568
G1 X52.086 Y159.421 E10.38423
G1 X51.872 Y159.443 E10.39562
;WIDTH:0.667014
G1 X51.658 Y159.465 E10.40623
;WIDTH:0.62146
G1 X48.342 Y159.465 E10.55776
;WIDTH:0.667014
G1 X48.128 Y159.443 E10.56837
;WIDTH:0.712568
G1 X47.914 Y159.421 E10.57976
G1 X47.861 Y159.47 E10.58357
;WIDTH:0.665526
G1 X47.808 Y159.519 E10.58711
;WIDTH:0.618484
G1 X47.755 Y159.568 E10.59039
;WIDTH:0.571466
G1 X43.365 Y163.958 E10.84962
;WIDTH:0.592375
G1 X43.128 Y164.18 E10.86369
G1 X42.804 Y164.19 E10.87776
;WIDTH:0.57146
G1 X37.196 Y164.19 E11.11193
;WIDTH:0.592375
G1 X36.872 Y164.18 E11.126
G1 X36.635 Y163.958 E11.14007
;WIDTH:0.571466
G1 X32.245 Y159.568 E11.39931
;WIDTH:0.618486
G1 X32.192 Y159.519 E11.40258
;WIDTH:0.665528
G1 X32.139 Y159.47 E11.40612
;WIDTH:0.71257
G1 X32.086 Y159.421 E11.40993
G1 X31.872 Y159.443 E11.42132
;WIDTH:0.667015
G1 X31.658 Y159.465 E11.43193
;WIDTH:0.62146
G1 X28.342 Y159.465 E11.58346
;WIDTH:0.662999
G1 X27.853 Y159.444 E11.60744
G1 X27.591 Y159.031 E11.63141
;WIDTH:0.621472
G1 X25.933 Y156.16 E11.78294
;WIDTH:0.66301
G1 X25.706 Y155.726 E11.80692
G1 X25.933 Y155.292 E11.8309
;WIDTH:0.621472
G1 X27.591 Y152.421 E11.98243
;WIDTH:0.662999
G1 X27.853 Y152.007 E12.0064
G1 X28.342 Y151.987 E12.03038
;WIDTH:0.62146
G1 X31.658 Y151.987 E12.18191
;WIDTH:0.656027
G1 X31.858 Y152.004 E12.19163
;WIDTH:0.690594
G1 X32.058 Y152.021 E12.2019
G1 X32.12 Y151.976 E12.20585
;WIDTH:0.650877
G1 X32.182 Y151.93 E12.20956
;WIDTH:0.611159
G1 X32.245 Y151.884 E12.21303
;WIDTH:0.571466
G1 X36.635 Y147.494 E12.47226
;WIDTH:0.592375
G1 X36.872 Y147.272 E12.48633
G1 X37.196 Y147.262 E12.5004
;WIDTH:0.57146
G1 X42.804 Y147.262 E12.73457
;WIDTH:0.592375
G1 X43.128 Y147.272 E12.74864
G1 X43.365 Y147.494 E12.76271
;WIDTH:0.571466
G1 X47.755 Y151.884 E13.02195
;WIDTH:0.618484
G1 X47.808 Y151.933 E13.02522
;WIDTH:0.665526
G1 X47.861 Y151.982 E13.02876
;WIDTH:0.712568
G1 X47.914 Y152.031 E13.03257
G1 X48.128 Y152.009 E13.04396
;WIDTH:0.667014
G1 X48.342 Y151.987 E13.05457
;WIDTH:0.62146
G1 X51.658 Y151.987 E13.2061
;WIDTH:0.656027
G1 X51.858 Y152.004 E13.21582
;WIDTH:0.690594
G1 X52.058 Y152.021 E13.22609
G1 X52.12 Y151.976 E13.23004
;WIDTH:0.650877
G1 X52.182 Y151.93 E13.23375
;WIDTH:0.611159
G1 X52.245 Y151.884 E13.23722
;WIDTH:0.571468
G1 X56.635 Y147.494 E13.49645
;WIDTH:0.592376
G1 X56.872 Y147.272 E13.51052
G1 X57.196 Y147.262 E13.5246
;WIDTH:0.57146
G1 X62.804 Y147.262 E13.75876
;WIDTH:0.592378
G1 X63.128 Y147.272 E13.77284
G1 X63.365 Y147.494 E13.78691
;WIDTH:0.571471
G1 X67.755 Y151.884 E14.04614
;WIDTH:0.618487
G1 X67.808 Y151.933 E14.04942
;WIDTH:0.665529
G1 X67.861 Y151.982 E14.05296
;WIDTH:0.71257
G1 X67.914 Y152.031 E14.05677
G1 X68.128 Y152.009 E14.06816
;WIDTH:0.667015
G1 X68.342 Y151.987 E14.07877
;WIDTH:0.62146
G1 X71.658 Y151.987 E14.2303
;WIDTH:0.667015
G1 X71.872 Y152.009 E14.24091
;WIDTH:0.71257
G1 X72.086 Y152.031 E14.2523
G1 X72.139 Y151.982 E14.25611
;WIDTH:0.665529
G1 X72.192 Y151.933 E14.25965
;WIDTH:0.618487
G1 X72.245 Y151.884 E14.26293
;WIDTH:0.571469
G1 X76.635 Y147.494 E14.52216
;WIDTH:0.592377
G1 X76.872 Y147.272 E14.53623
G1 X77.196 Y147.262 E14.55031
;WIDTH:0.57146
G1 X82.804 Y147.262 E14.78447
;WIDTH:0.592378
G1 X83.128 Y147.272 E14.79854
G1 X83.365 Y147.494 E14.81262
;WIDTH:0.571471
G1 X87.755 Y151.884 E15.07185
;WIDTH:0.618487
G1 X87.808 Y151.933 E15.07513
;WIDTH:0.665529
G1 X87.861 Y151.982 E15.07867
;WIDTH:0.71257
G1 X87.914 Y152.031 E15.08248
G1 X88.128 Y152.009 E15.09387
;WIDTH:0.667015
G1 X88.342 Y151.987 E15.10448
;WIDTH:0.62146
G1 X91.658 Y151.987 E15.25601
;WIDTH:0.667018
G1 X91.872 Y152.009 E15.26662
;WIDTH:0.712575
G1 X92.086 Y152.031 E15.27801
G1 X92.139 Y151.982 E15.28182
;WIDTH:0.665539
G1 X92.192 Y151.933 E15.28536
;WIDTH:0.618502
G1 X92.245 Y151.884 E15.28863
;WIDTH:0.571465
G1 X96.635 Y147.494 E15.54786
;WIDTH:0.59237
G1 X96.872 Y147.272 E15.56194
G1 X97.196 Y147.262 E15.57601
;WIDTH:0.57146
G1 X102.804 Y147.262 E15.81018
;WIDTH:0.59237
G1 X103.128 Y147.272 E15.82425
G1 X103.365 Y147.494 E15.83832
;WIDTH:0.571463
G1 X107.755 Y151.884 E16.09755
;WIDTH:0.6185
G1 X107.808 Y151.933 E16.10083
;WIDTH:0.665537
G1 X107.861 Y151.982 E16.10437
;WIDTH:0.712574
G1 X107.914 Y152.031 E16.10818
G1 X108.128 Y152.009 E16.11957
;WIDTH:0.667017
G1 X108.342 Y151.987 E16.13018
;WIDTH:0.62146
G1 X111.658 Y151.987 E16.28171
;WIDTH:0.667017
G1 X111.872 Y152.009 E16.29232
;WIDTH:0.712574
G1 X112.086 Y152.031 E16.30371
G1 X112.139 Y151.982 E16.30752
;WIDTH:0.665537
G1 X112.192 Y151.933 E16.31106
;WIDTH:0.6185
G1 X112.245 Y151.884 E16.31434
;WIDTH:0.571463
G1 X116.635 Y147.494 E16.57357
;WIDTH:0.59237
G1 X116.872 Y147.272 E16.58764
G1 X117.196 Y147.262 E16.60171
;WIDTH:0.57146
