; generated by PrusaSlicer 2.5.0-alpha3+win64 on 2023-03-24 at 19:32:33 UTC


;
;
; 

; external perimeters extrusion width = 0.68mm
; perimeters extrusion width = 0.68mm
; infill extrusion width = 0.68mm
; solid infill extrusion width = 0.68mm
; top infill extrusion width = 0.60mm
; first layer extrusion width = 0.63mm

M73 P0 R34
M107
M190 S85 ; set bed temperature and wait for it to be reached
G10 S230 P1 ; set temperature
;TYPE:Custom
;Set standby temperatures
G10 R200 P0
G10 R220 P1
G28 ; home all axes
G32 ; run bed.g -- probe bed and enable compensation
;workaround for toolchanger when using only one extruder
T1; select tool
G10 S230 P1 ; set temperature
M116 ; wait for temperature to be reached
G21 ; set units to millimeters
G90 ; use absolute coordinates
M82 ; use absolute distances for extrusion
G92 E0
;tool change macro
T1
G92 E0
; Filament gcode
M107
;LAYER_CHANGE
;Z:0.2
;HEIGHT:0.2
G1 Z.2 F18000
G1 E-.75 F600
G92 E0
G1 X99.888 Y85.448 F18000
G1 E.85 F600
;TYPE:Skirt/Brim
;WIDTH:0.63
G1 F1500
G1 X101.676 Y83.723 E.96518
G1 X103.916 Y82.652 E1.08037
G1 X106.1 Y82.339 E1.18267
G1 X112.959 Y82.339 E1.50074
G1 X115.41 Y82.736 E1.61592
G1 X118.447 Y84.612 E1.78143
G1 X119.388 Y85.553 E1.84317
G1 X120.841 Y87.568 E1.95836
G1 X121.661 Y91.041 E2.12387
G1 X121.661 Y128.959 E3.88228
G1 X121.264 Y131.41 E3.99746
G1 X119.388 Y134.447 E4.16298
G1 X118.447 Y135.388 E4.22472
G1 X116.432 Y136.841 E4.3399
G1 X112.959 Y137.661 E4.50541
G1 X106.1 Y137.661 E4.82348
G1 X103.648 Y137.264 E4.93866
M73 P0 R33
G1 X101.448 Y136.112 E5.05385
G1 X99.723 Y134.324 E5.16903
G1 X98.652 Y132.084 E5.28422
G1 X98.339 Y129.9 E5.38652
G1 X98.339 Y90.1 E7.23225
G1 X98.736 Y87.648 E7.34743
G1 X99.846 Y85.527 E7.45844
G1 X100.379 Y85.82 F18000
G1 F1500
G1 X100.471 Y85.653 E7.46727
G1 X102.242 Y84.052 E7.57799
G1 X104.44 Y83.121 E7.6887
G1 X106.1 Y82.926 E7.76621
G1 X112.959 Y82.926 E8.08428
G1 X115.313 Y83.323 E8.19499
G1 X118.031 Y85.027 E8.3438
G1 X118.973 Y85.969 E8.40554
G1 X120.357 Y87.914 E8.51625
G1 X121.074 Y91.041 E8.66506
G1 X121.074 Y128.959 E10.42347
G1 X120.677 Y131.313 E10.53418
G1 X118.973 Y134.031 E10.68298
G1 X118.031 Y134.973 E10.74473
G1 X116.086 Y136.357 E10.85544
G1 X112.959 Y137.074 E11.00424
G1 X106.1 Y137.074 E11.32231
G1 X103.746 Y136.677 E11.43302
G1 X101.653 Y135.529 E11.54374
G1 X100.052 Y133.758 E11.65445
G1 X99.121 Y131.56 E11.76516
G1 X98.926 Y129.9 E11.84267
G1 X98.926 Y90.1 E13.6884
G1 X99.323 Y87.746 E13.79911
G1 X100.336 Y85.899 E13.89682
G1 X100.86 Y86.201 F18000
G1 F1500
G1 X101.053 Y85.867 E13.9147
G1 X102.804 Y84.397 E14.02075
G1 X104.953 Y83.614 E14.1268
G1 X106.1 Y83.513 E14.18021
G1 X112.959 Y83.513 E14.49827
G1 X115.211 Y83.91 E14.60432
G1 X117.616 Y85.442 E14.7366
G1 X118.558 Y86.384 E14.79834
G1 X119.87 Y88.257 E14.90439
G1 X120.487 Y91.041 E15.03666
G1 X120.487 Y128.959 E16.79508
G1 X120.09 Y131.211 E16.90113
G1 X118.558 Y133.616 E17.0334
G1 X117.616 Y134.558 E17.09514
G1 X115.743 Y135.87 E17.2012
G1 X112.959 Y136.487 E17.33347
G1 X106.1 Y136.487 E17.65153
G1 X103.848 Y136.09 E17.75759
G1 X101.867 Y134.947 E17.86364
G1 X100.397 Y133.196 E17.96969
G1 X99.614 Y131.047 E18.07575
G1 X99.513 Y129.9 E18.12915
G1 X99.513 Y90.1 E19.97488
G1 X99.91 Y87.848 E20.08093
G1 X100.815 Y86.279 E20.16493
G1 E19.41493 F600
G92 E0
G1 X107.043 Y95.709 F18000
G1 E.85 F600
;TYPE:Perimeter
;WIDTH:0.711944
G1 F1200
G1 X107.119 Y95.894 E.86055
;WIDTH:0.669727
G1 X107.441 Y96.566 E.89748
;WIDTH:0.629999
G1 X107.752 Y96.986 E.92171
G1 X108.163 Y97.368 E.94773
G1 X108.803 Y97.751 E.98228
G1 X109.298 Y97.917 E1.0065
G1 X109.815 Y97.994 E1.03075
G1 X110.338 Y97.981 E1.05501
G1 X110.886 Y97.863 E1.08102
G1 X111.566 Y97.559 E1.11557
G1 X112.013 Y97.22 E1.14157
G1 X112.388 Y96.811 E1.16727
G1 X112.685 Y96.337 E1.19325
G1 X112.877 Y95.85 E1.2175
;WIDTH:0.647081
G1 X112.989 Y95.339 E1.24247
G1 X112.998 Y95.872 E1.26788
;WIDTH:0.629999
G1 X112.998 Y123.533 E2.55065
;WIDTH:0.670972
G1 X112.977 Y123.912 E2.56949
;WIDTH:0.711944
G1 X112.957 Y124.291 E2.58956
G1 X112.881 Y124.106 E2.60011
;WIDTH:0.669727
G1 X112.559 Y123.434 E2.63704
;WIDTH:0.629999
G1 X112.248 Y123.014 E2.66127
G1 X111.837 Y122.632 E2.68728
G1 X111.197 Y122.249 E2.72184
G1 X110.702 Y122.083 E2.74606
G1 X110.185 Y122.006 E2.77031
G1 X109.662 Y122.019 E2.79456
G1 X109.114 Y122.137 E2.82058
G1 X108.434 Y122.441 E2.85513
G1 X107.987 Y122.78 E2.88112
G1 X107.612 Y123.189 E2.90683
G1 X107.315 Y123.663 E2.93281
G1 X107.123 Y124.15 E2.95706
;WIDTH:0.647258
G1 X107.011 Y124.661 E2.98204
G1 X107.002 Y124.128 E3.00745
;WIDTH:0.629999
G1 X107.002 Y96.467 E4.29023
;WIDTH:0.670972
G1 X107.023 Y96.088 E4.30906
;WIDTH:0.711944
M73 P1 R33
G1 X107.038 Y95.799 E4.32438
G1 X107.011 Y94.661 F18000
;WIDTH:0.647258
G1 F450
G1 X107.002 Y94.128 E4.34979
;WIDTH:0.629999
G1 X107.002 Y91.002 E4.49477
G1 X108.334 Y91.002 E4.55652
;WIDTH:0.655531
G1 X108.611 Y91.015 E4.56995
;WIDTH:0.681062
G1 X108.888 Y91.028 E4.58393
;WIDTH:0.721102
G1 X108.951 Y91.048 E4.58748
;WIDTH:0.761142
G1 X109.014 Y91.068 E4.59123
;WIDTH:0.801182
G1 X109.077 Y91.088 E4.5952
;WIDTH:0.841222
G1 X109.14 Y91.108 E4.59937
;WIDTH:0.881262
G1 X109.203 Y91.128 E4.60376
G1 X109.815 Y91.106 E4.64429
;WIDTH:0.848916
G1 X110.427 Y91.112 E4.68324
G1 X110.501 Y91.091 E4.68813
;WIDTH:0.80828
G1 X110.575 Y91.071 E4.69276
;WIDTH:0.767644
G1 X110.649 Y91.051 E4.69715
;WIDTH:0.727008
G1 X110.723 Y91.03 E4.7013
;WIDTH:0.686372
G1 X110.797 Y91.01 E4.7052
;WIDTH:0.645735
G1 X111.048 Y91.002 E4.71717
;WIDTH:0.629999
G1 X112.585 Y91.002 E4.78844
G1 X112.998 Y91.415 E4.81553
G1 X112.998 Y91.707 E4.82907
G1 X112.998 Y93.533 E4.91373
;WIDTH:0.670972
G1 X112.977 Y93.912 E4.93257
;WIDTH:0.711944
G1 X112.957 Y94.291 E4.95264
G1 X112.881 Y94.106 E4.96319
;WIDTH:0.669727
G1 X112.559 Y93.434 E5.00012
;WIDTH:0.629999
G1 X112.248 Y93.014 E5.02435
G1 X111.837 Y92.632 E5.05036
G1 X111.369 Y92.334 E5.07607
G1 X110.85 Y92.123 E5.10205
;WIDTH:0.673783
G1 X110.752 Y92.081 E5.1074
;WIDTH:0.717566
G1 X110.653 Y92.038 E5.11312
;WIDTH:0.76135
G1 X110.554 Y91.996 E5.11922
;WIDTH:0.805133
G1 X110.456 Y91.954 E5.12568
;WIDTH:0.848916
G1 X110.357 Y91.911 E5.13252
G1 X109.815 Y91.902 E5.16702
;WIDTH:0.881262
G1 X109.276 Y91.96 E5.20291
G1 X109.242 Y91.99 E5.20597
;WIDTH:0.841222
G1 X109.207 Y92.021 E5.20888
;WIDTH:0.801182
G1 X109.173 Y92.052 E5.21165
;WIDTH:0.761142
G1 X109.138 Y92.083 E5.21427
;WIDTH:0.721102
G1 X109.104 Y92.114 E5.21674
;WIDTH:0.681062
G1 X108.769 Y92.278 E5.23555
;WIDTH:0.655531
G1 X108.434 Y92.441 E5.25361
;WIDTH:0.629999
G1 X108.014 Y92.752 E5.27784
G1 X107.632 Y93.163 E5.30385
G1 X107.334 Y93.631 E5.32956
G1 X107.123 Y94.15 E5.35554
;WIDTH:0.647258
G1 X107.03 Y94.573 E5.37622
G1 E4.62622 F600
G92 E0
G1 X108.826 Y92.892 F18000
G1 E.85 F600
;TYPE:External perimeter
;WIDTH:0.629999
G1 F450
G1 X109.339 Y92.679 E.87571
G1 X109.764 Y92.597 E.89581
G1 X110.236 Y92.597 E.91769
G1 X110.65 Y92.675 E.9372
G1 X111.054 Y92.829 E.95728
G1 X111.521 Y93.127 E.98298
G1 X111.866 Y93.468 E1.00545
G1 X112.108 Y93.826 E1.02552
G1 X112.321 Y94.339 E1.05123
G1 X112.407 Y94.815 E1.07369
G1 X112.403 Y95.236 E1.09321
G1 X112.325 Y95.65 E1.11272
G1 X112.177 Y96.043 E1.13224
G1 X111.955 Y96.415 E1.15232
G1 X111.58 Y96.824 E1.17802
G1 X111.174 Y97.108 E1.20104
G1 X110.661 Y97.321 E1.22675
G1 X110.185 Y97.407 E1.24921
G1 X109.764 Y97.403 E1.26873
G1 X109.35 Y97.325 E1.28825
G1 X108.946 Y97.171 E1.30832
G1 X108.479 Y96.873 E1.33403
G1 X108.134 Y96.532 E1.35649
G1 X107.892 Y96.174 E1.37657
G1 X107.679 Y95.661 E1.40227
G1 X107.593 Y95.185 E1.42474
G1 X107.597 Y94.764 E1.44425
G1 X107.675 Y94.35 E1.46377
G1 X107.829 Y93.946 E1.48384
G1 X108.127 Y93.479 E1.50955
G1 X108.468 Y93.134 E1.53201
G1 X108.752 Y92.942 E1.54791
G1 X108.843 Y92.338 F18000
G1 E.79791 F600
G92 E0
G1 X112.957 Y94.291 F18000
G1 E.85 F600
;TYPE:Perimeter
;WIDTH:0.711944
G1 F1200
G1 X112.977 Y94.553 E.86389
;WIDTH:0.67284
G1 X112.996 Y94.815 E.87697
;WIDTH:0.647116
G1 X112.989 Y95.339 E.90195
G1 E.15195 F600
G92 E0
G1 X107.043 Y95.709 F18000
G1 E.85 F600
;WIDTH:0.711944
G1 F1200
G1 X107.023 Y95.447 E.86389
;WIDTH:0.67284
G1 X107.004 Y95.185 E.87697
;WIDTH:0.647258
G1 X107.011 Y94.661 E.902
G1 E.152 F600
G92 E0
G1 X111.656 Y127.492 F18000
G1 E.85 F600
;WIDTH:0.629999
G1 F450
G1 X111.986 Y127.248 E.86905
G1 X112.368 Y126.837 E.89506
G1 X112.666 Y126.369 E.92077
G1 X112.877 Y125.85 E.94675
;WIDTH:0.647081
G1 X112.989 Y125.339 E.97172
G1 X112.998 Y125.872 E.99713
;WIDTH:0.629999
G1 X112.998 Y128.585 E1.12295
G1 X112.585 Y128.998 E1.15004
G1 X111.666 Y128.998 E1.19264
;WIDTH:0.655531
G1 X111.389 Y128.985 E1.20606
;WIDTH:0.681063
G1 X111.112 Y128.972 E1.22005
;WIDTH:0.721103
G1 X111.049 Y128.952 E1.22359
;WIDTH:0.761143
G1 X110.986 Y128.932 E1.22735
;WIDTH:0.801183
G1 X110.923 Y128.912 E1.23131
;WIDTH:0.841223
G1 X110.86 Y128.892 E1.23549
;WIDTH:0.881262
G1 X110.797 Y128.872 E1.23987
G1 X110.185 Y128.894 E1.28041
;WIDTH:0.848916
G1 X109.573 Y128.888 E1.31936
G1 X109.499 Y128.909 E1.32424
;WIDTH:0.80828
G1 X109.425 Y128.929 E1.32888
;WIDTH:0.767644
G1 X109.351 Y128.949 E1.33327
;WIDTH:0.727008
G1 X109.277 Y128.97 E1.33742
;WIDTH:0.686372
G1 X109.203 Y128.99 E1.34132
;WIDTH:0.645735
G1 X108.952 Y128.998 E1.35329
;WIDTH:0.629999
G1 X107.002 Y128.998 E1.44371
G1 X107.002 Y126.467 E1.56107
;WIDTH:0.670972
G1 X107.023 Y126.088 E1.5799
;WIDTH:0.711944
G1 X107.043 Y125.709 E1.59997
G1 X107.119 Y125.894 E1.61052
;WIDTH:0.669727
G1 X107.441 Y126.566 E1.64745
;WIDTH:0.629999
G1 X107.752 Y126.986 E1.67168
G1 X108.163 Y127.368 E1.6977
G1 X108.631 Y127.666 E1.7234
G1 X109.15 Y127.877 E1.74938
;WIDTH:0.673783
G1 X109.248 Y127.919 E1.75473
;WIDTH:0.717566
G1 X109.347 Y127.962 E1.76046
;WIDTH:0.76135
G1 X109.446 Y128.004 E1.76655
;WIDTH:0.805133
G1 X109.544 Y128.046 E1.77302
;WIDTH:0.848916
G1 X109.643 Y128.089 E1.77986
G1 X110.185 Y128.098 E1.81435
;WIDTH:0.881262
G1 X110.724 Y128.04 E1.85025
G1 X110.758 Y128.01 E1.85331
;WIDTH:0.841223
G1 X110.793 Y127.979 E1.85622
;WIDTH:0.801183
G1 X110.827 Y127.948 E1.85899
;WIDTH:0.761143
G1 X110.862 Y127.917 E1.86161
;WIDTH:0.721103
G1 X110.896 Y127.886 E1.86408
;WIDTH:0.681063
G1 X111.231 Y127.722 E1.88289
;WIDTH:0.655531
G1 X111.566 Y127.559 E1.90094
;WIDTH:0.629999
G1 X111.584 Y127.546 E1.90195
G1 X111.299 Y127.023 F18000
;TYPE:External perimeter
G1 F450
G1 X111.174 Y127.108 E1.90898
G1 X110.661 Y127.321 E1.93469
G1 X110.185 Y127.407 E1.95715
G1 X109.764 Y127.403 E1.97667
G1 X109.35 Y127.325 E1.99618
G1 X108.946 Y127.171 E2.01626
G1 X108.479 Y126.873 E2.04197
G1 X108.134 Y126.532 E2.06443
G1 X107.892 Y126.174 E2.08451
G1 X107.679 Y125.661 E2.11021
G1 X107.593 Y125.185 E2.13268
G1 X107.597 Y124.764 E2.15219
G1 X107.675 Y124.35 E2.17171
G1 X107.823 Y123.957 E2.19122
G1 X108.045 Y123.585 E2.2113
G1 X108.42 Y123.176 E2.237
G1 X108.826 Y122.892 E2.26003
G1 X109.339 Y122.679 E2.28573
G1 X109.815 Y122.593 E2.3082
G1 X110.236 Y122.597 E2.32771
G1 X110.65 Y122.675 E2.34723
G1 X111.054 Y122.829 E2.3673
G1 X111.521 Y123.127 E2.39301
G1 X111.866 Y123.468 E2.41547
G1 X112.108 Y123.826 E2.43555
G1 X112.321 Y124.339 E2.46125
G1 X112.407 Y124.815 E2.48372
G1 X112.403 Y125.236 E2.50323
G1 X112.325 Y125.65 E2.52275
G1 X112.171 Y126.054 E2.54282
G1 X111.873 Y126.521 E2.56853
G1 X111.532 Y126.866 E2.59099
G1 X111.374 Y126.973 E2.59986
G1 X111.316 Y127.174 F18000
G1 E1.84986 F600
G92 E0
G1 X112.957 Y124.291 F18000
G1 E.85 F600
;TYPE:Perimeter
;WIDTH:0.711944
G1 F1200
G1 X112.977 Y124.553 E.86389
;WIDTH:0.67284
G1 X112.996 Y124.815 E.87697
;WIDTH:0.647116
G1 X112.989 Y125.339 E.90195
G1 E.15195 F600
G92 E0
G1 X107.043 Y125.709 F18000
G1 E.85 F600
;WIDTH:0.711944
G1 F1200
G1 X107.023 Y125.447 E.86389
;WIDTH:0.67284
G1 X107.004 Y125.185 E.87697
;WIDTH:0.647258
G1 X107.011 Y124.661 E.902
G1 E.152 F600
G92 E0
G1 X106.415 Y129.585 F18000
G1 E.85 F600
;TYPE:External perimeter
;WIDTH:0.629999
G1 F750
G1 X106.415 Y90.415 E2.66651
G1 X112.828 Y90.415 E2.96392
G1 X113.585 Y91.172 E3.01356
G1 X113.585 Y128.828 E4.75987
G1 X112.828 Y129.585 E4.80951
G1 X106.505 Y129.585 E5.10274
G1 X106.697 Y129.055 F18000
G1 E4.35274 F600
G92 E0
G1 X108.747 Y127.917 F18000
G1 E.85 F600
;TYPE:Solid infill
;WIDTH:0.747415
G1 F2250
G1 X109.298 Y128.469 E.89341
G1 X109.161 Y128.544 E.90211
G1 X108.391 Y128.558 E.945
G1 X107.178 Y127.345 E1.04043
G1 E.29043 F600
G92 E0
G1 X112.101 Y127.366 F18000
G1 E.85 F600
G1 F2250
G1 X112.558 Y127.822 E.8859
G1 X112.558 Y128.403 E.91822
G1 X112.403 Y128.558 E.93043
G1 X112.297 Y128.558 E.93629
G1 X111.715 Y127.976 E.98209
G1 X111.113 Y128.297 E1.02006
G1 X111.08 Y128.337 E1.02296
G1 X111.555 Y128.812 E1.06033
G1 E.31033 F600
G92 E0
G1 X112.822 Y97.749 F18000
M73 P2 R33
G1 E.85 F600
;WIDTH:0.635029
G1 F2250
G1 X112.458 Y97.386 E.87404
G1 X112.332 Y97.523 E.88277
G1 X112.016 Y97.781 E.90184
G1 X112.558 Y98.322 E.93765
G1 X112.558 Y99.16 E.97682
G1 X111.488 Y98.09 E1.04758
G1 X111.047 Y98.273 E1.06988
G1 X110.882 Y98.321 E1.07796
G1 X112.558 Y99.997 E1.18883
G1 X112.558 Y100.835 E1.228
G1 X110.157 Y98.434 E1.3868
G1 X109.596 Y98.416 E1.41304
G1 X109.239 Y98.353 E1.43
G1 X112.558 Y101.672 E1.64951
G1 X112.558 Y102.509 E1.68868
G1 X107.442 Y97.394 E2.02703
G1 X107.442 Y98.231 E2.0662
G1 X112.558 Y103.347 E2.40455
G1 X112.558 Y104.184 E2.44372
G1 X107.442 Y99.069 E2.78208
G1 X107.442 Y99.906 E2.82124
G1 X112.558 Y105.021 E3.1596
G1 X112.558 Y105.859 E3.19876
G1 X107.442 Y100.743 E3.53712
G1 X107.442 Y101.581 E3.57628
G1 X112.558 Y106.696 E3.91464
G1 X112.558 Y107.533 E3.9538
G1 X107.442 Y102.418 E4.29216
G1 X107.442 Y103.256 E4.33132
G1 X112.558 Y108.371 E4.66968
G1 X112.558 Y109.208 E4.70884
G1 X107.442 Y104.093 E5.0472
G1 X107.442 Y104.93 E5.08636
G1 X112.558 Y110.046 E5.42472
G1 X112.558 Y110.883 E5.46389
G1 X107.442 Y105.768 E5.80224
G1 X107.442 Y106.605 E5.84141
G1 X112.558 Y111.72 E6.17976
G1 X112.558 Y112.558 E6.21893
G1 X107.442 Y107.442 E6.55728
G1 X107.442 Y108.28 E6.59645
G1 X112.558 Y113.395 E6.9348
G1 X112.558 Y114.232 E6.97397
G1 X107.442 Y109.117 E7.31232
G1 X107.442 Y109.955 E7.35149
G1 X112.558 Y115.07 E7.68984
G1 X112.558 Y115.907 E7.72901
G1 X107.442 Y110.792 E8.06736
G1 X107.442 Y111.629 E8.10653
G1 X112.558 Y116.745 E8.44488
G1 X112.558 Y117.582 E8.48405
G1 X107.442 Y112.467 E8.82241
G1 X107.442 Y113.304 E8.86157
G1 X112.558 Y118.419 E9.19993
G1 X112.558 Y119.257 E9.23909
G1 X107.442 Y114.141 E9.57745
G1 X107.442 Y114.979 E9.61661
G1 X112.558 Y120.094 E9.95497
G1 X112.558 Y120.931 E9.99413
G1 X107.442 Y115.816 E10.33249
G1 X107.442 Y116.653 E10.37165
G1 X112.558 Y121.769 E10.71001
G1 X112.558 Y122.606 E10.74917
G1 X107.442 Y117.491 E11.08753
G1 X107.442 Y118.328 E11.12669
G1 X110.775 Y121.661 E11.34713
G1 X110.41 Y121.585 E11.36455
G1 X110.189 Y121.565 E11.37493
G1 X109.853 Y121.576 E11.39068
G1 X107.442 Y119.166 E11.55011
G1 X107.442 Y120.003 E11.58927
G1 X109.118 Y121.679 E11.70014
G1 X108.953 Y121.727 E11.70821
G1 X108.512 Y121.91 E11.73052
G1 X107.442 Y120.84 E11.80127
G1 X107.442 Y121.678 E11.84044
G1 X107.984 Y122.219 E11.87625
G1 X107.668 Y122.477 E11.89532
G1 X107.542 Y122.614 E11.90405
G1 X107.178 Y122.251 E11.92809
G1 E11.17809 F600
G92 E0
G1 X107.594 Y91.178 F18000
G1 E.85 F600
;WIDTH:0.747415
G1 F2250
G1 X108.386 Y91.97 E.91235
G1 X108.188 Y92.076 E.9248
G1 X107.792 Y92.372 E.95237
G1 X107.178 Y91.759 E1.00065
G1 E.25065 F600
G92 E0
G1 X112.103 Y91.178 F18000
G1 E.85 F600
;WIDTH:0.680002
G1 F2250
G1 X112.558 Y91.633 E.88236
G1 X112.558 Y92.534 E.9277
G1 X111.202 Y91.178 E1.02419
;LAYER_CHANGE
;Z:0.4
;HEIGHT:0.2
G1 Z.4 F18000
G10 S220 P1 ; set temperature
G1 E.27419 F600
G92 E0
G1 X108.568 Y92.304 F18000
G1 E.85 F600
;TYPE:Perimeter
;WIDTH:0.707239
G1 F900
G1 X108.396 Y92.385 E.85998
;WIDTH:0.674999
G1 X107.948 Y92.725 E.88805
G1 X107.565 Y93.141 E.91627
G1 X107.262 Y93.618 E.94452
G1 X107.07 Y94.1 E.97039
G1 X107.07 Y91.07 E1.12169
G1 X108.334 Y91.07 E1.1848
;WIDTH:0.707239
G1 X108.888 Y91.086 E1.2139
;WIDTH:0.750091
G1 X108.995 Y91.107 E1.22
;WIDTH:0.792942
G1 X109.102 Y91.129 E1.22646
;WIDTH:0.835793
G1 X109.209 Y91.15 E1.23329
G1 X109.828 Y91.129 E1.27209
