; generated by PrusaSlicer 2.6.0-alpha5+win64 on 2023-04-05 at 10:36:01 UTC


;
;
; 

; external perimeters extrusion width = 0.68mm
; perimeters extrusion width = 0.68mm
; infill extrusion width = 0.68mm
; solid infill extrusion width = 0.68mm
; top infill extrusion width = 0.60mm
; first layer extrusion width = 0.63mm

M73 P0 R19
M107
M190 S85 ; set bed temperature and wait for it to be reached
G10 S230 P1 ; set temperature
;TYPE:Custom
;Set standby temperatures
;G10 R200 P0
G10 R230 P1
G28 ; home all axes
G32 ; run bed.g -- probe bed and enable compensation
;workaround for toolchanger when using only one extruder
T1; select tool
G10 S230 P1 ; set temperature
M116 ; wait for temperature to be reached
G21 ; set units to millimeters
G90 ; use absolute coordinates
M82 ; use absolute distances for extrusion
G92 E0
;tool change macro
T1
G92 E0
; Filament gcode
M107
;LAYER_CHANGE
;Z:0.2
;HEIGHT:0.2
G1 Z.2 F18000
G1 E-.4 F2100
G92 E0
G1 X52.94 Y48.723 F18000
G1 E.4 F2100
;TYPE:Skirt/Brim
;WIDTH:0.63
G1 F1500
G1 X53.787 Y47.884 E.45994
G1 X54.675 Y47.22 E.51569
G1 X55.796 Y46.608 E.57991
G1 X56.916 Y46.197 E.6399
G1 X57.998 Y45.961 E.69558
G1 X59.187 Y45.87 E.75554
G1 X160.813 Y45.87 E5.86533
G1 X161.917 Y45.949 E5.92098
G1 X163.085 Y46.197 E5.98102
G1 X164.282 Y46.643 E6.04525
G1 X165.325 Y47.22 E6.10518
G1 X166.213 Y47.884 E6.16093
G1 X167.059 Y48.723 E6.22084
G1 X167.78 Y49.675 E6.28089
G1 X168.392 Y50.796 E6.34511
G1 X168.803 Y51.916 E6.4051
G1 X169.039 Y52.998 E6.46078
G1 X169.13 Y54.187 E6.52074
G1 X169.13 Y155.813 E11.63053
G1 X169.039 Y157.002 E11.69049
G1 X168.803 Y158.084 E11.74617
G1 X168.392 Y159.204 E11.80616
G1 X167.78 Y160.325 E11.87038
G1 X167.06 Y161.277 E11.9304
G1 X166.213 Y162.116 E11.99034
G1 X165.325 Y162.78 E12.04609
G1 X164.282 Y163.357 E12.10602
G1 X163.084 Y163.803 E12.17029
G1 X162.002 Y164.039 E12.22597
G1 X160.813 Y164.13 E12.28593
G1 X59.187 Y164.13 E17.39572
G1 X57.998 Y164.039 E17.45568
M73 P1 R19
G1 X56.916 Y163.803 E17.51136
G1 X55.796 Y163.392 E17.57135
G1 X54.675 Y162.78 E17.63557
G1 X53.723 Y162.06 E17.69559
G1 X52.884 Y161.213 E17.75553
G1 X52.22 Y160.325 E17.81128
G1 X51.643 Y159.282 E17.87121
G1 X51.197 Y158.084 E17.93548
G1 X50.961 Y157.002 E17.99116
G1 X50.87 Y155.813 E18.05112
G1 X50.87 Y54.187 E23.16091
G1 X50.961 Y52.998 E23.22087
G1 X51.197 Y51.915 E23.2766
G1 X51.608 Y50.796 E23.33654
G1 X52.22 Y49.675 E23.40076
G1 X52.886 Y48.794 E23.45629
G1 X53.353 Y49.148 F18000
G1 F1500
G1 X54.172 Y48.328 E23.51456
G1 X54.992 Y47.714 E23.56607
G1 X56.04 Y47.142 E23.6261
G1 X57.081 Y46.76 E23.68185
G1 X58.081 Y46.543 E23.7333
G1 X59.187 Y46.457 E23.78908
G1 X160.813 Y46.457 E28.89887
G1 X161.834 Y46.53 E28.95034
G1 X162.919 Y46.76 E29.00611
G1 X164.038 Y47.177 E29.06615
G1 X165.008 Y47.714 E29.1219
G1 X165.828 Y48.328 E29.17341
G1 X166.616 Y49.107 E29.22912
G1 X167.286 Y49.992 E29.28493
G1 X167.858 Y51.04 E29.34496
G1 X168.24 Y52.081 E29.40071
G1 X168.457 Y53.081 E29.45216
G1 X168.543 Y54.187 E29.50794
G1 X168.543 Y155.813 E34.61773
G1 X168.457 Y156.919 E34.67351
M73 P2 R19
G1 X168.24 Y157.919 E34.72496
G1 X167.858 Y158.96 E34.78071
G1 X167.286 Y160.008 E34.84074
G1 X166.616 Y160.893 E34.89655
G1 X165.828 Y161.672 E34.95226
G1 X165.008 Y162.286 E35.00377
G1 X164.038 Y162.823 E35.05952
G1 X162.919 Y163.24 E35.11956
G1 X161.919 Y163.457 E35.17101
G1 X160.813 Y163.543 E35.22679
G1 X59.187 Y163.543 E40.33658
G1 X58.081 Y163.457 E40.39236
G1 X57.081 Y163.24 E40.44381
G1 X56.04 Y162.858 E40.49956
G1 X54.992 Y162.286 E40.55959
G1 X54.107 Y161.616 E40.6154
G1 X53.328 Y160.828 E40.67111
G1 X52.714 Y160.008 E40.72262
G1 X52.177 Y159.038 E40.77837
G1 X51.76 Y157.919 E40.83841
G1 X51.543 Y156.919 E40.88986
G1 X51.457 Y155.813 E40.94564
G1 X51.457 Y54.187 E46.05543
G1 X51.543 Y53.081 E46.11121
M73 P3 R19
G1 X51.76 Y52.081 E46.16266
G1 X52.142 Y51.04 E46.21841
G1 X52.714 Y49.992 E46.27844
G1 X53.299 Y49.22 E46.32714
G1 X53.766 Y49.574 F18000
G1 F1500
G1 X53.828 Y49.492 E46.33231
G1 X54.556 Y48.772 E46.38379
G1 X55.31 Y48.208 E46.43113
G1 X56.284 Y47.676 E46.48693
G1 X57.246 Y47.323 E46.53845
G1 X58.165 Y47.124 E46.58573
G1 X59.187 Y47.044 E46.63727
G1 X160.813 Y47.044 E51.74706
G1 X161.75 Y47.111 E51.79429
G1 X162.754 Y47.324 E51.8459
G1 X163.794 Y47.711 E51.90169
G1 X164.691 Y48.208 E51.95325
G1 X165.444 Y48.772 E52.00055
G1 X166.172 Y49.492 E52.05203
G1 X166.792 Y50.309 E52.1036
G1 X167.324 Y51.284 E52.15945
G1 X167.677 Y52.246 E52.21097
G1 X167.876 Y53.165 E52.25825
G1 X167.956 Y54.187 E52.30979
G1 X167.956 Y155.813 E57.41958
G1 X167.876 Y156.835 E57.47112
G1 X167.677 Y157.754 E57.5184
G1 X167.324 Y158.716 E57.56992
G1 X166.792 Y159.69 E57.62572
G1 X166.172 Y160.508 E57.67733
G1 X165.444 Y161.228 E57.72881
G1 X164.691 Y161.792 E57.77611
G1 X163.794 Y162.289 E57.82767
G1 X162.754 Y162.677 E57.88348
G1 X161.835 Y162.876 E57.93076
G1 X160.813 Y162.956 E57.9823
G1 X59.187 Y162.956 E63.09209
G1 X58.165 Y162.876 E63.14363
M73 P4 R19
G1 X57.246 Y162.677 E63.19091
G1 X56.284 Y162.324 E63.24243
G1 X55.31 Y161.792 E63.29823
G1 X54.492 Y161.172 E63.34984
G1 X53.772 Y160.444 E63.40132
G1 X53.208 Y159.691 E63.44862
G1 X52.711 Y158.794 E63.50018
G1 X52.323 Y157.754 E63.55599
G1 X52.124 Y156.835 E63.60327
G1 X52.044 Y155.813 E63.65481
G1 X52.044 Y54.187 E68.7646
G1 X52.124 Y53.165 E68.81614
G1 X52.323 Y52.246 E68.86342
G1 X52.676 Y51.284 E68.91494
G1 X53.208 Y50.309 E68.97079
G1 X53.711 Y49.645 E69.01267
G1 E68.61267 F2100
G92 E0
G1 X108.923 Y58.6 F18000
G1 E.4 F2100
;TYPE:External perimeter
;WIDTH:0.621462
G1 F750
G1 X155.532 Y58.6 E2.70944
;WIDTH:0.657655
G1 X155.669 Y58.616 E2.7167
;WIDTH:0.693847
M73 P4 R18
G1 X155.807 Y58.631 E2.72444
;WIDTH:0.730039
G1 X155.944 Y58.647 E2.73256
G1 X155.988 Y58.603 E2.73622
;WIDTH:0.69385
G1 X156.032 Y58.559 E2.73969
;WIDTH:0.657661
G1 X156.075 Y58.516 E2.74289
;WIDTH:0.621471
G1 X160.553 Y54.043 E3.05651
;WIDTH:0.615213
G1 X160.693 Y53.959 E3.06451
G1 X160.837 Y53.959 E3.07157
G1 X161.023 Y54.103 E3.0831
G1 X161.056 Y54.25 E3.09048
G1 X160.957 Y54.447 E3.10129
;WIDTH:0.621471
G1 X156.484 Y58.925 E3.41491
;WIDTH:0.657661
G1 X156.441 Y58.968 E3.41811
;WIDTH:0.69385
M73 P5 R18
G1 X156.397 Y59.012 E3.42158
;WIDTH:0.730039
G1 X156.353 Y59.056 E3.42524
G1 X156.369 Y59.193 E3.43336
;WIDTH:0.693847
G1 X156.384 Y59.331 E3.4411
;WIDTH:0.657655
G1 X156.4 Y59.468 E3.44836
;WIDTH:0.621462
G1 X156.4 Y150.532 E7.9605
;WIDTH:0.657655
G1 X156.384 Y150.669 E7.96776
;WIDTH:0.693848
G1 X156.369 Y150.807 E7.9755
;WIDTH:0.73004
G1 X156.353 Y150.944 E7.98362
G1 X156.397 Y150.988 E7.98728
;WIDTH:0.693851
G1 X156.441 Y151.032 E7.99075
;WIDTH:0.657661
G1 X156.484 Y151.075 E7.99395
;WIDTH:0.621471
G1 X160.957 Y155.553 E8.30757
;WIDTH:0.615212
G1 X161.041 Y155.693 E8.31557
G1 X161.041 Y155.837 E8.32263
G1 X160.897 Y156.023 E8.33416
G1 X160.75 Y156.056 E8.34154
G1 X160.553 Y155.957 E8.35235
;WIDTH:0.621471
G1 X156.075 Y151.484 E8.66597
;WIDTH:0.657661
G1 X156.032 Y151.441 E8.66917
;WIDTH:0.693851
G1 X155.988 Y151.397 E8.67264
;WIDTH:0.73004
G1 X155.944 Y151.353 E8.6763
G1 X155.807 Y151.369 E8.68442
;WIDTH:0.693848
G1 X155.669 Y151.384 E8.69216
;WIDTH:0.657655
G1 X155.532 Y151.4 E8.69942
;WIDTH:0.621462
G1 X64.468 Y151.4 E13.21156
;WIDTH:0.657655
G1 X64.331 Y151.384 E13.21882
;WIDTH:0.693848
M73 P6 R18
G1 X64.193 Y151.369 E13.22656
;WIDTH:0.73004
G1 X64.056 Y151.353 E13.23468
G1 X64.012 Y151.397 E13.23834
;WIDTH:0.693851
G1 X63.968 Y151.441 E13.24181
;WIDTH:0.657662
G1 X63.925 Y151.484 E13.24501
;WIDTH:0.621472
G1 X59.447 Y155.957 E13.55863
;WIDTH:0.615213
G1 X59.307 Y156.041 E13.56663
G1 X59.163 Y156.041 E13.57369
G1 X58.977 Y155.897 E13.58522
G1 X58.944 Y155.75 E13.5926
G1 X59.043 Y155.553 E13.60341
;WIDTH:0.621472
G1 X63.516 Y151.075 E13.91703
;WIDTH:0.657662
G1 X63.559 Y151.032 E13.92023
;WIDTH:0.693851
G1 X63.603 Y150.988 E13.9237
;WIDTH:0.73004
G1 X63.647 Y150.944 E13.92736
G1 X63.631 Y150.807 E13.93548
;WIDTH:0.693848
G1 X63.616 Y150.669 E13.94322
;WIDTH:0.657655
G1 X63.6 Y150.532 E13.95048
;WIDTH:0.621462
G1 X63.6 Y59.468 E18.46262
;WIDTH:0.657655
G1 X63.616 Y59.331 E18.46988
;WIDTH:0.693847
M73 P7 R18
G1 X63.631 Y59.193 E18.47762
;WIDTH:0.730039
G1 X63.647 Y59.056 E18.48574
G1 X63.603 Y59.012 E18.4894
;WIDTH:0.693848
G1 X63.559 Y58.968 E18.49287
;WIDTH:0.657657
G1 X63.516 Y58.925 E18.49607
;WIDTH:0.621466
G1 X59.061 Y54.463 E18.80849
;WIDTH:0.618347
G1 X58.954 Y54.254 E18.82006
;WIDTH:0.618157
G1 X58.975 Y54.121 E18.82669
G1 X59.134 Y53.968 E18.83756
G1 X59.286 Y53.969 E18.84505
;WIDTH:0.618347
G1 X59.468 Y54.056 E18.85499
;WIDTH:0.621466
G1 X63.925 Y58.516 E19.16741
;WIDTH:0.657657
G1 X63.968 Y58.559 E19.17061
;WIDTH:0.693848
G1 X64.012 Y58.603 E19.17408
;WIDTH:0.730039
G1 X64.056 Y58.647 E19.17774
G1 X64.193 Y58.631 E19.18586
;WIDTH:0.693847
G1 X64.331 Y58.616 E19.1936
;WIDTH:0.657655
G1 X64.468 Y58.6 E19.20086
;WIDTH:0.621462
G1 X108.833 Y58.6 E21.39911
G1 X109.129 Y59.179 F18000
G1 F750
G1 X155.532 Y59.179 E23.69834
;WIDTH:0.657655
G1 X155.613 Y59.194 E23.70268
;WIDTH:0.693847
G1 X155.694 Y59.21 E23.70728
;WIDTH:0.730039
G1 X155.775 Y59.225 E23.71213
G1 X155.79 Y59.306 E23.71698
;WIDTH:0.693847
G1 X155.806 Y59.387 E23.72158
;WIDTH:0.657655
G1 X155.821 Y59.468 E23.72592
;WIDTH:0.621462
G1 X155.821 Y150.532 E28.23806
;WIDTH:0.657655
G1 X155.806 Y150.613 E28.2424
;WIDTH:0.693848
M73 P8 R18
G1 X155.79 Y150.694 E28.247
;WIDTH:0.73004
G1 X155.775 Y150.775 E28.25185
G1 X155.711 Y150.79 E28.25572
;WIDTH:0.695309
G1 X155.646 Y150.804 E28.25944
;WIDTH:0.660578
G1 X155.582 Y150.819 E28.26292
;WIDTH:0.625846
G1 X155.532 Y150.821 E28.26542
;WIDTH:0.621462
G1 X64.468 Y150.821 E32.77756
;WIDTH:0.657655
G1 X64.387 Y150.806 E32.7819
;WIDTH:0.693848
G1 X64.306 Y150.79 E32.7865
;WIDTH:0.73004
G1 X64.225 Y150.775 E32.79135
G1 X64.21 Y150.694 E32.7962
;WIDTH:0.693848
G1 X64.194 Y150.613 E32.8008
;WIDTH:0.657655
G1 X64.179 Y150.532 E32.80514
;WIDTH:0.621462
G1 X64.179 Y59.468 E37.31728
;WIDTH:0.657655
G1 X64.194 Y59.387 E37.32162
;WIDTH:0.693847
M73 P9 R18
G1 X64.21 Y59.306 E37.32622
;WIDTH:0.730039
G1 X64.225 Y59.225 E37.33107
G1 X64.306 Y59.21 E37.33592
;WIDTH:0.693847
G1 X64.387 Y59.194 E37.34052
;WIDTH:0.657655
G1 X64.468 Y59.179 E37.34486
;WIDTH:0.621462
G1 X109.039 Y59.179 E39.55331
;LAYER_CHANGE
;Z:0.4
;HEIGHT:0.2
G1 Z.4 F18000
G10 S220 P1 ; set temperature
M73 P9 R17
G1 X108.927 Y58.6
G1 F1500
G1 X155.532 Y58.6 E41.86255
;WIDTH:0.657655
G1 X155.669 Y58.616 E41.86981
;WIDTH:0.693847
M73 P10 R17
G1 X155.807 Y58.631 E41.87755
;WIDTH:0.730039
G1 X155.944 Y58.647 E41.88567
G1 X155.988 Y58.603 E41.88933
;WIDTH:0.69385
G1 X156.032 Y58.559 E41.8928
;WIDTH:0.65766
G1 X156.075 Y58.516 E41.896
;WIDTH:0.62147
G1 X160.553 Y54.043 E42.20962
;WIDTH:0.615211
G1 X160.693 Y53.959 E42.21762
G1 X160.837 Y53.959 E42.22468
G1 X161.023 Y54.103 E42.23621
G1 X161.056 Y54.25 E42.24359
G1 X160.957 Y54.447 E42.2544
;WIDTH:0.62147
G1 X156.484 Y58.925 E42.56802
;WIDTH:0.65766
G1 X156.441 Y58.968 E42.57122
;WIDTH:0.69385
G1 X156.397 Y59.012 E42.57469
;WIDTH:0.730039
G1 X156.353 Y59.056 E42.57835
G1 X156.369 Y59.193 E42.58647
;WIDTH:0.693847
G1 X156.384 Y59.331 E42.59421
;WIDTH:0.657654
G1 X156.4 Y59.468 E42.60147
;WIDTH:0.621461
G1 X156.4 Y150.532 E47.11361
;WIDTH:0.657654
G1 X156.384 Y150.669 E47.12087
;WIDTH:0.693847
G1 X156.369 Y150.807 E47.12861
;WIDTH:0.730039
G1 X156.353 Y150.944 E47.13673
G1 X156.397 Y150.988 E47.14039
;WIDTH:0.69385
G1 X156.441 Y151.032 E47.14386
;WIDTH:0.657661
G1 X156.484 Y151.075 E47.14706
;WIDTH:0.621471
G1 X160.957 Y155.553 E47.46068
;WIDTH:0.615213
G1 X161.041 Y155.693 E47.46868
G1 X161.041 Y155.837 E47.47574
G1 X160.897 Y156.023 E47.48727
G1 X160.75 Y156.056 E47.49465
G1 X160.553 Y155.957 E47.50546
;WIDTH:0.621471
G1 X156.075 Y151.484 E47.81908
;WIDTH:0.657661
G1 X156.032 Y151.441 E47.82228
;WIDTH:0.69385
G1 X155.988 Y151.397 E47.82575
;WIDTH:0.730039
G1 X155.944 Y151.353 E47.82941
G1 X155.807 Y151.369 E47.83753
;WIDTH:0.693847
G1 X155.669 Y151.384 E47.84527
;WIDTH:0.657655
G1 X155.532 Y151.4 E47.85253
;WIDTH:0.621462
G1 X64.468 Y151.4 E52.36467
;WIDTH:0.657655
G1 X64.331 Y151.384 E52.37193
;WIDTH:0.693847
G1 X64.193 Y151.369 E52.37967
;WIDTH:0.730039
G1 X64.056 Y151.353 E52.38779
G1 X64.012 Y151.397 E52.39145
;WIDTH:0.69385
G1 X63.968 Y151.441 E52.39492
;WIDTH:0.657661
G1 X63.925 Y151.484 E52.39812
;WIDTH:0.621471
G1 X59.447 Y155.957 E52.71174
;WIDTH:0.615214
G1 X59.307 Y156.041 E52.71974
G1 X59.163 Y156.041 E52.7268
G1 X58.977 Y155.897 E52.73833
G1 X58.944 Y155.75 E52.74571
G1 X59.043 Y155.553 E52.75652
;WIDTH:0.621471
G1 X63.516 Y151.075 E53.07014
;WIDTH:0.657661
G1 X63.559 Y151.032 E53.07334
;WIDTH:0.69385
G1 X63.603 Y150.988 E53.07681
;WIDTH:0.730039
G1 X63.647 Y150.944 E53.08047
G1 X63.631 Y150.807 E53.08859
;WIDTH:0.693847
G1 X63.616 Y150.669 E53.09633
;WIDTH:0.657655
G1 X63.6 Y150.532 E53.10359
;WIDTH:0.621462
G1 X63.6 Y59.468 E57.61573
;WIDTH:0.657654
G1 X63.616 Y59.331 E57.62299
;WIDTH:0.693846
M73 P11 R17
G1 X63.631 Y59.193 E57.63073
;WIDTH:0.730038
G1 X63.647 Y59.056 E57.63885
G1 X63.603 Y59.012 E57.64251
;WIDTH:0.693848
G1 X63.559 Y58.968 E57.64598
;WIDTH:0.657657
G1 X63.516 Y58.925 E57.64918
;WIDTH:0.621466
G1 X59.061 Y54.463 E57.9616
;WIDTH:0.618347
G1 X59.008 Y54.41 E57.96529
;WIDTH:0.618109
G1 X58.962 Y54.228 E57.97454
G1 X59.016 Y54.07 E57.98277
G1 X59.136 Y53.98 E57.99016
G1 X59.286 Y53.969 E57.99757
;WIDTH:0.618347
G1 X59.468 Y54.056 E58.00751
;WIDTH:0.621466
G1 X63.925 Y58.516 E58.31993
;WIDTH:0.657657
G1 X63.968 Y58.559 E58.32313
;WIDTH:0.693848
G1 X64.012 Y58.603 E58.3266
;WIDTH:0.730038
G1 X64.056 Y58.647 E58.33026
G1 X64.193 Y58.631 E58.33838
;WIDTH:0.693846
G1 X64.331 Y58.616 E58.34612
;WIDTH:0.657654
G1 X64.468 Y58.6 E58.35338
;WIDTH:0.621462
G1 X108.837 Y58.6 E60.55183
G1 X109.13 Y59.179 F18000
G1 F1500
G1 X155.532 Y59.179 E62.85101
;WIDTH:0.657655
G1 X155.613 Y59.194 E62.85535
;WIDTH:0.693847
G1 X155.694 Y59.21 E62.85995
;WIDTH:0.730039
G1 X155.775 Y59.225 E62.8648
G1 X155.79 Y59.306 E62.86965
;WIDTH:0.693847
G1 X155.806 Y59.387 E62.87425
;WIDTH:0.657654
G1 X155.821 Y59.468 E62.87859
;WIDTH:0.621461
G1 X155.821 Y150.532 E67.39073
;WIDTH:0.657654
G1 X155.806 Y150.613 E67.39507
;WIDTH:0.693847
G1 X155.79 Y150.694 E67.39967
;WIDTH:0.730039
G1 X155.775 Y150.775 E67.40452
G1 X155.694 Y150.79 E67.40937
;WIDTH:0.693847
G1 X155.613 Y150.806 E67.41397
;WIDTH:0.657655
G1 X155.532 Y150.821 E67.41831
;WIDTH:0.621462
G1 X64.468 Y150.821 E71.93045
;WIDTH:0.671088
G1 X64.299 Y150.796 E71.93964
;WIDTH:0.700564
M73 P12 R17
G1 X64.262 Y150.786 E71.9418
;WIDTH:0.730039
G1 X64.225 Y150.775 E71.94407
G1 X64.21 Y150.694 E71.94892
;WIDTH:0.693847
G1 X64.194 Y150.613 E71.95352
;WIDTH:0.657655
G1 X64.179 Y150.532 E71.95786
;WIDTH:0.621462
G1 X64.179 Y59.468 E76.47
;WIDTH:0.657654
G1 X64.194 Y59.387 E76.47434
;WIDTH:0.693846
G1 X64.21 Y59.306 E76.47894
;WIDTH:0.730038
G1 X64.225 Y59.225 E76.48379
G1 X64.306 Y59.21 E76.48864
;WIDTH:0.693846
G1 X64.387 Y59.194 E76.49324
;WIDTH:0.657654
G1 X64.468 Y59.179 E76.49758
;WIDTH:0.621462
G1 X109.04 Y59.179 E78.70608
;LAYER_CHANGE
;Z:0.6
;HEIGHT:0.2
G1 Z.6 F18000
G1 X108.85 Y58.6
G1 F1500
G1 X155.532 Y58.6 E81.01913
;WIDTH:0.657655
G1 X155.669 Y58.616 E81.02639
;WIDTH:0.693847
G1 X155.807 Y58.631 E81.03413
;WIDTH:0.730039
G1 X155.944 Y58.647 E81.04225
G1 X155.988 Y58.603 E81.04591
;WIDTH:0.69385
G1 X156.032 Y58.559 E81.04938
;WIDTH:0.657661
G1 X156.075 Y58.516 E81.05258
;WIDTH:0.621471
G1 X160.553 Y54.043 E81.3662
;WIDTH:0.615211
G1 X160.693 Y53.959 E81.3742
G1 X160.837 Y53.959 E81.38126
G1 X161.023 Y54.103 E81.39279
G1 X161.056 Y54.25 E81.40017
G1 X160.957 Y54.447 E81.41098
;WIDTH:0.621471
G1 X156.484 Y58.925 E81.7246
;WIDTH:0.657661
G1 X156.441 Y58.968 E81.7278
;WIDTH:0.69385
G1 X156.397 Y59.012 E81.73127
;WIDTH:0.730039
G1 X156.353 Y59.056 E81.73493
G1 X156.369 Y59.193 E81.74305
;WIDTH:0.693847
G1 X156.384 Y59.331 E81.75079
;WIDTH:0.657654
G1 X156.4 Y59.468 E81.75805
;WIDTH:0.621461
G1 X156.4 Y150.532 E86.27019
;WIDTH:0.657654
G1 X156.384 Y150.669 E86.27745
;WIDTH:0.693847
M73 P13 R17
G1 X156.369 Y150.807 E86.28519
;WIDTH:0.730039
