; generated by PrusaSlicer 2.6.0-alpha5+win64 on 2023-03-30 at 15:56:19 UTC


;
;
; 

; external perimeters extrusion width = 0.68mm
; perimeters extrusion width = 0.68mm
; infill extrusion width = 0.68mm
; solid infill extrusion width = 0.68mm
; top infill extrusion width = 0.60mm
; first layer extrusion width = 0.63mm

; external perimeters extrusion width = 0.68mm
; perimeters extrusion width = 0.68mm
; infill extrusion width = 0.68mm
; solid infill extrusion width = 0.68mm
; top infill extrusion width = 0.60mm
; first layer extrusion width = 0.63mm

M73 P0 R27
M107
M190 S85 ; set bed temperature and wait for it to be reached
G10 S230 P1 ; set temperature
;TYPE:Custom
;Set standby temperatures
G10 R200 P0
G10 R220 P1
G28 ; home all axes
G32 ; run bed.g -- probe bed and enable compensation
;workaround for toolchanger when using only one extruder
T1; select tool
G10 S230 P1 ; set temperature
M116 ; wait for temperature to be reached
G21 ; set units to millimeters
G90 ; use absolute coordinates
M82 ; use absolute distances for extrusion
G92 E0
;tool change macro
T1
G92 E0
; Filament gcode
M107
;LAYER_CHANGE
;Z:0.2
;HEIGHT:0.2
G1 Z.2 F18000
G1 E-.75 F1500
G92 E0
G1 X85.686 Y82.299 F18000
G1 E.75 F1500
;TYPE:Skirt/Brim
;WIDTH:0.63
G1 F2700
G1 X87.628 Y80.358 E.87733
G1 X89.573 Y78.974 E.98803
G1 X92.648 Y78.257 E1.13446
G1 X113.938 Y78.102 E2.12181
G1 X131.849 Y78.102 E2.95243
G1 X134.203 Y78.499 E3.06314
G1 X136.922 Y80.203 E3.21195
G1 X138.863 Y82.145 E3.33928
G1 X140.247 Y84.09 E3.44998
G1 X140.964 Y87.218 E3.5988
G1 X140.964 Y120.076 E5.12259
G1 X140.567 Y122.43 E5.2333
G1 X139.42 Y124.524 E5.34402
G1 X137.649 Y126.125 E5.45474
G1 X135.45 Y127.056 E5.56548
G1 X133.838 Y127.25 E5.64078
G1 X110.607 Y127.405 E6.71814
G1 X90.759 Y127.405 E7.63859
G1 X88.405 Y127.008 E7.7493
G1 X86.312 Y125.86 E7.86
G1 X84.711 Y124.089 E7.97072
G1 X83.78 Y121.891 E8.08142
G1 X83.585 Y120.231 E8.15893
G1 X83.585 Y87.372 E9.68277
G1 X83.982 Y85.018 E9.79348
G1 X85.638 Y82.376 E9.93808
G1 X86.101 Y82.714 F18000
G1 F2700
G1 X88.043 Y80.773 E10.06541
G1 X89.916 Y79.461 E10.17146
G1 X92.653 Y78.844 E10.30157
G1 X113.942 Y78.689 E11.28888
G1 X131.849 Y78.689 E12.11932
G1 X134.101 Y79.086 E12.22537
G1 X136.507 Y80.619 E12.35767
G1 X138.448 Y82.56 E12.48497
G1 X139.76 Y84.433 E12.59102
G1 X140.377 Y87.218 E12.72331
G1 X140.377 Y120.076 E14.2471
G1 X139.98 Y122.328 E14.35315
G1 X138.837 Y124.309 E14.45921
G1 X137.086 Y125.78 E14.56526
G1 X133.834 Y126.663 E14.72153
G1 X110.603 Y126.818 E15.79889
G1 X90.759 Y126.818 E16.71916
G1 X88.507 Y126.421 E16.82521
G1 X86.526 Y125.278 E16.93127
G1 X85.056 Y123.526 E17.03733
G1 X84.273 Y121.378 E17.14336
G1 X84.172 Y120.231 E17.19676
G1 X84.172 Y87.372 E18.7206
G1 X84.569 Y85.12 E18.82665
G1 X86.053 Y82.79 E18.95476
G1 E18.20476 F1500
G92 E0
G1 X103.551 Y119.313 F18000
G1 E.75 F1500
;TYPE:Perimeter
;WIDTH:0.629999
G1 F3000
G1 X103.756 Y118.817 E.77489
G1 X103.878 Y118.257 E.80147
G1 X103.884 Y117.454 E.83871
G1 X103.708 Y116.707 E.8743
G1 X103.482 Y116.22 E.8992
G1 X103.153 Y115.751 E.92577
G1 X102.597 Y115.222 E.96136
G1 X102.108 Y114.925 E.98789
G1 X101.386 Y114.663 E1.02351
G1 X100.855 Y114.587 E1.04839
G1 X100.282 Y114.605 E1.07498
G1 X99.535 Y114.781 E1.11057
G1 X99.018 Y115.028 E1.13714
G1 X98.405 Y115.49 E1.17274
G1 X98.05 Y115.892 E1.19761
G1 X97.753 Y116.382 E1.22418
G1 X97.491 Y117.104 E1.2598
G1 X97.415 Y117.635 E1.28468
G1 X97.434 Y118.207 E1.31122
G1 X97.554 Y118.782 E1.33846
G1 X97.775 Y119.329 E1.36582
G1 X91.661 Y119.329 E1.64936
G1 X91.661 Y87.746 E3.11402
G1 X93.074 Y86.333 E3.20669
G1 X109.657 Y86.333 E3.97573
G1 X109.657 Y119.329 E5.50592
G1 X103.641 Y119.316 E5.78491
M73 P0 R26
G1 X102.294 Y119.916 F18000
;TYPE:External perimeter
G1 F2700
G1 X102.436 Y119.814 E5.79302
G1 X102.747 Y119.486 E5.81398
G1 X102.991 Y119.12 E5.83438
G1 X103.171 Y118.719 E5.85476
G1 X103.292 Y118.233 E5.87799
G1 X103.316 Y117.647 E5.90519
G1 X103.208 Y117.09 E5.9315
G1 X103.014 Y116.584 E5.95663
G1 X102.738 Y116.166 E5.97986
G1 X102.323 Y115.751 E6.00708
G1 X101.894 Y115.471 E6.03084
G1 X101.347 Y115.258 E6.05806
G1 X100.903 Y115.178 E6.07898
G1 X100.403 Y115.18 E6.10217
G1 X99.828 Y115.301 E6.12942
G1 X99.36 Y115.506 E6.15311
G1 X98.882 Y115.847 E6.18034
G1 X98.572 Y116.175 E6.20127
G1 X98.3 Y116.595 E6.22448
G1 X98.086 Y117.142 E6.25172
G1 X98.006 Y117.587 E6.27269
G1 X98.008 Y118.087 E6.29588
G1 X98.129 Y118.662 E6.32313
G1 X98.304 Y119.077 E6.34402
G1 X98.58 Y119.495 E6.36725
G1 X98.993 Y119.912 E6.39447
G1 X91.074 Y119.916 E6.76171
G1 X91.074 Y87.503 E8.26486
G1 X92.831 Y85.746 E8.38009
G1 X110.244 Y85.746 E9.18762
G1 X110.244 Y119.916 E10.77225
G1 X102.384 Y119.916 E11.13676
G1 X102.352 Y120.081 F18000
G1 E10.38676 F1500
G92 E0
G1 X103.536 Y91.336 F18000
G1 E.75 F1500
;TYPE:Perimeter
G1 F450
G1 X103.708 Y91.707 E.76896
G1 X103.884 Y92.454 E.80455
G1 X103.878 Y93.257 E.84179
G1 X103.756 Y93.817 E.86837
G1 X103.551 Y94.313 E.89326
G1 X103.268 Y94.769 E.91815
G1 X102.739 Y95.325 E.95374
G1 X102.27 Y95.654 E.98031
G1 X101.561 Y95.95 E1.01594
G1 X101 Y96.063 E1.04248
G1 X100.659 Y96.075 E1.0583
G1 X100.283 Y96.056 E1.07576
G1 X99.708 Y95.936 E1.103
G1 X99.177 Y95.723 E1.12953
G1 X98.541 Y95.292 E1.16516
G1 X98.14 Y94.884 E1.19169
G1 X97.836 Y94.441 E1.21661
G1 X97.609 Y93.955 E1.24149
G1 X97.466 Y93.438 E1.26637
G1 X97.416 Y92.671 E1.30202
G1 X97.491 Y92.104 E1.32854
G1 X97.753 Y91.382 E1.36416
G1 X98.05 Y90.892 E1.39073
M73 P1 R26
G1 X98.405 Y90.49 E1.4156
G1 X99.018 Y90.028 E1.4512
G1 X99.535 Y89.781 E1.47777
G1 X100.282 Y89.605 E1.51336
G1 X100.855 Y89.587 E1.53995
G1 X101.386 Y89.663 E1.56483
G1 X102.108 Y89.925 E1.60045
G1 X102.597 Y90.222 E1.62698
G1 X103.153 Y90.751 E1.66257
G1 X103.498 Y91.255 E1.69089
G1 X103.01 Y91.578 F18000
;TYPE:External perimeter
G1 F450
G1 X103.189 Y92 E1.71215
G1 X103.31 Y92.574 E1.73935
G1 X103.292 Y93.233 E1.76992
G1 X103.171 Y93.719 E1.79315
G1 X102.991 Y94.12 E1.81353
G1 X102.738 Y94.495 E1.83451
G1 X102.323 Y94.91 E1.86173
G1 X101.895 Y95.19 E1.88545
G1 X101.348 Y95.403 E1.91267
G1 X100.855 Y95.488 E1.93587
G1 X100.403 Y95.482 E1.95683
G1 X99.829 Y95.361 E1.98403
G1 X99.36 Y95.156 E2.00777
G1 X98.882 Y94.815 E2.035
G1 X98.542 Y94.448 E2.0582
G1 X98.304 Y94.077 E2.07864
G1 X98.131 Y93.673 E2.09902
G1 X98.027 Y93.234 E2.11994
G1 X98.002 Y92.647 E2.14719
G1 X98.086 Y92.142 E2.17093
G1 X98.3 Y91.595 E2.19817
G1 X98.572 Y91.175 E2.22138
G1 X98.882 Y90.847 E2.24231
G1 X99.36 Y90.506 E2.26954
G1 X99.828 Y90.301 E2.29323
G1 X100.403 Y90.18 E2.32048
G1 X100.903 Y90.178 E2.34367
G1 X101.347 Y90.258 E2.36459
G1 X101.894 Y90.471 E2.39181
G1 X102.323 Y90.751 E2.41557
G1 X102.738 Y91.166 E2.44279
G1 X102.96 Y91.503 E2.4615
G1 X103.468 Y91.589 F18000
G1 E1.7115 F1500
G92 E0
G1 X108.279 Y86.509 F18000
G1 E.75 F1500
;TYPE:Solid infill
;WIDTH:0.636944
G1 F2700
G1 X109.217 Y87.446 E.81221
G1 X109.217 Y88.286 E.85163
G1 X107.703 Y86.773 E.95207
G1 X106.863 Y86.773 E.99149
G1 X109.217 Y89.126 E1.14767
G1 X109.217 Y89.966 E1.18709
G1 X106.023 Y86.773 E1.39901
G1 X105.183 Y86.773 E1.43843
G1 X109.217 Y90.807 E1.70613
G1 X109.217 Y91.647 E1.74555
G1 X104.343 Y86.773 E2.06899
G1 X103.503 Y86.773 E2.10841
G1 X109.217 Y92.487 E2.48759
G1 X109.217 Y93.327 E2.52701
G1 X102.663 Y86.773 E2.96193
G1 X101.823 Y86.773 E3.00135
G1 X109.217 Y94.167 E3.49202
G1 X109.217 Y95.007 E3.53144
G1 X100.983 Y86.773 E4.07785
G1 X100.143 Y86.773 E4.11727
G1 X109.217 Y95.847 E4.71942
G1 X109.217 Y96.687 E4.75884
G1 X104.138 Y91.608 E5.09588
G1 X103.95 Y91.162 E5.11859
G1 X103.634 Y90.647 E5.14694
G1 X103.47 Y90.445 E5.15915
G1 X103.044 Y90.019 E5.18742
G1 X102.844 Y89.857 E5.1995
G1 X102.504 Y89.635 E5.21855
G1 X102.275 Y89.517 E5.23064
G1 X101.901 Y89.371 E5.24948
G1 X99.303 Y86.773 E5.42188
G1 X98.463 Y86.773 E5.4613
G1 X100.846 Y89.157 E5.61947
G1 X100.459 Y89.146 E5.63764
G1 X100.053 Y89.204 E5.65688
G1 X97.623 Y86.773 E5.81817
G1 X96.782 Y86.773 E5.85763
G1 X99.38 Y89.37 E6.03
G1 X98.993 Y89.538 E6.0498
G1 X98.811 Y89.642 E6.05964
G1 X95.942 Y86.773 E6.25003
G1 X95.102 Y86.773 E6.28945
G1 X98.317 Y89.988 E6.5028
G1 X98.086 Y90.186 E6.51708
G1 X97.889 Y90.4 E6.53073
G1 X94.262 Y86.773 E6.77142
G1 X93.422 Y86.773 E6.81084
G1 X97.535 Y90.886 E7.08378
G1 X97.425 Y91.048 E7.09297
G1 X97.26 Y91.451 E7.1134
G1 X92.919 Y87.11 E7.40147
G1 X92.499 Y87.53 E7.42934
G1 X97.05 Y92.081 E7.73134
G1 X96.974 Y92.628 E7.75725
G1 X96.983 Y92.854 E7.76786
G1 X91.892 Y87.764 E8.10567
G1 E7.35567 F1500
G92 E0
G1 X104.043 Y92.354 F18000
G1 E.75 F1500
G1 F2700
G1 X109.217 Y97.527 E1.09331
G1 X109.217 Y98.367 E1.13273
G1 X104.3 Y93.45 E1.45902
G1 X104.12 Y94.11 E1.49112
G1 X109.217 Y99.207 E1.82936
G1 X109.217 Y100.047 E1.86878
G1 X103.851 Y94.682 E2.22483
G1 X103.633 Y95.016 E2.24355
G1 X103.504 Y95.175 E2.25316
G1 X109.217 Y100.887 E2.63224
G1 X109.217 Y101.728 E2.6717
G1 X103.088 Y95.598 E3.07845
G1 X102.844 Y95.805 E3.09346
G1 X102.605 Y95.956 E3.10673
G1 X109.217 Y102.568 E3.5455
G1 X109.217 Y103.408 E3.58492
G1 X102.039 Y96.23 E4.06125
G1 X101.588 Y96.405 E4.08395
G1 X101.405 Y96.436 E4.09266
G1 X109.217 Y104.248 E4.61106
G1 X109.217 Y105.088 E4.65048
G1 X100.374 Y96.245 E5.2373
G1 E4.4873 F1500
G92 E0
G1 X109.481 Y106.192 F18000
G1 E.75 F1500
G1 F2700
G1 X99.658 Y96.369 E1.40185
G1 X99.49 Y96.334 E1.4099
G1 X98.882 Y96.068 E1.44104
G1 X98.28 Y95.647 E1.47551
G1 X98.086 Y95.476 E1.48764
G1 X97.809 Y95.175 E1.50683
G1 X97.463 Y94.675 E1.53536
G1 X97.204 Y94.128 E1.56376
G1 X97.11 Y93.821 E1.57883
G1 X92.101 Y88.813 E1.91119
G1 X92.101 Y89.653 E1.95061
G1 X109.217 Y106.768 E3.0864
G1 X109.217 Y107.608 E3.12582
G1 X92.101 Y90.493 E4.26161
G1 X92.101 Y91.333 E4.30103
G1 X109.217 Y108.448 E5.43682
G1 X109.217 Y109.288 E5.47624
G1 X92.101 Y92.173 E6.61203
G1 X92.101 Y93.013 E6.65145
G1 X109.217 Y110.128 E7.78724
G1 X109.217 Y110.968 E7.82666
G1 X92.101 Y93.853 E8.96245
G1 X92.101 Y94.693 E9.00187
G1 X109.217 Y111.808 E10.13766
G1 X109.217 Y112.649 E10.17712
G1 X92.101 Y95.533 E11.31294
G1 X92.101 Y96.373 E11.35236
G1 X109.217 Y113.489 E12.48818
G1 X109.217 Y114.329 E12.5276
G1 X92.101 Y97.213 E13.66342
G1 X92.101 Y98.054 E13.70288
G1 X109.217 Y115.169 E14.83867
G1 X109.217 Y116.009 E14.87809
M73 P2 R26
G1 X92.101 Y98.894 E16.01388
G1 X92.101 Y99.734 E16.0533
G1 X109.217 Y116.849 E17.18909
G1 X109.217 Y117.689 E17.22851
G1 X92.101 Y100.574 E18.3643
G1 X92.101 Y101.414 E18.40372
G1 X109.217 Y118.529 E19.53951
G1 X109.217 Y118.888 E19.55636
G1 X108.736 Y118.888 E19.57893
G1 X92.101 Y102.254 E20.6828
G1 X92.101 Y103.094 E20.72222
G1 X107.896 Y118.888 E21.77034
G1 X107.056 Y118.888 E21.80976
G1 X92.101 Y103.934 E22.80214
G1 X92.101 Y104.774 E22.84156
G1 X101.583 Y114.255 E23.47075
G1 X102.388 Y114.568 E23.51128
G1 X102.843 Y114.857 E23.53657
G1 X103.044 Y115.019 E23.54868
G1 X103.47 Y115.445 E23.57695
G1 X103.632 Y115.645 E23.58903
G1 X103.856 Y115.988 E23.60825
G1 X104.114 Y116.535 E23.63663
G1 X104.216 Y116.888 E23.65387
G1 X106.216 Y118.888 E23.78659
G1 X105.376 Y118.888 E23.82601
G1 X104.336 Y117.849 E23.89499
G1 X104.318 Y118.283 E23.91537
G1 X104.26 Y118.613 E23.93109
G1 X104.8 Y119.153 E23.96692
G1 E23.21692 F1500
G92 E0
G1 X100.901 Y114.414 F18000
G1 E.75 F1500
G1 F2700
G1 X92.101 Y105.614 E1.33397
G1 X92.101 Y106.454 E1.37339
G1 X99.888 Y114.241 E1.89014
G1 X99.489 Y114.328 E1.9093
G1 X99.243 Y114.436 E1.92191
G1 X92.101 Y107.294 E2.39585
G1 X92.101 Y108.134 E2.43527
G1 X98.693 Y114.726 E2.87272
G1 X98.206 Y115.079 E2.90094
G1 X92.101 Y108.975 E3.30603
G1 X92.101 Y109.815 E3.34545
G1 X97.8 Y115.513 E3.7236
G1 X97.687 Y115.643 E3.73168
G1 X97.453 Y116.006 E3.75195
G1 X92.101 Y110.655 E4.10708
G1 X92.101 Y111.495 E4.1465
G1 X97.203 Y116.597 E4.48507
G1 X97.075 Y116.941 E4.50229
G1 X97.021 Y117.254 E4.51719
G1 X92.101 Y112.335 E4.84365
G1 X92.101 Y113.175 E4.88307
G1 X96.976 Y118.05 E5.20658
G1 X97.001 Y118.29 E5.2179
G1 X97.127 Y118.888 E5.24658
G1 X96.975 Y118.888 E5.25371
G1 X92.101 Y114.015 E5.57712
G1 X92.101 Y114.855 E5.61654
G1 X96.135 Y118.888 E5.8842
G1 X95.295 Y118.888 E5.92362
G1 X92.101 Y115.695 E6.13554
G1 X92.101 Y116.535 E6.17496
G1 X94.455 Y118.888 E6.33114
G1 X93.614 Y118.888 E6.3706
G1 X92.101 Y117.375 E6.471
G1 X92.101 Y118.215 E6.51042
G1 X93.039 Y119.153 E6.57267
G1 E5.82267 F1500
G92 E0
G1 X126.771 Y119.174 F18000
G1 E.75 F1500
;TYPE:Perimeter
;WIDTH:0.629999
G1 F3000
G1 X127.058 Y118.403 E.78815
G1 X127.134 Y117.872 E.81303
G1 X127.116 Y117.3 E.83957
G1 X126.94 Y116.552 E.87521
G1 X126.713 Y116.066 E.90009
G1 X126.384 Y115.597 E.92666
G1 X125.828 Y115.067 E.96228
G1 X125.339 Y114.77 E.98881
G1 X124.617 Y114.509 E1.02441
G1 X124.086 Y114.432 E1.04929
G1 X123.514 Y114.451 E1.07583
G1 X122.766 Y114.627 E1.11147
G1 X122.25 Y114.874 E1.138
G1 X121.636 Y115.335 E1.17361
G1 X121.281 Y115.738 E1.19852
G1 X120.984 Y116.228 E1.22509
G1 X120.722 Y116.95 E1.26071
G1 X120.646 Y117.481 E1.28559
G1 X120.665 Y118.053 E1.31213
G1 X120.785 Y118.628 E1.33937
G1 X121.006 Y119.174 E1.36669
G1 X114.892 Y119.174 E1.65023
G1 X114.892 Y86.178 E3.18042
G1 X131.475 Y86.178 E3.94946
G1 X132.888 Y87.591 E4.04213
G1 X132.888 Y119.174 E5.50679
G1 X126.861 Y119.174 E5.78629
G1 X125.525 Y119.761 F18000
;TYPE:External perimeter
G1 F2700
G1 X125.667 Y119.66 E5.79437
G1 X125.978 Y119.332 E5.81533
G1 X126.249 Y118.912 E5.83851
G1 X126.463 Y118.365 E5.86575
G1 X126.543 Y117.92 E5.88672
G1 X126.547 Y117.48 E5.90713
G1 X126.439 Y116.936 E5.93285
G1 X126.245 Y116.43 E5.95798
G1 X125.969 Y116.012 E5.98121
G1 X125.554 Y115.597 E6.00843
G1 X125.126 Y115.317 E6.03215
G1 X124.579 Y115.104 E6.05937
G1 X124.134 Y115.023 E6.08035
G1 X123.634 Y115.026 E6.10354
G1 X123.059 Y115.146 E6.13078
G1 X122.591 Y115.352 E6.15449
G1 X122.113 Y115.693 E6.18172
G1 X121.803 Y116.021 E6.20265
G1 X121.531 Y116.441 E6.22586
G1 X121.318 Y116.988 E6.25308
G1 X121.237 Y117.432 E6.27401
G1 X121.239 Y117.932 E6.2972
G1 X121.36 Y118.507 E6.32445
G1 X121.536 Y118.923 E6.3454
G1 X121.811 Y119.341 E6.3686
G1 X122.224 Y119.758 E6.39582
G1 X114.305 Y119.761 E6.76306
G1 X114.305 Y85.591 E8.34769
G1 X131.718 Y85.591 E9.15522
G1 X133.475 Y87.348 E9.27045
G1 X133.475 Y119.761 E10.7736
G1 X125.615 Y119.761 E11.13811
G1 X125.582 Y119.927 F18000
G1 E10.38811 F1500
G92 E0
G1 X123.904 Y95.916 F18000
G1 E.75 F1500
;TYPE:Perimeter
G1 F450
G1 X123.695 Y95.92 E.75969
G1 X122.94 Y95.781 E.79529
G1 X122.408 Y95.569 E.82185
G1 X121.952 Y95.285 E.84676
G1 X121.549 Y94.931 E.87164
G1 X121.088 Y94.317 E.90725
G1 X120.841 Y93.801 E.93378
G1 X120.665 Y93.053 E.96942
G1 X120.646 Y92.481 E.99596
G1 X120.722 Y91.95 E1.02084
G1 X120.984 Y91.228 E1.05646
G1 X121.281 Y90.738 E1.08303
G1 X121.636 Y90.335 E1.10794
G1 X122.25 Y89.874 E1.14355
G1 X122.766 Y89.627 E1.17008
G1 X123.514 Y89.451 E1.20572
G1 X124.086 Y89.432 E1.23226
G1 X124.617 Y89.509 E1.25714
G1 X125.339 Y89.77 E1.29274
G1 X125.828 Y90.067 E1.31927
G1 X126.384 Y90.597 E1.35489
G1 X126.713 Y91.066 E1.38146
G1 X126.94 Y91.552 E1.40634
G1 X127.116 Y92.299 E1.44193
G1 X127.109 Y93.103 E1.47922
G1 X126.987 Y93.663 E1.5058
G1 X126.783 Y94.158 E1.53063
G1 X126.352 Y94.794 E1.56626
G1 X125.944 Y95.195 E1.59279
G1 X125.294 Y95.605 E1.62843
G1 X124.758 Y95.808 E1.65501
G1 X124.231 Y95.908 E1.67989
G1 X123.994 Y95.914 E1.69088
G1 X123.963 Y95.325 F18000
;TYPE:External perimeter
G1 F450
G1 X123.635 Y95.327 E1.70609
G1 X123.06 Y95.207 E1.73333
G1 X122.644 Y95.031 E1.75428
G1 X122.235 Y94.764 E1.77693
G1 X121.907 Y94.454 E1.79786
G1 X121.566 Y93.976 E1.82509
G1 X121.36 Y93.507 E1.84885
G1 X121.239 Y92.932 E1.8761
G1 X121.237 Y92.432 E1.89929
G1 X121.318 Y91.988 E1.92022
G1 X121.531 Y91.441 E1.94744
G1 X121.803 Y91.021 E1.97065
G1 X122.113 Y90.693 E1.99158
G1 X122.591 Y90.352 E2.01881
G1 X123.059 Y90.146 E2.04252
M73 P3 R26
G1 X123.634 Y90.026 E2.06976
G1 X124.134 Y90.023 E2.09295
G1 X124.579 Y90.104 E2.11393
G1 X125.126 Y90.317 E2.14115
G1 X125.554 Y90.597 E2.16487
G1 X125.969 Y91.012 E2.19209
G1 X126.245 Y91.43 E2.21532
G1 X126.42 Y91.846 E2.23625
G1 X126.541 Y92.42 E2.26345
G1 X126.523 Y93.079 E2.29402
G1 X126.402 Y93.564 E2.3172
