; G-Code generated by Simplify3D(R) Version 4.1.2
; Jul 8, 2022 at 8:29:46 PM
; Settings Summary
;   processName,Process1
;   applyToModels,z-axes-leadscrew-mount-front-right
;   profileName,HSBot (modified)
;   profileVersion,2019-11-09 11:59:44
;   baseProfile,Default
;   printMaterial,PETG - Eryone
;   printQuality,Medium
;   printExtruders,
;   extruderName,Extruder - v6,Extruder - lgx ace
;   extruderToolheadNumber,0,1
;   extruderDiameter,0.4,0.4
;   extruderAutoWidth,1,1
;   extruderWidth,0.48,0.48
;   extrusionMultiplier,1.03,1.03
;   extruderUseRetract,0,1
;   extruderRetractionDistance,4,1
;   extruderExtraRestartDistance,0,0
;   extruderRetractionZLift,0,0
;   extruderRetractionSpeed,3600,3600
;   extruderUseCoasting,0,0
;   extruderCoastingDistance,0.2,0.2
;   extruderUseWipe,0,1
;   extruderWipeDistance,1,1
;   primaryExtruder,1
;   layerHeight,0.2
;   topSolidLayers,4
;   bottomSolidLayers,4
;   perimeterOutlines,4
;   printPerimetersInsideOut,1
;   startPointOption,2
;   startPointOriginX,0
;   startPointOriginY,0
;   sequentialIslands,0
;   spiralVaseMode,0
;   firstLayerHeightPercentage,100
;   firstLayerWidthPercentage,150
;   firstLayerUnderspeed,0.25
;   useRaft,0
;   raftExtruder,0
;   raftTopLayers,3
;   raftBaseLayers,2
;   raftOffset,3
;   raftSeparationDistance,0.18
;   raftTopInfill,100
;   aboveRaftSpeedMultiplier,0.3
;   useSkirt,1
;   skirtExtruder,1
;   skirtLayers,1
;   skirtOutlines,15
;   skirtOffset,0
;   usePrimePillar,0
;   primePillarExtruder,999
;   primePillarWidth,12
;   primePillarLocation,7
;   primePillarSpeedMultiplier,1
;   useOozeShield,0
;   oozeShieldExtruder,999
;   oozeShieldOffset,2
;   oozeShieldOutlines,1
;   oozeShieldSidewallShape,1
;   oozeShieldSidewallAngle,30
;   oozeShieldSpeedMultiplier,1
;   infillExtruder,1
;   internalInfillPattern,Full Honeycomb
;   externalInfillPattern,Rectilinear
;   infillPercentage,15
;   outlineOverlapPercentage,20
;   infillExtrusionWidthPercentage,100
;   minInfillLength,3
;   infillLayerInterval,1
;   internalInfillAngles,0,120,-120
;   overlapInternalInfillAngles,0
;   externalInfillAngles,45,-45
;   generateSupport,1
;   supportExtruder,1
;   supportInfillPercentage,30
;   supportExtraInflation,0
;   supportBaseLayers,1
;   denseSupportExtruder,0
;   denseSupportLayers,0
;   denseSupportInfillPercentage,70
;   supportLayerInterval,1
;   supportHorizontalPartOffset,0.3
;   supportUpperSeparationLayers,1
;   supportLowerSeparationLayers,1
;   supportType,0
;   supportGridSpacing,2
;   maxOverhangAngle,45
;   supportAngles,0
;   temperatureName,v6,Bed,lgx-ace
;   temperatureNumber,0,0,1
;   temperatureSetpointCount,1,1,1
;   temperatureSetpointLayers,1,1,1
;   temperatureSetpointTemperatures,0,85,230
;   temperatureStabilizeAtStartup,1,1,1
;   temperatureHeatedBed,0,1,0
;   fanLayers,1,2,3
;   fanSpeeds,0,15,15
;   blipFanToFullPower,0
;   adjustSpeedForCooling,0
;   minSpeedLayerTime,15
;   minCoolingSpeedSlowdown,50
;   increaseFanForCooling,0
;   minFanLayerTime,45
;   maxCoolingFanSpeed,70
;   increaseFanForBridging,0
;   bridgingFanSpeed,80
;   use5D,1
;   relativeEdistances,0
;   allowEaxisZeroing,1
;   independentExtruderAxes,0
;   includeM10123,0
;   stickySupport,1
;   applyToolheadOffsets,0
;   gcodeXoffset,0
;   gcodeYoffset,0
;   gcodeZoffset,0
;   overrideMachineDefinition,1
;   machineTypeOverride,0
;   strokeXoverride,220
;   strokeYoverride,220
;   strokeZoverride,175
;   originOffsetXoverride,0
;   originOffsetYoverride,0
;   originOffsetZoverride,0
;   homeXdirOverride,-1
;   homeYdirOverride,-1
;   homeZdirOverride,-1
;   flipXoverride,1
;   flipYoverride,-1
;   flipZoverride,1
;   toolheadOffsets,0,0|0,0|0,0|0,0|0,0|0,0
;   overrideFirmwareConfiguration,0
;   firmwareTypeOverride,RepRap (Marlin/Repetier/Sprinter)
;   GPXconfigOverride,r2
;   baudRateOverride,115200
;   overridePrinterModels,0
;   printerModelsOverride
;   startingGcode,G28 ; home all axes,G32 ; run bed.g -- probe bed and enable compensation
;   layerChangeGcode,
;   retractionGcode,
;   toolChangeGcode,
;   endingGcode,M0 ; call stop.g
;   exportFileFormat,gcode
;   celebration,0
;   celebrationSong,Random Song
;   postProcessing,|; 0.2mm layer, 8 bands 5mm each, total height 40mm|{REPLACE "; layer 25" "M572 D0 S0.69\n; layer 10"}|{REPLACE "; layer 50" "M572 D0 S0.70\n; layer 50"}|{REPLACE "; layer 75" "M572 D0 S0.71\n; layer 75"}|{REPLACE "; layer 100" "M572 D0 S0.72\n; layer 100"}|{REPLACE "; layer 125" "M572 D0 S0.73\n; layer 125"}|{REPLACE "; layer 150" "M572 D0 S0.74\n; layer 150"}|{REPLACE "; layer 175" "M572 D0 S0.75\n; layer 175"}|{REPLACE "; layer 200" "M572 D0 S0.76\n; layer 200"}
;   defaultSpeed,5400
;   outlineUnderspeed,0.8
;   solidInfillUnderspeed,0.75
;   supportUnderspeed,0.8
;   rapidXYspeed,18000
;   rapidZspeed,1200
;   minBridgingArea,60
;   bridgingExtraInflation,0
;   bridgingExtrusionMultiplier,0.96
;   bridgingSpeedMultiplier,1
;   useFixedBridgingAngle,0
;   fixedBridgingAngle,0
;   applyBridgingToPerimeters,0
;   filamentDiameters,1.75|1.75|1.75|1.75|1.75|1.75
;   filamentPricesPerKg,25|46|46|46|46|46
;   filamentDensities,1.29|1.25|1.25|1.25|1.25|1.25
;   useMinPrintHeight,0
;   minPrintHeight,0.3
;   useMaxPrintHeight,0
;   maxPrintHeight,110
;   useDiaphragm,1
;   diaphragmLayerInterval,20
;   robustSlicing,1
;   mergeAllIntoSolid,0
;   onlyRetractWhenCrossingOutline,1
;   retractBetweenLayers,0
;   useRetractionMinTravel,1
;   retractionMinTravel,5
;   retractWhileWiping,1
;   onlyWipeOutlines,1
;   avoidCrossingOutline,1
;   maxMovementDetourFactor,2
;   toolChangeRetractionDistance,12
;   toolChangeExtraRestartDistance,0
;   toolChangeRetractionSpeed,600
;   externalThinWallType,0
;   internalThinWallType,2
;   thinWallAllowedOverlapPercentage,10
;   singleExtrusionMinLength,0.1
;   singleExtrusionMinPrintingWidthPercentage,50
;   singleExtrusionMaxPrintingWidthPercentage,200
;   singleExtrusionEndpointExtension,0.2
;   horizontalSizeCompensation,-0.1
G90
M82
M106 S0
M140 S85
M190 S85
G10 S0 R{0-50} P0
G10 S230 R{230-50} P1
M116 P1
G28 ; home all axes
G32 ; run bed.g -- probe bed and enable compensation
; process Process1
; layer 1, Z = 0.200
T1
G92 E0.0000
G1 E-1.0000 F3600
; feature skirt
; tool H0.200 W0.720
G1 Z0.200 F1200
G1 X84.469 Y7.116 F18000
G1 E0.0000 F3600
G92 E0.0000
G1 X90.584 Y1.001 E0.5333 F1350
G1 X129.233 Y1.001 E2.9166
G1 X135.349 Y7.116 E3.4499
G1 X135.349 Y64.090 E6.9631
G1 X129.233 Y70.206 E7.4965
G1 X90.584 Y70.206 E9.8797
G1 X84.469 Y64.090 E10.4130
G1 X84.469 Y7.116 E13.9263
G1 X85.189 Y7.415 F18000
G92 E0.0000
G1 X90.882 Y1.721 E0.4965 F1350
G1 X128.935 Y1.721 E2.8430
G1 X134.629 Y7.415 E3.3396
G1 X134.629 Y63.792 E6.8160
G1 X128.935 Y69.486 E7.3126
G1 X90.882 Y69.486 E9.6590
G1 X85.189 Y63.792 E10.1556
G1 X85.189 Y7.415 E13.6320
G1 X85.909 Y7.713 F18000
G92 E0.0000
G1 X91.181 Y2.441 E0.4598 F1350
G1 X128.637 Y2.441 E2.7695
G1 X133.909 Y7.713 E3.2292
G1 X133.909 Y63.494 E6.6689
G1 X128.636 Y68.766 E7.1287
G1 X91.181 Y68.766 E9.4383
G1 X85.909 Y63.494 E9.8981
G1 X85.909 Y7.713 E13.3378
G1 X86.629 Y8.011 F18000
G92 E0.0000
G1 X91.479 Y3.161 E0.4230 F1350
G1 X128.338 Y3.161 E2.6959
G1 X133.189 Y8.011 E3.1189
G1 X133.189 Y63.195 E6.5218
G1 X128.338 Y68.046 E6.9448
G1 X91.479 Y68.046 E9.2177
G1 X86.629 Y63.195 E9.6406
G1 X86.629 Y8.011 E13.0435
G1 X87.349 Y8.309 F18000
G92 E0.0000
G1 X91.777 Y3.881 E0.3862 F1350
G1 X128.040 Y3.881 E2.6223
G1 X132.469 Y8.309 E3.0085
G1 X132.469 Y62.897 E6.3746
G1 X128.040 Y67.326 E6.7608
G1 X91.777 Y67.326 E8.9970
G1 X87.349 Y62.897 E9.3832
G1 X87.349 Y8.309 E12.7493
G1 X88.069 Y8.608 F18000
G92 E0.0000
G1 X92.075 Y4.601 E0.3494 F1350
G1 X127.742 Y4.601 E2.5488
G1 X131.749 Y8.608 E2.8982
G1 X131.749 Y62.599 E6.2275
G1 X127.742 Y66.606 E6.5769
G1 X92.075 Y66.606 E8.7763
G1 X88.069 Y62.599 E9.1257
G1 X88.069 Y8.608 E12.4550
G1 X88.789 Y8.906 F18000
G92 E0.0000
G1 X92.374 Y5.321 E0.3126 F1350
G1 X127.444 Y5.321 E2.4752
G1 X131.029 Y8.906 E2.7878
G1 X131.029 Y62.301 E6.0804
G1 X127.444 Y65.886 E6.3930
G1 X92.374 Y65.886 E8.5556
G1 X88.789 Y62.301 E8.8682
G1 X88.789 Y8.906 E12.1608
G1 X89.509 Y9.204 F18000
G92 E0.0000
G1 X92.672 Y6.041 E0.2759 F1350
G1 X127.145 Y6.041 E2.4016
G1 X130.309 Y9.204 E2.6775
G1 X130.309 Y62.002 E5.9333
G1 X127.145 Y65.166 E6.2091
G1 X92.672 Y65.166 E8.3349
G1 X89.509 Y62.002 E8.6108
G1 X89.509 Y9.204 E11.8666
G1 X90.229 Y9.502 F18000
G92 E0.0000
G1 X92.970 Y6.761 E0.2391 F1350
G1 X126.847 Y6.761 E2.3281
G1 X129.589 Y9.502 E2.5672
G1 X129.589 Y61.704 E5.7862
G1 X126.847 Y64.446 E6.0252
G1 X92.970 Y64.446 E8.1142
G1 X90.229 Y61.704 E8.3533
G1 X90.229 Y9.502 E11.5723
G1 X90.949 Y9.800 F18000
G92 E0.0000
G1 X93.268 Y7.481 E0.2023 F1350
G1 X126.549 Y7.481 E2.2545
G1 X128.869 Y9.800 E2.4568
G1 X128.869 Y61.406 E5.6390
G1 X126.549 Y63.726 E5.8413
G1 X93.268 Y63.726 E7.8935
G1 X90.949 Y61.406 E8.0958
G1 X90.949 Y9.800 E11.2781
G1 X91.669 Y10.099 F18000
G92 E0.0000
G1 X93.567 Y8.201 E0.1655 F1350
G1 X126.251 Y8.201 E2.1810
G1 X128.149 Y10.099 E2.3465
G1 X128.149 Y61.108 E5.4919
G1 X126.251 Y63.006 E5.6574
G1 X93.567 Y63.006 E7.6729
G1 X91.669 Y61.108 E7.8384
G1 X91.669 Y10.099 E10.9838
G1 X92.389 Y10.397 F18000
G92 E0.0000
G1 X93.865 Y8.921 E0.1287 F1350
G1 X125.952 Y8.921 E2.1074
G1 X127.429 Y10.397 E2.2361
G1 X127.429 Y60.810 E5.3448
G1 X125.952 Y62.286 E5.4735
G1 X93.865 Y62.286 E7.4522
G1 X92.389 Y60.810 E7.5809
G1 X92.389 Y10.397 E10.6896
G1 X93.109 Y10.695 F18000
G92 E0.0000
G1 X94.163 Y9.641 E0.0920 F1350
G1 X125.654 Y9.641 E2.0338
G1 X126.709 Y10.695 E2.1258
G1 X126.709 Y60.511 E5.1977
G1 X125.654 Y61.566 E5.2896
G1 X94.163 Y61.566 E7.2315
G1 X93.109 Y60.511 E7.3234
G1 X93.109 Y10.695 E10.3953
G1 X93.829 Y10.993 F18000
G92 E0.0000
G1 X94.461 Y10.361 E0.0552 F1350
G1 X125.356 Y10.361 E1.9603
G1 X125.989 Y10.993 E2.0154
G1 X125.989 Y60.213 E5.0505
G1 X125.356 Y60.846 E5.1057
G1 X94.461 Y60.846 E7.0108
G1 X93.829 Y60.213 E7.0660
G1 X93.829 Y10.993 E10.1011
G1 X94.549 Y11.292 F18000
G92 E0.0000
G1 X94.759 Y11.081 E0.0184 F1350
G1 X125.058 Y11.081 E1.8867
G1 X125.269 Y11.292 E1.9051
G1 X125.269 Y59.915 E4.9034
G1 X125.058 Y60.126 E4.9218
G1 X94.759 Y60.126 E6.7901
G1 X94.549 Y59.915 E6.8085
G1 X94.549 Y11.292 E9.8068
; feature inner perimeter
G1 X95.269 Y11.801 F18000
G1 X95.269 Y11.959
G1 X97.429 Y13.961
G92 E0.0000
G1 X122.389 Y13.961 E1.5391 F1215
G1 X122.389 Y43.242 E3.3447
G1 X111.831 Y32.684 E4.2654
G1 X113.067 Y32.256 E4.3461
G1 X113.862 Y31.891 E4.4000
G1 X114.622 Y31.442 E4.4545
G1 X115.310 Y30.932 E4.5073
G1 X115.742 Y30.553 E4.5427
G1 X116.289 Y29.992 E4.5910
G1 X116.836 Y29.307 E4.6451
G1 X117.313 Y28.563 E4.6996
G1 X117.710 Y27.774 E4.7540
G1 X118.023 Y26.949 E4.8085
G1 X118.250 Y26.095 E4.8629
G1 X118.386 Y25.226 E4.9172
G1 X118.428 Y24.450 E4.9651
G1 X118.420 Y23.951 E4.9959
G1 X118.341 Y23.104 E5.0484
G1 X118.189 Y22.347 E5.0960
G1 X118.052 Y21.833 E5.1288
G1 X117.893 Y21.365 E5.1593
G1 X117.559 Y20.584 E5.2116
G1 X117.182 Y19.908 E5.2593
G1 X116.893 Y19.460 E5.2922
G1 X116.600 Y19.064 E5.3226
G1 X116.043 Y18.424 E5.3749
G1 X115.477 Y17.894 E5.4227
G1 X115.063 Y17.555 E5.4557
G1 X114.664 Y17.270 E5.4860
G1 X113.967 Y16.847 E5.5362
G1 X113.512 Y16.618 E5.5676
G1 X112.728 Y16.297 E5.6198
G1 X111.982 Y16.077 E5.6678
G1 X111.458 Y15.962 E5.7009
G1 X110.979 Y15.887 E5.7308
G1 X110.205 Y15.824 E5.7787
G1 X109.363 Y15.837 E5.8306
G1 X108.789 Y15.892 E5.8662
G1 X108.013 Y16.032 E5.9148
G1 X107.167 Y16.271 E5.9690
G1 X106.286 Y16.625 E6.0276
G1 X105.588 Y16.996 E6.0763
G1 X105.108 Y17.300 E6.1113
G1 X104.480 Y17.771 E6.1597
G1 X103.834 Y18.362 E6.2137
G1 X103.248 Y19.023 E6.2682
G1 X102.733 Y19.740 E6.3227
G1 X102.296 Y20.507 E6.3771
G1 X101.954 Y21.285 E6.4295
G1 X101.785 Y21.765 E6.4609
G1 X101.568 Y22.586 E6.5133
G1 X101.431 Y23.455 E6.5675
G1 X101.389 Y24.231 E6.6154
G1 X101.397 Y24.731 E6.6462
G1 X101.476 Y25.578 E6.6987
G1 X101.628 Y26.334 E6.7463
G1 X101.766 Y26.849 E6.7791
G1 X101.924 Y27.317 E6.8096
G1 X102.258 Y28.098 E6.8620
G1 X102.635 Y28.773 E6.9097
G1 X102.924 Y29.222 E6.9426
G1 X103.217 Y29.617 E6.9729
G1 X103.774 Y30.258 E7.0252
G1 X104.340 Y30.787 E7.0730
G1 X104.754 Y31.126 E7.1060
G1 X105.153 Y31.412 E7.1363
G1 X105.850 Y31.834 E7.1866
G1 X106.305 Y32.063 E7.2180
G1 X107.089 Y32.384 E7.2702
G1 X107.835 Y32.604 E7.3182
G1 X108.359 Y32.720 E7.3512
G1 X108.841 Y32.795 E7.3813
G1 X110.372 Y32.915 E7.4760
G1 X97.429 Y45.858 E8.6048
G1 X97.429 Y13.961 E10.5717
G1 X97.429 Y50.865 F18000
G92 E0.0000
G1 X103.809 Y57.246 E0.5564 F1215
G1 X97.429 Y57.246 E0.9499
G1 X97.429 Y50.865 E1.3433
G1 X102.517 Y52.899 F18000
G1 X108.600 Y58.982
G1 X111.209 Y56.373
G1 X113.392 Y57.246
G92 E0.0000
G1 X122.389 Y48.249 E0.7846 F1215
G1 X122.389 Y57.246 E1.3394
G1 X113.392 Y57.246 E1.8942
G1 X111.653 Y57.966 F18000
G92 E0.0000
G1 X123.109 Y46.511 E0.9990 F1215
G1 X123.109 Y57.966 E1.7053
G1 X111.653 Y57.966 E2.4117
G1 X109.617 Y57.966 F18000
G1 X108.600 Y58.982
G1 X107.584 Y57.966
G1 X105.547 Y57.966
G92 E0.0000
G1 X96.709 Y57.966 E0.5450 F1215
G1 X96.709 Y49.127 E1.0901
G1 X105.547 Y57.966 E1.8609
G1 X96.709 Y47.596 F18000
G92 E0.0000
G1 X96.709 Y13.241 E2.1185 F1215
G1 X123.109 Y13.241 E3.7464
G1 X123.109 Y44.980 E5.7036
G1 X111.217 Y33.088 E6.7407
G1 X96.709 Y47.596 E8.0059
G1 X96.961 Y48.362 F18000
G92 E0.0000
G1 X107.286 Y58.686 E0.9003 F1215
G1 X95.989 Y58.686 E1.5970
G1 X95.989 Y12.521 E4.4437
G1 X123.829 Y12.521 E6.1604
G1 X123.829 Y58.686 E9.0072
G1 X109.915 Y58.686 E9.8651
G1 X122.856 Y45.745 E10.9936
G1 X111.217 Y34.106 E12.0086
G1 X96.961 Y48.362 E13.2518
; feature outer perimeter
G1 X95.269 Y59.406 F18000
G92 E0.0000
G1 X95.269 Y11.801 E2.9355 F1080
G1 X124.549 Y11.801 E4.7411
G1 X124.549 Y59.406 E7.6766
G1 X95.269 Y59.406 E9.4821
G1 X95.269 Y58.406 F1080
G1 X97.980 Y48.362 F18000
G92 E0.0000
G1 X108.600 Y58.982 E0.9262 F1080
G1 X121.837 Y45.745 E2.0806
G1 X111.217 Y35.124 E3.0068
G1 X97.980 Y48.362 E4.1611
G1 X98.687 Y49.069 F1080
; feature inner perimeter
G1 X97.980 Y48.362 F18000
G1 X99.836 Y46.505
G1 X106.604 Y31.408
G92 E0.0000
G1 X107.328 Y31.704 E0.0482 F1215
G1 X108.015 Y31.907 E0.0924
G1 X108.492 Y32.012 E0.1225
G1 X108.925 Y32.080 E0.1496
G1 X109.704 Y32.140 E0.1977
G1 X110.444 Y32.123 E0.2434
G1 X111.243 Y32.028 E0.2930
G1 X112.093 Y31.831 E0.3468
G1 X112.799 Y31.587 E0.3928
G1 X113.528 Y31.252 E0.4423
G1 X114.224 Y30.841 E0.4922
G1 X114.857 Y30.372 E0.5408
G1 X115.246 Y30.031 E0.5726
G1 X115.748 Y29.515 E0.6171
G1 X116.250 Y28.887 E0.6666
G1 X116.686 Y28.206 E0.7165
G1 X117.050 Y27.484 E0.7663
G1 X117.337 Y26.728 E0.8162
G1 X117.544 Y25.947 E0.8660
G1 X117.669 Y25.151 E0.9157
G1 X117.708 Y24.436 E0.9599
G1 X117.701 Y23.990 E0.9874
G1 X117.628 Y23.209 E1.0358
G1 X117.487 Y22.511 E1.0797
G1 X117.362 Y22.041 E1.1096
G1 X117.220 Y21.622 E1.1369
G1 X116.912 Y20.902 E1.1853
G1 X116.565 Y20.279 E1.2292
G1 X116.301 Y19.870 E1.2592
G1 X116.038 Y19.515 E1.2864
G1 X115.524 Y18.924 E1.3347
G1 X115.003 Y18.436 E1.3788
G1 X114.625 Y18.127 E1.4089
G1 X114.268 Y17.871 E1.4360
G1 X113.618 Y17.478 E1.4828
G1 X113.213 Y17.274 E1.5108
G1 X112.489 Y16.978 E1.5590
G1 X111.803 Y16.775 E1.6031
G1 X111.325 Y16.669 E1.6333
G1 X110.895 Y16.602 E1.6602
G1 X110.181 Y16.545 E1.7043
G1 X109.403 Y16.557 E1.7523
G1 X108.887 Y16.606 E1.7843
G1 X108.175 Y16.734 E1.8289
G1 X107.400 Y16.953 E1.8785
G1 X106.590 Y17.279 E1.9323
G1 X105.950 Y17.619 E1.9771
G1 X105.517 Y17.893 E2.0086
G1 X104.940 Y18.325 E2.0531
G1 X104.348 Y18.868 E2.1026
G1 X103.811 Y19.472 E2.1525
G1 X103.340 Y20.130 E2.2023
G1 X102.940 Y20.832 E2.2522
G1 X102.624 Y21.549 E2.3005
G1 X102.474 Y21.977 E2.3285
G1 X102.273 Y22.735 E2.3768
G1 X102.148 Y23.531 E2.4265
G1 X102.109 Y24.245 E2.4706
G1 X102.116 Y24.692 E2.4981
G1 X102.190 Y25.473 E2.5465
G1 X102.330 Y26.171 E2.5904
G1 X102.455 Y26.640 E2.6204
G1 X102.597 Y27.059 E2.6477
G1 X102.906 Y27.780 E2.6960
G1 X103.253 Y28.403 E2.7400
G1 X103.517 Y28.812 E2.7700
G1 X103.779 Y29.166 E2.7972
G1 X104.293 Y29.757 E2.8455
G1 X104.814 Y30.245 E2.8895
G1 X105.192 Y30.554 E2.9196
G1 X105.550 Y30.810 E2.9467
