; generated by PrusaSlicer 2.5.0-alpha3+win64 on 2022-10-17 at 16:35:38 UTC


;
;
; 

; external perimeters extrusion width = 0.68mm
; perimeters extrusion width = 0.68mm
; infill extrusion width = 0.68mm
; solid infill extrusion width = 0.68mm
; top infill extrusion width = 0.60mm
; first layer extrusion width = 0.63mm

M73 P0 R69
M107
M190 S85 ; set bed temperature and wait for it to be reached
G10 S230 P1 ; set temperature
;TYPE:Custom
;Set standby temperatures
G10 R200 P0
G10 R215 P1
G28 ; home all axes
G32 ; run bed.g -- probe bed and enable compensation
;workaround for toolchanger when using only one extruder
T1; select tool
G10 S230 P1 ; set temperature
M116 ; wait for temperature to be reached
G21 ; set units to millimeters
G90 ; use absolute coordinates
M82 ; use absolute distances for extrusion
G92 E0
;tool change macro
T1
G92 E0
; Filament gcode
M107
;LAYER_CHANGE
;Z:0.2
;HEIGHT:0.2
G1 Z.2 F18000
G1 E-.75 F600
G92 E0
G1 X92.541 Y127.255 F18000
G1 E.75 F600
;TYPE:Skirt/Brim
;WIDTH:0.63
G1 F2700
G1 X93.043 Y126.959 E.77843
G1 X93.564 Y126.743 E.806
G1 X94.467 Y126.563 E.85094
G1 X125.599 Y126.569 E2.37065
G1 X126.338 Y126.714 E2.40743
G1 X127.094 Y127.03 E2.44743
G1 X127.62 Y127.38 E2.47826
G1 X128.479 Y128.217 E2.53681
G1 X129.005 Y129.003 E2.58297
G1 X129.276 Y129.705 E2.61972
G1 X129.403 Y130.434 E2.65584
G1 X129.403 Y179.826 E5.06697
G1 X129.25 Y180.639 E5.10731
G1 X128.89 Y181.47 E5.15155
G1 X128.463 Y182.056 E5.18694
G1 X127.459 Y183.003 E5.25432
G1 X126.957 Y183.299 E5.28276
G1 X126.436 Y183.515 E5.31032
G1 X125.533 Y183.695 E5.35525
G1 X94.465 Y183.695 E6.87185
G1 X93.653 Y183.542 E6.9122
G1 X92.821 Y183.182 E6.95643
G1 X92.236 Y182.755 E6.99182
G1 X91.288 Y181.751 E7.05921
G1 X90.993 Y181.249 E7.08764
G1 X90.776 Y180.727 E7.11521
G1 X90.597 Y179.825 E7.16013
G1 X90.597 Y130.432 E9.57128
G1 X90.75 Y129.62 E9.61163
G1 X91.11 Y128.788 E9.65587
G1 X91.537 Y128.202 E9.69125
G1 X92.475 Y127.317 E9.75425
G1 X92.871 Y127.741 F18000
G1 F2700
G1 X93.288 Y127.493 E9.77793
G1 X93.762 Y127.296 E9.80302
G1 X94.496 Y127.151 E9.83954
G1 X125.568 Y127.156 E11.35635
G1 X126.192 Y127.283 E11.38742
G1 X126.796 Y127.537 E11.41943
G1 X127.232 Y127.821 E11.44479
G1 X128.047 Y128.616 E11.5004
G1 X128.471 Y129.248 E11.53755
G1 X128.704 Y129.84 E11.56859
G1 X128.816 Y130.461 E11.59941
G1 X128.816 Y179.797 E14.00779
G1 X128.681 Y180.492 E14.04235
G1 X128.367 Y181.202 E14.08026
G1 X128.039 Y181.649 E14.10731
G1 X127.129 Y182.517 E14.16868
G1 X126.712 Y182.765 E14.19236
G1 X126.238 Y182.962 E14.21745
G1 X125.504 Y183.108 E14.25396
G1 X94.494 Y183.108 E15.76773
G1 X93.799 Y182.972 E15.80229
G1 X93.089 Y182.658 E15.8402
G1 X92.642 Y182.331 E15.86725
G1 X91.775 Y181.421 E15.92862
G1 X91.527 Y181.004 E15.9523
G1 X91.33 Y180.529 E15.97739
G1 X91.184 Y179.796 E16.01389
G1 X91.184 Y130.461 E18.42222
G1 X91.319 Y129.766 E18.45678
G1 X91.633 Y129.056 E18.49469
G1 X91.961 Y128.609 E18.52174
G1 X92.806 Y127.804 E18.57871
G1 X93.204 Y128.226 F18000
G1 F2700
G1 X93.533 Y128.027 E18.59752
G1 X93.96 Y127.85 E18.62008
G1 X94.525 Y127.738 E18.64817
G1 X125.538 Y127.743 E20.16212
G1 X125.995 Y127.836 E20.18486
G1 X126.505 Y128.047 E20.2118
G1 X126.844 Y128.263 E20.23144
G1 X127.615 Y129.015 E20.28402
G1 X127.938 Y129.497 E20.31233
G1 X128.133 Y129.979 E20.33773
G1 X128.229 Y130.49 E20.36308
G1 X128.229 Y179.767 E22.76858
G1 X128.113 Y180.341 E22.79718
G1 X127.846 Y180.93 E22.82877
G1 X127.614 Y181.244 E22.8478
G1 X126.796 Y182.032 E22.90325
G1 X126.467 Y182.231 E22.92206
G1 X126.04 Y182.408 E22.94461
G1 X125.475 Y182.521 E22.9727
G1 X94.525 Y182.521 E24.48357
G1 X93.951 Y182.404 E24.51217
G1 X93.361 Y182.137 E24.54376
G1 X93.048 Y181.906 E24.56279
G1 X92.259 Y181.088 E24.61824
G1 X92.06 Y180.758 E24.63705
G1 X91.883 Y180.331 E24.6596
G1 X91.771 Y179.767 E24.68769
G1 X91.771 Y130.491 E27.09311
G1 X91.887 Y129.917 E27.12172
G1 X92.154 Y129.328 E27.1533
G1 X92.386 Y129.014 E27.17234
G1 X93.139 Y128.288 E27.22339
G1 X93.541 Y128.707 F18000
G1 F2700
G1 X93.781 Y128.56 E27.23715
G1 X94.158 Y128.403 E27.2571
G1 X94.554 Y128.325 E27.27677
G1 X125.505 Y128.33 E28.78769
G1 X125.843 Y128.404 E28.80455
G1 X126.219 Y128.56 E28.82445
G1 X126.459 Y128.707 E28.83821
G1 X127.183 Y129.414 E28.88759
G1 X127.408 Y129.749 E28.90729
G1 X127.563 Y130.125 E28.92714
G1 X127.642 Y130.52 E28.94681
G1 X127.642 Y179.738 E31.34942
G1 X127.562 Y180.135 E31.36918
G1 X127.351 Y180.613 E31.39472
G1 X127.185 Y180.843 E31.40856
G1 X126.459 Y181.551 E31.45803
G1 X126.219 Y181.698 E31.47179
G1 X125.842 Y181.855 E31.49174
G1 X125.447 Y181.933 E31.5114
G1 X94.554 Y181.933 E33.01947
G1 X94.157 Y181.854 E33.03922
G1 X93.678 Y181.642 E33.06477
G1 X93.449 Y181.476 E33.0786
G1 X92.741 Y180.751 E33.12808
G1 X92.593 Y180.511 E33.14184
G1 X92.437 Y180.133 E33.16179
G1 X92.358 Y179.738 E33.18145
G1 X92.358 Y130.52 E35.58406
G1 X92.438 Y130.123 E35.60382
G1 X92.649 Y129.645 E35.62937
G1 X92.815 Y129.415 E35.6432
G1 X93.476 Y128.77 E35.68828
G1 X93.884 Y129.185 F18000
G1 F2700
G1 X94.031 Y129.092 E35.69677
G1 X94.356 Y128.957 E35.71398
G1 X94.582 Y128.912 E35.72522
G1 X125.471 Y128.917 E37.23311
G1 X125.64 Y128.955 E37.24155
M73 P0 R68
G1 X125.969 Y129.092 E37.25895
G1 X126.116 Y129.185 E37.26743
G1 X126.749 Y129.81 E37.31084
G1 X126.876 Y130.001 E37.32204
G1 X127.01 Y130.323 E37.33908
G1 X127.055 Y130.549 E37.35032
G1 X127.055 Y179.709 E39.75013
G1 X127.01 Y179.933 E39.76129
G1 X126.852 Y180.304 E39.78095
G1 X126.751 Y180.446 E39.78944
G1 X126.116 Y181.073 E39.83303
G1 X125.969 Y181.166 E39.84151
G1 X125.644 Y181.301 E39.85873
G1 X125.418 Y181.346 E39.86997
G1 X94.582 Y181.346 E41.37523
G1 X94.358 Y181.302 E41.38638
G1 X93.988 Y181.143 E41.40605
G1 X93.846 Y181.043 E41.41454
G1 X93.218 Y180.408 E41.45812
G1 X93.125 Y180.261 E41.46661
G1 X92.99 Y179.935 E41.48383
G1 X92.945 Y179.709 E41.49507
G1 X92.945 Y130.549 E43.89488
G1 X92.99 Y130.325 E43.90603
G1 X93.148 Y129.954 E43.9257
G1 X93.249 Y129.812 E43.93419
G1 X93.82 Y129.248 E43.97338
G1 X94.231 Y129.66 F18000
G1 F2700
G1 X94.285 Y129.622 E43.9766
G1 X94.611 Y129.499 E43.9936
G1 X125.389 Y129.499 E45.49604
G1 X125.763 Y129.654 E45.5158
G1 X126.345 Y130.252 E45.55654
G1 X126.468 Y130.578 E45.57354
G1 X126.468 Y179.68 E47.97053
G1 X126.313 Y180.054 E47.99029
G1 X125.715 Y180.637 E48.03103
G1 X125.389 Y180.759 E48.04803
G1 X94.611 Y180.759 E49.55047
G1 X94.237 Y180.604 E49.57023
G1 X93.655 Y180.006 E49.61097
G1 X93.532 Y179.68 E49.62797
G1 X93.532 Y130.578 E52.02497
G1 X93.687 Y130.204 E52.04473
G1 X94.168 Y129.723 E52.0779
G1 X94.583 Y130.138 F18000
G1 F2700
G1 X94.698 Y130.086 E52.08409
G1 X125.302 Y130.086 E53.57801
G1 X125.409 Y130.131 E53.58371
G1 X125.836 Y130.557 E53.61315
G1 X125.881 Y130.665 E53.61885
G1 X125.881 Y179.593 E56.00732
G1 X125.836 Y179.701 E56.01302
G1 X125.409 Y180.128 E56.04247
G1 X125.302 Y180.172 E56.04817
G1 X94.698 Y180.172 E57.54209
G1 X94.591 Y180.128 E57.54779
G1 X94.164 Y179.701 E57.57723
G1 X94.119 Y179.593 E57.58293
G1 X94.119 Y130.665 E59.9714
G1 X94.164 Y130.557 E59.9771
G1 X94.519 Y130.202 E60.00161
G1 X94.878 Y130.673 F18000
G1 F2700
G1 X125.122 Y130.673 E61.47796
G1 X125.294 Y130.845 E61.48983
G1 X125.294 Y179.413 E63.86073
G1 X125.122 Y179.585 E63.8726
G1 X94.878 Y179.585 E65.34895
G1 X94.706 Y179.413 E65.36082
G1 X94.706 Y130.845 E67.73172
G1 X94.815 Y130.737 E67.73919
G1 E66.98919 F600
G92 E0
G1 X124.098 Y178.39 F18000
G1 E.75 F600
;TYPE:Perimeter
;WIDTH:0.629999
G1 F3000
G1 X106.489 Y178.39 E1.60959
;WIDTH:0.673126
G1 X106.368 Y178.368 E1.61602
;WIDTH:0.716252
G1 X106.247 Y178.346 E1.6229
;WIDTH:0.759379
G1 X106.126 Y178.325 E1.63021
;WIDTH:0.802505
G1 X106.006 Y178.303 E1.63797
G1 X105.54 Y178.303 E1.66736
G1 X105.401 Y178.325 E1.67627
;WIDTH:0.759379
G1 X105.262 Y178.346 E1.68467
;WIDTH:0.716252
G1 X105.122 Y178.368 E1.69256
;WIDTH:0.673126
G1 X104.983 Y178.39 E1.69995
;WIDTH:0.629999
G1 X95.902 Y178.39 E2.14323
G1 X95.902 Y131.869 E4.41419
G1 X124.098 Y131.869 E5.79059
G1 X124.098 Y135.967 E5.99068
G1 X124.098 Y178.3 E8.05715
G1 X124.685 Y178.977 F18000
;TYPE:External perimeter
G1 F2700
G1 X95.315 Y178.977 E9.49087
G1 X95.315 Y131.282 E11.81914
G1 X124.685 Y131.282 E13.25286
G1 X124.685 Y178.887 E15.57674
G1 X124.119 Y178.777 F18000
G1 E14.82674 F600
G92 E0
G1 X118.549 Y142.563 F18000
G1 E.75 F600
;TYPE:Perimeter
G1 F3000
G1 X118.643 Y143.509 E.79639
G1 X118.631 Y144.37 E.83844
G1 X118.577 Y144.998 E.8692
G1 X118.421 Y145.84 E.91103
G1 X118.201 Y146.619 E.95053
G1 X117.805 Y147.597 E1.00202
G1 X117.426 Y148.304 E1.0412
G1 X116.948 Y149.015 E1.083
G1 X116.505 Y149.569 E1.11762
G1 X115.796 Y150.279 E1.16662
G1 X115.075 Y150.871 E1.21216
G1 X114.47 Y151.274 E1.24763
G1 X113.784 Y151.646 E1.28573
G1 X112.996 Y151.981 E1.32752
G1 X112.225 Y152.226 E1.36702
G1 X111.191 Y152.434 E1.41851
G1 X110.392 Y152.509 E1.4577
G1 X109.536 Y152.502 E1.4995
G1 X108.831 Y152.438 E1.53405
G1 X107.962 Y152.273 E1.5772
G1 X106.954 Y151.962 E1.62869
G1 X106.285 Y151.68 E1.66417
G1 X105.596 Y151.313 E1.70226
G1 X104.882 Y150.84 E1.74405
G1 X104.326 Y150.397 E1.77878
G1 X103.692 Y149.785 E1.82177
G1 X103.018 Y148.974 E1.87327
G1 X102.613 Y148.369 E1.90883
G1 X102.206 Y147.62 E1.9504
G1 X101.897 Y146.895 E1.98888
G1 X101.567 Y145.789 E2.04523
G1 X101.433 Y145.074 E2.08073
G1 X101.357 Y144.224 E2.12238
G1 X101.369 Y143.363 E2.16443
G1 X101.423 Y142.735 E2.19519
G1 X101.579 Y141.893 E2.23702
G1 X101.799 Y141.114 E2.27651
G1 X102.195 Y140.137 E2.328
G1 X102.574 Y139.429 E2.36719
G1 X103.052 Y138.718 E2.40899
G1 X103.495 Y138.164 E2.44361
G1 X104.11 Y137.532 E2.48669
G1 X104.925 Y136.862 E2.53818
G1 X105.53 Y136.459 E2.57365
G1 X106.216 Y136.087 E2.61175
G1 X107.004 Y135.753 E2.65354
G1 X107.775 Y135.507 E2.69304
G1 X108.809 Y135.299 E2.74454
G1 X109.98 Y135.217 E2.80183
G1 X110.782 Y135.251 E2.84101
G1 X111.484 Y135.343 E2.87558
G1 X112.315 Y135.532 E2.91719
G1 X113.064 Y135.777 E2.95567
G1 X113.715 Y136.054 E2.9902
G1 X114.404 Y136.42 E3.02828
G1 X115.118 Y136.893 E3.07008
G1 X115.733 Y137.39 E3.1087
G1 X116.493 Y138.15 E3.16115
G1 X116.994 Y138.775 E3.20024
G1 X117.426 Y139.429 E3.23853
G1 X117.796 Y140.117 E3.27662
G1 X118.103 Y140.838 E3.31491
G1 X118.433 Y141.944 E3.37126
G1 X118.532 Y142.475 E3.3976
G1 X117.973 Y142.674 F18000
;TYPE:External perimeter
G1 F2700
G1 X118.058 Y143.558 E3.44096
G1 X118.044 Y144.359 E3.48005
G1 X117.992 Y144.945 E3.50877
G1 X117.844 Y145.731 E3.5478
G1 X117.657 Y146.398 E3.58166
G1 X117.26 Y147.376 E3.63315
G1 X116.91 Y148.024 E3.66909
G1 X116.463 Y148.685 E3.70807
G1 X116.049 Y149.2 E3.74033
G1 X115.541 Y149.725 E3.77596
G1 X114.702 Y150.417 E3.82907
G1 X114.148 Y150.783 E3.86148
G1 X113.506 Y151.129 E3.89707
G1 X112.77 Y151.439 E3.93609
G1 X112.109 Y151.65 E3.96995
G1 X111.075 Y151.859 E4.02144
G1 X110.341 Y151.924 E4.05738
G1 X109.543 Y151.915 E4.09637
G1 X108.887 Y151.854 E4.12855
G1 X108.135 Y151.712 E4.16587
G1 X107.127 Y151.401 E4.21736
G1 X106.517 Y151.14 E4.24978
G1 X105.874 Y150.796 E4.28537
G1 X105.209 Y150.352 E4.32439
G1 X104.693 Y149.939 E4.35665
G1 X104.144 Y149.411 E4.39387
G1 X103.47 Y148.599 E4.44536
G1 X103.102 Y148.045 E4.47781
G1 X102.723 Y147.342 E4.5168
G1 X102.427 Y146.636 E4.55418
G1 X102.13 Y145.624 E4.60567
G1 X102.011 Y144.971 E4.63809
G1 X101.942 Y144.175 E4.67708
G1 X101.956 Y143.374 E4.71618
G1 X102.008 Y142.788 E4.7449
G1 X102.156 Y142.002 E4.78392
G1 X102.343 Y141.335 E4.81778
G1 X102.74 Y140.357 E4.86927
G1 X103.09 Y139.709 E4.90522
G1 X103.537 Y139.048 E4.94419
G1 X103.951 Y138.533 E4.97646
G1 X104.483 Y137.986 E5.01371
G1 X105.298 Y137.316 E5.06519
G1 X105.852 Y136.95 E5.09761
G1 X106.494 Y136.604 E5.1332
G1 X107.23 Y136.294 E5.17221
G1 X107.891 Y136.083 E5.20607
G1 X108.925 Y135.874 E5.25756
G1 X110.017 Y135.803 E5.31098
G1 X110.752 Y135.837 E5.34692
G1 X111.405 Y135.925 E5.37904
G1 X112.183 Y136.104 E5.41803
G1 X112.879 Y136.334 E5.4538
G1 X113.483 Y136.593 E5.48591
G1 X114.126 Y136.937 E5.5215
G1 X114.791 Y137.381 E5.56053
G1 X115.362 Y137.845 E5.59645
G1 X116.075 Y138.563 E5.64586
G1 X116.534 Y139.139 E5.6818
G1 X116.935 Y139.751 E5.71749
G1 X117.277 Y140.392 E5.75299
G1 X117.562 Y141.066 E5.78869
G1 X117.87 Y142.109 E5.8418
G1 X117.957 Y142.586 E5.86544
G1 X118.531 Y142.895 F18000
G1 E5.11544 F600
G92 E0
G1 X113.395 Y154.618 F18000
G1 E.75 F600
;TYPE:Perimeter
G1 F3000
G1 X113.787 Y154.392 E.77211
G1 X113.921 Y154.328 E.77936
G1 X114.313 Y154.278 E.79862
G1 X114.631 Y154.372 E.81485
G1 X114.861 Y154.543 E.82884
G1 X115.325 Y155.294 E.8719
G1 X122.161 Y167.135 E1.53937
G1 X122.274 Y167.476 E1.5569
G1 X122.238 Y167.842 E1.57482
G1 X122.071 Y168.144 E1.59168
G1 X121.839 Y168.338 E1.60646
G1 X106.213 Y177.36 E2.48724
;WIDTH:0.673126
G1 X106.145 Y177.407 E2.4916
;WIDTH:0.716252
M73 P1 R68
G1 X106.077 Y177.455 E2.49625
;WIDTH:0.759379
G1 X106.008 Y177.502 E2.50121
;WIDTH:0.802505
G1 X105.94 Y177.549 E2.50646
G1 X105.606 Y177.549 E2.52756
G1 X105.528 Y177.496 E2.53353
;WIDTH:0.759379
G1 X105.45 Y177.443 E2.53915
;WIDTH:0.716252
G1 X105.372 Y177.389 E2.54444
;WIDTH:0.673126
G1 X105.294 Y177.336 E2.54938
;WIDTH:0.629999
G1 X105.01 Y177.037 E2.5695
G1 X97.839 Y164.616 E3.26967
G1 X97.726 Y164.275 E3.28719
G1 X97.762 Y163.91 E3.30511
G1 X97.929 Y163.607 E3.32197
G1 X98.161 Y163.413 E3.33675
G1 X113.317 Y154.663 E4.19103
G1 X114.055 Y154.915 F18000
;TYPE:External perimeter
G1 F2700
G1 X114.256 Y154.862 E4.20116
G1 X114.438 Y154.951 E4.21108
G1 X121.653 Y167.429 E4.91469
G1 X121.688 Y167.626 E4.92448
G1 X121.623 Y167.765 E4.93196
G1 X121.545 Y167.83 E4.93689
G1 X105.92 Y176.851 E5.81767
G1 X105.722 Y176.886 E5.82746
G1 X105.613 Y176.843 E5.83317
G1 X105.519 Y176.744 E5.83987
G1 X98.347 Y164.322 E6.54004
G1 X98.312 Y164.125 E6.54983
G1 X98.377 Y163.986 E6.55731
G1 X98.455 Y163.922 E6.56223
G1 X113.977 Y154.96 E7.43718
G1 X114.092 Y154.71 F18000
G1 E6.68718 F600
G92 E0
G1 X122.731 Y132.045 F18000
G1 E.75 F600
;TYPE:Solid infill
;WIDTH:0.631881
G1 F2700
G1 X123.658 Y132.971 E.81417
G1 X123.658 Y133.804 E.85496
G1 X122.162 Y132.309 E.95852
G1 X121.329 Y132.309 E.99931
G1 X123.658 Y134.637 E1.16055
G1 X123.658 Y135.47 E1.20134
G1 X120.497 Y132.309 E1.42027
G1 X119.664 Y132.309 E1.46106
G1 X123.658 Y136.303 E1.73768
G1 X123.658 Y137.136 E1.77847
G1 X118.831 Y132.309 E2.11277
G1 X117.998 Y132.309 E2.15356
G1 X123.658 Y137.969 E2.54555
G1 X123.658 Y138.802 E2.58634
G1 X117.165 Y132.309 E3.03601
G1 X116.332 Y132.309 E3.0768
G1 X123.658 Y139.635 E3.58416
G1 X123.658 Y140.468 E3.62495
G1 X115.499 Y132.309 E4.18999
G1 X114.666 Y132.309 E4.23078
G1 X123.658 Y141.301 E4.85351
G1 X123.658 Y142.133 E4.8943
G1 X113.833 Y132.309 E5.57472
G1 X113 Y132.309 E5.6155
G1 X123.658 Y142.966 E6.35361
G1 X123.658 Y143.799 E6.3944
G1 X112.167 Y132.309 E7.19018
G1 X111.334 Y132.309 E7.23097
G1 X123.658 Y144.632 E8.08444
G1 X123.658 Y145.465 E8.12523
G1 X118.254 Y140.061 E8.49949
G1 X117.798 Y139.193 E8.54749
G1 X117.343 Y138.506 E8.58788
G1 X116.811 Y137.846 E8.62939
G1 X116.11 Y137.138 E8.67815
G1 X115.458 Y136.597 E8.71966
G1 X114.717 Y136.095 E8.76349
G1 X113.988 Y135.697 E8.80416
G1 X113.812 Y135.62 E8.81358
G1 X110.502 Y132.309 E9.04286
G1 X109.669 Y132.309 E9.08365
G1 X112.483 Y135.124 E9.2786
G1 X111.656 Y134.928 E9.32024
G1 X111.422 Y134.896 E9.3318
G1 X108.836 Y132.309 E9.51094
G1 X108.003 Y132.309 E9.55173
G1 X110.492 Y134.799 E9.72415
G1 X109.959 Y134.777 E9.75028
G1 X109.658 Y134.798 E9.76505
G1 X107.17 Y132.309 E9.9374
G1 X106.337 Y132.309 E9.97819
G1 X108.88 Y134.852 E10.15428
G1 X108.761 Y134.86 E10.16012
G1 X108.173 Y134.978 E10.18947
G1 X105.504 Y132.309 E10.37433
G1 X104.671 Y132.309 E10.41511
G1 X107.497 Y135.134 E10.6108
G1 X106.866 Y135.337 E10.64322
G1 X103.838 Y132.309 E10.85294
G1 X103.005 Y132.309 E10.89373
G1 X106.277 Y135.58 E11.1203
G1 X105.72 Y135.856 E11.15074
G1 X102.172 Y132.309 E11.39643
G1 X101.339 Y132.309 E11.43722
G1 X105.191 Y136.161 E11.704
G1 X104.69 Y136.492 E11.73345
G1 X100.507 Y132.309 E12.02317
G1 X99.674 Y132.309 E12.06396
G1 X104.229 Y136.865 E12.37946
G1 X103.777 Y137.245 E12.40841
G1 X98.841 Y132.309 E12.75029
