; generated by PrusaSlicer 2.5.0-alpha3+win64 on 2022-10-17 at 16:43:33 UTC


;
;
; 

; external perimeters extrusion width = 0.68mm
; perimeters extrusion width = 0.68mm
; infill extrusion width = 0.68mm
; solid infill extrusion width = 0.68mm
; top infill extrusion width = 0.60mm
; first layer extrusion width = 0.63mm

M73 P0 R84
M107
M190 S85 ; set bed temperature and wait for it to be reached
G10 S230 P1 ; set temperature
;TYPE:Custom
;Set standby temperatures
G10 R200 P0
G10 R215 P1
G28 ; home all axes
G32 ; run bed.g -- probe bed and enable compensation
;workaround for toolchanger when using only one extruder
T1; select tool
G10 S230 P1 ; set temperature
M116 ; wait for temperature to be reached
G21 ; set units to millimeters
G90 ; use absolute coordinates
M82 ; use absolute distances for extrusion
G92 E0
;tool change macro
T1
G92 E0
; Filament gcode
M107
;LAYER_CHANGE
;Z:0.2
;HEIGHT:0.2
G1 Z.2 F18000
G1 E-.75 F600
G92 E0
G1 X90.576 Y124.59 F18000
G1 E.75 F600
;TYPE:Skirt/Brim
;WIDTH:0.63
G1 F1500
G1 X92.816 Y123.519 E.87125
G1 X95 Y123.205 E.97893
G1 X125 Y123.205 E2.44341
G1 X127.452 Y123.603 E2.56465
G1 X129.652 Y124.754 E2.6859
G1 X131.377 Y126.542 E2.80715
G1 X132.448 Y128.783 E2.92839
G1 X132.761 Y130.967 E3.03608
G1 X132.761 Y179.292 E5.39511
G1 X132.364 Y181.743 E5.51635
G1 X131.212 Y183.944 E5.6376
G1 X129.424 Y185.668 E5.75884
G1 X127.184 Y186.739 E5.88009
G1 X125 Y187.053 E5.98778
G1 X95 Y187.053 E7.45225
G1 X92.548 Y186.655 E7.5735
G1 X90.348 Y185.504 E7.69474
G1 X88.623 Y183.716 E7.81599
G1 X87.552 Y181.475 E7.93724
G1 X87.239 Y179.292 E8.04492
G1 X87.239 Y130.967 E10.40395
G1 X87.636 Y128.515 E10.5252
G1 X88.788 Y126.314 E10.64644
G1 X90.511 Y124.652 E10.76329
G1 X90.927 Y125.113 F18000
G1 F1500
G1 X91.142 Y124.918 E10.77744
G1 X93.34 Y123.987 E10.89398
G1 X95 Y123.792 E10.97557
G1 X125 Y123.792 E12.44005
G1 X127.354 Y124.19 E12.55659
G1 X129.447 Y125.337 E12.67313
G1 X131.048 Y127.108 E12.78967
G1 X131.979 Y129.307 E12.90621
G1 X132.174 Y130.967 E12.9878
G1 X132.174 Y179.292 E15.34683
G1 X131.777 Y181.646 E15.46337
G1 X130.629 Y183.739 E15.57991
G1 X128.858 Y185.34 E15.69644
G1 X126.66 Y186.271 E15.81298
G1 X125 Y186.466 E15.89458
G1 X95 Y186.466 E17.35905
G1 X92.646 Y186.069 E17.47559
M73 P0 R83
G1 X90.553 Y184.921 E17.59213
G1 X88.952 Y183.15 E17.70867
G1 X88.021 Y180.952 E17.82521
G1 X87.826 Y179.292 E17.9068
G1 X87.826 Y130.967 E20.26583
G1 X88.223 Y128.613 E20.38237
G1 X89.371 Y126.519 E20.49891
G1 X90.86 Y125.173 E20.5969
G1 X91.254 Y125.642 F18000
G1 F1500
G1 X91.704 Y125.263 E20.62564
G1 X93.853 Y124.48 E20.73727
G1 X95 Y124.38 E20.79348
G1 X125 Y124.38 E22.25796
G1 X127.252 Y124.776 E22.36959
G1 X129.233 Y125.92 E22.48123
G1 X130.703 Y127.671 E22.59286
G1 X131.486 Y129.819 E22.7045
G1 X131.587 Y130.967 E22.76071
G1 X131.587 Y179.292 E25.11974
G1 X131.19 Y181.544 E25.23137
G1 X130.047 Y183.524 E25.34301
G1 X128.296 Y184.995 E25.45464
G1 X126.147 Y185.778 E25.56628
G1 X125 Y185.879 E25.62249
G1 X95 Y185.879 E27.08696
G1 X92.748 Y185.482 E27.1986
G1 X90.767 Y184.339 E27.31023
G1 X89.297 Y182.587 E27.42187
G1 X88.514 Y180.439 E27.5335
G1 X88.413 Y179.292 E27.58971
G1 X88.413 Y130.967 E29.94874
G1 X88.81 Y128.714 E30.06038
G1 X89.953 Y126.734 E30.17201
G1 X91.185 Y125.7 E30.25052
G1 E29.50052 F600
G92 E0
G1 X124.098 Y178.39 F18000
G1 E.75 F600
;TYPE:Perimeter
;WIDTH:0.629999
G1 F1200
G1 X106.489 Y178.39 E1.60959
;WIDTH:0.673126
G1 X106.368 Y178.368 E1.61602
;WIDTH:0.716252
G1 X106.247 Y178.346 E1.6229
;WIDTH:0.759379
G1 X106.126 Y178.325 E1.63021
;WIDTH:0.802505
G1 X106.006 Y178.303 E1.63797
G1 X105.54 Y178.303 E1.66736
G1 X105.401 Y178.325 E1.67627
;WIDTH:0.759379
G1 X105.262 Y178.346 E1.68467
;WIDTH:0.716252
G1 X105.122 Y178.368 E1.69256
;WIDTH:0.673126
G1 X104.983 Y178.39 E1.69995
;WIDTH:0.629999
G1 X95.902 Y178.39 E2.14323
G1 X95.902 Y131.869 E4.41419
G1 X124.098 Y131.869 E5.79059
G1 X124.098 Y135.967 E5.99068
G1 X124.098 Y178.3 E8.05715
G1 X124.685 Y178.977 F18000
;TYPE:External perimeter
G1 F750
G1 X95.315 Y178.977 E9.49087
G1 X95.315 Y131.282 E11.81914
G1 X124.685 Y131.282 E13.25286
G1 X124.685 Y178.887 E15.57674
G1 X124.119 Y178.777 F18000
G1 E14.82674 F600
G92 E0
G1 X118.57 Y142.7 F18000
G1 E.75 F600
;TYPE:Perimeter
G1 F1200
G1 X118.643 Y143.509 E.78963
G1 X118.631 Y144.37 E.83168
G1 X118.577 Y144.998 E.86244
G1 X118.421 Y145.84 E.90427
G1 X118.201 Y146.619 E.94377
G1 X117.805 Y147.597 E.99526
G1 X117.426 Y148.304 E1.03444
G1 X116.948 Y149.015 E1.07624
G1 X116.505 Y149.569 E1.11086
G1 X115.796 Y150.279 E1.15986
G1 X115.075 Y150.871 E1.2054
G1 X114.47 Y151.274 E1.24087
G1 X113.784 Y151.646 E1.27897
G1 X112.996 Y151.981 E1.32077
G1 X112.225 Y152.226 E1.36026
G1 X111.191 Y152.434 E1.41175
G1 X110.392 Y152.509 E1.45094
G1 X109.536 Y152.502 E1.49274
G1 X108.831 Y152.438 E1.52729
G1 X107.962 Y152.273 E1.57044
G1 X106.954 Y151.962 E1.62193
G1 X106.285 Y151.68 E1.65741
G1 X105.596 Y151.313 E1.6955
G1 X104.882 Y150.84 E1.73729
G1 X104.326 Y150.397 E1.77202
G1 X103.692 Y149.785 E1.81502
G1 X103.018 Y148.974 E1.86651
G1 X102.613 Y148.369 E1.90207
G1 X102.206 Y147.62 E1.94364
G1 X101.897 Y146.895 E1.98212
G1 X101.567 Y145.789 E2.03847
G1 X101.433 Y145.074 E2.07397
G1 X101.357 Y144.224 E2.11562
G1 X101.369 Y143.363 E2.15767
G1 X101.423 Y142.735 E2.18843
G1 X101.579 Y141.893 E2.23026
G1 X101.799 Y141.114 E2.26975
G1 X102.195 Y140.137 E2.32124
G1 X102.574 Y139.429 E2.36043
G1 X103.052 Y138.718 E2.40223
G1 X103.495 Y138.164 E2.43685
G1 X104.11 Y137.532 E2.47993
G1 X104.925 Y136.862 E2.53142
G1 X105.53 Y136.459 E2.56689
G1 X106.216 Y136.087 E2.60499
G1 X107.004 Y135.753 E2.64678
G1 X107.775 Y135.507 E2.68628
G1 X108.809 Y135.299 E2.73778
G1 X109.98 Y135.217 E2.79507
G1 X110.782 Y135.251 E2.83425
G1 X111.484 Y135.343 E2.86882
G1 X112.315 Y135.532 E2.91043
G1 X113.064 Y135.777 E2.94891
G1 X113.715 Y136.054 E2.98344
G1 X114.404 Y136.42 E3.02153
G1 X115.118 Y136.893 E3.06333
G1 X115.733 Y137.39 E3.10194
G1 X116.493 Y138.15 E3.15439
G1 X116.994 Y138.775 E3.19348
G1 X117.426 Y139.429 E3.23177
G1 X117.796 Y140.117 E3.26987
G1 X118.103 Y140.838 E3.30815
G1 X118.433 Y141.944 E3.3645
G1 X118.558 Y142.611 E3.39762
G1 X117.99 Y142.777 F18000
;TYPE:External perimeter
G1 F750
G1 X118.058 Y143.558 E3.43592
G1 X118.044 Y144.359 E3.47502
G1 X117.992 Y144.945 E3.50373
G1 X117.844 Y145.731 E3.54276
G1 X117.657 Y146.398 E3.57662
G1 X117.26 Y147.376 E3.62811
G1 X116.91 Y148.024 E3.66405
G1 X116.463 Y148.685 E3.70303
G1 X116.049 Y149.2 E3.73529
G1 X115.541 Y149.725 E3.77093
G1 X114.702 Y150.417 E3.82403
G1 X114.148 Y150.783 E3.85645
G1 X113.506 Y151.129 E3.89203
G1 X112.77 Y151.439 E3.93105
G1 X112.109 Y151.65 E3.96491
G1 X111.075 Y151.859 E4.0164
G1 X110.341 Y151.924 E4.05234
G1 X109.543 Y151.915 E4.09133
G1 X108.887 Y151.854 E4.12351
G1 X108.135 Y151.712 E4.16084
G1 X107.127 Y151.401 E4.21232
G1 X106.517 Y151.14 E4.24474
G1 X105.874 Y150.796 E4.28033
G1 X105.209 Y150.352 E4.31935
G1 X104.693 Y149.939 E4.35161
G1 X104.144 Y149.411 E4.38883
G1 X103.47 Y148.599 E4.44032
G1 X103.102 Y148.045 E4.47277
G1 X102.723 Y147.342 E4.51176
G1 X102.427 Y146.636 E4.54914
G1 X102.13 Y145.624 E4.60063
G1 X102.011 Y144.971 E4.63305
G1 X101.942 Y144.175 E4.67204
G1 X101.956 Y143.374 E4.71114
G1 X102.008 Y142.788 E4.73986
G1 X102.156 Y142.002 E4.77888
G1 X102.343 Y141.335 E4.81274
G1 X102.74 Y140.357 E4.86423
M73 P1 R83
G1 X103.09 Y139.709 E4.90018
G1 X103.537 Y139.048 E4.93916
G1 X103.951 Y138.533 E4.97142
G1 X104.483 Y137.986 E5.00867
G1 X105.298 Y137.316 E5.06015
G1 X105.852 Y136.95 E5.09257
G1 X106.494 Y136.604 E5.12816
G1 X107.23 Y136.294 E5.16717
G1 X107.891 Y136.083 E5.20103
G1 X108.925 Y135.874 E5.25252
G1 X110.017 Y135.803 E5.30594
G1 X110.752 Y135.837 E5.34188
G1 X111.405 Y135.925 E5.37401
G1 X112.183 Y136.104 E5.41299
G1 X112.879 Y136.334 E5.44876
G1 X113.483 Y136.593 E5.48087
G1 X114.126 Y136.937 E5.51646
G1 X114.791 Y137.381 E5.55549
G1 X115.362 Y137.845 E5.59141
G1 X116.075 Y138.563 E5.64082
G1 X116.534 Y139.139 E5.67676
G1 X116.935 Y139.751 E5.71245
G1 X117.277 Y140.392 E5.74796
G1 X117.573 Y141.097 E5.78527
G1 X117.87 Y142.109 E5.83676
G1 X117.975 Y142.688 E5.86548
G1 X118.546 Y143.002 F18000
G1 E5.11548 F600
G92 E0
G1 X113.841 Y154.366 F18000
G1 E.75 F600
;TYPE:Perimeter
G1 F1200
G1 X113.921 Y154.328 E.75433
G1 X114.313 Y154.278 E.77359
G1 X114.631 Y154.372 E.78981
G1 X114.861 Y154.543 E.80381
G1 X115.325 Y155.294 E.84687
G1 X122.161 Y167.135 E1.51434
G1 X122.274 Y167.476 E1.53186
G1 X122.238 Y167.842 E1.54979
G1 X122.071 Y168.144 E1.56665
G1 X121.839 Y168.338 E1.58143
G1 X106.213 Y177.36 E2.46221
;WIDTH:0.673126
G1 X106.145 Y177.407 E2.46657
;WIDTH:0.716252
G1 X106.077 Y177.455 E2.47122
;WIDTH:0.759379
G1 X106.008 Y177.502 E2.47618
;WIDTH:0.802505
G1 X105.94 Y177.549 E2.48143
G1 X105.606 Y177.549 E2.50253
G1 X105.528 Y177.496 E2.50849
;WIDTH:0.759379
G1 X105.45 Y177.443 E2.51412
;WIDTH:0.716252
G1 X105.372 Y177.389 E2.5194
;WIDTH:0.673126
G1 X105.294 Y177.336 E2.52435
;WIDTH:0.629999
G1 X105.01 Y177.037 E2.54447
G1 X97.839 Y164.616 E3.24463
G1 X97.726 Y164.275 E3.26215
G1 X97.762 Y163.91 E3.28008
G1 X97.929 Y163.607 E3.29694
G1 X98.161 Y163.413 E3.31172
G1 X113.761 Y154.407 E4.19103
G1 X114.055 Y154.914 F18000
;TYPE:External perimeter
G1 F750
G1 X114.256 Y154.862 E4.20113
G1 X114.438 Y154.951 E4.21104
G1 X121.653 Y167.429 E4.91466
G1 X121.688 Y167.626 E4.92445
G1 X121.623 Y167.765 E4.93193
G1 X121.545 Y167.83 E4.93685
G1 X105.92 Y176.851 E5.81763
G1 X105.722 Y176.886 E5.82742
G1 X105.613 Y176.843 E5.83313
G1 X105.519 Y176.744 E5.83984
G1 X98.347 Y164.322 E6.54
G1 X98.312 Y164.125 E6.54979
G1 X98.377 Y163.986 E6.55727
G1 X98.455 Y163.922 E6.5622
G1 X113.978 Y154.959 E7.43718
G1 X114.092 Y154.711 F18000
G1 E6.68718 F600
G92 E0
G1 X122.731 Y132.045 F18000
G1 E.75 F600
;TYPE:Solid infill
;WIDTH:0.631881
G1 F2250
G1 X123.658 Y132.971 E.81417
G1 X123.658 Y133.804 E.85496
G1 X122.162 Y132.309 E.95852
G1 X121.329 Y132.309 E.99931
G1 X123.658 Y134.637 E1.16055
G1 X123.658 Y135.47 E1.20134
G1 X120.497 Y132.309 E1.42027
G1 X119.664 Y132.309 E1.46106
G1 X123.658 Y136.303 E1.73768
G1 X123.658 Y137.136 E1.77847
G1 X118.831 Y132.309 E2.11277
G1 X117.998 Y132.309 E2.15356
G1 X123.658 Y137.969 E2.54555
G1 X123.658 Y138.802 E2.58634
G1 X117.165 Y132.309 E3.03601
G1 X116.332 Y132.309 E3.0768
G1 X123.658 Y139.635 E3.58416
G1 X123.658 Y140.468 E3.62495
G1 X115.499 Y132.309 E4.18999
G1 X114.666 Y132.309 E4.23078
G1 X123.658 Y141.301 E4.85351
G1 X123.658 Y142.133 E4.8943
G1 X113.833 Y132.309 E5.57472
G1 X113 Y132.309 E5.6155
G1 X123.658 Y142.966 E6.35361
G1 X123.658 Y143.799 E6.3944
G1 X112.167 Y132.309 E7.19018
G1 X111.334 Y132.309 E7.23097
G1 X123.658 Y144.632 E8.08444
G1 X123.658 Y145.465 E8.12523
G1 X118.254 Y140.061 E8.49949
G1 X117.798 Y139.193 E8.54749
G1 X117.343 Y138.506 E8.58788
G1 X116.811 Y137.846 E8.62939
G1 X116.11 Y137.138 E8.67815
G1 X115.458 Y136.597 E8.71966
G1 X114.717 Y136.095 E8.76349
G1 X113.988 Y135.697 E8.80416
G1 X113.812 Y135.62 E8.81358
G1 X110.502 Y132.309 E9.04286
G1 X109.669 Y132.309 E9.08365
G1 X112.483 Y135.124 E9.2786
G1 X111.656 Y134.928 E9.32024
G1 X111.422 Y134.896 E9.3318
G1 X108.836 Y132.309 E9.51094
G1 X108.003 Y132.309 E9.55173
G1 X110.492 Y134.799 E9.72415
G1 X109.959 Y134.777 E9.75028
G1 X109.658 Y134.798 E9.76505
G1 X107.17 Y132.309 E9.9374
G1 X106.337 Y132.309 E9.97819
G1 X108.88 Y134.852 E10.15428
G1 X108.761 Y134.86 E10.16012
G1 X108.173 Y134.978 E10.18947
G1 X105.504 Y132.309 E10.37433
G1 X104.671 Y132.309 E10.41511
G1 X107.497 Y135.134 E10.6108
G1 X106.866 Y135.337 E10.64322
G1 X103.838 Y132.309 E10.85294
G1 X103.005 Y132.309 E10.89373
G1 X106.277 Y135.58 E11.1203
G1 X105.72 Y135.856 E11.15074
G1 X102.172 Y132.309 E11.39643
G1 X101.339 Y132.309 E11.43722
G1 X105.191 Y136.161 E11.704
G1 X104.69 Y136.492 E11.73345
G1 X100.507 Y132.309 E12.02317
G1 X99.674 Y132.309 E12.06396
G1 X104.229 Y136.865 E12.37946
G1 X103.777 Y137.245 E12.40841
G1 X98.841 Y132.309 E12.75029
G1 X98.008 Y132.309 E12.79108
G1 X103.363 Y137.664 E13.16198
G1 X103.227 Y137.802 E13.17147
G1 X102.977 Y138.111 E13.19093
G1 X97.175 Y132.309 E13.59279
G1 X96.342 Y132.309 E13.63356
G1 X102.614 Y138.581 E14.06791
G1 X102.28 Y139.079 E14.09731
G1 X96.342 Y133.142 E14.5085
G1 X96.342 Y133.975 E14.54929
G1 X101.978 Y139.611 E14.93961
G1 X101.79 Y139.964 E14.9592
G1 X101.706 Y140.172 E14.97018
G1 X96.342 Y134.808 E15.34165
G1 X96.342 Y135.641 E15.38244
G1 X101.466 Y140.765 E15.73729
G1 X101.388 Y140.956 E15.74739
G1 X101.261 Y141.393 E15.76969
G1 X96.342 Y136.474 E16.11037
G1 X96.342 Y137.307 E16.15116
G1 X101.101 Y142.065 E16.48069
G1 X101.001 Y142.574 E16.50607
G1 X100.981 Y142.779 E16.51615
G1 X96.342 Y138.14 E16.83742
G1 X96.342 Y138.973 E16.87821
G1 X100.927 Y143.557 E17.19571
G1 X100.914 Y144.155 E17.22498
G1 X100.935 Y144.398 E17.23693
G1 X96.342 Y139.806 E17.55497
G1 X96.342 Y140.639 E17.59576
G1 X101.033 Y145.33 E17.92065
G1 X101.142 Y145.906 E17.94936
G1 X101.294 Y146.423 E17.97574
G1 X96.078 Y141.207 E18.33695
G1 E17.58695 F600
G92 E0
G1 X118.332 Y140.973 F18000
G1 E.75 F600
G1 F2250
G1 X123.658 Y146.298 E1.11883
G1 X123.658 Y147.131 E1.15962
G1 X118.97 Y142.443 E1.4843
G1 X119.016 Y142.696 E1.49691
G1 X119.07 Y143.376 E1.53031
G1 X123.658 Y147.964 E1.84804
G1 X123.658 Y148.797 E1.88883
G1 X119.075 Y144.214 E2.20624
G1 X119.016 Y144.988 E2.24428
G1 X123.658 Y149.63 E2.56574
G1 X123.658 Y150.463 E2.60653
G1 X118.894 Y145.698 E2.93648
G1 X118.829 Y146.027 E2.95289
G1 X118.73 Y146.368 E2.97028
G1 X123.658 Y151.296 E3.31152
G1 X123.658 Y152.128 E3.35231
G1 X118.524 Y146.994 E3.70788
G1 X118.283 Y147.587 E3.7392
M73 P1 R82
G1 X123.658 Y152.961 E4.11141
G1 X123.658 Y153.794 E4.1522
G1 X118.009 Y148.146 E4.54339
G1 X117.81 Y148.52 E4.56416
G1 X117.706 Y148.675 E4.57331
G1 X123.658 Y154.627 E4.98551
G1 X123.658 Y155.46 E5.0263
G1 X117.372 Y149.174 E5.46164
G1 X117.006 Y149.642 E5.4907
G1 X123.658 Y156.293 E5.95134
G1 X123.658 Y157.126 E5.99213
G1 X116.619 Y150.087 E6.47963
G1 X116.205 Y150.506 E6.50847
G1 X123.658 Y157.959 E7.02462
G1 X123.658 Y158.792 E7.06541
G1 X115.75 Y150.885 E7.61304
G1 X115.292 Y151.259 E7.64203
G1 X123.658 Y159.625 E8.22143
G1 X123.658 Y160.458 E8.26222
G1 X114.787 Y151.587 E8.87655
G1 X114.256 Y151.889 E8.90646
G1 X123.658 Y161.291 E9.55756
G1 X123.658 Y162.123 E9.59835
G1 X113.698 Y152.163 E10.28816
G1 X113.108 Y152.407 E10.3194
G1 X123.658 Y162.956 E11.05004
G1 X123.658 Y163.789 E11.09083
G1 X116.749 Y156.881 E11.56929
G1 X117.887 Y158.851 E11.68073
G1 X123.658 Y164.622 E12.08039
G1 X123.658 Y165.455 E12.12118
G1 X119.025 Y160.822 E12.44204
G1 X120.163 Y162.793 E12.55348
G1 X123.658 Y166.288 E12.79555
G1 X123.658 Y167.121 E12.83634
G1 X121.3 Y164.764 E12.9996
G1 X122.438 Y166.734 E13.11104
G1 X123.658 Y167.954 E13.1955
G1 X123.658 Y168.787 E13.23629
G1 X122.695 Y167.824 E13.30296
G1 X122.656 Y167.984 E13.31104
G1 X122.43 Y168.392 E13.33387
G1 X123.658 Y169.62 E13.41886
G1 X123.658 Y170.453 E13.45965
G1 X121.974 Y168.769 E13.57627
G1 X121.446 Y169.074 E13.60613
G1 X123.658 Y171.286 E13.75932
G1 X123.658 Y172.118 E13.80011
G1 X120.918 Y169.378 E13.98987
G1 X120.39 Y169.683 E14.01973
G1 X123.658 Y172.951 E14.24606
G1 X123.658 Y173.784 E14.28685
G1 X119.862 Y169.988 E14.54976
G1 X119.334 Y170.293 E14.57962
G1 X123.658 Y174.617 E14.87909
G1 X123.658 Y175.45 E14.91988
G1 X118.805 Y170.598 E15.25592
G1 X118.277 Y170.903 E15.28578
G1 X123.658 Y176.283 E15.6584
G1 X123.658 Y177.116 E15.69919
G1 X117.749 Y171.208 E16.10838
G1 X117.221 Y171.513 E16.13824
G1 X123.658 Y177.949 E16.58401
G1 X122.825 Y177.949 E16.62478
G1 X116.693 Y171.817 E17.04945
G1 X116.165 Y172.122 E17.07931
G1 X121.992 Y177.949 E17.48287
G1 X121.159 Y177.949 E17.52366
G1 X115.637 Y172.427 E17.9061
G1 X115.109 Y172.732 E17.93596
G1 X120.326 Y177.949 E18.29729
G1 X119.493 Y177.949 E18.33808
G1 X114.581 Y173.037 E18.67829
G1 X114.053 Y173.342 E18.70815
G1 X118.661 Y177.949 E19.02725
G1 X117.828 Y177.949 E19.06804
G1 X113.525 Y173.647 E19.36602
G1 X112.997 Y173.952 E19.39588
G1 X116.995 Y177.949 E19.67275
