; G-Code generated by Simplify3D(R) Version 4.1.2
; Jul 11, 2022 at 12:38:36 AM
; Settings Summary
;   processName,Process1
;   applyToModels,z-axis-leadscrew-bearing
;   profileName,HSBot (modified)
;   profileVersion,2019-11-09 11:59:44
;   baseProfile,Default
;   printMaterial,PETG - Eryone
;   printQuality,Medium
;   printExtruders,
;   extruderName,Extruder - v6,Extruder - lgx ace
;   extruderToolheadNumber,0,1
;   extruderDiameter,0.4,0.4
;   extruderAutoWidth,1,1
;   extruderWidth,0.48,0.48
;   extrusionMultiplier,1.03,1.03
;   extruderUseRetract,0,1
;   extruderRetractionDistance,4,1
;   extruderExtraRestartDistance,0,0
;   extruderRetractionZLift,0,0
;   extruderRetractionSpeed,3600,3600
;   extruderUseCoasting,0,0
;   extruderCoastingDistance,0.2,0.2
;   extruderUseWipe,0,1
;   extruderWipeDistance,1,1
;   primaryExtruder,1
;   layerHeight,0.2
;   topSolidLayers,4
;   bottomSolidLayers,4
;   perimeterOutlines,3
;   printPerimetersInsideOut,1
;   startPointOption,2
;   startPointOriginX,0
;   startPointOriginY,0
;   sequentialIslands,0
;   spiralVaseMode,0
;   firstLayerHeightPercentage,100
;   firstLayerWidthPercentage,150
;   firstLayerUnderspeed,0.25
;   useRaft,0
;   raftExtruder,0
;   raftTopLayers,3
;   raftBaseLayers,2
;   raftOffset,3
;   raftSeparationDistance,0.18
;   raftTopInfill,100
;   aboveRaftSpeedMultiplier,0.3
;   useSkirt,1
;   skirtExtruder,1
;   skirtLayers,1
;   skirtOutlines,15
;   skirtOffset,0
;   usePrimePillar,0
;   primePillarExtruder,999
;   primePillarWidth,12
;   primePillarLocation,7
;   primePillarSpeedMultiplier,1
;   useOozeShield,0
;   oozeShieldExtruder,999
;   oozeShieldOffset,2
;   oozeShieldOutlines,1
;   oozeShieldSidewallShape,1
;   oozeShieldSidewallAngle,30
;   oozeShieldSpeedMultiplier,1
;   infillExtruder,1
;   internalInfillPattern,Rectilinear
;   externalInfillPattern,Rectilinear
;   infillPercentage,15
;   outlineOverlapPercentage,20
;   infillExtrusionWidthPercentage,100
;   minInfillLength,3
;   infillLayerInterval,1
;   internalInfillAngles,45,-45
;   overlapInternalInfillAngles,0
;   externalInfillAngles,45,-45
;   generateSupport,1
;   supportExtruder,1
;   supportInfillPercentage,30
;   supportExtraInflation,0
;   supportBaseLayers,1
;   denseSupportExtruder,0
;   denseSupportLayers,0
;   denseSupportInfillPercentage,70
;   supportLayerInterval,1
;   supportHorizontalPartOffset,0.3
;   supportUpperSeparationLayers,1
;   supportLowerSeparationLayers,1
;   supportType,0
;   supportGridSpacing,2
;   maxOverhangAngle,45
;   supportAngles,0
;   temperatureName,v6,Bed,lgx-ace
;   temperatureNumber,0,0,1
;   temperatureSetpointCount,1,1,1
;   temperatureSetpointLayers,1,1,1
;   temperatureSetpointTemperatures,0,85,240
;   temperatureStabilizeAtStartup,1,1,1
;   temperatureHeatedBed,0,1,0
;   fanLayers,1,2,3
;   fanSpeeds,0,15,15
;   blipFanToFullPower,0
;   adjustSpeedForCooling,0
;   minSpeedLayerTime,15
;   minCoolingSpeedSlowdown,50
;   increaseFanForCooling,0
;   minFanLayerTime,45
;   maxCoolingFanSpeed,70
;   increaseFanForBridging,0
;   bridgingFanSpeed,80
;   use5D,1
;   relativeEdistances,0
;   allowEaxisZeroing,1
;   independentExtruderAxes,0
;   includeM10123,0
;   stickySupport,1
;   applyToolheadOffsets,0
;   gcodeXoffset,0
;   gcodeYoffset,0
;   gcodeZoffset,0
;   overrideMachineDefinition,1
;   machineTypeOverride,0
;   strokeXoverride,220
;   strokeYoverride,220
;   strokeZoverride,175
;   originOffsetXoverride,0
;   originOffsetYoverride,0
;   originOffsetZoverride,0
;   homeXdirOverride,-1
;   homeYdirOverride,-1
;   homeZdirOverride,-1
;   flipXoverride,1
;   flipYoverride,-1
;   flipZoverride,1
;   toolheadOffsets,0,0|0,0|0,0|0,0|0,0|0,0
;   overrideFirmwareConfiguration,0
;   firmwareTypeOverride,RepRap (Marlin/Repetier/Sprinter)
;   GPXconfigOverride,r2
;   baudRateOverride,115200
;   overridePrinterModels,0
;   printerModelsOverride
;   startingGcode,G28 ; home all axes,G32 ; run bed.g -- probe bed and enable compensation
;   layerChangeGcode,
;   retractionGcode,
;   toolChangeGcode,
;   endingGcode,M0 ; call stop.g
;   exportFileFormat,gcode
;   celebration,0
;   celebrationSong,Random Song
;   postProcessing,|; 0.2mm layer, 8 bands 5mm each, total height 40mm|{REPLACE "; layer 25" "M572 D0 S0.69\n; layer 10"}|{REPLACE "; layer 50" "M572 D0 S0.70\n; layer 50"}|{REPLACE "; layer 75" "M572 D0 S0.71\n; layer 75"}|{REPLACE "; layer 100" "M572 D0 S0.72\n; layer 100"}|{REPLACE "; layer 125" "M572 D0 S0.73\n; layer 125"}|{REPLACE "; layer 150" "M572 D0 S0.74\n; layer 150"}|{REPLACE "; layer 175" "M572 D0 S0.75\n; layer 175"}|{REPLACE "; layer 200" "M572 D0 S0.76\n; layer 200"}
;   defaultSpeed,5400
;   outlineUnderspeed,0.8
;   solidInfillUnderspeed,0.75
;   supportUnderspeed,0.8
;   rapidXYspeed,18000
;   rapidZspeed,1200
;   minBridgingArea,60
;   bridgingExtraInflation,0
;   bridgingExtrusionMultiplier,0.96
;   bridgingSpeedMultiplier,1
;   useFixedBridgingAngle,0
;   fixedBridgingAngle,0
;   applyBridgingToPerimeters,0
;   filamentDiameters,1.75|1.75|1.75|1.75|1.75|1.75
;   filamentPricesPerKg,25|46|46|46|46|46
;   filamentDensities,1.29|1.25|1.25|1.25|1.25|1.25
;   useMinPrintHeight,0
;   minPrintHeight,0.3
;   useMaxPrintHeight,0
;   maxPrintHeight,110
;   useDiaphragm,0
;   diaphragmLayerInterval,20
;   robustSlicing,1
;   mergeAllIntoSolid,0
;   onlyRetractWhenCrossingOutline,1
;   retractBetweenLayers,0
;   useRetractionMinTravel,1
;   retractionMinTravel,5
;   retractWhileWiping,1
;   onlyWipeOutlines,1
;   avoidCrossingOutline,1
;   maxMovementDetourFactor,2
;   toolChangeRetractionDistance,12
;   toolChangeExtraRestartDistance,0
;   toolChangeRetractionSpeed,600
;   externalThinWallType,0
;   internalThinWallType,0
;   thinWallAllowedOverlapPercentage,10
;   singleExtrusionMinLength,0.1
;   singleExtrusionMinPrintingWidthPercentage,50
;   singleExtrusionMaxPrintingWidthPercentage,200
;   singleExtrusionEndpointExtension,0.2
;   horizontalSizeCompensation,-0.1
G90
M82
M106 S0
M140 S85
M190 S85
G10 S0 R{0-50} P0
G10 S240 R{240-50} P1
M116 P1
G28 ; home all axes
G32 ; run bed.g -- probe bed and enable compensation
; process Process1
; layer 1, Z = 0.200
T1
G92 E0.0000
G1 E-1.0000 F3600
; feature skirt
; tool H0.200 W0.720
G1 Z0.200 F1200
G1 X82.250 Y8.643 F18000
G1 E0.0000 F3600
G92 E0.0000
G1 X88.365 Y2.527 E0.5333 F1350
G1 X102.064 Y2.527 E1.3780
G1 X108.180 Y8.643 E1.9114
G1 X108.180 Y26.643 E3.0213
G1 X108.240 Y26.703 E3.0266
G1 X108.300 Y26.643 E3.0318
G1 X108.300 Y8.643 E4.1417
G1 X114.415 Y2.527 E4.6751
G1 X128.114 Y2.527 E5.5198
G1 X134.230 Y8.643 E6.0531
G1 X134.230 Y61.993 E9.3429
G1 X134.224 Y62.242 E9.3583
G1 X134.138 Y64.034 E9.4689
G1 X134.108 Y64.392 E9.4911
G1 X134.004 Y65.277 E9.5460
G1 X133.972 Y65.509 E9.5605
G1 X133.781 Y66.678 E9.6335
G1 X133.715 Y67.014 E9.6546
G1 X133.391 Y68.414 E9.7432
G1 X133.302 Y68.748 E9.7645
G1 X132.918 Y70.019 E9.8464
G1 X132.811 Y70.335 E9.8670
G1 X132.334 Y71.612 E9.9510
G1 X132.181 Y71.979 E9.9756
G1 X131.424 Y73.612 E10.0866
G1 X131.232 Y73.986 E10.1125
G1 X130.505 Y75.273 E10.2036
G1 X130.324 Y75.570 E10.2251
G1 X129.592 Y76.685 E10.3073
G1 X129.400 Y76.958 E10.3279
G1 X128.579 Y78.049 E10.4121
G1 X128.315 Y78.372 E10.4378
G1 X127.081 Y79.766 E10.5526
G1 X126.852 Y80.008 E10.5732
G1 X126.261 Y80.596 E10.6246
G1 X126.017 Y80.823 E10.6452
G1 X124.616 Y82.047 E10.7598
G1 X124.292 Y82.309 E10.7855
G1 X123.160 Y83.149 E10.8725
G1 X122.815 Y83.385 E10.8982
G1 X121.233 Y84.374 E11.0133
G1 X120.945 Y84.541 E11.0338
G1 X120.216 Y84.934 E11.0849
G1 X119.918 Y85.083 E11.1054
G1 X118.187 Y85.879 E11.2229
G1 X117.723 Y86.066 E11.2537
G1 X115.884 Y86.707 E11.3738
G1 X115.486 Y86.828 E11.3995
G1 X114.120 Y87.185 E11.4865
G1 X113.713 Y87.274 E11.5123
G1 X111.786 Y87.616 E11.6330
G1 X111.269 Y87.681 E11.6651
G1 X109.166 Y87.840 E11.7951
G1 X108.654 Y87.854 E11.8267
G1 X106.667 Y87.809 E11.9493
G1 X106.168 Y87.774 E11.9801
G1 X104.232 Y87.545 E12.1003
G1 X103.821 Y87.479 E12.1260
G1 X102.490 Y87.212 E12.2097
G1 X102.187 Y87.142 E12.2289
G1 X100.976 Y86.823 E12.3061
G1 X100.589 Y86.705 E12.3311
G1 X98.755 Y86.066 E12.4508
G1 X98.291 Y85.879 E12.4817
G1 X96.482 Y85.047 E12.6044
G1 X96.039 Y84.816 E12.6353
G1 X94.323 Y83.818 E12.7577
G1 X93.903 Y83.546 E12.7885
G1 X92.278 Y82.380 E12.9119
G1 X91.874 Y82.058 E12.9437
G1 X90.356 Y80.723 E13.0684
G1 X90.102 Y80.483 E13.0899
G1 X89.514 Y79.892 E13.1413
G1 X89.287 Y79.648 E13.1619
G1 X88.032 Y78.213 E13.2794
G1 X87.722 Y77.821 E13.3102
G1 X86.562 Y76.206 E13.4328
G1 X86.290 Y75.786 E13.4637
G1 X85.289 Y74.066 E13.5864
G1 X85.059 Y73.622 E13.6173
G1 X84.246 Y71.854 E13.7373
G1 X84.086 Y71.468 E13.7630
G1 X83.600 Y70.142 E13.8501
G1 X83.473 Y69.745 E13.8758
G1 X82.959 Y67.898 E13.9941
G1 X82.859 Y67.469 E14.0212
G1 X82.586 Y66.026 E14.1117
G1 X82.537 Y65.713 E14.1313
G1 X82.379 Y64.467 E14.2087
G1 X82.343 Y64.060 E14.2339
G1 X82.256 Y62.243 E14.3461
G1 X82.250 Y61.993 E14.3615
G1 X82.250 Y8.643 E17.6514
G1 X82.970 Y8.941 F18000
G92 E0.0000
G1 X88.664 Y3.247 E0.4965 F1350
G1 X101.766 Y3.247 E1.3045
G1 X107.460 Y8.941 E1.8010
G1 X107.460 Y26.941 E2.9110
G1 X108.240 Y27.721 E2.9790
G1 X109.020 Y26.941 E3.0470
G1 X109.020 Y8.941 E4.1570
G1 X114.714 Y3.247 E4.6535
G1 X127.816 Y3.247 E5.4615
G1 X133.510 Y8.941 E5.9580
G1 X133.510 Y61.984 E9.2289
G1 X133.504 Y62.216 E9.2432
G1 X133.419 Y63.987 E9.3525
G1 X133.392 Y64.321 E9.3732
G1 X133.290 Y65.185 E9.4268
G1 X133.260 Y65.401 E9.4403
G1 X133.073 Y66.550 E9.5121
G1 X133.011 Y66.864 E9.5318
G1 X132.692 Y68.240 E9.6189
G1 X132.609 Y68.551 E9.6387
G1 X132.232 Y69.800 E9.7192
G1 X132.133 Y70.094 E9.7383
G1 X131.664 Y71.347 E9.8208
G1 X131.522 Y71.689 E9.8437
G1 X130.777 Y73.296 E9.9529
G1 X130.598 Y73.645 E9.9770
G1 X129.884 Y74.908 E10.0665
G1 X129.716 Y75.185 E10.0865
G1 X128.996 Y76.280 E10.1673
G1 X128.818 Y76.534 E10.1865
G1 X128.012 Y77.605 E10.2691
G1 X127.766 Y77.906 E10.2930
G1 X126.549 Y79.280 E10.4062
G1 X126.337 Y79.505 E10.4254
G1 X125.762 Y80.077 E10.4754
G1 X125.534 Y80.289 E10.4945
G1 X124.153 Y81.496 E10.6076
G1 X123.851 Y81.739 E10.6315
G1 X122.742 Y82.563 E10.7167
G1 X122.421 Y82.782 E10.7407
G1 X120.861 Y83.757 E10.8541
G1 X120.593 Y83.913 E10.8733
G1 X119.884 Y84.295 E10.9229
G1 X119.607 Y84.434 E10.9420
G1 X117.902 Y85.218 E11.0578
G1 X117.470 Y85.392 E11.0864
G1 X115.661 Y86.022 E11.2046
G1 X115.290 Y86.135 E11.2285
G1 X113.952 Y86.484 E11.3138
G1 X113.573 Y86.567 E11.3377
G1 X111.678 Y86.903 E11.4564
G1 X111.196 Y86.964 E11.4863
G1 X109.130 Y87.121 E11.6141
G1 X108.653 Y87.133 E11.6435
G1 X106.700 Y87.090 E11.7640
G1 X106.235 Y87.057 E11.7927
G1 X104.331 Y86.831 E11.9109
G1 X103.948 Y86.770 E11.9349
G1 X102.643 Y86.509 E12.0170
G1 X102.360 Y86.443 E12.0349
G1 X101.173 Y86.130 E12.1105
G1 X100.813 Y86.020 E12.1338
G1 X99.008 Y85.391 E12.2516
G1 X98.576 Y85.217 E12.2804
G1 X96.799 Y84.400 E12.4010
G1 X96.386 Y84.185 E12.4297
G1 X94.700 Y83.204 E12.5500
G1 X94.309 Y82.951 E12.5787
G1 X92.712 Y81.805 E12.6999
G1 X92.336 Y81.505 E12.7295
G1 X90.841 Y80.190 E12.8523
G1 X90.604 Y79.967 E12.8724
G1 X90.033 Y79.392 E12.9224
G1 X89.821 Y79.165 E12.9415
G1 X88.586 Y77.752 E13.0573
G1 X88.296 Y77.387 E13.0860
G1 X87.157 Y75.800 E13.2064
G1 X86.904 Y75.409 E13.2352
G1 X85.920 Y73.719 E13.3558
G1 X85.706 Y73.305 E13.3845
G1 X84.906 Y71.566 E13.5026
G1 X84.758 Y71.207 E13.5265
G1 X84.281 Y69.908 E13.6118
G1 X84.163 Y69.538 E13.6358
G1 X83.657 Y67.719 E13.7522
G1 X83.564 Y67.320 E13.7775
G1 X83.296 Y65.903 E13.8664
G1 X83.249 Y65.612 E13.8846
G1 X83.095 Y64.390 E13.9605
G1 X83.061 Y64.012 E13.9839
G1 X82.975 Y62.217 E14.0947
G1 X82.970 Y61.984 E14.1091
G1 X82.970 Y8.941 E17.3800
G1 X83.690 Y9.239 F18000
G92 E0.0000
G1 X88.962 Y3.967 E0.4598 F1350
G1 X101.468 Y3.967 E1.2309
G1 X106.740 Y9.239 E1.6907
G1 X106.740 Y27.239 E2.8006
G1 X108.240 Y28.739 E2.9315
G1 X109.740 Y27.239 E3.0623
G1 X109.740 Y9.239 E4.1722
G1 X115.012 Y3.967 E4.6320
G1 X127.518 Y3.967 E5.4031
G1 X132.790 Y9.239 E5.8629
G1 X132.790 Y61.975 E9.1148
G1 X132.784 Y62.190 E9.1281
G1 X132.701 Y63.940 E9.2361
G1 X132.675 Y64.249 E9.2553
G1 X132.576 Y65.093 E9.3077
G1 X132.548 Y65.294 E9.3201
G1 X132.364 Y66.422 E9.3907
G1 X132.307 Y66.713 E9.4089
G1 X131.993 Y68.066 E9.4946
G1 X131.917 Y68.354 E9.5129
G1 X131.546 Y69.581 E9.5920
G1 X131.454 Y69.853 E9.6097
G1 X130.995 Y71.082 E9.6906
G1 X130.863 Y71.399 E9.7118
G1 X130.130 Y72.980 E9.8192
G1 X129.964 Y73.303 E9.8416
G1 X129.263 Y74.543 E9.9295
G1 X129.107 Y74.799 E9.9479
G1 X128.401 Y75.875 E10.0273
G1 X128.235 Y76.110 E10.0450
G1 X127.445 Y77.161 E10.1261
G1 X127.218 Y77.439 E10.1483
G1 X126.018 Y78.794 E10.2599
G1 X125.821 Y79.003 E10.2776
G1 X125.262 Y79.558 E10.3261
G1 X125.052 Y79.754 E10.3439
G1 X123.690 Y80.944 E10.4554
G1 X123.411 Y81.170 E10.4775
G1 X122.324 Y81.976 E10.5610
G1 X122.027 Y82.179 E10.5831
G1 X120.489 Y83.140 E10.6950
G1 X120.241 Y83.285 E10.7127
G1 X119.552 Y83.656 E10.7609
G1 X119.295 Y83.784 E10.7786
G1 X117.617 Y84.556 E10.8926
G1 X117.217 Y84.717 E10.9192
G1 X115.438 Y85.337 E11.0353
G1 X115.094 Y85.442 E11.0575
G1 X113.784 Y85.784 E11.1410
G1 X113.433 Y85.861 E11.1631
G1 X111.570 Y86.191 E11.2798
G1 X111.124 Y86.248 E11.3075
G1 X109.093 Y86.402 E11.4331
G1 X108.652 Y86.413 E11.4604
G1 X106.733 Y86.370 E11.5787
G1 X106.303 Y86.340 E11.6053
G1 X104.430 Y86.118 E11.7216
G1 X104.076 Y86.062 E11.7437
G1 X102.795 Y85.805 E11.8243
G1 X102.533 Y85.744 E11.8409
G1 X101.370 Y85.438 E11.9150
G1 X101.036 Y85.336 E11.9365
G1 X99.261 Y84.717 E12.0524
G1 X98.861 Y84.556 E12.0790
G1 X97.116 Y83.753 E12.1975
G1 X96.733 Y83.554 E12.2241
G1 X95.076 Y82.591 E12.3423
G1 X94.715 Y82.356 E12.3689
G1 X93.147 Y81.231 E12.4879
G1 X92.798 Y80.953 E12.5153
G1 X91.326 Y79.658 E12.6363
G1 X91.107 Y79.451 E12.6549
G1 X90.552 Y78.893 E12.7034
G1 X90.356 Y78.683 E12.7211
G1 X89.139 Y77.291 E12.8351
G1 X88.871 Y76.953 E12.8617
G1 X87.752 Y75.394 E12.9800
G1 X87.517 Y75.032 E13.0066
G1 X86.551 Y73.372 E13.1251
G1 X86.353 Y72.989 E13.1517
G1 X85.566 Y71.278 E13.2678
G1 X85.429 Y70.946 E13.2900
G1 X84.962 Y69.673 E13.3735
G1 X84.852 Y69.331 E13.3957
G1 X84.354 Y67.541 E13.5103
G1 X84.268 Y67.171 E13.5337
G1 X84.005 Y65.780 E13.6210
G1 X83.962 Y65.510 E13.6379
G1 X83.811 Y64.314 E13.7122
G1 X83.780 Y63.963 E13.7339
G1 X83.695 Y62.191 E13.8433
G1 X83.690 Y61.976 E13.8566
G1 X83.690 Y9.239 E17.1086
G1 X84.410 Y9.537 F18000
G92 E0.0000
G1 X89.260 Y4.687 E0.4230 F1350
G1 X101.169 Y4.687 E1.1574
G1 X106.020 Y9.537 E1.5803
G1 X106.020 Y27.537 E2.6903
G1 X108.240 Y29.757 E2.8839
G1 X110.460 Y27.537 E3.0775
G1 X110.460 Y9.537 E4.1875
G1 X115.310 Y4.687 E4.6104
G1 X127.219 Y4.687 E5.3448
G1 X132.070 Y9.537 E5.7678
G1 X132.070 Y61.966 E9.0008
G1 X132.065 Y62.164 E9.0130
G1 X131.982 Y63.893 E9.1198
G1 X131.958 Y64.178 E9.1373
G1 X131.862 Y65.001 E9.1885
G1 X131.836 Y65.186 E9.2000
G1 X131.655 Y66.295 E9.2692
G1 X131.603 Y66.562 E9.2860
G1 X131.295 Y67.892 E9.3702
G1 X131.224 Y68.157 E9.3871
G1 X130.860 Y69.362 E9.4647
G1 X130.775 Y69.612 E9.4811
G1 X130.325 Y70.818 E9.5604
G1 X130.203 Y71.109 E9.5799
G1 X129.483 Y72.665 E9.6856
G1 X129.330 Y72.961 E9.7062
G1 X128.643 Y74.179 E9.7924
G1 X128.499 Y74.414 E9.8094
G1 X127.805 Y75.470 E9.8873
G1 X127.653 Y75.686 E9.9036
G1 X126.878 Y76.716 E9.9831
G1 X126.669 Y76.972 E10.0035
G1 X125.486 Y78.308 E10.1135
G1 X125.305 Y78.500 E10.1298
G1 X124.763 Y79.039 E10.1769
G1 X124.570 Y79.219 E10.1932
G1 X123.227 Y80.393 E10.3032
G1 X122.970 Y80.600 E10.3235
G1 X121.907 Y81.390 E10.4052
G1 X121.633 Y81.576 E10.4256
G1 X120.117 Y82.524 E10.5358
G1 X119.889 Y82.657 E10.5521
G1 X119.221 Y83.017 E10.5990
G1 X118.984 Y83.135 E10.6152
G1 X117.332 Y83.895 E10.7274
G1 X116.964 Y84.043 E10.7519
G1 X115.215 Y84.653 E10.8661
G1 X114.898 Y84.749 E10.8865
G1 X113.616 Y85.084 E10.9682
G1 X113.293 Y85.154 E10.9886
G1 X111.462 Y85.479 E11.1033
G1 X111.052 Y85.531 E11.1288
G1 X109.056 Y85.682 E11.2522
G1 X108.650 Y85.693 E11.2772
G1 X106.766 Y85.651 E11.3934
G1 X106.370 Y85.623 E11.4179
G1 X104.529 Y85.405 E11.5322
G1 X104.203 Y85.353 E11.5526
G1 X102.947 Y85.101 E11.6316
