; G-Code generated by Simplify3D(R) Version 4.1.2
; Jul 12, 2022 at 10:19:39 PM
; Settings Summary
;   processName,Process1
;   applyToModels,z-axes-leadscrew-mount-back
;   profileName,HSBot (modified)
;   profileVersion,2019-11-09 11:59:44
;   baseProfile,Default
;   printMaterial,PETG - Eryone
;   printQuality,Medium
;   printExtruders,
;   extruderName,Extruder - v6,Extruder - lgx ace
;   extruderToolheadNumber,0,1
;   extruderDiameter,0.4,0.4
;   extruderAutoWidth,1,1
;   extruderWidth,0.48,0.48
;   extrusionMultiplier,1.03,1.03
;   extruderUseRetract,0,1
;   extruderRetractionDistance,4,1
;   extruderExtraRestartDistance,0,0
;   extruderRetractionZLift,0,0
;   extruderRetractionSpeed,3600,3600
;   extruderUseCoasting,0,0
;   extruderCoastingDistance,0.2,0.2
;   extruderUseWipe,0,1
;   extruderWipeDistance,1,1
;   primaryExtruder,1
;   layerHeight,0.2
;   topSolidLayers,4
;   bottomSolidLayers,4
;   perimeterOutlines,4
;   printPerimetersInsideOut,1
;   startPointOption,2
;   startPointOriginX,0
;   startPointOriginY,0
;   sequentialIslands,0
;   spiralVaseMode,0
;   firstLayerHeightPercentage,100
;   firstLayerWidthPercentage,150
;   firstLayerUnderspeed,0.25
;   useRaft,0
;   raftExtruder,0
;   raftTopLayers,3
;   raftBaseLayers,2
;   raftOffset,3
;   raftSeparationDistance,0.18
;   raftTopInfill,100
;   aboveRaftSpeedMultiplier,0.3
;   useSkirt,1
;   skirtExtruder,1
;   skirtLayers,1
;   skirtOutlines,15
;   skirtOffset,0
;   usePrimePillar,0
;   primePillarExtruder,999
;   primePillarWidth,12
;   primePillarLocation,7
;   primePillarSpeedMultiplier,1
;   useOozeShield,0
;   oozeShieldExtruder,999
;   oozeShieldOffset,2
;   oozeShieldOutlines,1
;   oozeShieldSidewallShape,1
;   oozeShieldSidewallAngle,30
;   oozeShieldSpeedMultiplier,1
;   infillExtruder,1
;   internalInfillPattern,Rectilinear
;   externalInfillPattern,Rectilinear
;   infillPercentage,15
;   outlineOverlapPercentage,20
;   infillExtrusionWidthPercentage,100
;   minInfillLength,3
;   infillLayerInterval,1
;   internalInfillAngles,45,-45
;   overlapInternalInfillAngles,0
;   externalInfillAngles,45,-45
;   generateSupport,1
;   supportExtruder,1
;   supportInfillPercentage,30
;   supportExtraInflation,0
;   supportBaseLayers,1
;   denseSupportExtruder,0
;   denseSupportLayers,0
;   denseSupportInfillPercentage,70
;   supportLayerInterval,1
;   supportHorizontalPartOffset,0.3
;   supportUpperSeparationLayers,1
;   supportLowerSeparationLayers,1
;   supportType,0
;   supportGridSpacing,2
;   maxOverhangAngle,45
;   supportAngles,0
;   temperatureName,v6,Bed,lgx-ace
;   temperatureNumber,0,0,1
;   temperatureSetpointCount,1,1,1
;   temperatureSetpointLayers,1,1,1
;   temperatureSetpointTemperatures,0,85,240
;   temperatureStabilizeAtStartup,1,1,1
;   temperatureHeatedBed,0,1,0
;   fanLayers,1,2,3
;   fanSpeeds,0,15,15
;   blipFanToFullPower,0
;   adjustSpeedForCooling,0
;   minSpeedLayerTime,15
;   minCoolingSpeedSlowdown,50
;   increaseFanForCooling,0
;   minFanLayerTime,45
;   maxCoolingFanSpeed,70
;   increaseFanForBridging,0
;   bridgingFanSpeed,80
;   use5D,1
;   relativeEdistances,0
;   allowEaxisZeroing,1
;   independentExtruderAxes,0
;   includeM10123,0
;   stickySupport,1
;   applyToolheadOffsets,0
;   gcodeXoffset,0
;   gcodeYoffset,0
;   gcodeZoffset,0
;   overrideMachineDefinition,1
;   machineTypeOverride,0
;   strokeXoverride,220
;   strokeYoverride,220
;   strokeZoverride,175
;   originOffsetXoverride,0
;   originOffsetYoverride,0
;   originOffsetZoverride,0
;   homeXdirOverride,-1
;   homeYdirOverride,-1
;   homeZdirOverride,-1
;   flipXoverride,1
;   flipYoverride,-1
;   flipZoverride,1
;   toolheadOffsets,0,0|0,0|0,0|0,0|0,0|0,0
;   overrideFirmwareConfiguration,0
;   firmwareTypeOverride,RepRap (Marlin/Repetier/Sprinter)
;   GPXconfigOverride,r2
;   baudRateOverride,115200
;   overridePrinterModels,0
;   printerModelsOverride
;   startingGcode,G28 ; home all axes,G32 ; run bed.g -- probe bed and enable compensation
;   layerChangeGcode,
;   retractionGcode,
;   toolChangeGcode,
;   endingGcode,M0 ; call stop.g
;   exportFileFormat,gcode
;   celebration,0
;   celebrationSong,Random Song
;   postProcessing,|; 0.2mm layer, 8 bands 5mm each, total height 40mm|{REPLACE "; layer 25" "M572 D0 S0.69\n; layer 10"}|{REPLACE "; layer 50" "M572 D0 S0.70\n; layer 50"}|{REPLACE "; layer 75" "M572 D0 S0.71\n; layer 75"}|{REPLACE "; layer 100" "M572 D0 S0.72\n; layer 100"}|{REPLACE "; layer 125" "M572 D0 S0.73\n; layer 125"}|{REPLACE "; layer 150" "M572 D0 S0.74\n; layer 150"}|{REPLACE "; layer 175" "M572 D0 S0.75\n; layer 175"}|{REPLACE "; layer 200" "M572 D0 S0.76\n; layer 200"}
;   defaultSpeed,5400
;   outlineUnderspeed,0.8
;   solidInfillUnderspeed,0.75
;   supportUnderspeed,0.8
;   rapidXYspeed,18000
;   rapidZspeed,1200
;   minBridgingArea,60
;   bridgingExtraInflation,0
;   bridgingExtrusionMultiplier,0.96
;   bridgingSpeedMultiplier,1
;   useFixedBridgingAngle,0
;   fixedBridgingAngle,0
;   applyBridgingToPerimeters,0
;   filamentDiameters,1.75|1.75|1.75|1.75|1.75|1.75
;   filamentPricesPerKg,25|46|46|46|46|46
;   filamentDensities,1.29|1.25|1.25|1.25|1.25|1.25
;   useMinPrintHeight,0
;   minPrintHeight,0.3
;   useMaxPrintHeight,0
;   maxPrintHeight,110
;   useDiaphragm,0
;   diaphragmLayerInterval,20
;   robustSlicing,1
;   mergeAllIntoSolid,0
;   onlyRetractWhenCrossingOutline,1
;   retractBetweenLayers,0
;   useRetractionMinTravel,1
;   retractionMinTravel,5
;   retractWhileWiping,1
;   onlyWipeOutlines,1
;   avoidCrossingOutline,1
;   maxMovementDetourFactor,2
;   toolChangeRetractionDistance,12
;   toolChangeExtraRestartDistance,0
;   toolChangeRetractionSpeed,600
;   externalThinWallType,0
;   internalThinWallType,0
;   thinWallAllowedOverlapPercentage,10
;   singleExtrusionMinLength,0.1
;   singleExtrusionMinPrintingWidthPercentage,50
;   singleExtrusionMaxPrintingWidthPercentage,200
;   singleExtrusionEndpointExtension,0.2
;   horizontalSizeCompensation,-0.1
G90
M82
M106 S0
M140 S85
M190 S85
G10 S0 R{0-50} P0
G10 S240 R{240-50} P1
M116 P1
G28 ; home all axes
G32 ; run bed.g -- probe bed and enable compensation
; process Process1
; layer 1, Z = 0.200
T1
G92 E0.0000
G1 E-1.0000 F3600
; feature skirt
; tool H0.200 W0.720
G1 Z0.200 F1200
G1 X83.256 Y7.146 F18000
G1 E0.0000 F3600
G92 E0.0000
G1 X89.372 Y1.031 E0.5333 F1350
G1 X128.020 Y1.031 E2.9166
G1 X134.136 Y7.146 E3.4499
G1 X134.136 Y66.204 E7.0916
G1 X128.020 Y72.320 E7.6250
G1 X89.372 Y72.320 E10.0082
G1 X83.256 Y66.204 E10.5415
G1 X83.256 Y7.146 E14.1833
G1 X83.976 Y7.444 F18000
G92 E0.0000
G1 X89.670 Y1.751 E0.4965 F1350
G1 X127.722 Y1.751 E2.8430
G1 X133.416 Y7.445 E3.3395
G1 X133.416 Y65.906 E6.9445
G1 X127.722 Y71.600 E7.4411
G1 X89.670 Y71.600 E9.7875
G1 X83.976 Y65.906 E10.2841
G1 X83.976 Y7.444 E13.8890
G1 X84.696 Y7.743 F18000
G92 E0.0000
G1 X89.968 Y2.471 E0.4598 F1350
G1 X127.424 Y2.471 E2.7694
G1 X132.696 Y7.743 E3.2292
G1 X132.696 Y65.608 E6.7974
G1 X127.424 Y70.880 E7.2572
G1 X89.968 Y70.880 E9.5668
G1 X84.696 Y65.608 E10.0266
G1 X84.696 Y7.743 E13.5948
G1 X85.416 Y8.041 F18000
G92 E0.0000
G1 X90.266 Y3.191 E0.4230 F1350
G1 X127.126 Y3.191 E2.6959
G1 X131.976 Y8.041 E3.1189
G1 X131.976 Y65.309 E6.6503
G1 X127.126 Y70.160 E7.0733
G1 X90.266 Y70.160 E9.3462
G1 X85.416 Y65.309 E9.7691
G1 X85.416 Y8.041 E13.3006
G1 X86.136 Y8.339 F18000
G92 E0.0000
G1 X90.565 Y3.911 E0.3862 F1350
G1 X126.827 Y3.911 E2.6223
G1 X131.256 Y8.339 E3.0085
G1 X131.256 Y65.011 E6.5032
G1 X126.827 Y69.440 E6.8894
G1 X90.565 Y69.440 E9.1255
G1 X86.136 Y65.011 E9.5117
G1 X86.136 Y8.339 E13.0063
G1 X86.856 Y8.637 F18000
G92 E0.0000
G1 X90.863 Y4.631 E0.3494 F1350
G1 X126.529 Y4.631 E2.5488
G1 X130.536 Y8.637 E2.8982
G1 X130.536 Y64.713 E6.3560
G1 X126.529 Y68.720 E6.7055
G1 X90.863 Y68.720 E8.9048
G1 X86.856 Y64.713 E9.2542
G1 X86.856 Y8.637 E12.7121
G1 X87.576 Y8.936 F18000
G92 E0.0000
G1 X91.161 Y5.351 E0.3126 F1350
G1 X126.231 Y5.351 E2.4752
G1 X129.816 Y8.936 E2.7878
G1 X129.816 Y64.415 E6.2089
G1 X126.231 Y68.000 E6.5215
G1 X91.161 Y68.000 E8.6841
G1 X87.576 Y64.415 E8.9967
G1 X87.576 Y8.936 E12.4178
G1 X88.296 Y9.234 F18000
G92 E0.0000
G1 X91.459 Y6.071 E0.2759 F1350
G1 X125.933 Y6.071 E2.4016
G1 X129.096 Y9.234 E2.6775
G1 X129.096 Y64.116 E6.0618
G1 X125.933 Y67.280 E6.3376
G1 X91.459 Y67.280 E8.4634
G1 X88.296 Y64.116 E8.7393
G1 X88.296 Y9.234 E12.1236
G1 X89.016 Y9.532 F18000
G92 E0.0000
G1 X91.757 Y6.791 E0.2391 F1350
G1 X125.634 Y6.791 E2.3281
G1 X128.376 Y9.532 E2.5672
G1 X128.376 Y63.818 E5.9147
G1 X125.634 Y66.560 E6.1537
G1 X91.757 Y66.560 E8.2427
G1 X89.016 Y63.818 E8.4818
G1 X89.016 Y9.532 E11.8293
G1 X89.736 Y9.830 F18000
G92 E0.0000
G1 X92.056 Y7.511 E0.2023 F1350
G1 X125.336 Y7.511 E2.2545
G1 X127.656 Y9.830 E2.4568
G1 X127.656 Y63.520 E5.7675
G1 X125.336 Y65.840 E5.9698
G1 X92.056 Y65.840 E8.0221
G1 X89.736 Y63.520 E8.2243
G1 X89.736 Y9.830 E11.5351
G1 X90.456 Y10.129 F18000
G92 E0.0000
G1 X92.354 Y8.231 E0.1655 F1350
G1 X125.038 Y8.231 E2.1810
G1 X126.936 Y10.129 E2.3465
G1 X126.936 Y63.222 E5.6204
G1 X125.038 Y65.120 E5.7859
G1 X92.354 Y65.120 E7.8014
G1 X90.456 Y63.222 E7.9669
G1 X90.456 Y10.129 E11.2408
G1 X91.176 Y10.427 F18000
G92 E0.0000
G1 X92.652 Y8.951 E0.1287 F1350
G1 X124.740 Y8.951 E2.1074
G1 X126.216 Y10.427 E2.2361
G1 X126.216 Y62.923 E5.4733
G1 X124.740 Y64.400 E5.6020
G1 X92.652 Y64.400 E7.5807
G1 X91.176 Y62.923 E7.7094
G1 X91.176 Y10.427 E10.9466
G1 X91.896 Y10.725 F18000
G92 E0.0000
G1 X92.950 Y9.671 E0.0920 F1350
G1 X124.442 Y9.671 E2.0338
G1 X125.496 Y10.725 E2.1258
G1 X125.496 Y62.625 E5.3262
G1 X124.442 Y63.680 E5.4181
G1 X92.950 Y63.680 E7.3600
G1 X91.896 Y62.625 E7.4520
G1 X91.896 Y10.725 E10.6523
G1 X92.616 Y11.023 F18000
G92 E0.0000
G1 X93.249 Y10.391 E0.0552 F1350
G1 X124.143 Y10.391 E1.9603
G1 X124.776 Y11.023 E2.0154
G1 X124.776 Y62.327 E5.1790
G1 X124.143 Y62.960 E5.2342
G1 X93.249 Y62.960 E7.1393
G1 X92.616 Y62.327 E7.1945
G1 X92.616 Y11.023 E10.3581
G1 X93.336 Y11.322 F18000
G92 E0.0000
G1 X93.547 Y11.111 E0.0184 F1350
G1 X123.845 Y11.111 E1.8867
G1 X124.056 Y11.322 E1.9051
G1 X124.056 Y62.029 E5.0319
G1 X123.845 Y62.240 E5.0503
G1 X93.547 Y62.240 E6.9186
G1 X93.336 Y62.029 E6.9370
G1 X93.336 Y11.322 E10.0639
; feature inner perimeter
G1 X94.056 Y11.831 F18000
G1 X94.056 Y11.989
G1 X96.216 Y13.991
G92 E0.0000
G1 X121.176 Y13.991 E1.5391 F1215
G1 X121.176 Y59.360 E4.3368
G1 X118.366 Y59.360 E4.5101
G1 X118.366 Y39.860 E5.7125
G1 X99.026 Y39.860 E6.9051
G1 X99.026 Y59.360 E8.1076
G1 X96.216 Y59.360 E8.2808
G1 X96.216 Y13.991 E11.0785
G1 X95.496 Y13.271 F18000
G92 E0.0000
G1 X121.896 Y13.271 E1.6279 F1215
G1 X121.896 Y60.080 E4.5144
G1 X117.646 Y60.080 E4.7765
G1 X117.646 Y40.580 E5.9789
G1 X99.746 Y40.580 E7.0827
G1 X99.746 Y60.080 E8.2852
G1 X95.496 Y60.080 E8.5472
G1 X95.496 Y13.271 E11.4337
G1 X94.776 Y12.551 F18000
G92 E0.0000
G1 X122.616 Y12.551 E1.7167 F1215
G1 X122.616 Y60.800 E4.6920
G1 X116.926 Y60.800 E5.0428
G1 X116.926 Y41.300 E6.2453
G1 X100.466 Y41.300 E7.2603
G1 X100.466 Y60.800 E8.4627
G1 X94.776 Y60.800 E8.8136
G1 X94.776 Y12.551 E11.7889
; feature outer perimeter
G1 X94.056 Y11.831 F18000
G92 E0.0000
G1 X123.336 Y11.831 E1.8055 F1080
G1 X123.336 Y61.520 E4.8696
G1 X94.056 Y61.520 E6.6751
G1 X94.056 Y11.831 E9.7391
G1 X95.056 Y11.831 F1080
; feature inner perimeter
G1 X102.621 Y18.392 F18000
G92 E0.0000
G1 X102.035 Y19.053 E0.0545 F1215
G1 X101.521 Y19.770 E0.1089
G1 X101.083 Y20.537 E0.1634
G1 X100.741 Y21.314 E0.2157
G1 X100.573 Y21.795 E0.2472
G1 X100.355 Y22.616 E0.2995
G1 X100.219 Y23.485 E0.3538
G1 X100.176 Y24.261 E0.4017
G1 X100.184 Y24.761 E0.4325
G1 X100.264 Y25.608 E0.4849
G1 X100.416 Y26.364 E0.5325
G1 X100.553 Y26.879 E0.5654
G1 X100.712 Y27.347 E0.5958
G1 X101.046 Y28.128 E0.6482
G1 X101.422 Y28.803 E0.6959
G1 X101.712 Y29.252 E0.7288
G1 X102.005 Y29.647 E0.7592
G1 X102.561 Y30.288 E0.8115
G1 X103.128 Y30.817 E0.8593
G1 X103.542 Y31.156 E0.8923
G1 X103.940 Y31.442 E0.9225
G1 X104.638 Y31.864 E0.9728
G1 X105.093 Y32.093 E1.0042
G1 X105.876 Y32.414 E1.0564
G1 X106.622 Y32.634 E1.1044
G1 X107.146 Y32.750 E1.1375
G1 X107.629 Y32.825 E1.1676
G1 X108.471 Y32.891 E1.2197
G1 X109.282 Y32.872 E1.2697
G1 X110.154 Y32.768 E1.3239
G1 X111.080 Y32.554 E1.3825
G1 X111.855 Y32.286 E1.4330
G1 X112.650 Y31.921 E1.4870
G1 X113.410 Y31.472 E1.5414
G1 X114.097 Y30.962 E1.5942
G1 X114.529 Y30.583 E1.6296
G1 X115.076 Y30.021 E1.6780
G1 X115.623 Y29.337 E1.7320
G1 X116.100 Y28.593 E1.7865
G1 X116.497 Y27.804 E1.8409
G1 X116.811 Y26.979 E1.8954
G1 X117.037 Y26.125 E1.9499
G1 X117.173 Y25.256 E2.0041
G1 X117.216 Y24.480 E2.0520
G1 X117.208 Y23.980 E2.0828
G1 X117.128 Y23.134 E2.1353
G1 X116.976 Y22.377 E2.1829
G1 X116.839 Y21.863 E2.2157
G1 X116.680 Y21.395 E2.2462
G1 X116.346 Y20.614 E2.2986
G1 X115.970 Y19.938 E2.3463
G1 X115.680 Y19.490 E2.3792
G1 X115.387 Y19.094 E2.4095
G1 X114.831 Y18.454 E2.4618
G1 X114.264 Y17.924 E2.5096
G1 X113.850 Y17.585 E2.5426
G1 X113.452 Y17.299 E2.5729
G1 X112.754 Y16.877 E2.6231
G1 X112.299 Y16.648 E2.6546
G1 X111.516 Y16.327 E2.7068
G1 X110.770 Y16.107 E2.7547
G1 X110.245 Y15.992 E2.7878
G1 X109.767 Y15.916 E2.8177
G1 X108.992 Y15.854 E2.8656
G1 X108.150 Y15.867 E2.9176
G1 X107.576 Y15.922 E2.9531
G1 X106.801 Y16.062 E3.0017
G1 X105.954 Y16.301 E3.0560
G1 X105.073 Y16.655 E3.1145
G1 X104.375 Y17.026 E3.1632
G1 X103.896 Y17.329 E3.1982
G1 X103.267 Y17.800 E3.2467
G1 X102.621 Y18.392 E3.3007
G1 X103.135 Y18.898 F18000
G92 E0.0000
G1 X102.599 Y19.502 E0.0499 F1215
G1 X102.128 Y20.159 E0.0997
G1 X101.727 Y20.862 E0.1496
G1 X101.411 Y21.579 E0.1979
G1 X101.261 Y22.007 E0.2258
G1 X101.061 Y22.765 E0.2742
G1 X100.936 Y23.561 E0.3239
G1 X100.897 Y24.275 E0.3680
G1 X100.904 Y24.721 E0.3955
G1 X100.977 Y25.503 E0.4439
G1 X101.117 Y26.200 E0.4878
G1 X101.242 Y26.670 E0.5178
G1 X101.384 Y27.089 E0.5450
G1 X101.693 Y27.810 E0.5934
G1 X102.040 Y28.433 E0.6373
G1 X102.304 Y28.842 E0.6674
G1 X102.567 Y29.196 E0.6946
G1 X103.080 Y29.787 E0.7429
G1 X103.602 Y30.275 E0.7869
G1 X103.980 Y30.584 E0.8170
G1 X104.337 Y30.840 E0.8441
G1 X104.986 Y31.233 E0.8909
G1 X105.392 Y31.437 E0.9189
G1 X106.115 Y31.734 E0.9671
G1 X106.802 Y31.937 E1.0113
G1 X107.280 Y32.042 E1.0414
G1 X107.712 Y32.110 E1.0684
G1 X108.491 Y32.170 E1.1166
G1 X109.231 Y32.153 E1.1622
G1 X110.030 Y32.057 E1.2119
G1 X110.881 Y31.861 E1.2657
G1 X111.586 Y31.617 E1.3117
G1 X112.315 Y31.282 E1.3612
G1 X113.011 Y30.871 E1.4111
G1 X113.644 Y30.401 E1.4597
G1 X114.033 Y30.061 E1.4915
G1 X114.536 Y29.544 E1.5360
G1 X115.037 Y28.916 E1.5855
G1 X115.474 Y28.236 E1.6354
G1 X115.837 Y27.514 E1.6852
G1 X116.124 Y26.758 E1.7351
G1 X116.331 Y25.977 E1.7849
G1 X116.456 Y25.180 E1.8346
G1 X116.495 Y24.466 E1.8788
G1 X116.488 Y24.020 E1.9063
G1 X116.415 Y23.238 E1.9547
G1 X116.275 Y22.541 E1.9985
G1 X116.149 Y22.071 E2.0285
G1 X116.008 Y21.652 E2.0558
G1 X115.699 Y20.931 E2.1041
G1 X115.352 Y20.309 E2.1481
G1 X115.088 Y19.900 E2.1781
G1 X114.825 Y19.545 E2.2053
G1 X114.312 Y18.954 E2.2536
G1 X113.790 Y18.466 E2.2977
G1 X113.412 Y18.157 E2.3278
G1 X113.055 Y17.901 E2.3549
G1 X112.405 Y17.508 E2.4017
G1 X112.000 Y17.304 E2.4297
G1 X111.277 Y17.007 E2.4779
G1 X110.590 Y16.805 E2.5220
G1 X110.112 Y16.699 E2.5522
G1 X109.682 Y16.632 E2.5791
G1 X108.969 Y16.575 E2.6232
G1 X108.190 Y16.587 E2.6712
G1 X107.674 Y16.636 E2.7032
G1 X106.962 Y16.764 E2.7478
G1 X106.187 Y16.983 E2.7974
G1 X105.378 Y17.309 E2.8512
G1 X104.737 Y17.649 E2.8960
G1 X104.305 Y17.923 E2.9275
G1 X103.728 Y18.355 E2.9720
G1 X103.135 Y18.898 E3.0215
G1 X103.649 Y19.403 F18000
G92 E0.0000
G1 X103.162 Y19.952 E0.0452 F1215
G1 X102.735 Y20.549 E0.0905
G1 X102.371 Y21.186 E0.1357
G1 X102.082 Y21.843 E0.1800
G1 X101.950 Y22.219 E0.2045
G1 X101.766 Y22.913 E0.2488
G1 X101.653 Y23.636 E0.2940
G1 X101.617 Y24.289 E0.3343
G1 X101.623 Y24.682 E0.3585
G1 X101.690 Y25.398 E0.4029
G1 X101.819 Y26.037 E0.4430
G1 X101.932 Y26.462 E0.4702
G1 X102.057 Y26.832 E0.4943
G1 X102.340 Y27.492 E0.5386
G1 X102.658 Y28.062 E0.5788
G1 X102.896 Y28.432 E0.6059
G1 X103.128 Y28.745 E0.6300
G1 X103.599 Y29.287 E0.6742
