; generated by PrusaSlicer 2.5.0-alpha3+win64 on 2022-10-18 at 19:51:21 UTC


;
;
; 

; external perimeters extrusion width = 0.68mm
; perimeters extrusion width = 0.68mm
; infill extrusion width = 0.68mm
; solid infill extrusion width = 0.68mm
; top infill extrusion width = 0.60mm
; first layer extrusion width = 0.63mm

M73 P0 R84
M107
M190 S85 ; set bed temperature and wait for it to be reached
G10 S230 P1 ; set temperature
;TYPE:Custom
;Set standby temperatures
G10 R200 P0
G10 R215 P1
G28 ; home all axes
G32 ; run bed.g -- probe bed and enable compensation
;workaround for toolchanger when using only one extruder
T1; select tool
G10 S230 P1 ; set temperature
M116 ; wait for temperature to be reached
G21 ; set units to millimeters
G90 ; use absolute coordinates
M82 ; use absolute distances for extrusion
G92 E0
;tool change macro
T1
G92 E0
; Filament gcode
M107
;LAYER_CHANGE
;Z:0.2
;HEIGHT:0.2
G1 Z.2 F18000
G1 E-.75 F600
G92 E0
G1 X91.732 Y121.279 F18000
G1 E.75 F600
;TYPE:Skirt/Brim
;WIDTH:0.63
G1 F1500
G1 X93.969 Y120.199 E.87125
G1 X96.151 Y119.877 E.97893
G1 X126.151 Y119.758 E2.44341
G1 X128.604 Y120.146 E2.56465
G1 X130.809 Y121.288 E2.6859
G1 X132.541 Y123.069 E2.80715
G1 X133.621 Y125.306 E2.92839
G1 X133.943 Y127.488 E3.03608
G1 X134.135 Y175.813 E5.39511
G1 X133.747 Y178.266 E5.51635
G1 X132.604 Y180.471 E5.6376
G1 X130.823 Y182.203 E5.75884
G1 X128.586 Y183.283 E5.88009
G1 X126.404 Y183.605 E5.98778
G1 X96.404 Y183.724 E7.45225
G1 X93.951 Y183.336 E7.5735
G1 X91.746 Y182.193 E7.69474
G1 X90.015 Y180.412 E7.81599
G1 X88.935 Y178.176 E7.93724
G1 X88.612 Y175.994 E8.04492
G1 X88.421 Y127.669 E10.40395
G1 X88.808 Y125.216 E10.5252
G1 X89.951 Y123.01 E10.64644
G1 X91.668 Y121.342 E10.76329
G1 X92.085 Y121.8 F18000
G1 F1500
G1 X92.3 Y121.605 E10.77744
G1 X94.494 Y120.665 E10.89398
G1 X96.153 Y120.464 E10.97557
G1 X126.153 Y120.345 E12.44005
G1 X128.509 Y120.733 E12.55659
G1 X130.607 Y121.872 E12.67313
G1 X132.215 Y123.637 E12.78967
G1 X133.154 Y125.831 E12.90621
G1 X133.356 Y127.491 E12.9878
G1 X133.547 Y175.815 E15.34683
G1 X133.16 Y178.171 E15.46337
G1 X132.02 Y180.269 E15.57991
G1 X130.256 Y181.877 E15.69645
G1 X128.061 Y182.817 E15.81298
G1 X126.402 Y183.018 E15.89458
G1 X96.402 Y183.137 E17.35905
G1 X94.046 Y182.749 E17.47559
G1 X91.949 Y181.61 E17.59213
G1 X90.341 Y179.845 E17.70867
G1 X89.401 Y177.65 E17.82521
G1 X89.199 Y175.991 E17.9068
G1 X89.008 Y127.667 E20.26583
G1 X89.396 Y125.311 E20.38237
G1 X90.535 Y123.213 E20.49891
G1 X92.019 Y121.861 E20.5969
G1 X92.414 Y122.328 F18000
G1 F1500
G1 X92.864 Y121.948 E20.62564
G1 X95.009 Y121.156 E20.73727
G1 X96.156 Y121.051 E20.79348
G1 X126.156 Y120.932 E22.25796
G1 X128.409 Y121.32 E22.36959
G1 X130.394 Y122.455 E22.48123
G1 X131.872 Y124.201 E22.59286
G1 X132.663 Y126.346 E22.7045
G1 X132.769 Y127.493 E22.76071
G1 X132.96 Y175.818 E25.11974
G1 X132.572 Y178.071 E25.23137
G1 X131.437 Y180.057 E25.34301
G1 X129.692 Y181.534 E25.45464
G1 X127.546 Y182.326 E25.56628
G1 X126.399 Y182.431 E25.62249
G1 X96.4 Y182.55 E27.08696
G1 X94.146 Y182.162 E27.1986
G1 X92.161 Y181.027 E27.31023
G1 X90.683 Y179.281 E27.42187
G1 X89.892 Y177.136 E27.5335
G1 X89.787 Y175.989 E27.58971
G1 X89.595 Y127.664 E29.94874
G1 X89.983 Y125.411 E30.06038
M73 P0 R83
G1 X91.118 Y123.425 E30.17201
G1 X92.346 Y122.386 E30.25052
G1 E29.50052 F600
G92 E0
G1 X125.283 Y128.425 F18000
G1 E.75 F600
;TYPE:Perimeter
;WIDTH:0.629999
G1 F1200
G1 X125.299 Y132.521 E.94995
G1 X125.468 Y174.945 E3.02095
G1 X116.387 Y174.981 E3.46424
;WIDTH:0.673126
G1 X116.248 Y174.96 E3.47163
;WIDTH:0.716252
G1 X116.108 Y174.939 E3.47952
;WIDTH:0.759378
G1 X115.969 Y174.918 E3.48792
;WIDTH:0.802504
G1 X115.829 Y174.897 E3.49683
G1 X115.364 Y174.899 E3.52622
G1 X115.243 Y174.921 E3.53398
;WIDTH:0.759378
G1 X115.122 Y174.943 E3.54129
;WIDTH:0.716252
G1 X115.002 Y174.965 E3.54817
;WIDTH:0.673126
G1 X114.881 Y174.987 E3.5546
;WIDTH:0.629999
G1 X97.272 Y175.057 E4.41419
G1 X97.088 Y128.537 E6.68514
G1 X125.193 Y128.425 E8.05715
G1 X125.868 Y127.839 F18000
;TYPE:External perimeter
G1 F750
G1 X126.057 Y175.53 E10.38524
G1 X96.687 Y175.647 E11.81896
G1 X96.498 Y127.952 E14.14723
G1 X125.782 Y127.836 E15.57674
G1 X125.76 Y128.429 F18000
G1 E14.82674 F600
G92 E0
G1 X109.4 Y148.919 F18000
G1 E.75 F600
;TYPE:Perimeter
G1 F1200
G1 X108.664 Y148.739 E.78698
G1 X107.909 Y148.466 E.82615
G1 X107.263 Y148.164 E.86097
G1 X106.59 Y147.777 E.89888
G1 X105.893 Y147.285 E.94056
G1 X105.349 Y146.82 E.97545
G1 X104.561 Y145.984 E1.03154
G1 X104.079 Y145.342 E1.07072
G1 X103.703 Y144.733 E1.10566
G1 X103.281 Y143.883 E1.15201
G1 X102.926 Y142.89 E1.2035
G1 X102.737 Y142.11 E1.24268
G1 X102.633 Y141.404 E1.27751
G1 X102.582 Y140.558 E1.31886
G1 X102.642 Y139.476 E1.37176
G1 X102.77 Y138.687 E1.4108
G1 X102.967 Y137.927 E1.44912
G1 X103.23 Y137.193 E1.48719
G1 X103.561 Y136.482 E1.52547
G1 X103.954 Y135.803 E1.56376
G1 X104.405 Y135.166 E1.60189
G1 X104.983 Y134.498 E1.645
G1 X105.758 Y133.782 E1.69649
G1 X106.34 Y133.345 E1.73202
G1 X107.004 Y132.933 E1.77016
G1 X107.703 Y132.581 E1.80839
G1 X108.499 Y132.271 E1.85008
G1 X109.278 Y132.053 E1.88957
G1 X110.318 Y131.877 E1.94106
G1 X111.045 Y131.832 E1.97661
G1 X111.826 Y131.85 E2.01476
G1 X112.672 Y131.948 E2.05634
G1 X113.444 Y132.115 E2.09488
G1 X114.126 Y132.327 E2.12974
G1 X114.909 Y132.647 E2.17104
G1 X115.607 Y133.015 E2.20955
G1 X116.501 Y133.618 E2.26221
G1 X117.185 Y134.202 E2.30609
G1 X117.905 Y134.973 E2.35758
G1 X118.387 Y135.615 E2.39676
G1 X118.763 Y136.224 E2.4317
G1 X119.185 Y137.074 E2.47805
G1 X119.54 Y138.067 E2.52954
G1 X119.729 Y138.848 E2.56872
G1 X119.833 Y139.553 E2.60355
G1 X119.884 Y140.399 E2.6449
G1 X119.824 Y141.481 E2.6978
G1 X119.696 Y142.27 E2.73684
G1 X119.499 Y143.03 E2.77516
G1 X119.236 Y143.764 E2.81323
G1 X118.905 Y144.475 E2.85151
G1 X118.512 Y145.154 E2.8898
G1 X118.061 Y145.791 E2.92792
G1 X117.482 Y146.459 E2.97104
G1 X116.708 Y147.176 E3.02253
G1 X116.126 Y147.612 E3.05806
G1 X115.462 Y148.024 E3.0962
G1 X114.762 Y148.376 E3.13443
G1 X113.967 Y148.686 E3.17612
G1 X112.919 Y148.963 E3.22903
G1 X112.128 Y149.083 E3.26805
G1 X111.347 Y149.129 E3.30628
G1 X110.631 Y149.107 E3.34121
G1 X109.793 Y149.009 E3.3824
G1 X109.487 Y148.94 E3.3977
G1 X109.441 Y148.325 F18000
;TYPE:External perimeter
G1 F750
G1 X108.804 Y148.168 E3.42974
G1 X108.113 Y147.915 E3.46568
G1 X107.515 Y147.633 E3.49796
G1 X106.885 Y147.269 E3.53348
G1 X106.233 Y146.807 E3.57247
G1 X105.733 Y146.376 E3.60471
G1 X104.99 Y145.583 E3.65773
G1 X104.55 Y144.993 E3.69367
G1 X104.204 Y144.428 E3.72603
G1 X103.834 Y143.685 E3.76653
G1 X103.478 Y142.692 E3.81803
G1 X103.308 Y141.975 E3.85397
G1 X103.214 Y141.321 E3.88626
G1 X103.168 Y140.526 E3.92514
G1 X103.228 Y139.511 E3.97473
G1 X103.349 Y138.785 E4.0107
G1 X103.535 Y138.077 E4.04642
G1 X103.782 Y137.394 E4.0819
G1 X104.092 Y136.731 E4.11759
G1 X104.461 Y136.1 E4.15328
G1 X104.883 Y135.507 E4.18882
G1 X105.382 Y134.929 E4.22611
G1 X106.156 Y134.213 E4.2776
G1 X106.689 Y133.818 E4.30995
G1 X107.312 Y133.433 E4.3457
G1 X107.965 Y133.107 E4.38133
G1 X108.71 Y132.819 E4.42033
G1 X109.376 Y132.632 E4.4541
G1 X110.416 Y132.456 E4.50559
G1 X111.077 Y132.418 E4.53791
G1 X111.811 Y132.437 E4.57373
G1 X112.602 Y132.531 E4.61265
G1 X113.318 Y132.688 E4.6484
G1 X113.949 Y132.887 E4.6807
G1 X114.685 Y133.19 E4.71955
G1 X115.331 Y133.533 E4.75528
G1 X116.17 Y134.103 E4.80481
G1 X116.756 Y134.603 E4.84238
G1 X117.475 Y135.374 E4.89387
G1 X117.915 Y135.964 E4.92981
G1 X118.262 Y136.53 E4.96217
G1 X118.632 Y137.272 E5.00268
M73 P1 R83
G1 X118.988 Y138.265 E5.05417
G1 X119.158 Y138.982 E5.09011
G1 X119.252 Y139.636 E5.12241
G1 X119.297 Y140.431 E5.16129
G1 X119.238 Y141.446 E5.21088
G1 X119.117 Y142.172 E5.24685
G1 X118.931 Y142.88 E5.28256
G1 X118.684 Y143.563 E5.31804
G1 X118.374 Y144.226 E5.35374
G1 X118.005 Y144.857 E5.38942
G1 X117.583 Y145.45 E5.42496
G1 X117.084 Y146.028 E5.46225
G1 X116.309 Y146.745 E5.51374
G1 X115.777 Y147.139 E5.5461
G1 X115.154 Y147.524 E5.58185
G1 X114.501 Y147.85 E5.61747
G1 X113.756 Y148.138 E5.65648
G1 X112.772 Y148.394 E5.7061
G1 X112.044 Y148.502 E5.74204
G1 X111.315 Y148.543 E5.77767
G1 X110.653 Y148.52 E5.81002
G1 X109.864 Y148.426 E5.84882
G1 X109.529 Y148.346 E5.86561
G1 X109.038 Y148.769 F18000
G1 E5.11561 F600
G92 E0
G1 X99.133 Y164.539 F18000
G1 E.75 F600
;TYPE:Perimeter
G1 F1200
G1 X99.062 Y164.388 E.75812
G1 X99.061 Y164.084 E.77298
G1 X99.164 Y163.795 E.78794
G1 X106.33 Y151.277 E1.49206
G1 X106.603 Y151.025 E1.51022
G1 X106.896 Y150.916 E1.52548
G1 X107.221 Y150.919 E1.54132
G1 X107.505 Y151.028 E1.55621
G1 X123.149 Y159.978 E2.43602
G1 X123.382 Y160.171 E2.4508
G1 X123.579 Y160.587 E2.47324
G1 X123.58 Y160.891 E2.48809
G1 X123.476 Y161.18 E2.50306
G1 X116.354 Y173.629 E3.20322
G1 X116.072 Y173.929 E3.22334
;WIDTH:0.673126
G1 X115.994 Y173.983 E3.22829
;WIDTH:0.716252
G1 X115.916 Y174.036 E3.23357
;WIDTH:0.759378
G1 X115.838 Y174.09 E3.2392
;WIDTH:0.802504
G1 X115.761 Y174.144 E3.24516
G1 X115.427 Y174.145 E3.26626
G1 X115.358 Y174.098 E3.27152
;WIDTH:0.759378
G1 X115.29 Y174.051 E3.27647
;WIDTH:0.716252
G1 X115.221 Y174.004 E3.28113
;WIDTH:0.673126
G1 X115.153 Y173.956 E3.28548
;WIDTH:0.629999
G1 X99.491 Y164.997 E4.16626
G1 X99.258 Y164.804 E4.18104
G1 X99.171 Y164.62 E4.19096
G1 X99.675 Y164.354 F18000
;TYPE:External perimeter
G1 F750
G1 X99.649 Y164.322 E4.19294
G1 X99.639 Y164.183 E4.19976
G1 X99.674 Y164.087 E4.20475
G1 X106.796 Y151.637 E4.90491
G1 X106.975 Y151.499 E4.91595
G1 X107.152 Y151.508 E4.92461
G1 X107.413 Y151.652 E4.93914
G1 X122.858 Y160.488 E5.80776
G1 X122.991 Y160.652 E5.81812
G1 X123.001 Y160.792 E5.82494
G1 X122.967 Y160.888 E5.82993
G1 X115.845 Y173.338 E6.53009
G1 X115.75 Y173.438 E6.5368
G1 X115.54 Y173.481 E6.54728
G1 X115.444 Y173.447 E6.55227
G1 X99.783 Y164.487 E7.43305
G1 X99.731 Y164.424 E7.43705
G1 X99.636 Y164.365 F18000
G1 E6.68705 F600
G92 E0
G1 X123.923 Y128.606 F18000
G1 E.75 F600
;TYPE:Solid infill
;WIDTH:0.631299
G1 F2250
G1 X124.847 Y129.531 E.81395
G1 X124.851 Y130.366 E.85482
G1 X123.357 Y128.873 E.95814
G1 X122.528 Y128.876 E.99869
G1 X124.854 Y131.201 E1.15958
G1 X124.857 Y132.037 E1.20045
G1 X121.7 Y128.879 E1.41892
G1 X120.871 Y128.883 E1.45947
G1 X124.861 Y132.872 E1.73551
G1 X124.864 Y133.708 E1.77638
G1 X120.042 Y128.886 E2.10999
G1 X119.213 Y128.889 E2.15054
G1 X124.867 Y134.543 E2.54172
G1 X124.87 Y135.378 E2.58259
G1 X118.384 Y128.892 E3.03135
G1 X117.556 Y128.896 E3.0719
G1 X124.874 Y136.214 E3.57823
G1 X124.877 Y137.049 E3.61911
G1 X116.727 Y128.899 E4.18301
G1 X115.898 Y128.902 E4.22356
G1 X124.88 Y137.885 E4.84504
G1 X124.884 Y138.72 E4.88591
G1 X115.069 Y128.906 E5.56496
G1 X114.24 Y128.909 E5.60551
G1 X124.887 Y139.555 E6.34214
G1 X124.89 Y140.391 E6.38301
G1 X113.412 Y128.912 E7.17721
G1 X112.583 Y128.915 E7.21776
G1 X124.894 Y141.226 E8.06953
G1 X124.897 Y142.062 E8.1104
G1 X119.457 Y136.622 E8.48677
G1 X119.142 Y135.999 E8.52094
G1 X118.744 Y135.357 E8.55789
G1 X118.232 Y134.678 E8.59948
G1 X117.501 Y133.896 E8.65187
G1 X116.756 Y133.259 E8.69981
G1 X115.932 Y132.697 E8.74862
G1 X115.084 Y132.248 E8.79556
G1 X111.754 Y128.919 E9.02593
G1 X110.925 Y128.922 E9.06648
G1 X113.756 Y131.753 E9.26232
G1 X113.545 Y131.686 E9.27312
G1 X112.677 Y131.506 E9.31653
G1 X110.096 Y128.925 E9.49505
G1 X109.268 Y128.929 E9.5356
G1 X111.747 Y131.408 E9.70715
G1 X110.907 Y131.4 E9.74827
G1 X108.439 Y128.932 E9.91902
G1 X107.61 Y128.935 E9.95957
G1 X110.136 Y131.461 E10.13435
G1 X109.424 Y131.582 E10.16967
G1 X106.781 Y128.938 E10.35254
G1 X105.952 Y128.942 E10.39309
G1 X108.751 Y131.741 E10.58675
G1 X108.451 Y131.823 E10.60196
G1 X108.125 Y131.946 E10.61904
G1 X105.124 Y128.945 E10.82669
G1 X104.295 Y128.948 E10.86724
G1 X107.528 Y132.182 E11.09095
G1 X106.969 Y132.455 E11.12139
G1 X103.466 Y128.952 E11.36378
G1 X102.637 Y128.955 E11.40433
G1 X106.446 Y132.764 E11.66789
G1 X105.943 Y133.093 E11.6973
G1 X101.808 Y128.958 E11.98338
G1 X100.98 Y128.961 E12.02393
G1 X105.468 Y133.45 E12.3345
G1 X105.036 Y133.85 E12.36331
G1 X100.151 Y128.965 E12.7013
G1 X99.322 Y128.968 E12.74184
G1 X104.611 Y134.257 E13.1078
G1 X104.223 Y134.701 E13.13665
G1 X98.493 Y128.971 E13.5331
G1 X97.664 Y128.975 E13.57365
G1 X103.861 Y135.171 E14.00238
G1 X103.527 Y135.669 E14.03172
G1 X97.532 Y129.675 E14.44645
G1 X97.536 Y130.51 E14.48732
G1 X103.216 Y136.191 E14.88037
G1 X102.95 Y136.757 E14.91096
G1 X97.539 Y131.346 E15.28535
G1 X97.542 Y132.181 E15.32623
G1 X102.708 Y137.347 E15.68363
G1 X102.501 Y137.972 E15.71584
G1 X97.546 Y133.016 E16.05869
G1 X97.549 Y133.852 E16.09956
G1 X102.332 Y138.635 E16.43052
G1 X102.217 Y139.352 E16.46604
G1 X97.552 Y134.687 E16.7888
G1 X97.556 Y135.523 E16.82967
G1 X102.163 Y140.13 E17.14843
G1 X102.14 Y140.514 E17.16724
G1 X102.165 Y140.964 E17.1893
G1 X97.559 Y136.358 E17.50796
G1 X97.562 Y137.193 E17.54883
G1 X102.262 Y141.894 E17.87402
G1 X102.307 Y142.204 E17.88939
G1 X102.489 Y142.953 E17.92707
G1 X97.3 Y137.764 E18.2861
G1 E17.5361 F600
G92 E0
G1 X119.53 Y137.527 F18000
G1 E.75 F600
G1 F2250
G1 X124.9 Y142.897 E1.12155
G1 X124.904 Y143.733 E1.16242
G1 X120.198 Y139.027 E1.48797
G1 X120.28 Y139.598 E1.51618
G1 X120.3 Y139.961 E1.53393
G1 X124.907 Y144.568 E1.85271
G1 X124.91 Y145.403 E1.89358
G1 X120.305 Y140.798 E2.21221
G1 X120.253 Y141.578 E2.25047
G1 X124.914 Y146.239 E2.57292
G1 X124.917 Y147.074 E2.61379
G1 X120.138 Y142.295 E2.94445
G1 X119.971 Y142.961 E2.97802
G1 X124.92 Y147.91 E3.32041
G1 X124.923 Y148.745 E3.36129
G1 X119.766 Y143.588 E3.71812
G1 X119.647 Y143.921 E3.73542
G1 X119.526 Y144.179 E3.7494
G1 X124.927 Y149.58 E4.1231
G1 X124.93 Y150.416 E4.16397
G1 X119.26 Y144.745 E4.55631
G1 X118.951 Y145.269 E4.58604
G1 X124.933 Y151.251 E4.99996
G1 X124.937 Y152.087 E5.04083
G1 X118.617 Y145.767 E5.4781
G1 X118.258 Y146.24 E5.50716
G1 X124.94 Y152.922 E5.96946
G1 X124.943 Y153.757 E6.01033
G1 X117.869 Y146.683 E6.49977
G1 X117.446 Y147.092 E6.52856
G1 X124.947 Y154.593 E7.0475
G1 X124.95 Y155.428 E7.08837
G1 X117.014 Y147.492 E7.63745
G1 X116.54 Y147.851 E7.66651
G1 X124.953 Y156.264 E8.24859
G1 X124.957 Y157.099 E8.28946
G1 X116.039 Y148.181 E8.90648
G1 X115.517 Y148.492 E8.93617
G1 X124.96 Y157.934 E9.58949
G1 X124.963 Y158.77 E9.63036
G1 X114.959 Y148.765 E10.32257
G1 X114.362 Y149.001 E10.35394
G1 X124.967 Y159.605 E11.08763
G1 X124.97 Y160.441 E11.1285
G1 X113.736 Y149.207 E11.90577
G1 X113.074 Y149.377 E11.9392
G1 X124.973 Y161.276 E12.76247
G1 X124.976 Y162.111 E12.80334
G1 X123.967 Y161.102 E12.87317
G1 X123.865 Y161.387 E12.88798
G1 X123.703 Y161.67 E12.90393
G1 X124.98 Y162.947 E12.99227
G1 X124.983 Y163.782 E13.03314
G1 X123.4 Y162.199 E13.14266
G1 X123.097 Y162.729 E13.1725
G1 X124.986 Y164.618 E13.3032
G1 X124.99 Y165.453 E13.34407
G1 X122.795 Y163.258 E13.49595
G1 X122.492 Y163.787 E13.52578
G1 X124.993 Y166.289 E13.69884
G1 X124.996 Y167.124 E13.73971
G1 X122.189 Y164.317 E13.93395
G1 X121.886 Y164.846 E13.96378
G1 X125 Y167.959 E14.1792
G1 X125.003 Y168.795 E14.22007
G1 X121.583 Y165.375 E14.45667
G1 X121.281 Y165.904 E14.4865
G1 X125.006 Y169.63 E14.74428
G1 X125.01 Y170.466 E14.78515
G1 X120.978 Y166.434 E15.06411
G1 X120.675 Y166.963 E15.09394
G1 X125.013 Y171.301 E15.39407
G1 X125.016 Y172.136 E15.43495
G1 X120.372 Y167.492 E15.75626
G1 X120.069 Y168.022 E15.78609
G1 X125.02 Y172.972 E16.12859
G1 X125.023 Y173.807 E16.16946
G1 X119.767 Y168.551 E16.53313
G1 X119.464 Y169.08 E16.56297
G1 X124.891 Y174.507 E16.93846
G1 X124.062 Y174.511 E16.979
G1 X119.161 Y169.61 E17.3181
G1 X118.858 Y170.139 E17.34793
G1 X123.233 Y174.514 E17.65063
G1 X122.404 Y174.517 E17.69118
G1 X118.555 Y170.668 E17.95749
G1 X118.253 Y171.197 E17.98732
G1 X121.576 Y174.52 E18.21723
G1 X120.747 Y174.524 E18.25778
G1 X117.95 Y171.727 E18.4513
G1 X117.647 Y172.256 E18.48114
G1 X119.918 Y174.527 E18.63826
G1 X119.089 Y174.53 E18.67881
G1 X117.344 Y172.785 E18.79954
G1 X117.041 Y173.315 E18.82937
G1 X118.26 Y174.534 E18.91371
G1 X117.432 Y174.537 E18.95426
G1 X116.739 Y173.844 E19.0022
G1 X116.339 Y174.276 E19.03101
