; G-Code generated by Simplify3D(R) Version 4.1.2
; Jul 17, 2022 at 12:02:54 AM
; Settings Summary
;   processName,Process1
;   applyToModels,z-drag-chain-mount
;   profileName,HSBot (modified)
;   profileVersion,2019-11-09 11:59:44
;   baseProfile,Default
;   printMaterial,PETG - Eryone
;   printQuality,Medium
;   printExtruders,
;   extruderName,Extruder - v6,Extruder - lgx ace
;   extruderToolheadNumber,0,1
;   extruderDiameter,0.4,0.4
;   extruderAutoWidth,1,1
;   extruderWidth,0.48,0.48
;   extrusionMultiplier,1.03,1.03
;   extruderUseRetract,0,1
;   extruderRetractionDistance,4,1
;   extruderExtraRestartDistance,0,0
;   extruderRetractionZLift,0,0
;   extruderRetractionSpeed,3600,3600
;   extruderUseCoasting,0,0
;   extruderCoastingDistance,0.2,0.2
;   extruderUseWipe,0,1
;   extruderWipeDistance,1,1
;   primaryExtruder,1
;   layerHeight,0.2
;   topSolidLayers,3
;   bottomSolidLayers,3
;   perimeterOutlines,3
;   printPerimetersInsideOut,1
;   startPointOption,2
;   startPointOriginX,0
;   startPointOriginY,0
;   sequentialIslands,0
;   spiralVaseMode,0
;   firstLayerHeightPercentage,100
;   firstLayerWidthPercentage,150
;   firstLayerUnderspeed,0.25
;   useRaft,0
;   raftExtruder,0
;   raftTopLayers,3
;   raftBaseLayers,2
;   raftOffset,3
;   raftSeparationDistance,0.18
;   raftTopInfill,100
;   aboveRaftSpeedMultiplier,0.3
;   useSkirt,1
;   skirtExtruder,1
;   skirtLayers,1
;   skirtOutlines,10
;   skirtOffset,0
;   usePrimePillar,0
;   primePillarExtruder,999
;   primePillarWidth,12
;   primePillarLocation,7
;   primePillarSpeedMultiplier,1
;   useOozeShield,0
;   oozeShieldExtruder,999
;   oozeShieldOffset,2
;   oozeShieldOutlines,1
;   oozeShieldSidewallShape,1
;   oozeShieldSidewallAngle,30
;   oozeShieldSpeedMultiplier,1
;   infillExtruder,1
;   internalInfillPattern,Rectilinear
;   externalInfillPattern,Rectilinear
;   infillPercentage,10
;   outlineOverlapPercentage,20
;   infillExtrusionWidthPercentage,100
;   minInfillLength,3
;   infillLayerInterval,1
;   internalInfillAngles,45,-45
;   overlapInternalInfillAngles,0
;   externalInfillAngles,45,-45
;   generateSupport,1
;   supportExtruder,1
;   supportInfillPercentage,30
;   supportExtraInflation,0
;   supportBaseLayers,1
;   denseSupportExtruder,0
;   denseSupportLayers,0
;   denseSupportInfillPercentage,70
;   supportLayerInterval,1
;   supportHorizontalPartOffset,0.3
;   supportUpperSeparationLayers,1
;   supportLowerSeparationLayers,1
;   supportType,0
;   supportGridSpacing,2
;   maxOverhangAngle,45
;   supportAngles,0
;   temperatureName,v6,Bed,lgx-ace
;   temperatureNumber,0,0,1
;   temperatureSetpointCount,1,1,1
;   temperatureSetpointLayers,1,1,1
;   temperatureSetpointTemperatures,0,85,240
;   temperatureStabilizeAtStartup,1,1,1
;   temperatureHeatedBed,0,1,0
;   fanLayers,1,2,3
;   fanSpeeds,0,15,15
;   blipFanToFullPower,0
;   adjustSpeedForCooling,0
;   minSpeedLayerTime,15
;   minCoolingSpeedSlowdown,50
;   increaseFanForCooling,0
;   minFanLayerTime,45
;   maxCoolingFanSpeed,70
;   increaseFanForBridging,0
;   bridgingFanSpeed,80
;   use5D,1
;   relativeEdistances,0
;   allowEaxisZeroing,1
;   independentExtruderAxes,0
;   includeM10123,0
;   stickySupport,1
;   applyToolheadOffsets,0
;   gcodeXoffset,0
;   gcodeYoffset,0
;   gcodeZoffset,0
;   overrideMachineDefinition,1
;   machineTypeOverride,0
;   strokeXoverride,220
;   strokeYoverride,220
;   strokeZoverride,175
;   originOffsetXoverride,0
;   originOffsetYoverride,0
;   originOffsetZoverride,0
;   homeXdirOverride,-1
;   homeYdirOverride,-1
;   homeZdirOverride,-1
;   flipXoverride,1
;   flipYoverride,-1
;   flipZoverride,1
;   toolheadOffsets,0,0|0,0|0,0|0,0|0,0|0,0
;   overrideFirmwareConfiguration,0
;   firmwareTypeOverride,RepRap (Marlin/Repetier/Sprinter)
;   GPXconfigOverride,r2
;   baudRateOverride,115200
;   overridePrinterModels,0
;   printerModelsOverride
;   startingGcode,G28 ; home all axes,G32 ; run bed.g -- probe bed and enable compensation
;   layerChangeGcode,
;   retractionGcode,
;   toolChangeGcode,
;   endingGcode,M0 ; call stop.g
;   exportFileFormat,gcode
;   celebration,0
;   celebrationSong,Random Song
;   postProcessing,|; 0.2mm layer, 8 bands 5mm each, total height 40mm|{REPLACE "; layer 25" "M572 D0 S0.69\n; layer 10"}|{REPLACE "; layer 50" "M572 D0 S0.70\n; layer 50"}|{REPLACE "; layer 75" "M572 D0 S0.71\n; layer 75"}|{REPLACE "; layer 100" "M572 D0 S0.72\n; layer 100"}|{REPLACE "; layer 125" "M572 D0 S0.73\n; layer 125"}|{REPLACE "; layer 150" "M572 D0 S0.74\n; layer 150"}|{REPLACE "; layer 175" "M572 D0 S0.75\n; layer 175"}|{REPLACE "; layer 200" "M572 D0 S0.76\n; layer 200"}
;   defaultSpeed,5400
;   outlineUnderspeed,0.8
;   solidInfillUnderspeed,0.75
;   supportUnderspeed,0.8
;   rapidXYspeed,18000
;   rapidZspeed,1200
;   minBridgingArea,60
;   bridgingExtraInflation,0
;   bridgingExtrusionMultiplier,0.96
;   bridgingSpeedMultiplier,1
;   useFixedBridgingAngle,0
;   fixedBridgingAngle,0
;   applyBridgingToPerimeters,0
;   filamentDiameters,1.75|1.75|1.75|1.75|1.75|1.75
;   filamentPricesPerKg,25|46|46|46|46|46
;   filamentDensities,1.29|1.25|1.25|1.25|1.25|1.25
;   useMinPrintHeight,0
;   minPrintHeight,0.3
;   useMaxPrintHeight,0
;   maxPrintHeight,110
;   useDiaphragm,0
;   diaphragmLayerInterval,20
;   robustSlicing,1
;   mergeAllIntoSolid,0
;   onlyRetractWhenCrossingOutline,1
;   retractBetweenLayers,0
;   useRetractionMinTravel,1
;   retractionMinTravel,5
;   retractWhileWiping,1
;   onlyWipeOutlines,1
;   avoidCrossingOutline,1
;   maxMovementDetourFactor,2
;   toolChangeRetractionDistance,12
;   toolChangeExtraRestartDistance,0
;   toolChangeRetractionSpeed,600
;   externalThinWallType,0
;   internalThinWallType,0
;   thinWallAllowedOverlapPercentage,10
;   singleExtrusionMinLength,0.1
;   singleExtrusionMinPrintingWidthPercentage,50
;   singleExtrusionMaxPrintingWidthPercentage,200
;   singleExtrusionEndpointExtension,0.2
;   horizontalSizeCompensation,-0.1
G90
M82
M106 S0
M140 S85
M190 S85
G10 S0 R{0-50} P0
G10 S240 R{240-50} P1
M116 P1
G28 ; home all axes
G32 ; run bed.g -- probe bed and enable compensation
; process Process1
; layer 1, Z = 0.200
T1
G92 E0.0000
G1 E-1.0000 F3600
; feature skirt
; tool H0.200 W0.720
G1 Z0.200 F1200
G1 X93.210 Y73.492 F18000
G1 E0.0000 F3600
G92 E0.0000
G1 X97.217 Y69.485 E0.3494 F1350
G1 X122.783 Y69.485 E1.9260
G1 X126.790 Y73.492 E2.2754
G1 X126.790 Y146.508 E6.7779
G1 X122.783 Y150.515 E7.1273
G1 X97.217 Y150.515 E8.7038
G1 X93.210 Y146.508 E9.0533
G1 X93.210 Y136.042 E9.6987
G1 X97.217 Y132.035 E10.0481
G1 X108.310 Y132.035 E10.7321
G1 X108.310 Y130.415 E10.8320
G1 X97.217 Y130.415 E11.5161
G1 X93.210 Y126.408 E11.8655
G1 X93.210 Y73.492 E15.1285
G1 X93.930 Y73.790 F18000
G92 E0.0000
G1 X97.515 Y70.205 E0.3126 F1350
G1 X122.485 Y70.205 E1.8524
G1 X126.070 Y73.790 E2.1650
G1 X126.070 Y146.210 E6.6307
G1 X122.485 Y149.795 E6.9434
G1 X97.515 Y149.795 E8.4832
G1 X93.930 Y146.210 E8.7958
G1 X93.930 Y136.340 E9.4044
G1 X97.515 Y132.755 E9.7171
G1 X109.030 Y132.755 E10.4271
G1 X109.030 Y129.695 E10.6158
G1 X97.515 Y129.695 E11.3259
G1 X93.930 Y126.110 E11.6385
G1 X93.930 Y73.790 E14.8648
G1 X94.650 Y74.088 F18000
G92 E0.0000
G1 X97.813 Y70.925 E0.2759 F1350
G1 X122.187 Y70.925 E1.7788
G1 X125.350 Y74.088 E2.0547
G1 X125.350 Y145.912 E6.4836
G1 X122.187 Y149.075 E6.7595
G1 X97.813 Y149.075 E8.2625
G1 X94.650 Y145.912 E8.5383
G1 X94.650 Y136.638 E9.1102
G1 X97.813 Y133.475 E9.3860
G1 X109.750 Y133.475 E10.1221
G1 X109.750 Y128.975 E10.3996
G1 X97.813 Y128.975 E11.1356
G1 X94.650 Y125.812 E11.4115
G1 X94.650 Y74.088 E14.6010
G1 X95.370 Y74.386 F18000
G92 E0.0000
G1 X98.111 Y71.645 E0.2391 F1350
G1 X121.888 Y71.645 E1.7053
G1 X124.630 Y74.386 E1.9443
G1 X124.630 Y145.613 E6.3365
G1 X121.889 Y148.355 E6.5756
G1 X98.111 Y148.355 E8.0418
G1 X95.370 Y145.613 E8.2809
G1 X95.370 Y136.936 E8.8159
G1 X98.112 Y134.195 E9.0550
G1 X110.470 Y134.195 E9.8171
G1 X110.470 Y128.255 E10.1834
G1 X98.111 Y128.255 E10.9454
G1 X95.370 Y125.513 E11.1845
G1 X95.370 Y74.386 E14.3372
G1 X96.090 Y74.685 F18000
G92 E0.0000
G1 X98.410 Y72.365 E0.2023 F1350
G1 X121.590 Y72.365 E1.6317
G1 X123.910 Y74.685 E1.8340
G1 X123.910 Y145.315 E6.1894
G1 X121.590 Y147.635 E6.3917
G1 X98.410 Y147.635 E7.8211
G1 X96.090 Y145.315 E8.0234
G1 X96.090 Y137.235 E8.5217
G1 X98.410 Y134.915 E8.7240
G1 X111.190 Y134.915 E9.5121
G1 X111.190 Y127.535 E9.9671
G1 X98.410 Y127.535 E10.7552
G1 X96.090 Y125.215 E10.9575
G1 X96.090 Y74.685 E14.0734
G1 X96.810 Y74.983 F18000
G92 E0.0000
G1 X98.708 Y73.085 E0.1655 F1350
G1 X121.292 Y73.085 E1.5581
G1 X123.190 Y74.983 E1.7237
G1 X123.190 Y145.017 E6.0423
G1 X121.292 Y146.915 E6.2078
G1 X98.708 Y146.915 E7.6004
G1 X96.810 Y145.017 E7.7659
G1 X96.810 Y137.533 E8.2274
G1 X98.708 Y135.635 E8.3929
G1 X111.910 Y135.635 E9.2070
G1 X111.910 Y126.815 E9.7509
G1 X98.708 Y126.815 E10.5650
G1 X96.810 Y124.917 E10.7305
G1 X96.810 Y74.983 E13.8097
G1 X97.530 Y75.281 F18000
G92 E0.0000
G1 X99.006 Y73.805 E0.1287 F1350
G1 X120.994 Y73.805 E1.4846
G1 X122.470 Y75.281 E1.6133
G1 X122.470 Y144.719 E5.8951
G1 X120.994 Y146.195 E6.0239
G1 X99.006 Y146.195 E7.3797
G1 X97.530 Y144.719 E7.5085
G1 X97.530 Y137.831 E7.9332
G1 X99.006 Y136.355 E8.0619
G1 X112.630 Y136.355 E8.9020
G1 X112.630 Y126.095 E9.5347
G1 X99.006 Y126.095 E10.3748
G1 X97.530 Y124.619 E10.5035
G1 X97.530 Y75.281 E13.5459
G1 X98.250 Y75.579 F18000
G92 E0.0000
G1 X99.304 Y74.525 E0.0920 F1350
G1 X120.696 Y74.525 E1.4110
G1 X121.750 Y75.579 E1.5030
G1 X121.750 Y144.421 E5.7480
G1 X120.696 Y145.475 E5.8400
G1 X99.304 Y145.475 E7.1590
G1 X98.250 Y144.421 E7.2510
G1 X98.250 Y138.129 E7.6389
G1 X99.304 Y137.075 E7.7309
G1 X113.350 Y137.075 E8.5970
G1 X113.350 Y125.375 E9.3185
G1 X99.304 Y125.375 E10.1846
G1 X98.250 Y124.321 E10.2765
G1 X98.250 Y75.579 E13.2821
G1 X98.970 Y75.878 F18000
G92 E0.0000
G1 X99.603 Y75.245 E0.0552 F1350
G1 X120.397 Y75.245 E1.3375
G1 X121.030 Y75.878 E1.3926
G1 X121.030 Y144.122 E5.6009
G1 X120.397 Y144.755 E5.6561
G1 X99.603 Y144.755 E6.9384
G1 X98.970 Y144.122 E6.9935
G1 X98.970 Y138.428 E7.3447
G1 X99.603 Y137.795 E7.3999
G1 X114.070 Y137.795 E8.2920
G1 X114.070 Y124.655 E9.1022
G1 X99.603 Y124.655 E9.9944
G1 X98.970 Y124.022 E10.0495
G1 X98.970 Y75.878 E13.0183
G1 X99.690 Y76.176 F18000
G92 E0.0000
G1 X99.901 Y75.965 E0.0184 F1350
G1 X120.099 Y75.965 E1.2639
G1 X120.310 Y76.176 E1.2823
G1 X120.310 Y143.824 E5.4538
G1 X120.099 Y144.035 E5.4722
G1 X99.901 Y144.035 E6.7177
G1 X99.690 Y143.824 E6.7361
G1 X99.690 Y138.726 E7.0504
G1 X99.901 Y138.515 E7.0688
G1 X114.790 Y138.515 E7.9870
G1 X114.790 Y123.935 E8.8860
G1 X99.901 Y123.935 E9.8042
G1 X99.690 Y123.724 E9.8225
G1 X99.690 Y76.176 E12.7546
; feature inner perimeter
G1 X100.410 Y76.685 F18000
G1 X100.410 Y76.826
G1 X101.850 Y78.125
G92 E0.0000
G1 X108.391 Y78.125 E0.4034 F1215
G1 X108.050 Y78.307 E0.4272
G1 X107.519 Y78.744 E0.4696
G1 X107.082 Y79.275 E0.5120
G1 X106.758 Y79.882 E0.5545
G1 X106.558 Y80.540 E0.5969
G1 X106.491 Y81.225 E0.6393
G1 X106.558 Y81.910 E0.6817
G1 X106.758 Y82.568 E0.7241
G1 X107.082 Y83.175 E0.7666
G1 X107.519 Y83.706 E0.8090
G1 X108.050 Y84.143 E0.8514
G1 X108.657 Y84.467 E0.8938
G1 X109.315 Y84.667 E0.9362
G1 X110.000 Y84.734 E0.9787
G1 X110.685 Y84.667 E1.0211
G1 X111.343 Y84.467 E1.0635
G1 X111.950 Y84.143 E1.1059
G1 X112.481 Y83.706 E1.1483
G1 X112.918 Y83.175 E1.1908
G1 X113.242 Y82.568 E1.2332
G1 X113.442 Y81.910 E1.2756
G1 X113.509 Y81.225 E1.3180
G1 X113.442 Y80.540 E1.3604
G1 X113.242 Y79.882 E1.4029
G1 X112.918 Y79.275 E1.4453
G1 X112.481 Y78.744 E1.4877
G1 X111.950 Y78.307 E1.5301
G1 X111.609 Y78.125 E1.5540
G1 X118.150 Y78.125 E1.9573
G1 X118.150 Y141.875 E5.8884
G1 X101.850 Y141.875 E6.8936
G1 X101.850 Y140.675 E6.9675
G1 X116.950 Y140.675 E7.8987
G1 X116.950 Y121.775 E9.0641
G1 X101.850 Y121.775 E9.9953
G1 X101.850 Y78.125 E12.6869
G1 X101.130 Y77.405 F18000
G92 E0.0000
G1 X118.870 Y77.405 E1.0939 F1215
G1 X118.870 Y142.595 E5.1138
G1 X101.130 Y142.595 E6.2077
G1 X101.130 Y139.955 E6.3705
G1 X116.230 Y139.955 E7.3017
G1 X116.230 Y122.495 E8.3783
G1 X101.130 Y122.495 E9.3095
G1 X101.130 Y77.405 E12.0899
; feature outer perimeter
G1 X100.410 Y76.685 F18000
G92 E0.0000
G1 X119.590 Y76.685 E1.1827 F1080
G1 X119.590 Y143.315 E5.2914
G1 X100.410 Y143.315 E6.4741
G1 X100.410 Y139.235 E6.7257
G1 X115.510 Y139.235 E7.6569
G1 X115.510 Y123.215 E8.6447
G1 X100.410 Y123.215 E9.5758
G1 X100.410 Y76.685 E12.4451
G1 X101.410 Y76.685 F1080
; feature inner perimeter
G1 X107.426 Y80.159 F18000
G92 E0.0000
G1 X107.268 Y80.682 E0.0337 F1215
G1 X107.214 Y81.225 E0.0673
G1 X107.268 Y81.768 E0.1010
G1 X107.426 Y82.291 E0.1347
G1 X107.684 Y82.773 E0.1684
G1 X108.030 Y83.195 E0.2020
G1 X108.452 Y83.541 E0.2357
G1 X108.934 Y83.799 E0.2694
G1 X109.457 Y83.957 E0.3031
G1 X110.000 Y84.011 E0.3367
G1 X110.543 Y83.957 E0.3704
G1 X111.066 Y83.799 E0.4041
G1 X111.548 Y83.541 E0.4378
G1 X111.970 Y83.195 E0.4714
G1 X112.316 Y82.773 E0.5051
G1 X112.574 Y82.291 E0.5388
G1 X112.732 Y81.768 E0.5725
G1 X112.786 Y81.225 E0.6061
G1 X112.732 Y80.682 E0.6398
G1 X112.574 Y80.159 E0.6735
G1 X112.316 Y79.677 E0.7072
G1 X111.970 Y79.255 E0.7408
G1 X111.548 Y78.909 E0.7745
G1 X111.066 Y78.651 E0.8082
G1 X110.543 Y78.493 E0.8419
G1 X110.000 Y78.439 E0.8755
G1 X109.457 Y78.493 E0.9092
G1 X108.934 Y78.651 E0.9429
G1 X108.452 Y78.909 E0.9766
G1 X108.030 Y79.255 E1.0102
G1 X107.684 Y79.677 E1.0439
G1 X107.426 Y80.159 E1.0776
; feature outer perimeter
G1 X108.095 Y80.436 F18000
G92 E0.0000
G1 X107.977 Y80.823 E0.0249 F1080
G1 X107.938 Y81.225 E0.0499
G1 X107.977 Y81.627 E0.0748
G1 X108.095 Y82.014 E0.0997
G1 X108.285 Y82.371 E0.1246
G1 X108.542 Y82.683 E0.1496
G1 X108.854 Y82.940 E0.1745
G1 X109.211 Y83.130 E0.1994
G1 X109.598 Y83.248 E0.2244
G1 X110.000 Y83.287 E0.2493
G1 X110.402 Y83.248 E0.2742
G1 X110.789 Y83.130 E0.2991
G1 X111.146 Y82.940 E0.3241
G1 X111.458 Y82.683 E0.3490
G1 X111.715 Y82.371 E0.3739
G1 X111.905 Y82.014 E0.3989
G1 X112.023 Y81.627 E0.4238
G1 X112.062 Y81.225 E0.4487
G1 X112.023 Y80.823 E0.4736
G1 X111.905 Y80.436 E0.4986
G1 X111.715 Y80.079 E0.5235
G1 X111.458 Y79.767 E0.5484
G1 X111.146 Y79.510 E0.5734
G1 X110.789 Y79.320 E0.5983
G1 X110.402 Y79.202 E0.6232
G1 X110.000 Y79.163 E0.6481
G1 X109.598 Y79.202 E0.6731
G1 X109.211 Y79.320 E0.6980
G1 X108.854 Y79.510 E0.7229
G1 X108.542 Y79.767 E0.7479
G1 X108.285 Y80.079 E0.7728
G1 X108.095 Y80.436 E0.7977
G1 X107.977 Y80.823 F1080
G1 X107.938 Y81.225
G1 X107.957 Y81.416
; feature solid layer
G1 X106.193 Y78.701 F18000
G92 E0.0000
G1 X106.547 Y79.055 E0.0308 F1013
G1 X106.223 Y79.661 E0.0732
G1 X106.203 Y79.728 E0.0776
G1 X105.175 Y78.701 E0.1672
G1 X104.157 Y78.701 E0.2300
G1 X105.981 Y80.525 E0.3891
G1 X105.912 Y81.225 E0.4324
G1 X105.939 Y81.502 E0.4496
G1 X103.139 Y78.701 E0.6938
G1 X102.426 Y78.701 E0.7377
G1 X102.426 Y79.007 E0.7566
G1 X106.240 Y82.820 E1.0892
G1 X106.601 Y83.496 E1.1364
G1 X107.109 Y84.116 E1.1858
G1 X107.729 Y84.624 E1.2353
G1 X108.405 Y84.985 E1.2825
G1 X117.574 Y94.155 E2.0821
G1 X117.574 Y93.136 E2.1449
G1 X109.723 Y85.286 E2.8296
G1 X110.000 Y85.313 E2.8467
G1 X110.700 Y85.244 E2.8901
G1 X117.574 Y92.118 E3.4895
G1 X117.574 Y91.100 E3.5523
G1 X111.496 Y85.022 E4.0823
G1 X111.564 Y85.002 E4.0867
G1 X112.170 Y84.678 E4.1291
G1 X117.574 Y90.082 E4.6003
G1 X117.574 Y89.063 E4.6631
G1 X112.745 Y84.235 E5.0842
G1 X112.891 Y84.116 E5.0958
G1 X113.230 Y83.702 E5.1288
G1 X117.574 Y88.045 E5.5076
G1 X117.574 Y87.027 E5.5704
G1 X113.623 Y83.076 E5.9149
G1 X113.777 Y82.789 E5.9349
G1 X113.911 Y82.346 E5.9635
G1 X117.574 Y86.009 E6.2829
G1 X117.574 Y84.990 E6.3457
G1 X114.063 Y81.479 E6.6519
G1 X114.088 Y81.225 E6.6677
G1 X114.009 Y80.427 E6.7171
G1 X114.001 Y80.399 E6.7189
G1 X117.574 Y83.972 E7.0305
G1 X117.574 Y82.954 E7.0933
G1 X113.321 Y78.701 E7.4642
G1 X114.339 Y78.701 E7.5270
G1 X117.574 Y81.936 E7.8091
G1 X117.574 Y80.918 E7.8719
G1 X115.357 Y78.701 E8.0652
G1 X116.376 Y78.701 E8.1280
G1 X117.574 Y79.899 E8.2325
G1 X117.574 Y78.881 E8.2952
G1 X117.394 Y78.701 E8.3110
G1 X110.701 Y79.293 F18000
