; generated by PrusaSlicer 2.6.0-alpha5+win64 on 2023-04-05 at 20:11:15 UTC


;
;
; 

; external perimeters extrusion width = 0.68mm
; perimeters extrusion width = 0.68mm
; infill extrusion width = 0.68mm
; solid infill extrusion width = 0.68mm
; top infill extrusion width = 0.60mm
; first layer extrusion width = 0.63mm

M73 P0 R93
M107
M190 S85 ; set bed temperature and wait for it to be reached
G10 S230 P1 ; set temperature
;TYPE:Custom
;Set standby temperatures
;G10 R200 P0
G10 R230 P1
G28 ; home all axes
G32 ; run bed.g -- probe bed and enable compensation
;workaround for toolchanger when using only one extruder
T1; select tool
G10 S230 P1 ; set temperature
M116 ; wait for temperature to be reached
G21 ; set units to millimeters
G90 ; use absolute coordinates
M82 ; use absolute distances for extrusion
G92 E0
;tool change macro
T1
G92 E0
; Filament gcode
M107
;LAYER_CHANGE
;Z:0.2
;HEIGHT:0.2
G1 Z.2 F18000
G1 E-.4 F2100
G92 E0
G1 X41.836 Y77.143 F18000
G1 E.4 F2100
;TYPE:Skirt/Brim
;WIDTH:0.63
G1 F2700
G1 X44.963 Y76.426 E.56131
G1 X135.322 Y76.426 E5.10459
G1 X137.676 Y76.823 E5.22462
G1 X139.769 Y77.971 E5.34465
G1 X141.37 Y79.742 E5.46469
G1 X142.301 Y81.94 E5.58471
G1 X142.496 Y83.6 E5.66875
G1 X142.496 Y126.4 E7.82075
G1 X142.099 Y128.754 E7.94078
G1 X140.951 Y130.847 E8.06081
G1 X139.18 Y132.448 E8.18085
G1 X136.982 Y133.379 E8.30087
G1 X135.322 Y133.574 E8.38491
G1 X44.963 Y133.574 E12.92819
G1 X42.609 Y133.177 E13.04822
G1 X39.89 Y131.473 E13.20956
G1 X34.949 Y126.531 E13.56094
G1 X33.565 Y124.586 E13.68097
G1 X32.848 Y121.459 E13.84228
G1 X32.848 Y88.541 E15.49741
G1 X33.245 Y86.187 E15.61744
G1 X34.949 Y83.469 E15.77874
G1 X39.89 Y78.527 E16.13012
G1 X41.762 Y77.196 E16.24561
G1 X42.104 Y77.683 F18000
G1 F2700
G1 X42.179 Y77.63 E16.25023
G1 X44.963 Y77.013 E16.39361
G1 X135.322 Y77.013 E20.93689
G1 X137.574 Y77.41 E21.05187
G1 X139.555 Y78.553 E21.16687
G1 X141.025 Y80.304 E21.28182
G1 X141.808 Y82.453 E21.39682
G1 X141.909 Y83.6 E21.45471
G1 X141.909 Y126.4 E23.60671
G1 X141.512 Y128.652 E23.72169
G1 X140.369 Y130.633 E23.83669
G1 X138.617 Y132.103 E23.95168
G1 X136.469 Y132.886 E24.06663
G1 X135.322 Y132.987 E24.12452
G1 X44.963 Y132.987 E28.6678
G1 X42.711 Y132.59 E28.78278
G1 X40.305 Y131.058 E28.9262
G1 X35.364 Y126.116 E29.27758
G1 X34.052 Y124.243 E29.39256
G1 X33.435 Y121.459 E29.53594
G1 X33.435 Y88.541 E31.19107
G1 X33.832 Y86.289 E31.30605
G1 X35.364 Y83.884 E31.44942
G1 X40.305 Y78.942 E31.8008
G1 X42.03 Y77.735 E31.90666
G1 E31.50666 F2100
G92 E0
G1 X113.82 Y95.533 F18000
G1 E.4 F2100
;TYPE:Perimeter
;WIDTH:0.629999
G1 F3000
G1 X113.82 Y115.521 E1.405
G1 X113.899 Y115.887 E1.42383
G1 X114.063 Y116.129 E1.43853
G1 X114.339 Y116.325 E1.45555
G1 X114.7 Y116.402 E1.47411
G1 X134.42 Y116.402 E2.46564
G1 X134.42 Y125.498 E2.92299
G1 X45.337 Y125.498 E7.40211
G1 X40.924 Y121.085 E7.71591
G1 X40.924 Y88.915 E9.33343
G1 X45.337 Y84.502 E9.64723
G1 X134.42 Y84.502 E14.12635
G1 X134.42 Y93.598 E14.5837
G1 X114.575 Y93.607 E15.58151
G1 X114.235 Y93.731 E15.59971
G1 X113.996 Y93.95 E15.61601
G1 X113.867 Y94.193 E15.62984
G1 X113.82 Y94.479 E15.64441
G1 X113.82 Y95.443 E15.69288
G1 X114.407 Y94.479 F18000
;TYPE:External perimeter
G1 F2700
G1 X114.407 Y115.521 E16.75088
G1 X114.415 Y115.591 E16.75442
G1 X114.514 Y115.749 E16.76379
G1 X114.7 Y115.815 E16.77371
G1 X135.007 Y115.815 E17.79475
G1 X135.007 Y126.085 E18.31113
G1 X45.094 Y126.085 E22.83198
G1 X40.337 Y121.328 E23.17024
G1 X40.337 Y88.672 E24.81219
G1 X45.094 Y83.915 E25.15045
G1 X135.007 Y83.915 E29.6713
G1 X135.007 Y94.185 E30.18768
G1 X114.7 Y94.185 E31.20872
G1 X114.618 Y94.197 E31.21289
G1 X114.465 Y94.302 E31.22222
G1 X114.435 Y94.393 E31.22704
G1 X113.835 Y94.661 F18000
G1 E30.82704 F2100
G92 E0
G1 X77.894 Y118.1 F18000
G1 E.4 F2100
;TYPE:Perimeter
G1 F450
G1 X78.113 Y118.186 E.41183
G1 X78.571 Y118.488 E.43941
G1 X78.936 Y118.854 E.4654
G1 X79.23 Y119.304 E.49243
G1 X79.417 Y119.771 E.51772
G1 X79.512 Y120.278 E.54366
G1 X79.505 Y120.794 E.56961
G1 X79.396 Y121.298 E.59554
G1 X79.189 Y121.771 E.6215
G1 X79.003 Y122.058 E.6387
G1 X78.654 Y122.438 E.66464
G1 X78.237 Y122.742 E.69059
G1 X77.769 Y122.958 E.71651
G1 X77.267 Y123.076 E.74244
G1 X76.751 Y123.094 E.7684
G1 X76.242 Y123.009 E.79435
G1 X75.76 Y122.825 E.82029
G1 X75.324 Y122.55 E.84621
G1 X74.95 Y122.194 E.87217
G1 X74.654 Y121.771 E.89813
G1 X74.448 Y121.298 E.92407
G1 X74.339 Y120.794 E.95
G1 X74.332 Y120.278 E.97595
G1 X74.427 Y119.771 E1.00189
G1 X74.614 Y119.304 E1.02718
G1 X74.885 Y118.884 E1.05231
G1 X75.233 Y118.524 E1.07749
G1 X75.642 Y118.237 E1.10261
G1 X76.1 Y118.034 E1.1278
G1 X76.599 Y117.921 E1.15353
G1 X77.118 Y117.906 E1.17964
G1 X77.639 Y117.999 E1.20625
G1 X77.811 Y118.067 E1.21555
G1 X76.887 Y118.498 F18000
;TYPE:External perimeter
G1 F450
G1 X77.144 Y118.498 E1.22847
G1 X77.523 Y118.578 E1.24795
G1 X77.943 Y118.77 E1.27117
G1 X78.202 Y118.945 E1.28689
G1 X78.476 Y119.219 E1.30637
G1 X78.693 Y119.54 E1.32585
G1 X78.844 Y119.898 E1.34539
G1 X78.925 Y120.29 E1.36552
G1 X78.927 Y120.69 E1.38563
G1 X78.85 Y121.082 E1.40572
G1 X78.697 Y121.451 E1.42581
G1 X78.511 Y121.738 E1.44301
G1 X78.19 Y122.064 E1.46601
G1 X77.856 Y122.284 E1.48612
G1 X77.486 Y122.433 E1.50618
G1 X77.093 Y122.507 E1.52629
G1 X76.693 Y122.501 E1.5464
G1 X76.302 Y122.416 E1.56652
G1 X75.936 Y122.256 E1.5866
G1 X75.609 Y122.027 E1.60667
G1 X75.333 Y121.738 E1.62676
G1 X75.12 Y121.399 E1.64689
G1 X74.978 Y121.026 E1.66696
G1 X74.912 Y120.631 E1.6871
G1 X74.96 Y120.078 E1.71501
G1 X75.05 Y119.771 E1.7311
G1 X75.224 Y119.426 E1.75053
G1 X75.467 Y119.115 E1.77037
G1 X75.776 Y118.851 E1.7908
G1 X76.189 Y118.631 E1.81433
G1 X76.71 Y118.498 E1.84137
G1 X76.797 Y118.498 E1.84574
G1 X77.001 Y118.268 F18000
G1 E1.44574 F2100
G92 E0
G1 X72.229 Y111.278 F18000
G1 E.4 F2100
;TYPE:Perimeter
G1 F3000
G1 X71.504 Y112.379 E.46628
G1 X70.978 Y113.052 E.50923
G1 X70.368 Y113.723 E.55483
G1 X69.473 Y114.563 E.61655
G1 X68.793 Y115.097 E.66002
G1 X68.183 Y115.509 E.69703
G1 X67.243 Y116.063 E.75189
G1 X66.398 Y116.468 E.799
G1 X65.455 Y116.832 E.84982
G1 X64.22 Y117.184 E.91439
G1 X63.213 Y117.372 E.9659
G1 X61.932 Y117.49 E1.03058
G1 X60.993 Y117.494 E1.07779
G1 X60.065 Y117.428 E1.12457
G1 X59.157 Y117.295 E1.17071
G1 X58.249 Y117.092 E1.21749
G1 X57.37 Y116.827 E1.26365
G1 X56.503 Y116.493 E1.31037
G1 X55.672 Y116.101 E1.35657
G1 X54.451 Y115.378 E1.42792
G1 X53.849 Y114.942 E1.46529
G1 X53.375 Y114.558 E1.49596
G1 X52.991 Y114.232 E1.52129
G1 X52.444 Y113.695 E1.55983
G1 X51.703 Y112.864 E1.61581
G1 X51.192 Y112.187 E1.65846
G1 X50.874 Y111.697 E1.68783
G1 X50.387 Y110.839 E1.73744
G1 X50.053 Y110.199 E1.77374
G1 X49.548 Y108.909 E1.84339
G1 X49.285 Y107.996 E1.89116
G1 X49.032 Y106.661 E1.95948
G1 X48.924 Y105.28 E2.02913
G1 X48.938 Y104.329 E2.07695
G1 X49.021 Y103.42 E2.12284
G1 X49.171 Y102.508 E2.16931
G1 X49.389 Y101.61 E2.21577
G1 X49.672 Y100.731 E2.2622
G1 X50.21 Y99.471 E2.33109
G1 X50.656 Y98.644 E2.37833
G1 X51.363 Y97.585 E2.44235
G1 X52.308 Y96.444 E2.51684
G1 X53.067 Y95.704 E2.57014
G1 X54.035 Y94.915 E2.63293
G1 X54.786 Y94.406 E2.67855
G1 X55.688 Y93.892 E2.73075
G1 X56.866 Y93.359 E2.79576
G1 X57.826 Y93.027 E2.84683
G1 X59.077 Y92.721 E2.91159
G1 X60.006 Y92.579 E2.95884
G1 X60.933 Y92.508 E3.00559
G1 X61.851 Y92.506 E3.05175
G1 X62.774 Y92.572 E3.09828
G1 X63.684 Y92.705 E3.14452
G1 X64.591 Y92.907 E3.19124
G1 X65.47 Y93.172 E3.2374
G1 X66.336 Y93.505 E3.28405
G1 X67.168 Y93.897 E3.33029
G1 X67.98 Y94.357 E3.37721
G1 X68.741 Y94.865 E3.42322
G1 X69.473 Y95.436 E3.4699
G1 X70.154 Y96.054 E3.51614
G1 X70.755 Y96.686 E3.55999
G1 X71.377 Y97.438 E3.60906
G1 X71.914 Y98.203 E3.65606
G1 X72.382 Y98.987 E3.70197
G1 X72.8 Y99.822 E3.74892
G1 X73.046 Y100.416 E3.78125
G1 X73.374 Y101.354 E3.83121
G1 X73.658 Y102.44 E3.88765
G1 X73.815 Y103.361 E3.93463
G1 X73.919 Y104.715 E4.00291
G1 X73.873 Y106.115 E4.07334
G1 X73.755 Y107.042 E4.12033
G1 X73.458 Y108.378 E4.18914
G1 X73.17 Y109.273 E4.23641
G1 X72.632 Y110.531 E4.3052
G1 X72.272 Y111.199 E4.34335
G1 X72.072 Y110.338 F18000
;TYPE:External perimeter
G1 F2700
G1 X71.67 Y111.077 E4.38565
G1 X71.017 Y112.052 E4.44465
G1 X70.523 Y112.681 E4.48486
G1 X69.942 Y113.32 E4.52828
G1 X69.478 Y113.769 E4.56074
G1 X68.629 Y114.48 E4.61642
G1 X67.856 Y115.022 E4.66389
G1 X66.953 Y115.553 E4.71656
G1 X66.146 Y115.938 E4.76152
G1 X65.294 Y116.268 E4.80746
G1 X64.06 Y116.619 E4.87197
G1 X63.159 Y116.787 E4.91805
G1 X61.878 Y116.906 E4.98274
G1 X60.993 Y116.907 E5.02724
G1 X60.109 Y116.842 E5.07181
G1 X59.243 Y116.714 E5.11583
G1 X58.379 Y116.52 E5.16035
G1 X57.542 Y116.265 E5.20434
G1 X56.715 Y115.946 E5.24891
G1 X55.924 Y115.571 E5.29292
G1 X54.762 Y114.88 E5.3609
G1 X54.076 Y114.381 E5.40355
G1 X53.497 Y113.891 E5.44169
G1 X53.096 Y113.513 E5.4694
G1 X52.487 Y112.87 E5.51393
G1 X51.911 Y112.164 E5.55974
G1 X51.368 Y111.379 E5.60773
G1 X50.907 Y110.568 E5.65463
G1 X50.574 Y109.928 E5.6909
G1 X50.095 Y108.697 E5.75732
G1 X49.843 Y107.809 E5.80373
G1 X49.608 Y106.55 E5.86813
G1 X49.51 Y105.236 E5.93438
G1 X49.525 Y104.34 E5.97944
G1 X49.605 Y103.474 E6.02317
G1 X49.75 Y102.605 E6.06747
G1 X49.959 Y101.75 E6.11173
G1 X50.24 Y100.887 E6.15736
G1 X50.749 Y99.703 E6.22216
G1 X51.172 Y98.925 E6.26669
G1 X51.851 Y97.912 E6.32801
G1 X52.758 Y96.82 E6.39939
G1 X53.387 Y96.202 E6.44373
G1 X54.382 Y95.39 E6.5083
G1 X55.113 Y94.894 E6.55272
G1 X55.905 Y94.439 E6.59865
G1 X57.108 Y93.894 E6.66505
G1 X57.94 Y93.605 E6.70934
G1 X59.217 Y93.291 E6.77546
G1 X60.093 Y93.16 E6.82
G1 X60.976 Y93.094 E6.86452
G1 X61.851 Y93.093 E6.90852
G1 X62.731 Y93.157 E6.95288
G1 X63.597 Y93.285 E6.9969
G1 X64.462 Y93.48 E7.04148
G1 X65.299 Y93.734 E7.08546
G1 X66.124 Y94.052 E7.12992
G1 X66.916 Y94.427 E7.17398
G1 X67.69 Y94.867 E7.21875
G1 X68.414 Y95.353 E7.26259
G1 X69.111 Y95.898 E7.30708
G1 X69.759 Y96.488 E7.35114
G1 X70.329 Y97.09 E7.39282
G1 X70.922 Y97.809 E7.43968
G1 X71.433 Y98.539 E7.48448
G1 X71.877 Y99.287 E7.52822
G1 X72.275 Y100.084 E7.57301
G1 X72.502 Y100.638 E7.60311
G1 X72.816 Y101.535 E7.65089
G1 X73.088 Y102.58 E7.70518
G1 X73.236 Y103.458 E7.74995
G1 X73.334 Y104.763 E7.81575
G1 X73.286 Y106.092 E7.88262
G1 X73.173 Y106.966 E7.92693
G1 X72.885 Y108.249 E7.99304
G1 X72.612 Y109.091 E8.03755
G1 X72.111 Y110.257 E8.10136
G1 X72.406 Y110.836 F18000
G1 E7.70136 F2100
G92 E0
G1 X74.383 Y90.015 F18000
G1 E.4 F2100
;TYPE:Perimeter
G1 F450
G1 X74.353 Y89.895 E.40622
G1 X74.325 Y89.38 E.43215
G1 X74.4 Y88.87 E.45807
G1 X74.574 Y88.384 E.48403
G1 X74.841 Y87.942 E.50999
G1 X75.189 Y87.562 E.5359
M73 P0 R92
G1 X75.606 Y87.258 E.56185
G1 X76.075 Y87.042 E.58781
G1 X76.589 Y86.922 E.61435
G1 X77.094 Y86.906 E.63975
G1 X77.602 Y86.991 E.66565
G1 X78.084 Y87.175 E.69159
G1 X78.52 Y87.45 E.71751
G1 X78.893 Y87.806 E.74344
G1 X79.189 Y88.229 E.7694
G1 X79.396 Y88.702 E.79536
G1 X79.505 Y89.206 E.82129
G1 X79.512 Y89.722 E.84724
G1 X79.417 Y90.229 E.87318
G1 X79.23 Y90.696 E.89847
G1 X78.958 Y91.116 E.92363
G1 X78.611 Y91.476 E.94877
G1 X78.201 Y91.763 E.97393
G1 X77.744 Y91.966 E.99907
G1 X77.256 Y92.078 E1.02424
G1 X76.756 Y92.094 E1.04939
G1 X76.262 Y92.015 E1.07454
G1 X75.793 Y91.842 E1.09967
G1 X75.365 Y91.582 E1.12485
G1 X74.995 Y91.245 E1.15001
G1 X74.696 Y90.844 E1.17516
G1 X74.48 Y90.392 E1.20035
G1 X74.406 Y90.102 E1.2154
G1 X75.31 Y90.695 F18000
;TYPE:External perimeter
G1 F450
G1 X75.151 Y90.459 E1.22971
G1 X75 Y90.102 E1.2492
G1 X74.918 Y89.69 E1.27032
G1 X74.917 Y89.31 E1.28943
G1 X74.994 Y88.918 E1.30952
G1 X75.147 Y88.549 E1.32961
G1 X75.369 Y88.217 E1.34969
G1 X75.653 Y87.936 E1.36978
G1 X75.987 Y87.716 E1.38989
G1 X76.359 Y87.566 E1.41006
G1 X76.76 Y87.493 E1.43055
G1 X77.151 Y87.499 E1.45021
G1 X77.541 Y87.584 E1.47028
G1 X77.908 Y87.744 E1.49041
G1 X78.235 Y87.973 E1.51048
G1 X78.474 Y88.217 E1.52765
G1 X78.724 Y88.601 E1.55069
G1 X78.866 Y88.974 E1.57076
G1 X78.931 Y89.369 E1.59089
G1 X78.918 Y89.768 E1.61096
G1 X78.826 Y90.156 E1.63101
G1 X78.665 Y90.509 E1.65052
G1 X78.439 Y90.824 E1.67001
G1 X78.131 Y91.108 E1.69107
G1 X77.718 Y91.343 E1.71496
G1 X77.469 Y91.438 E1.72836
G1 X77.087 Y91.507 E1.74788
G1 X76.7 Y91.502 E1.76734
G1 X76.32 Y91.422 E1.78687
G1 X75.963 Y91.271 E1.80636
G1 X75.642 Y91.055 E1.82581
G1 X75.36 Y90.77 E1.84597
G1 X75.029 Y90.739 F18000
G1 E1.44597 F2100
G92 E0
G1 X45.527 Y92.065 F18000
G1 E.4 F2100
;TYPE:Perimeter
G1 F450
G1 X45.081 Y91.96 E.42304
G1 X44.618 Y91.749 E.44862
G1 X44.205 Y91.452 E.4742
G1 X43.857 Y91.08 E.49981
G1 X43.589 Y90.647 E.52541
G1 X43.41 Y90.17 E.55103
G1 X43.328 Y89.668 E.57661
G1 X43.345 Y89.158 E.60227
G1 X43.461 Y88.662 E.62788
G1 X43.672 Y88.198 E.65351
G1 X43.969 Y87.785 E.67909
G1 X44.341 Y87.437 E.7047
G1 X44.774 Y87.168 E.73033
G1 X45.254 Y86.988 E.75611
G1 X45.763 Y86.906 E.78203
G1 X46.262 Y86.923 E.80713
G1 X46.759 Y87.039 E.83279
G1 X47.223 Y87.249 E.8584
G1 X47.637 Y87.546 E.88402
G1 X47.985 Y87.919 E.90967
G1 X48.254 Y88.351 E.93526
G1 X48.433 Y88.828 E.96088
G1 X48.516 Y89.331 E.98651
G1 X48.499 Y89.841 E1.01217
G1 X48.383 Y90.337 E1.03778
G1 X48.172 Y90.801 E1.06341
G1 X47.875 Y91.215 E1.08903
G1 X47.503 Y91.563 E1.11464
G1 X47.07 Y91.832 E1.14027
G1 X46.593 Y92.011 E1.16589
G1 X46.09 Y92.094 E1.19152
G1 X45.616 Y92.078 E1.21537
G1 X46.899 Y91.255 F18000
;TYPE:External perimeter
G1 F450
G1 X46.479 Y91.435 E1.23835
G1 X46.09 Y91.507 E1.25824
G1 X45.691 Y91.501 E1.2783
G1 X45.306 Y91.418 E1.2981
G1 X44.945 Y91.261 E1.31789
G1 X44.621 Y91.037 E1.3377
G1 X44.346 Y90.754 E1.35754
G1 X44.132 Y90.423 E1.37736
G1 X43.986 Y90.056 E1.39722
G1 X43.915 Y89.668 E1.41705
G1 X43.921 Y89.273 E1.43691
G1 X44.003 Y88.887 E1.45675
G1 X44.16 Y88.525 E1.47659
G1 X44.384 Y88.2 E1.49644
G1 X44.667 Y87.925 E1.51628
G1 X44.998 Y87.71 E1.53613
G1 X45.366 Y87.564 E1.55604
G1 X45.832 Y87.493 E1.57974
G1 X46.148 Y87.499 E1.59563
G1 X46.534 Y87.581 E1.61547
G1 X46.896 Y87.738 E1.63531
G1 X47.222 Y87.962 E1.6552
G1 X47.497 Y88.245 E1.67504
G1 X47.711 Y88.576 E1.69486
G1 X47.857 Y88.943 E1.71472
G1 X47.929 Y89.458 E1.74087
G1 X47.923 Y89.726 E1.75435
G1 X47.841 Y90.112 E1.77419
G1 X47.684 Y90.475 E1.79408
G1 X47.46 Y90.8 E1.81393
G1 X47.177 Y91.075 E1.83377
G1 X46.975 Y91.206 E1.84588
G1 X46.887 Y91.712 F18000
G1 E1.44588 F2100
G92 E0
G1 X47.384 Y118.362 F18000
G1 E.4 F2100
;TYPE:Perimeter
G1 F450
G1 X47.571 Y118.487 E.41131
G1 X47.93 Y118.845 E.4368
G1 X48.213 Y119.267 E.46235
G1 X48.418 Y119.766 E.48947
G1 X48.515 Y120.294 E.51646
G1 X48.499 Y120.841 E.54398
G1 X48.383 Y121.337 E.56959
G1 X48.172 Y121.801 E.59522
G1 X47.985 Y122.081 E.61215
G1 X47.637 Y122.454 E.6378
G1 X47.223 Y122.751 E.66342
G1 X46.759 Y122.961 E.68903
G1 X46.262 Y123.077 E.71469
G1 X45.753 Y123.094 E.7403
G1 X45.25 Y123.011 E.76593
G1 X44.774 Y122.832 E.7915
G1 X44.341 Y122.563 E.81713
G1 X43.969 Y122.216 E.84271
G1 X43.672 Y121.802 E.86833
G1 X43.461 Y121.338 E.89396
G1 X43.345 Y120.842 E.91957
G1 X43.328 Y120.333 E.94518
G1 X43.41 Y119.83 E.9708
G1 X43.589 Y119.353 E.99642
G1 X43.857 Y118.92 E1.02202
G1 X44.205 Y118.548 E1.04763
G1 X44.618 Y118.251 E1.07321
G1 X45.081 Y118.04 E1.09879
G1 X45.594 Y117.922 E1.12526
G1 X46.18 Y117.911 E1.15473
G1 X46.683 Y118.012 E1.18053
G1 X47.147 Y118.204 E1.20578
G1 X47.309 Y118.313 E1.2156
G1 X46.327 Y118.537 F18000
;TYPE:External perimeter
G1 F450
G1 X46.534 Y118.581 E1.22624
G1 X46.896 Y118.738 E1.24608
G1 X47.222 Y118.962 E1.26597
G1 X47.497 Y119.245 E1.28581
G1 X47.711 Y119.576 E1.30563
G1 X47.857 Y119.943 E1.32549
G1 X47.929 Y120.331 E1.34533
G1 X47.923 Y120.726 E1.36519
G1 X47.841 Y121.112 E1.38503
G1 X47.684 Y121.475 E1.40492
G1 X47.497 Y121.755 E1.42185
G1 X47.177 Y122.075 E1.4446
G1 X46.846 Y122.29 E1.46445
G1 X46.479 Y122.435 E1.48429
G1 X46.091 Y122.507 E1.50413
G1 X45.696 Y122.501 E1.52399
G1 X45.31 Y122.419 E1.54383
G1 X44.947 Y122.263 E1.5637
G1 X44.622 Y122.039 E1.58355
G1 X44.347 Y121.756 E1.60339
G1 X44.133 Y121.425 E1.62321
G1 X43.987 Y121.058 E1.64307
G1 X43.915 Y120.586 E1.66708
G1 X43.92 Y120.275 E1.68272
G1 X44.003 Y119.889 E1.70257
G1 X44.159 Y119.527 E1.72239
