; G-Code generated by Simplify3D(R) Version 4.1.2
; Jul 11, 2022 at 4:38:21 PM
; Settings Summary
;   processName,Process1
;   applyToModels,z-motor-mount
;   profileName,HSBot
;   profileVersion,2019-11-09 11:59:44
;   baseProfile,Default
;   printMaterial,PETG - Eryone
;   printQuality,Medium
;   printExtruders,
;   extruderName,Extruder - v6,Extruder - lgx ace
;   extruderToolheadNumber,0,1
;   extruderDiameter,0.4,0.4
;   extruderAutoWidth,1,1
;   extruderWidth,0.48,0.48
;   extrusionMultiplier,1.03,1.03
;   extruderUseRetract,0,1
;   extruderRetractionDistance,4,1
;   extruderExtraRestartDistance,0,0
;   extruderRetractionZLift,0,0
;   extruderRetractionSpeed,3600,3600
;   extruderUseCoasting,0,0
;   extruderCoastingDistance,0.2,0.2
;   extruderUseWipe,0,1
;   extruderWipeDistance,1,1
;   primaryExtruder,1
;   layerHeight,0.2
;   topSolidLayers,4
;   bottomSolidLayers,4
;   perimeterOutlines,4
;   printPerimetersInsideOut,1
;   startPointOption,2
;   startPointOriginX,0
;   startPointOriginY,0
;   sequentialIslands,0
;   spiralVaseMode,0
;   firstLayerHeightPercentage,100
;   firstLayerWidthPercentage,150
;   firstLayerUnderspeed,0.25
;   useRaft,0
;   raftExtruder,0
;   raftTopLayers,3
;   raftBaseLayers,2
;   raftOffset,3
;   raftSeparationDistance,0.18
;   raftTopInfill,100
;   aboveRaftSpeedMultiplier,0.3
;   useSkirt,1
;   skirtExtruder,1
;   skirtLayers,1
;   skirtOutlines,15
;   skirtOffset,0
;   usePrimePillar,0
;   primePillarExtruder,999
;   primePillarWidth,12
;   primePillarLocation,7
;   primePillarSpeedMultiplier,1
;   useOozeShield,0
;   oozeShieldExtruder,999
;   oozeShieldOffset,2
;   oozeShieldOutlines,1
;   oozeShieldSidewallShape,1
;   oozeShieldSidewallAngle,30
;   oozeShieldSpeedMultiplier,1
;   infillExtruder,1
;   internalInfillPattern,Rectilinear
;   externalInfillPattern,Rectilinear
;   infillPercentage,15
;   outlineOverlapPercentage,20
;   infillExtrusionWidthPercentage,100
;   minInfillLength,3
;   infillLayerInterval,1
;   internalInfillAngles,45,-45
;   overlapInternalInfillAngles,0
;   externalInfillAngles,45,-45
;   generateSupport,0
;   supportExtruder,1
;   supportInfillPercentage,30
;   supportExtraInflation,0
;   supportBaseLayers,1
;   denseSupportExtruder,0
;   denseSupportLayers,0
;   denseSupportInfillPercentage,70
;   supportLayerInterval,1
;   supportHorizontalPartOffset,0.3
;   supportUpperSeparationLayers,1
;   supportLowerSeparationLayers,1
;   supportType,0
;   supportGridSpacing,2
;   maxOverhangAngle,45
;   supportAngles,0
;   temperatureName,v6,Bed,lgx-ace
;   temperatureNumber,0,0,1
;   temperatureSetpointCount,1,1,1
;   temperatureSetpointLayers,1,1,1
;   temperatureSetpointTemperatures,0,85,240
;   temperatureStabilizeAtStartup,1,1,1
;   temperatureHeatedBed,0,1,0
;   fanLayers,1,2,3
;   fanSpeeds,0,15,15
;   blipFanToFullPower,0
;   adjustSpeedForCooling,0
;   minSpeedLayerTime,15
;   minCoolingSpeedSlowdown,50
;   increaseFanForCooling,0
;   minFanLayerTime,45
;   maxCoolingFanSpeed,70
;   increaseFanForBridging,0
;   bridgingFanSpeed,80
;   use5D,1
;   relativeEdistances,0
;   allowEaxisZeroing,1
;   independentExtruderAxes,0
;   includeM10123,0
;   stickySupport,1
;   applyToolheadOffsets,0
;   gcodeXoffset,0
;   gcodeYoffset,0
;   gcodeZoffset,0
;   overrideMachineDefinition,1
;   machineTypeOverride,0
;   strokeXoverride,220
;   strokeYoverride,220
;   strokeZoverride,175
;   originOffsetXoverride,0
;   originOffsetYoverride,0
;   originOffsetZoverride,0
;   homeXdirOverride,-1
;   homeYdirOverride,-1
;   homeZdirOverride,-1
;   flipXoverride,1
;   flipYoverride,-1
;   flipZoverride,1
;   toolheadOffsets,0,0|0,0|0,0|0,0|0,0|0,0
;   overrideFirmwareConfiguration,0
;   firmwareTypeOverride,RepRap (Marlin/Repetier/Sprinter)
;   GPXconfigOverride,r2
;   baudRateOverride,115200
;   overridePrinterModels,0
;   printerModelsOverride
;   startingGcode,G28 ; home all axes,G32 ; run bed.g -- probe bed and enable compensation
;   layerChangeGcode,
;   retractionGcode,
;   toolChangeGcode,
;   endingGcode,M0 ; call stop.g
;   exportFileFormat,gcode
;   celebration,0
;   celebrationSong,Random Song
;   postProcessing,|; 0.2mm layer, 8 bands 5mm each, total height 40mm|{REPLACE "; layer 25" "M572 D0 S0.69\n; layer 10"}|{REPLACE "; layer 50" "M572 D0 S0.70\n; layer 50"}|{REPLACE "; layer 75" "M572 D0 S0.71\n; layer 75"}|{REPLACE "; layer 100" "M572 D0 S0.72\n; layer 100"}|{REPLACE "; layer 125" "M572 D0 S0.73\n; layer 125"}|{REPLACE "; layer 150" "M572 D0 S0.74\n; layer 150"}|{REPLACE "; layer 175" "M572 D0 S0.75\n; layer 175"}|{REPLACE "; layer 200" "M572 D0 S0.76\n; layer 200"}
;   defaultSpeed,5400
;   outlineUnderspeed,0.8
;   solidInfillUnderspeed,0.75
;   supportUnderspeed,0.8
;   rapidXYspeed,18000
;   rapidZspeed,1200
;   minBridgingArea,60
;   bridgingExtraInflation,0
;   bridgingExtrusionMultiplier,0.96
;   bridgingSpeedMultiplier,1
;   useFixedBridgingAngle,0
;   fixedBridgingAngle,0
;   applyBridgingToPerimeters,0
;   filamentDiameters,1.75|1.75|1.75|1.75|1.75|1.75
;   filamentPricesPerKg,25|46|46|46|46|46
;   filamentDensities,1.29|1.25|1.25|1.25|1.25|1.25
;   useMinPrintHeight,0
;   minPrintHeight,0.3
;   useMaxPrintHeight,0
;   maxPrintHeight,110
;   useDiaphragm,0
;   diaphragmLayerInterval,20
;   robustSlicing,1
;   mergeAllIntoSolid,0
;   onlyRetractWhenCrossingOutline,1
;   retractBetweenLayers,0
;   useRetractionMinTravel,1
;   retractionMinTravel,5
;   retractWhileWiping,1
;   onlyWipeOutlines,1
;   avoidCrossingOutline,1
;   maxMovementDetourFactor,2
;   toolChangeRetractionDistance,12
;   toolChangeExtraRestartDistance,0
;   toolChangeRetractionSpeed,600
;   externalThinWallType,0
;   internalThinWallType,0
;   thinWallAllowedOverlapPercentage,10
;   singleExtrusionMinLength,0.1
;   singleExtrusionMinPrintingWidthPercentage,50
;   singleExtrusionMaxPrintingWidthPercentage,200
;   singleExtrusionEndpointExtension,0.2
;   horizontalSizeCompensation,-0.1
G90
M82
M106 S0
M140 S85
M190 S85
G10 S0 R{0-50} P0
G10 S240 R{240-50} P1
M116 P1
G28 ; home all axes
G32 ; run bed.g -- probe bed and enable compensation
; process Process1
; layer 1, Z = 0.200
T1
G92 E0.0000
G1 E-1.0000 F3600
; feature skirt
; tool H0.200 W0.720
G1 Z0.200 F1200
G1 X78.522 Y27.703 F18000
G1 E0.0000 F3600
G92 E0.0000
G1 X84.126 Y19.297 E0.6230 F1350
G1 X84.126 Y7.954 E1.3225
G1 X90.242 Y1.838 E1.8558
G1 X101.002 Y1.838 E2.5193
G1 X104.839 Y3.427 E2.7754
G1 X107.817 Y6.405 E3.0351
G1 X109.406 Y10.242 E3.2912
G1 X109.406 Y22.238 E4.0309
G1 X109.526 Y22.238 E4.0383
G1 X109.526 Y10.242 E4.7780
G1 X111.116 Y6.405 E5.0341
G1 X114.094 Y3.427 E5.2938
G1 X117.931 Y1.838 E5.5499
G1 X128.691 Y1.838 E6.2134
G1 X134.806 Y7.954 E6.7468
G1 X134.806 Y19.297 E7.4463
G1 X140.411 Y27.703 E8.0693
G1 X141.306 Y30.663 E8.2599
G1 X141.306 Y80.213 E11.3154
G1 X139.717 Y84.050 E11.5715
G1 X132.339 Y91.429 E12.2149
G1 X128.502 Y93.018 E12.4711
G1 X90.431 Y93.018 E14.8186
G1 X86.594 Y91.429 E15.0747
G1 X79.216 Y84.050 E15.7182
G1 X77.626 Y80.213 E15.9743
G1 X77.626 Y30.663 E19.0298
G1 X78.522 Y27.703 E19.2204
G1 X79.180 Y28.014 F18000
G92 E0.0000
G1 X84.846 Y19.515 E0.6299 F1350
G1 X84.846 Y8.252 E1.3244
G1 X90.540 Y2.558 E1.8210
G1 X100.859 Y2.558 E2.4572
G1 X104.431 Y4.038 E2.6957
G1 X107.206 Y6.813 E2.9377
G1 X108.686 Y10.386 E3.1762
G1 X108.686 Y22.958 E3.9514
G1 X110.246 Y22.958 E4.0476
G1 X110.246 Y10.386 E4.8229
G1 X111.726 Y6.813 E5.0613
G1 X114.502 Y4.038 E5.3034
G1 X118.074 Y2.558 E5.5418
G1 X128.393 Y2.558 E6.1781
G1 X134.086 Y8.252 E6.6746
G1 X134.086 Y19.515 E7.3692
G1 X139.752 Y28.014 E7.9990
G1 X140.586 Y30.769 E8.1765
G1 X140.586 Y80.070 E11.2166
G1 X139.106 Y83.642 E11.4551
G1 X131.931 Y90.818 E12.0809
G1 X128.358 Y92.298 E12.3193
G1 X90.574 Y92.298 E14.6492
G1 X87.002 Y90.818 E14.8877
G1 X79.826 Y83.642 E15.5134
G1 X78.346 Y80.070 E15.7519
G1 X78.346 Y30.769 E18.7920
G1 X79.180 Y28.014 E18.9695
G1 X79.839 Y28.325 F18000
G92 E0.0000
G1 X85.566 Y19.733 E0.6367 F1350
G1 X85.566 Y8.550 E1.3263
G1 X90.838 Y3.278 E1.7861
G1 X100.715 Y3.278 E2.3952
G1 X104.023 Y4.648 E2.6159
G1 X106.596 Y7.221 E2.8403
G1 X107.966 Y10.529 E3.0611
G1 X107.966 Y23.678 E3.8719
G1 X110.966 Y23.678 E4.0569
G1 X110.966 Y10.529 E4.8677
G1 X112.337 Y7.221 E5.0885
G1 X114.910 Y4.648 E5.3129
G1 X118.217 Y3.278 E5.5337
G1 X128.094 Y3.278 E6.1427
G1 X133.366 Y8.550 E6.6025
G1 X133.366 Y19.733 E7.2921
G1 X139.094 Y28.325 E7.9288
G1 X139.866 Y30.876 E8.0932
G1 X139.866 Y79.927 E11.1179
G1 X138.496 Y83.235 E11.3387
G1 X131.523 Y90.208 E11.9468
G1 X128.215 Y91.578 E12.1675
G1 X90.718 Y91.578 E14.4798
G1 X87.410 Y90.208 E14.7006
G1 X80.437 Y83.235 E15.3087
G1 X79.066 Y79.927 E15.5295
G1 X79.066 Y30.876 E18.5542
G1 X79.839 Y28.325 E18.7185
G1 X80.497 Y28.635 F18000
G92 E0.0000
G1 X86.286 Y19.951 E0.6436 F1350
G1 X86.286 Y8.848 E1.3283
G1 X91.137 Y3.998 E1.7512
G1 X100.572 Y3.998 E2.3331
G1 X103.615 Y5.259 E2.5362
G1 X105.986 Y7.629 E2.7429
G1 X107.246 Y10.672 E2.9460
G1 X107.246 Y24.398 E3.7924
G1 X111.686 Y24.398 E4.0662
G1 X111.686 Y10.672 E4.9126
G1 X112.947 Y7.629 E5.1157
G1 X115.317 Y5.259 E5.3224
G1 X118.361 Y3.998 E5.5256
G1 X127.796 Y3.998 E6.1074
G1 X132.646 Y8.848 E6.5304
G1 X132.646 Y19.951 E7.2150
G1 X138.436 Y28.636 E7.8586
G1 X139.146 Y30.982 E8.0098
G1 X139.146 Y79.784 E11.0191
G1 X137.886 Y82.827 E11.2222
G1 X131.115 Y89.597 E11.8127
G1 X128.072 Y90.858 E12.0158
G1 X90.861 Y90.858 E14.3104
G1 X87.817 Y89.597 E14.5135
G1 X81.047 Y82.827 E15.1040
G1 X79.786 Y79.784 E15.3071
G1 X79.786 Y30.982 E18.3164
G1 X80.497 Y28.635 E18.4676
G1 X81.155 Y28.946 F18000
G92 E0.0000
G1 X87.006 Y20.169 E0.6505 F1350
G1 X87.006 Y9.146 E1.3302
G1 X91.435 Y4.718 E1.7164
G1 X100.429 Y4.718 E2.2710
G1 X103.207 Y5.869 E2.4564
G1 X105.375 Y8.037 E2.6455
G1 X106.526 Y10.815 E2.8310
G1 X106.526 Y25.118 E3.7129
G1 X112.406 Y25.118 E4.0755
G1 X112.406 Y10.815 E4.9574
G1 X113.557 Y8.037 E5.1429
G1 X115.725 Y5.869 E5.3320
G1 X118.504 Y4.718 E5.5174
G1 X127.498 Y4.718 E6.0720
G1 X131.926 Y9.146 E6.4582
G1 X131.926 Y20.169 E7.1379
G1 X137.778 Y28.946 E7.7884
G1 X138.426 Y31.089 E7.9265
G1 X138.426 Y79.640 E10.9204
G1 X137.275 Y82.419 E11.1058
G1 X130.707 Y88.987 E11.6786
G1 X127.929 Y90.138 E11.8640
G1 X91.004 Y90.138 E14.1410
G1 X88.225 Y88.987 E14.3264
G1 X81.657 Y82.419 E14.8992
G1 X80.506 Y79.640 E15.0847
G1 X80.506 Y31.089 E18.0786
G1 X81.155 Y28.946 E18.2166
G1 X81.813 Y29.257 F18000
G92 E0.0000
G1 X87.726 Y20.387 E0.6573 F1350
G1 X87.726 Y9.445 E1.3321
G1 X91.733 Y5.438 E1.6815
G1 X100.286 Y5.438 E2.2089
G1 X102.800 Y6.479 E2.3767
G1 X104.765 Y8.445 E2.5481
G1 X105.806 Y10.959 E2.7159
G1 X105.806 Y25.838 E3.6334
G1 X113.126 Y25.838 E4.0848
G1 X113.126 Y10.959 E5.0023
G1 X114.168 Y8.445 E5.1701
G1 X116.133 Y6.479 E5.3415
G1 X118.647 Y5.438 E5.5093
G1 X127.200 Y5.438 E6.0367
G1 X131.206 Y9.445 E6.3861
G1 X131.206 Y20.387 E7.0609
G1 X137.119 Y29.257 E7.7182
G1 X137.706 Y31.196 E7.8431
G1 X137.706 Y79.497 E10.8216
G1 X136.665 Y82.011 E10.9894
G1 X130.299 Y88.377 E11.5445
G1 X127.785 Y89.418 E11.7123
G1 X91.147 Y89.418 E13.9716
G1 X88.633 Y88.377 E14.1394
G1 X82.268 Y82.011 E14.6945
G1 X81.226 Y79.497 E14.8623
G1 X81.226 Y31.196 E17.8407
G1 X81.813 Y29.257 E17.9657
G1 X82.471 Y29.567 F18000
G92 E0.0000
G1 X88.446 Y20.605 E0.6642 F1350
G1 X88.446 Y9.743 E1.3340
G1 X92.031 Y6.158 E1.6467
G1 X100.142 Y6.158 E2.1468
G1 X102.392 Y7.090 E2.2970
G1 X104.155 Y8.853 E2.4507
G1 X105.086 Y11.102 E2.6008
G1 X105.086 Y26.558 E3.5539
G1 X113.846 Y26.558 E4.0941
G1 X113.846 Y11.102 E5.0472
G1 X114.778 Y8.853 E5.1973
G1 X116.541 Y7.090 E5.3510
G1 X118.790 Y6.158 E5.5012
G1 X126.901 Y6.158 E6.0013
G1 X130.486 Y9.743 E6.3140
G1 X130.486 Y20.605 E6.9838
G1 X136.461 Y29.567 E7.6480
G1 X136.986 Y31.302 E7.7597
G1 X136.986 Y79.354 E10.7228
G1 X136.055 Y81.603 E10.8730
G1 X129.892 Y87.766 E11.4104
G1 X127.642 Y88.698 E11.5605
G1 X91.290 Y88.698 E13.8021
G1 X89.041 Y87.766 E13.9523
G1 X82.878 Y81.603 E14.4897
G1 X81.946 Y79.354 E14.6399
G1 X81.946 Y31.302 E17.6029
G1 X82.471 Y29.567 E17.7147
G1 X83.130 Y29.878 F18000
G92 E0.0000
G1 X89.166 Y20.823 E0.6711 F1350
G1 X89.166 Y10.041 E1.3359
G1 X92.330 Y6.878 E1.6118
G1 X99.999 Y6.878 E2.0847
G1 X101.984 Y7.700 E2.2172
G1 X103.544 Y9.260 E2.3533
G1 X104.366 Y11.245 E2.4857
G1 X104.366 Y27.278 E3.4744
G1 X114.566 Y27.278 E4.1034
G1 X114.566 Y11.245 E5.0920
G1 X115.388 Y9.260 E5.2245
G1 X116.949 Y7.700 E5.3606
G1 X118.934 Y6.878 E5.4930
G1 X126.603 Y6.878 E5.9660
G1 X129.766 Y10.041 E6.2418
G1 X129.766 Y20.823 E6.9067
G1 X135.803 Y29.878 E7.5778
G1 X136.266 Y31.409 E7.6764
G1 X136.266 Y79.211 E10.6241
G1 X135.444 Y81.195 E10.7565
G1 X129.484 Y87.156 E11.2763
G1 X127.499 Y87.978 E11.4088
G1 X91.434 Y87.978 E13.6327
G1 X89.449 Y87.156 E13.7652
G1 X83.489 Y81.195 E14.2850
G1 X82.666 Y79.211 E14.4175
G1 X82.666 Y31.409 E17.3651
G1 X83.130 Y29.878 E17.4637
G1 X83.788 Y30.189 F18000
G92 E0.0000
G1 X89.886 Y21.041 E0.6779 F1350
G1 X89.886 Y10.339 E1.3379
G1 X92.628 Y7.598 E1.5769
G1 X99.856 Y7.598 E2.0227
G1 X101.576 Y8.310 E2.1375
G1 X102.934 Y9.668 E2.2559
G1 X103.646 Y11.388 E2.3707
G1 X103.646 Y27.998 E3.3949
G1 X115.286 Y27.998 E4.1127
G1 X115.286 Y11.388 E5.1369
G1 X115.999 Y9.668 E5.2517
G1 X117.357 Y8.310 E5.3701
G1 X119.077 Y7.598 E5.4849
G1 X126.305 Y7.598 E5.9306
G1 X129.046 Y10.339 E6.1697
G1 X129.046 Y21.041 E6.8296
G1 X135.145 Y30.189 E7.5076
G1 X135.546 Y31.515 E7.5930
G1 X135.546 Y79.067 E10.5253
G1 X134.834 Y80.788 E10.6401
G1 X129.076 Y86.545 E11.1422
G1 X127.356 Y87.258 E11.2570
G1 X91.577 Y87.258 E13.4633
G1 X89.857 Y86.545 E13.5781
G1 X84.099 Y80.787 E14.0803
G1 X83.386 Y79.067 E14.1951
G1 X83.386 Y31.515 E17.1273
G1 X83.788 Y30.189 E17.2128
G1 X84.446 Y30.499 F18000
G92 E0.0000
G1 X90.606 Y21.259 E0.6848 F1350
G1 X90.606 Y10.638 E1.3398
G1 X92.926 Y8.318 E1.5421
G1 X99.713 Y8.318 E1.9606
G1 X101.168 Y8.921 E2.0577
G1 X102.323 Y10.076 E2.1585
G1 X102.926 Y11.532 E2.2556
G1 X102.926 Y28.718 E3.3154
G1 X116.006 Y28.718 E4.1220
G1 X116.006 Y11.532 E5.1817
G1 X116.609 Y10.076 E5.2789
G1 X117.765 Y8.921 E5.3796
G1 X119.220 Y8.318 E5.4768
G1 X126.007 Y8.318 E5.8953
G1 X128.326 Y10.638 E6.0976
G1 X128.326 Y21.259 E6.7525
G1 X134.487 Y30.499 E7.4374
G1 X134.826 Y31.622 E7.5097
G1 X134.826 Y78.924 E10.4265
G1 X134.223 Y80.380 E10.5237
G1 X128.668 Y85.935 E11.0081
G1 X127.213 Y86.538 E11.1053
G1 X91.720 Y86.538 E13.2939
G1 X90.265 Y85.935 E13.3911
G1 X84.709 Y80.380 E13.8755
G1 X84.106 Y78.924 E13.9727
G1 X84.106 Y31.622 E16.8895
G1 X84.446 Y30.499 E16.9618
G1 X85.104 Y30.810 F18000
G92 E0.0000
G1 X91.326 Y21.477 E0.6917 F1350
G1 X91.326 Y10.936 E1.3417
G1 X93.224 Y9.038 E1.5072
G1 X99.569 Y9.038 E1.8985
G1 X100.760 Y9.531 E1.9780
G1 X101.713 Y10.484 E2.0611
G1 X102.206 Y11.675 E2.1405
G1 X102.206 Y29.438 E3.2359
G1 X116.726 Y29.438 E4.1313
G1 X116.726 Y11.675 E5.2266
G1 X117.220 Y10.484 E5.3061
G1 X118.172 Y9.531 E5.3892
G1 X119.363 Y9.038 E5.4687
G1 X125.708 Y9.038 E5.8599
G1 X127.606 Y10.936 E6.0254
G1 X127.606 Y21.477 E6.6755
G1 X133.828 Y30.810 E7.3671
G1 X134.106 Y31.729 E7.4263
G1 X134.106 Y78.781 E10.3278
G1 X133.613 Y79.972 E10.4072
G1 X128.260 Y85.325 E10.8740
G1 X127.069 Y85.818 E10.9535
G1 X91.863 Y85.818 E13.1245
G1 X90.672 Y85.325 E13.2040
G1 X85.320 Y79.972 E13.6708
G1 X84.826 Y78.781 E13.7503
G1 X84.826 Y31.729 E16.6517
G1 X85.104 Y30.810 E16.7109
G1 X85.763 Y31.121 F18000
G92 E0.0000
G1 X92.046 Y21.695 E0.6985 F1350
G1 X92.046 Y11.234 E1.3436
G1 X93.523 Y9.758 E1.4724
G1 X99.426 Y9.758 E1.8364
G1 X100.352 Y10.142 E1.8982
G1 X101.103 Y10.892 E1.9636
G1 X101.486 Y11.818 E2.0255
G1 X101.486 Y30.158 E3.1564
G1 X117.446 Y30.158 E4.1405
G1 X117.446 Y11.818 E5.2715
G1 X117.830 Y10.892 E5.3333
G1 X118.580 Y10.142 E5.3987
G1 X119.506 Y9.758 E5.4605
G1 X125.410 Y9.758 E5.8246
G1 X126.886 Y11.234 E5.9533
G1 X126.886 Y21.695 E6.5984
G1 X133.170 Y31.121 E7.2969
G1 X133.386 Y31.835 E7.3430
G1 X133.386 Y78.638 E10.2290
G1 X133.003 Y79.564 E10.2908
G1 X127.852 Y84.714 E10.7400
G1 X126.926 Y85.098 E10.8018
G1 X92.006 Y85.098 E12.9551
G1 X91.080 Y84.714 E13.0169
G1 X85.930 Y79.564 E13.4660
