; generated by PrusaSlicer 2.6.0-alpha5+win64 on 2023-04-03 at 14:08:51 UTC


;
;
; 

; external perimeters extrusion width = 0.68mm
; perimeters extrusion width = 0.68mm
; infill extrusion width = 0.68mm
; solid infill extrusion width = 0.68mm
; top infill extrusion width = 0.60mm
; first layer extrusion width = 0.63mm

M73 P0 R48
M107
M190 S85 ; set bed temperature and wait for it to be reached
G10 S230 P1 ; set temperature
;TYPE:Custom
;Set standby temperatures
G10 R200 P0
G10 R220 P1
G28 ; home all axes
G32 ; run bed.g -- probe bed and enable compensation
;workaround for toolchanger when using only one extruder
T1; select tool
G10 S230 P1 ; set temperature
M116 ; wait for temperature to be reached
G21 ; set units to millimeters
G90 ; use absolute coordinates
M82 ; use absolute distances for extrusion
G92 E0
;tool change macro
T1
G92 E0
; Filament gcode
M107
;LAYER_CHANGE
;Z:0.2
;HEIGHT:0.2
G1 Z.2 F18000
G1 E-.4 F2100
G92 E0
G1 X107.392 Y84.135 F18000
G1 E.4 F2100
;TYPE:Skirt/Brim
;WIDTH:0.63
G1 F1500
G1 X117.18 Y71.642 E1.19799
G1 X118.146 Y70.605 E1.26925
G1 X118.987 Y69.928 E1.32353
G1 X120.604 Y69.028 E1.41658
G1 X121.621 Y68.669 E1.47081
G1 X123.446 Y68.357 E1.5639
G1 X126.4 Y68.339 E1.71243
G1 X128.852 Y68.736 E1.83732
G1 X131.052 Y69.888 E1.96218
G1 X132.777 Y71.676 E2.0871
G1 X133.848 Y73.916 E2.21194
G1 X134.161 Y76.1 E2.32287
G1 X134.161 Y133.9 E5.22907
G1 X133.764 Y136.352 E5.35396
G1 X132.612 Y138.552 E5.47882
G1 X130.824 Y140.277 E5.60374
G1 X128.584 Y141.348 E5.72858
G1 X126.4 Y141.661 E5.83951
G1 X123.15 Y141.645 E6.00292
G1 X122.227 Y141.54 E6.04963
G1 X120.921 Y141.216 E6.11729
G1 X91.793 Y131.506 E7.66109
G1 X90.23 Y130.813 E7.74706
G1 X89.325 Y130.223 E7.80138
G1 X88.582 Y129.601 E7.8501
G1 X87.841 Y128.814 E7.90445
G1 X87.143 Y127.847 E7.96441
G1 X86.631 Y126.894 E8.0188
G1 X86.242 Y125.886 E8.07313
G1 X85.982 Y124.837 E8.12747
G1 X85.854 Y123.761 E8.18195
G1 X85.839 Y120.7 E8.33586
G1 X86.236 Y118.248 E8.46075
G1 X87.011 Y116.598 E8.55241
G1 X106.56 Y85.198 E10.41219
G1 X107.337 Y84.206 E10.47555
G1 X107.797 Y84.566 F18000
G1 F1500
G1 X117.641 Y72.005 E11.27796
G1 X118.539 Y71.041 E11.3442
G1 X119.246 Y70.465 E11.39005
G1 X120.012 Y69.972 E11.43585
G1 X120.83 Y69.569 E11.4817
G1 X121.785 Y69.233 E11.5326
G1 X122.674 Y69.034 E11.57841
G1 X123.583 Y68.937 E11.62437
G1 X126.4 Y68.926 E11.76601
G1 X128.754 Y69.323 E11.88604
G1 X130.847 Y70.471 E12.00607
G1 X132.448 Y72.242 E12.12611
G1 X133.379 Y74.44 E12.24613
G1 X133.574 Y76.1 E12.33017
G1 X133.574 Y133.9 E15.23637
G1 X133.177 Y136.254 E15.3564
G1 X132.029 Y138.347 E15.47643
G1 X130.258 Y139.948 E15.59647
G1 X128.06 Y140.879 E15.71649
G1 X126.4 Y141.074 E15.80053
G1 X123.281 Y141.064 E15.95736
G1 X122.321 Y140.961 E16.00591
G1 X121.106 Y140.659 E16.06886
G1 X91.978 Y130.95 E17.61264
G1 X90.516 Y130.3 E17.69309
G1 X89.673 Y129.75 E17.7437
G1 X88.986 Y129.175 E17.78874
G1 X88.223 Y128.355 E17.84506
G1 X87.64 Y127.534 E17.89569
G1 X87.211 Y126.748 E17.94071
G1 X86.801 Y125.706 E17.99701
G1 X86.58 Y124.838 E18.04205
G1 X86.447 Y123.839 E18.09272
G1 X86.426 Y120.7 E18.25055
G1 X86.823 Y118.346 E18.37058
G1 X87.51 Y116.908 E18.45071
G1 X107.058 Y85.508 E20.31046
G1 X107.741 Y84.637 E20.36611
G1 X108.201 Y84.997 F18000
G1 F1500
G1 X118.103 Y72.369 E21.17297
G1 X118.933 Y71.477 E21.23423
G1 X119.588 Y70.942 E21.27675
G1 X121.056 Y70.111 E21.36157
G1 X121.948 Y69.797 E21.40912
G1 X122.773 Y69.613 E21.45162
G1 X123.988 Y69.513 E21.51292
G1 X126.4 Y69.513 E21.6342
G1 X128.652 Y69.91 E21.74918
G1 X130.633 Y71.053 E21.86418
G1 X132.103 Y72.804 E21.97913
G1 X132.886 Y74.953 E22.09413
G1 X132.987 Y76.1 E22.15202
G1 X132.987 Y133.9 E25.05822
G1 X132.59 Y136.152 E25.1732
G1 X131.447 Y138.133 E25.2882
G1 X129.696 Y139.603 E25.40315
G1 X127.547 Y140.386 E25.51815
G1 X126.4 Y140.487 E25.57604
G1 X123.665 Y140.487 E25.71356
G1 X122.415 Y140.381 E25.77664
G1 X121.292 Y140.102 E25.83482
G1 X92.164 Y130.393 E27.3786
G1 X90.803 Y129.788 E27.45349
G1 X90.021 Y129.277 E27.50046
G1 X89.39 Y128.749 E27.54183
G1 X88.677 Y127.983 E27.59445
G1 X88.137 Y127.221 E27.64141
G1 X87.743 Y126.499 E27.68277
G1 X87.36 Y125.525 E27.73539
G1 X87.156 Y124.729 E27.77671
G1 X87.033 Y123.802 E27.82373
G1 X87.013 Y120.7 E27.9797
G1 X87.41 Y118.448 E28.09468
G1 X88.008 Y117.219 E28.1634
G1 X107.557 Y85.819 E30.02318
G1 X108.145 Y85.068 E30.07114
G1 E29.67114 F2100
G92 E0
G1 X124.483 Y89.049 F18000
G1 E.4 F2100
;TYPE:Perimeter
;WIDTH:0.752629
G1 F1200
G1 X124.437 Y88.962 E.40598
;WIDTH:0.711752
G1 X124.382 Y88.856 E.41282
;WIDTH:0.670876
G1 X124.326 Y88.75 E.41927
;WIDTH:0.629999
G1 X123.96 Y88.466 E.44256
G1 X123.621 Y88.398 E.45994
G1 X115.009 Y88.398 E.89295
G1 X123.685 Y77.393 E1.59756
G1 X124.013 Y77.008 E1.62299
G1 X125.498 Y77.004 E1.69766
G1 X125.498 Y78.022 E1.74885
G1 X125.498 Y88.36 E2.26865
;WIDTH:0.670876
G1 X125.477 Y88.543 E2.27856
;WIDTH:0.711752
G1 X125.457 Y88.727 E2.28916
;WIDTH:0.752629
G1 X125.437 Y88.911 E2.30041
;WIDTH:0.793505
G1 X125.416 Y89.095 E2.31231
;WIDTH:0.834381
G1 X125.396 Y89.279 E2.32486
G1 X125.396 Y95.721 E2.76153
;WIDTH:0.844824
G1 X125.391 Y95.961 E2.77802
G1 X125.412 Y96.059 E2.7849
;WIDTH:0.801859
G1 X125.433 Y96.156 E2.79135
;WIDTH:0.758894
G1 X125.455 Y96.253 E2.79745
;WIDTH:0.715929
G1 X125.476 Y96.35 E2.80317
;WIDTH:0.672964
G1 X125.498 Y96.448 E2.80859
;WIDTH:0.629999
G1 X125.498 Y99.352 E2.9546
;WIDTH:0.670876
G1 X125.477 Y99.498 E2.96253
;WIDTH:0.711752
G1 X125.457 Y99.643 E2.97091
;WIDTH:0.752629
G1 X125.437 Y99.788 E2.97981
;WIDTH:0.793505
G1 X125.416 Y99.933 E2.98923
;WIDTH:0.834381
G1 X125.396 Y100.079 E2.99922
G1 X125.396 Y120.721 E4.39843
;WIDTH:0.844826
G1 X125.391 Y120.961 E4.41492
G1 X125.412 Y121.097 E4.42437
;WIDTH:0.801861
G1 X125.433 Y121.233 E4.43331
;WIDTH:0.758896
G1 X125.455 Y121.369 E4.44176
;WIDTH:0.71593
G1 X125.476 Y121.505 E4.44969
;WIDTH:0.672965
G1 X125.498 Y121.64 E4.45707
;WIDTH:0.629999
G1 X125.498 Y132.998 E5.02815
G1 X123.919 Y132.998 E5.10754
G1 X123.591 Y132.974 E5.12408
G1 X94.561 Y123.297 E6.66268
G1 X94.509 Y123.249 E6.66624
M73 P1 R48
G1 X94.505 Y121.602 E6.74905
G1 X123.621 Y121.602 E8.21301
G1 X123.96 Y121.534 E8.23039
G1 X124.326 Y121.25 E8.25368
;WIDTH:0.672965
G1 X124.38 Y121.178 E8.25854
;WIDTH:0.71593
G1 X124.433 Y121.107 E8.26365
;WIDTH:0.758896
G1 X124.487 Y121.035 E8.26917
;WIDTH:0.801861
G1 X124.541 Y120.964 E8.27497
;WIDTH:0.844826
G1 X124.595 Y120.892 E8.28115
G1 X124.604 Y120.721 E8.29291
;WIDTH:0.834381
G1 X124.604 Y100.079 E9.69212
G1 X124.561 Y99.992 E9.6987
;WIDTH:0.793505
G1 X124.518 Y99.905 E9.70494
;WIDTH:0.752629
G1 X124.474 Y99.818 E9.71087
;WIDTH:0.711752
G1 X124.431 Y99.732 E9.71638
;WIDTH:0.670876
G1 X124.388 Y99.645 E9.7216
;WIDTH:0.629999
G1 X124.12 Y99.352 E9.74157
G1 X123.825 Y99.222 E9.75778
G1 X123.621 Y99.198 E9.76811
G1 X111.502 Y99.198 E10.37746
G1 X111.502 Y96.602 E10.50799
G1 X123.621 Y96.602 E11.11734
G1 X123.698 Y96.599 E11.12121
G1 X124.12 Y96.448 E11.14375
;WIDTH:0.672964
G1 X124.215 Y96.337 E11.15163
;WIDTH:0.715929
G1 X124.31 Y96.225 E11.1601
;WIDTH:0.758894
G1 X124.405 Y96.114 E11.16906
;WIDTH:0.801859
G1 X124.5 Y96.003 E11.17856
;WIDTH:0.844824
G1 X124.595 Y95.892 E11.18859
G1 X124.604 Y95.721 E11.20035
;WIDTH:0.834381
G1 X124.604 Y89.279 E11.63702
G1 X124.549 Y89.173 E11.64511
;WIDTH:0.793505
G1 X124.525 Y89.128 E11.64839
G1 X123.915 Y89.279 F18000
;TYPE:External perimeter
;WIDTH:0.629999
G1 F750
G1 X123.856 Y89.102 E11.65777
G1 X123.734 Y89.008 E11.66551
G1 X123.621 Y88.985 E11.67131
G1 X113.798 Y88.985 E12.16521
G1 X123.224 Y77.03 E12.93068
G1 X123.641 Y76.543 E12.96292
G1 X123.929 Y76.421 E12.97865
G1 X126.085 Y76.416 E13.08705
G1 X126.085 Y133.585 E15.96152
G1 X123.919 Y133.585 E16.07043
M73 P1 R47
G1 X123.451 Y133.546 E16.09404
G1 X94.988 Y124.059 E17.60257
G1 X94.246 Y123.798 E17.64212
G1 X94.038 Y123.627 E17.65566
G1 X93.922 Y123.343 E17.67108
G1 X93.916 Y121.015 E17.78813
G1 X123.621 Y121.015 E19.28171
G1 X123.734 Y120.992 E19.28751
G1 X123.856 Y120.898 E19.29525
G1 X123.915 Y120.721 E19.30463
G1 X123.915 Y100.079 E20.34252
G1 X123.877 Y99.934 E20.35006
G1 X123.787 Y99.836 E20.35675
G1 X123.621 Y99.785 E20.36548
G1 X110.915 Y99.785 E21.00434
G1 X110.915 Y96.015 E21.1939
G1 X123.689 Y96.007 E21.83618
G1 X123.877 Y95.866 E21.848
G1 X123.915 Y95.721 E21.85554
G1 X123.915 Y89.369 E22.17492
G1 X124.053 Y89.154 F18000
G1 E21.77492 F2100
G92 E0
G1 X124.432 Y96.357 F18000
G1 E.4 F2100
;TYPE:Solid infill
;WIDTH:0.634484
G1 F2250
G1 X125.058 Y96.983 E.44485
G1 X125.058 Y97.819 E.48721
G1 X124.149 Y96.911 E.5523
G1 X123.935 Y97.006 E.56416
G1 X123.736 Y97.038 E.57437
G1 X123.44 Y97.038 E.58937
G1 X125.058 Y98.656 E.7053
G1 X125.058 Y99.332 E.73955
G1 X125.022 Y99.457 E.74614
G1 X122.603 Y97.038 E.91946
G1 X121.767 Y97.039 E.96182
G1 X123.49 Y98.762 E1.08527
G1 X122.653 Y98.762 E1.12768
G1 X120.931 Y97.039 E1.2511
G1 X120.094 Y97.039 E1.29351
G1 X121.817 Y98.761 E1.41693
G1 X120.98 Y98.761 E1.45934
G1 X119.258 Y97.04 E1.58269
G1 X118.422 Y97.04 E1.62505
G1 X120.143 Y98.761 E1.74836
G1 X119.306 Y98.76 E1.79077
G1 X117.586 Y97.04 E1.91401
G1 X116.749 Y97.041 E1.95642
G1 X118.469 Y98.76 E2.07962
G1 X117.632 Y98.76 E2.12203
G1 X115.913 Y97.041 E2.2452
G1 X115.077 Y97.041 E2.28756
G1 X116.795 Y98.759 E2.41066
G1 X115.958 Y98.759 E2.45307
G1 X114.24 Y97.041 E2.57617
G1 X113.404 Y97.042 E2.61853
G1 X115.121 Y98.759 E2.74155
G1 X114.284 Y98.759 E2.78396
G1 X112.568 Y97.042 E2.90695
G1 X111.942 Y97.042 E2.93867
G1 X111.942 Y97.253 E2.94936
G1 X113.447 Y98.758 E3.05719
G1 X112.611 Y98.758 E3.09955
G1 X111.678 Y97.826 E3.16636
G1 E2.76636 F2100
G92 E0
G1 X125.322 Y78.39 F18000
G1 E.4 F2100
;WIDTH:0.640846
G1 F2250
G1 X124.379 Y77.447 E.46829
G1 X124.203 Y77.448 E.4773
G1 X123.908 Y77.822 E.50169
G1 X125.058 Y78.972 E.58497
G1 X125.058 Y79.817 E.62824
G1 X123.535 Y78.295 E.7385
G1 X123.162 Y78.768 E.76935
G1 X125.058 Y80.663 E.90662
G1 X125.058 Y81.509 E.94994
G1 X122.789 Y79.24 E1.11426
G1 X122.417 Y79.713 E1.14508
G1 X125.058 Y82.354 E1.33634
G1 X125.058 Y83.2 E1.37966
G1 X122.044 Y80.186 E1.59794
G1 X121.671 Y80.659 E1.62879
G1 X125.058 Y84.045 E1.87404
G1 X125.058 Y84.891 E1.91736
G1 X121.298 Y81.132 E2.18963
G1 X120.926 Y81.605 E2.22045
G1 X125.058 Y85.737 E2.51969
G1 X125.058 Y86.582 E2.56296
G1 X120.553 Y82.077 E2.88922
G1 X120.18 Y82.55 E2.92007
G1 X125.058 Y87.428 E3.27334
G1 X125.058 Y88.273 E3.31661
G1 X119.807 Y83.023 E3.69686
G1 X119.434 Y83.496 E3.72771
G1 X123.961 Y88.023 E4.05556
G1 X123.636 Y87.958 E4.07253
G1 X123.051 Y87.958 E4.10249
G1 X119.062 Y83.969 E4.39138
G1 X118.689 Y84.441 E4.42219
G1 X122.205 Y87.958 E4.67686
G1 X121.36 Y87.958 E4.72013
G1 X118.316 Y84.914 E4.94058
G1 X117.943 Y85.387 E4.97143
G1 X120.514 Y87.958 E5.15762
G1 X119.668 Y87.958 E5.20094
G1 X117.57 Y85.86 E5.35288
G1 X117.198 Y86.333 E5.3837
G1 X118.823 Y87.958 E5.50138
G1 X117.977 Y87.958 E5.5447
G1 X116.825 Y86.805 E5.62817
G1 X116.452 Y87.278 E5.65902
G1 X117.132 Y87.958 E5.70827
G1 X116.286 Y87.958 E5.75159
G1 X115.891 Y87.563 E5.7802
G1 E5.3802 F2100
G92 E0
G1 X125.322 Y122.21 F18000
G1 E.4 F2100
;WIDTH:0.639352
G1 F2250
G1 X124.652 Y121.541 E.44836
G1 X124.178 Y121.91 E.47904
G1 X125.058 Y122.789 E.54258
G1 X125.058 Y123.633 E.58569
G1 X123.467 Y122.042 E.70062
G1 X122.624 Y122.042 E.74368
G1 X125.058 Y124.476 E.91951
G1 X125.058 Y125.32 E.96262
G1 X121.78 Y122.042 E1.19942
G1 X120.937 Y122.042 E1.24248
G1 X125.058 Y126.163 E1.54018
G1 X125.058 Y127.007 E1.58329
G1 X120.093 Y122.042 E1.94196
G1 X119.25 Y122.042 E1.98502
G1 X125.058 Y127.85 E2.40459
G1 X125.058 Y128.694 E2.4477
G1 X118.406 Y122.042 E2.92824
G1 X117.563 Y122.042 E2.9713
G1 X125.058 Y129.537 E3.51274
G1 X125.058 Y130.381 E3.55585
G1 X116.719 Y122.042 E4.15826
G1 X115.876 Y122.042 E4.20132
G1 X125.058 Y131.224 E4.86463
G1 X125.058 Y132.068 E4.90774
M73 P2 R47
G1 X115.032 Y122.042 E5.63202
G1 X114.189 Y122.042 E5.67508
G1 X124.704 Y132.558 E6.43472
G1 X123.861 Y132.558 E6.47778
G1 X113.345 Y122.042 E7.23745
G1 X112.502 Y122.042 E7.28051
G1 X122.659 Y132.199 E8.01425
G1 X121.394 Y131.777 E8.08237
G1 X111.659 Y122.042 E8.78563
G1 X110.815 Y122.042 E8.82874
G1 X120.128 Y131.356 E9.50155
G1 X118.863 Y130.934 E9.56967
G1 X109.972 Y122.042 E10.21199
G1 X109.128 Y122.042 E10.2551
G1 X117.598 Y130.512 E10.86697
G1 X116.333 Y130.091 E10.93507
G1 X108.285 Y122.042 E11.51649
G1 X107.441 Y122.042 E11.5596
G1 X115.067 Y129.669 E12.11054
G1 X113.802 Y129.247 E12.17866
G1 X106.598 Y122.042 E12.69911
G1 X105.754 Y122.042 E12.74222
G1 X112.537 Y128.825 E13.23222
G1 X111.272 Y128.404 E13.30032
G1 X104.911 Y122.042 E13.75987
G1 X104.067 Y122.042 E13.80298
G1 X110.007 Y127.982 E14.23209
G1 X108.741 Y127.56 E14.30026
G1 X103.224 Y122.042 E14.69884
G1 X102.38 Y122.042 E14.74195
G1 X107.476 Y127.138 E15.11008
G1 X106.211 Y126.717 E15.17818
G1 X101.537 Y122.042 E15.51587
G1 X100.693 Y122.042 E15.55898
G1 X104.946 Y126.295 E15.86622
G1 X103.68 Y125.873 E15.93439
G1 X99.85 Y122.042 E16.2111
G1 X99.006 Y122.042 E16.25421
G1 X102.415 Y125.451 E16.50048
G1 X101.15 Y125.03 E16.56858
G1 X98.163 Y122.042 E16.7844
G1 X97.319 Y122.042 E16.82751
G1 X99.885 Y124.608 E17.01288
G1 X98.62 Y124.186 E17.081
G1 X96.476 Y122.042 E17.23588
G1 X95.632 Y122.042 E17.27899
G1 X97.354 Y123.764 E17.40339
G1 X96.089 Y123.343 E17.47149
G1 X94.682 Y121.935 E17.57317
;LAYER_CHANGE
;Z:0.4
;HEIGHT:0.2
G1 Z.4 F18000
G10 S220 P1 ; set temperature
G1 E17.17317 F2100
G92 E0
G1 X124.537 Y89.072 F18000
G1 E.4 F2100
;TYPE:Perimeter
;WIDTH:0.751253
G1 F2400
G1 X124.462 Y88.899 E.41144
;WIDTH:0.713126
G1 X124.38 Y88.71 E.42327
;WIDTH:0.674999
G1 X123.986 Y88.403 E.45031
G1 X123.621 Y88.33 E.47046
G1 X115.148 Y88.33 E.92914
G1 X124.023 Y77.077 E1.70497
G1 X125.43 Y77.072 E1.78114
G1 X125.43 Y78.022 E1.83257
G1 X125.43 Y88.36 E2.39221
;WIDTH:0.713126
G1 X125.411 Y88.666 E2.40981
;WIDTH:0.751253
G1 X125.392 Y88.972 E2.42841
;WIDTH:0.78938
G1 X125.373 Y89.279 E2.44807
G1 X125.373 Y95.721 E2.85991
G1 X125.392 Y95.964 E2.87549
;WIDTH:0.751253
G1 X125.411 Y96.206 E2.89022
;WIDTH:0.713126
G1 X125.43 Y96.448 E2.90415
;WIDTH:0.674999
G1 X125.43 Y99.352 E3.06136
;WIDTH:0.713126
G1 X125.411 Y99.594 E3.07529
;WIDTH:0.751253
G1 X125.392 Y99.836 E3.09002
;WIDTH:0.78938
G1 X125.373 Y100.079 E3.1056
G1 X125.373 Y120.721 E4.42525
;WIDTH:0.799825
G1 X125.368 Y120.961 E4.44081
G1 X125.389 Y121.188 E4.45559
;WIDTH:0.758217
G1 X125.41 Y121.414 E4.46949
;WIDTH:0.716608
G1 X125.43 Y121.64 E4.48258
;WIDTH:0.674999
G1 X125.43 Y132.93 E5.09376
G1 X123.919 Y132.93 E5.17556
G1 X123.608 Y132.908 E5.19244
G1 X94.576 Y123.231 E6.84907
G1 X94.572 Y121.67 E6.93357
G1 X123.621 Y121.67 E8.50612
G1 X123.986 Y121.597 E8.52627
G1 X124.38 Y121.29 E8.55331
;WIDTH:0.716608
G1 X124.459 Y121.159 E8.56214
;WIDTH:0.758217
G1 X124.538 Y121.027 E8.57156
;WIDTH:0.799825
G1 X124.617 Y120.896 E8.58148
G1 X124.627 Y120.721 E8.59284
;WIDTH:0.78938
G1 X124.627 Y100.079 E9.91249
G1 X124.567 Y99.923 E9.92318
;WIDTH:0.751253
G1 X124.507 Y99.767 E9.93332
;WIDTH:0.713126
G1 X124.447 Y99.611 E9.94291
;WIDTH:0.674999
G1 X124.158 Y99.297 E9.96601
G1 X123.841 Y99.156 E9.98479
G1 X123.621 Y99.13 E9.99678
G1 X111.57 Y99.13 E10.64915
G1 X111.57 Y96.67 E10.78232
G1 X123.621 Y96.67 E11.43469
G1 X123.733 Y96.663 E11.44076
G1 X124.158 Y96.503 E11.46534
G1 X124.447 Y96.189 E11.48844
;WIDTH:0.716608
G1 X124.503 Y96.091 E11.49495
;WIDTH:0.758217
G1 X124.56 Y95.994 E11.50184
;WIDTH:0.799825
G1 X124.617 Y95.896 E11.50919
G1 X124.627 Y95.721 E11.52055
;WIDTH:0.78938
G1 X124.627 Y89.279 E11.93239
G1 X124.573 Y89.154 E11.9411
G1 X123.938 Y89.279 F18000
;TYPE:External perimeter
;WIDTH:0.674999
G1 F1500
G1 X123.874 Y89.089 E11.95195
G1 X123.743 Y88.987 E11.96094
G1 X123.621 Y88.963 E11.96767
G1 X113.844 Y88.963 E12.49694
G1 X123.242 Y77.044 E13.31861
G1 X123.654 Y76.561 E13.35298
G1 X123.932 Y76.443 E13.36933
G1 X126.063 Y76.438 E13.48469
G1 X126.063 Y133.563 E16.57711
G1 X123.919 Y133.563 E16.69317
G1 X123.456 Y133.524 E16.71832
G1 X94.995 Y124.037 E18.34238
G1 X94.256 Y123.778 E18.38477
G1 X94.057 Y123.614 E18.39873
