; generated by PrusaSlicer 2.6.0-alpha5+win64 on 2023-04-03 at 22:29:53 UTC


;
;
; 

; external perimeters extrusion width = 0.68mm
; perimeters extrusion width = 0.68mm
; infill extrusion width = 0.68mm
; solid infill extrusion width = 0.68mm
; top infill extrusion width = 0.60mm
; first layer extrusion width = 0.63mm

M73 P0 R47
M107
M190 S55 ; set bed temperature and wait for it to be reached
G10 S204 P1 ; set temperature
;TYPE:Custom
;Set standby temperatures
G10 R200 P0
G10 R200 P1
G28 ; home all axes
G32 ; run bed.g -- probe bed and enable compensation
;workaround for toolchanger when using only one extruder
T1; select tool
G10 S204 P1 ; set temperature
M116 ; wait for temperature to be reached
G21 ; set units to millimeters
G90 ; use absolute coordinates
M82 ; use absolute distances for extrusion
G92 E0
;tool change macro
T1
G92 E0
; Filament gcode
M107
;LAYER_CHANGE
;Z:0.2
;HEIGHT:0.2
G1 Z.2 F18000
G1 E-.4 F2100
G92 E0
G1 X45.922 Y83.052 F18000
G1 E.4 F2100
;TYPE:Skirt/Brim
;WIDTH:0.63
G1 F2700
G1 X48.12 Y82.121 E.51653
G1 X49.78 Y81.926 E.59812
G1 X100.638 Y81.926 E3.0808
G1 X102.992 Y82.323 E3.19734
M73 P0 R46
G1 X105.086 Y83.471 E3.31391
G1 X106.687 Y85.242 E3.43045
G1 X107.618 Y87.44 E3.54698
G1 X107.812 Y89.1 E3.62857
G1 X107.812 Y120.9 E5.18091
G1 X107.415 Y123.254 E5.29745
G1 X106.268 Y125.347 E5.41396
G1 X104.497 Y126.948 E5.5305
G1 X102.298 Y127.879 E5.64707
G1 X100.638 Y128.074 E5.72866
G1 X49.78 Y128.074 E8.21134
G1 X47.426 Y127.677 E8.32788
G1 X45.333 Y126.529 E8.44441
G1 X43.732 Y124.758 E8.56095
G1 X42.801 Y122.56 E8.67748
G1 X42.606 Y120.9 E8.75907
G1 X42.606 Y89.1 E10.31141
G1 X43.003 Y86.746 E10.42795
G1 X44.151 Y84.653 E10.54448
G1 X45.855 Y83.112 E10.65663
G1 X46.256 Y83.589 F18000
G1 F2700
G1 X46.485 Y83.397 E10.67122
G1 X48.633 Y82.614 E10.78283
G1 X49.78 Y82.513 E10.83904
G1 X100.638 Y82.513 E13.32172
G1 X102.89 Y82.91 E13.43335
G1 X104.871 Y84.053 E13.545
G1 X106.342 Y85.804 E13.65664
G1 X107.125 Y87.953 E13.76829
G1 X107.225 Y89.1 E13.82449
G1 X107.225 Y120.9 E15.37683
G1 X106.828 Y123.152 E15.48846
G1 X105.685 Y125.133 E15.60011
G1 X103.934 Y126.603 E15.71171
G1 X101.785 Y127.386 E15.82336
G1 X100.638 Y127.487 E15.87957
G1 X49.78 Y127.487 E18.36225
G1 X47.528 Y127.09 E18.47388
G1 X45.547 Y125.947 E18.58553
G1 X44.077 Y124.196 E18.69713
G1 X43.294 Y122.047 E18.80878
G1 X43.193 Y120.9 E18.86499
G1 X43.193 Y89.1 E20.41733
G1 X43.59 Y86.848 E20.52896
G1 X44.733 Y84.867 E20.64061
G1 X46.187 Y83.647 E20.73326
G1 E20.33326 F2100
G92 E0
G1 X95.867 Y108.078 F18000
G1 E.4 F2100
;TYPE:Perimeter
;WIDTH:0.629999
G1 F3000
G1 X96.117 Y108.348 E.41796
G1 X96.579 Y108.74 E.44754
G1 X97.102 Y109.078 E.47794
G1 X97.638 Y109.337 E.507
G1 X98.218 Y109.533 E.53689
G1 X98.809 Y109.653 E.56633
G1 X99.309 Y109.697 E.59083
G1 X99.736 Y109.674 E.6117
G1 X99.736 Y119.998 E1.11567
G1 X50.682 Y119.998 E3.51028
G1 X50.682 Y90.002 E4.97456
G1 X99.736 Y90.002 E7.36917
G1 X99.736 Y100.309 E7.87231
G1 X99.275 Y100.304 E7.89482
G1 X98.717 Y100.36 E7.9222
G1 X98.162 Y100.482 E7.94994
G1 X97.623 Y100.669 E7.97779
G1 X97.108 Y100.917 E8.00569
G1 X96.63 Y101.221 E8.03334
G1 X96.238 Y101.54 E8.05801
G1 X95.874 Y101.906 E8.08321
G1 X95.441 Y100.823 E8.14015
G1 X95.08 Y100.129 E8.17834
G1 X94.656 Y99.454 E8.21725
G1 X93.997 Y98.594 E8.27014
G1 X93.158 Y97.725 E8.32911
G1 X92.161 Y96.917 E8.39176
G1 X91.483 Y96.474 E8.4313
G1 X90.595 Y96.001 E8.48041
G1 X89.792 Y95.662 E8.52296
G1 X88.781 Y95.341 E8.57474
G1 X87.943 Y95.158 E8.61661
G1 X87.075 Y95.043 E8.65935
G1 X85.903 Y95.002 E8.7166
G1 X84.957 Y95.063 E8.76288
G1 X84.116 Y95.191 E8.80441
G1 X83.272 Y95.393 E8.84677
G1 X82.083 Y95.805 E8.9082
G1 X81.296 Y96.174 E8.95063
G1 X80.291 Y96.771 E9.00769
G1 X79.26 Y97.564 E9.07118
G1 X78.656 Y98.14 E9.11192
G1 X77.931 Y98.977 E9.16598
G1 X77.408 Y99.719 E9.21029
G1 X76.999 Y100.421 E9.24995
G1 X76.65 Y101.155 E9.28962
G1 X76.247 Y102.286 E9.34823
G1 X75.987 Y103.44 E9.40598
G1 X75.891 Y104.253 E9.44594
G1 X75.872 Y105.437 E9.50375
G1 X75.988 Y106.566 E9.55915
G1 X76.142 Y107.326 E9.597
G1 X76.391 Y108.159 E9.63944
G1 X76.797 Y109.173 E9.69276
G1 X77.169 Y109.885 E9.73197
G1 X77.754 Y110.787 E9.78445
G1 X78.311 Y111.485 E9.82804
G1 X79.081 Y112.275 E9.88189
G1 X80.078 Y113.083 E9.94454
G1 X80.757 Y113.526 E9.98412
G1 X81.644 Y114 E10.03321
G1 X82.447 Y114.338 E10.07574
G1 X83.459 Y114.659 E10.12757
G1 X84.296 Y114.842 E10.16939
G1 X85.164 Y114.957 E10.21213
G1 X86.342 Y114.998 E10.26967
G1 X87.283 Y114.937 E10.3157
G1 X88.14 Y114.805 E10.35803
G1 X89.273 Y114.517 E10.4151
G1 X90.156 Y114.195 E10.46098
G1 X90.943 Y113.826 E10.50341
G1 X91.948 Y113.23 E10.56045
G1 X92.913 Y112.494 E10.61969
G1 X93.584 Y111.86 E10.66475
G1 X94.308 Y111.023 E10.71877
G1 X94.962 Y110.059 E10.77564
G1 X95.288 Y109.479 E10.80812
G1 X95.589 Y108.845 E10.84238
G1 X95.836 Y108.163 E10.87779
G1 X95.636 Y106.643 F18000
;TYPE:External perimeter
G1 F2700
G1 X95.845 Y107.071 E10.90104
G1 X96.147 Y107.509 E10.92701
G1 X96.502 Y107.905 E10.95297
G1 X96.905 Y108.252 E10.97893
G1 X97.364 Y108.553 E11.00572
G1 X97.832 Y108.783 E11.03118
G1 X98.341 Y108.959 E11.05747
G1 X98.861 Y109.068 E11.08341
G1 X99.411 Y109.113 E11.11035
G1 X100.323 Y109.033 E11.15504
G1 X100.323 Y120.585 E11.71896
G1 X50.095 Y120.585 E14.17088
G1 X50.095 Y89.415 E15.69247
G1 X100.323 Y89.415 E18.14439
G1 X100.323 Y100.988 E18.70934
G1 X99.868 Y100.903 E18.73194
G1 X99.361 Y100.887 E18.7567
G1 X98.837 Y100.935 E18.78239
G1 X98.347 Y101.039 E18.80684
G1 X97.873 Y101.2 E18.83128
G1 X97.42 Y101.415 E18.85576
G1 X96.986 Y101.689 E18.88082
G1 X96.574 Y102.027 E18.90683
G1 X96.089 Y102.566 E18.94223
G1 X95.878 Y102.886 E18.96094
G1 X95.635 Y103.343 E18.98621
G1 X95.532 Y102.834 E19.01156
G1 X95.328 Y102.122 E19.04772
G1 X94.919 Y101.092 E19.10182
G1 X94.581 Y100.439 E19.13771
G1 X94.19 Y99.811 E19.17382
G1 X93.508 Y98.925 E19.2284
G1 X92.738 Y98.135 E19.28225
G1 X91.838 Y97.407 E19.33876
G1 X91.204 Y96.991 E19.37578
G1 X90.365 Y96.54 E19.42228
G1 X89.612 Y96.221 E19.4622
G1 X88.653 Y95.914 E19.51135
G1 X87.863 Y95.739 E19.55085
G1 X87.055 Y95.63 E19.59065
G1 X85.882 Y95.588 E19.64795
G1 X85.043 Y95.644 E19.689
G1 X84.249 Y95.763 E19.72819
G1 X83.462 Y95.948 E19.76766
G1 X82.329 Y96.338 E19.82615
G1 X81.595 Y96.679 E19.86566
G1 X80.591 Y97.275 E19.92266
G1 X79.663 Y97.991 E19.97988
G1 X79.1 Y98.524 E20.01773
G1 X78.375 Y99.361 E20.07179
G1 X77.914 Y100.016 E20.11089
G1 X77.528 Y100.676 E20.14821
G1 X77.202 Y101.356 E20.18502
G1 X76.819 Y102.417 E20.24008
G1 X76.569 Y103.512 E20.29491
G1 X76.477 Y104.265 E20.33194
G1 X76.466 Y105.484 E20.39145
G1 X76.563 Y106.451 E20.43889
G1 X76.707 Y107.166 E20.47449
G1 X76.937 Y107.943 E20.51405
G1 X77.318 Y108.904 E20.56451
G1 X77.662 Y109.566 E20.60093
G1 X78.263 Y110.491 E20.65478
G1 X78.731 Y111.075 E20.69131
G1 X79.527 Y111.889 E20.74689
G1 X80.378 Y112.576 E20.80028
G1 X81.035 Y113.009 E20.83869
G1 X81.875 Y113.46 E20.88523
G1 X82.627 Y113.779 E20.92511
G1 X83.586 Y114.086 E20.97426
G1 X84.377 Y114.261 E21.01381
G1 X85.185 Y114.37 E21.05361
G1 X86.362 Y114.412 E21.1111
G1 X87.196 Y114.356 E21.1519
G1 X87.996 Y114.236 E21.19139
G1 X89.128 Y113.948 E21.24841
G1 X89.91 Y113.662 E21.28906
G1 X90.644 Y113.321 E21.32857
G1 X91.648 Y112.725 E21.38557
G1 X92.554 Y112.029 E21.44134
G1 X93.14 Y111.476 E21.48067
G1 X93.883 Y110.616 E21.53615
G1 X94.455 Y109.762 E21.58633
G1 X94.76 Y109.224 E21.61652
G1 X95.037 Y108.645 E21.64785
G1 X95.42 Y107.583 E21.70296
G1 X95.616 Y106.73 E21.74568
G1 X95.733 Y107.109 F18000
G1 E21.34568 F2100
G92 E0
G1 X63.138 Y105.283 F18000
G1 E.4 F2100
;TYPE:Perimeter
G1 F450
G1 X63.08 Y105.825 E.42661
G1 X62.848 Y106.648 E.46835
G1 X62.485 Y107.381 E.50828
G1 X61.909 Y108.155 E.55538
G1 X61.242 Y108.751 E.59905
G1 X60.5 Y109.202 E.64144
G1 X59.703 Y109.509 E.68313
G1 X59.125 Y109.639 E.71205
G1 X58.483 Y109.7 E.74353
G1 X57.697 Y109.656 E.78196
G1 X56.806 Y109.45 E.8266
G1 X56.213 Y109.212 E.85779
G1 X55.459 Y108.754 E.90086
G1 X54.783 Y108.15 E.94511
G1 X54.233 Y107.425 E.98953
G1 X53.862 Y106.684 E1.02998
G1 X53.618 Y105.823 E1.07367
G1 X53.549 Y104.804 E1.12353
G1 X53.616 Y104.176 E1.15436
G1 X53.849 Y103.352 E1.19616
G1 X54.244 Y102.557 E1.23949
G1 X54.787 Y101.845 E1.2832
G1 X55.454 Y101.249 E1.32687
G1 X56.197 Y100.798 E1.3693
G1 X56.993 Y100.491 E1.41095
G1 X57.572 Y100.361 E1.43992
G1 X58.136 Y100.304 E1.46759
G1 X59 Y100.344 E1.50981
G1 X59.89 Y100.55 E1.5544
G1 X60.483 Y100.788 E1.58559
G1 X61.238 Y101.246 E1.6287
G1 X61.914 Y101.85 E1.67295
G1 X62.463 Y102.575 E1.71734
G1 X62.834 Y103.316 E1.75779
G1 X63.078 Y104.177 E1.80148
G1 X63.147 Y105.194 E1.85124
G1 X62.546 Y104.953 F18000
;TYPE:External perimeter
G1 F450
G1 X62.561 Y105.225 E1.86454
G1 X62.498 Y105.749 E1.8903
G1 X62.285 Y106.481 E1.92752
G1 X61.964 Y107.11 E1.96199
G1 X61.449 Y107.79 E2.00363
G1 X60.859 Y108.307 E2.04192
G1 X60.204 Y108.695 E2.07908
G1 X59.501 Y108.958 E2.11572
G1 X59.005 Y109.065 E2.14049
G1 X58.483 Y109.113 E2.16608
G1 X57.731 Y109.07 E2.20285
G1 X56.947 Y108.881 E2.24222
G1 X56.442 Y108.671 E2.26892
G1 X55.769 Y108.256 E2.30752
G1 X55.182 Y107.719 E2.34636
G1 X54.707 Y107.079 E2.38527
G1 X54.392 Y106.431 E2.42044
G1 X54.185 Y105.672 E2.45884
G1 X54.135 Y104.776 E2.50265
G1 X54.199 Y104.251 E2.52847
G1 X54.412 Y103.519 E2.56569
G1 X54.765 Y102.828 E2.60357
G1 X55.248 Y102.21 E2.64186
G1 X55.838 Y101.693 E2.68015
G1 X56.493 Y101.305 E2.71731
G1 X57.195 Y101.042 E2.7539
G1 X57.692 Y100.935 E2.77872
G1 X58.215 Y100.887 E2.80436
G1 X58.965 Y100.93 E2.84103
G1 X59.749 Y101.119 E2.8804
G1 X60.255 Y101.329 E2.90714
G1 X60.927 Y101.744 E2.9457
G1 X61.515 Y102.281 E2.98457
G1 X61.989 Y102.921 E3.02345
G1 X62.304 Y103.569 E3.05862
G1 X62.511 Y104.328 E3.09702
G1 X62.541 Y104.863 E3.12318
G1 X62.793 Y105.066 F18000
G1 E2.72318 F2100
G92 E0
G1 X99.56 Y110.57 F18000
G1 E.4 F2100
;TYPE:Solid infill
;WIDTH:0.633148
G1 F2700
G1 X99.11 Y110.119 E.43127
G1 X98.616 Y110.069 E.45564
G1 X98.108 Y109.952 E.48122
G1 X99.296 Y111.14 E.56367
G1 X99.296 Y111.975 E.60465
G1 X96.609 Y109.288 E.79114
G1 X96.255 Y109.049 E.8121
G1 X96.048 Y108.87 E.82553
G1 X95.838 Y109.351 E.85129
G1 X99.296 Y112.81 E1.09133
G1 X99.296 Y113.645 E1.13231
G1 X95.558 Y109.906 E1.39179
G1 X95.251 Y110.434 E1.42176
G1 X99.296 Y114.479 E1.70251
G1 X99.296 Y115.314 E1.74349
G1 X94.913 Y110.931 E2.0477
G1 X94.556 Y111.409 E2.07698
G1 X99.296 Y116.149 E2.40597
G1 X99.296 Y116.983 E2.4469
G1 X94.169 Y111.857 E2.80271
G1 X93.912 Y112.154 E2.82199
M73 P1 R46
G1 X93.768 Y112.29 E2.83171
G1 X99.296 Y117.818 E3.21539
G1 X99.296 Y118.653 E3.25637
G1 X93.339 Y112.696 E3.66982
G1 X93.198 Y112.829 E3.67933
G1 X92.882 Y113.073 E3.69892
G1 X99.296 Y119.488 E4.14413
G1 X99.296 Y119.558 E4.14757
G1 X98.531 Y119.558 E4.18511
G1 X92.411 Y113.437 E4.60991
G1 X91.902 Y113.763 E4.63957
G1 X97.697 Y119.558 E5.04178
G1 X96.862 Y119.558 E5.08276
G1 X91.381 Y114.076 E5.46321
G1 X91.163 Y114.208 E5.47572
G1 X90.833 Y114.363 E5.49361
G1 X96.027 Y119.558 E5.85414
G1 X95.192 Y119.558 E5.89512
G1 X90.26 Y114.625 E6.23747
G1 X89.651 Y114.851 E6.26935
G1 X94.358 Y119.558 E6.59605
G1 X93.523 Y119.558 E6.63703
G1 X89 Y115.034 E6.95099
G1 X88.334 Y115.203 E6.98471
G1 X92.688 Y119.558 E7.28694
G1 X91.854 Y119.558 E7.32787
G1 X87.625 Y115.329 E7.62139
G1 X87.246 Y115.384 E7.64019
G1 X86.869 Y115.408 E7.65873
G1 X91.019 Y119.558 E7.94677
G1 X90.184 Y119.558 E7.98775
G1 X86.055 Y115.428 E8.27436
G1 X85.191 Y115.399 E8.31679
G1 X89.35 Y119.558 E8.60545
G1 X88.515 Y119.558 E8.64643
G1 X84.231 Y115.273 E8.9438
G1 X83.148 Y115.025 E8.99833
G1 X87.68 Y119.558 E9.31291
G1 X86.845 Y119.558 E9.35389
G1 X81.313 Y114.025 E9.73788
G1 E9.33788 F2100
G92 E0
G1 X98.367 Y90.178 F18000
G1 E.4 F2100
G1 F2700
G1 X99.296 Y91.107 E.46448
G1 X99.296 Y91.942 E.50546
G1 X97.796 Y90.442 E.60957
G1 X96.961 Y90.442 E.65055
G1 X99.296 Y92.777 E.81261
G1 X99.296 Y93.612 E.85359
G1 X96.127 Y90.442 E1.07357
G1 X95.292 Y90.442 E1.11455
G1 X99.296 Y94.446 E1.39245
G1 X99.296 Y95.281 E1.43343
G1 X94.457 Y90.442 E1.76929
G1 X93.623 Y90.442 E1.81022
G1 X99.296 Y96.116 E2.204
G1 X99.296 Y96.95 E2.24493
G1 X92.788 Y90.442 E2.69663
G1 X91.953 Y90.442 E2.73761
G1 X99.296 Y97.785 E3.24726
G1 X99.296 Y98.62 E3.28824
G1 X91.119 Y90.442 E3.85581
G1 X90.284 Y90.442 E3.89679
G1 X99.296 Y99.455 E4.52231
G1 X99.296 Y99.864 E4.54238
G1 X98.906 Y99.9 E4.5616
G1 X89.449 Y90.442 E5.21801
G1 X88.614 Y90.442 E5.25899
G1 X98.197 Y100.025 E5.92411
G1 X98.029 Y100.062 E5.93255
G1 X97.558 Y100.221 E5.95695
G1 X87.78 Y90.442 E6.63564
G1 X86.945 Y90.442 E6.67662
G1 X96.985 Y100.482 E7.37346
G1 X96.467 Y100.799 E7.40326
G1 X95.271 Y99.603 E7.48627
G1 X95.054 Y99.254 E7.50644
G1 X94.342 Y98.32 E7.56408
G1 X93.364 Y97.318 E7.6328
G1 X92.502 Y96.621 E7.6872
G1 X91.875 Y96.207 E7.72407
G1 X86.11 Y90.442 E8.1242
G1 X85.276 Y90.442 E8.16513
G1 X90.183 Y95.35 E8.50574
G1 X89.933 Y95.244 E8.51907
G1 X88.926 Y94.927 E8.57088
G1 X84.441 Y90.442 E8.88217
G1 X83.606 Y90.442 E8.92315
G1 X87.868 Y94.704 E9.21896
G1 X87.098 Y94.603 E9.25707
G1 X86.926 Y94.597 E9.26552
G1 X82.771 Y90.442 E9.5539
G1 X81.937 Y90.442 E9.59483
G1 X86.062 Y94.567 E9.88113
G1 X85.87 Y94.561 E9.89056
G1 X85.262 Y94.602 E9.92047
G1 X81.102 Y90.442 E10.2092
G1 X80.267 Y90.442 E10.25018
G1 X84.511 Y94.686 E10.54474
G1 X84.021 Y94.761 E10.56907
G1 X83.804 Y94.813 E10.58002
G1 X79.433 Y90.442 E10.88339
G1 X78.598 Y90.442 E10.92437
G1 X83.131 Y94.975 E11.23899
G1 X82.512 Y95.191 E11.27117
G1 X77.763 Y90.442 E11.60078
G1 X76.928 Y90.442 E11.64176
G1 X81.894 Y95.408 E11.98643
G1 X81.326 Y95.675 E12.01723
G1 X76.094 Y90.442 E12.3804
G1 X75.259 Y90.442 E12.42138
G1 X80.783 Y95.966 E12.80478
G1 X80.259 Y96.277 E12.83469
G1 X74.424 Y90.442 E13.23968
G1 X73.59 Y90.442 E13.28061
G1 X79.767 Y96.62 E13.70937
G1 X79.295 Y96.983 E13.73859
G1 X72.755 Y90.442 E14.19254
G1 X71.92 Y90.442 E14.23352
G1 X78.837 Y97.359 E14.7136
G1 X78.41 Y97.767 E14.74258
G1 X71.086 Y90.442 E15.25095
G1 X70.251 Y90.442 E15.29193
G1 X78.015 Y98.207 E15.83084
G1 X77.628 Y98.654 E15.85986
G1 X69.416 Y90.442 E16.42982
G1 X68.581 Y90.442 E16.4708
G1 X77.277 Y99.138 E17.07436
G1 X77.083 Y99.409 E17.09072
G1 X76.947 Y99.642 E17.10396
G1 X67.747 Y90.442 E17.7425
G1 X66.912 Y90.442 E17.78348
G1 X76.638 Y100.169 E18.45856
G1 X76.364 Y100.729 E18.48916
G1 X66.077 Y90.442 E19.20314
G1 X65.243 Y90.442 E19.24407
G1 X76.123 Y101.322 E19.99921
G1 X75.901 Y101.935 E20.03121
G1 X64.408 Y90.442 E20.8289
G1 X63.573 Y90.442 E20.86988
G1 X75.727 Y102.597 E21.71348
G1 X75.573 Y103.277 E21.7477
G1 X62.738 Y90.442 E22.63853
G1 X61.904 Y90.442 E22.67946
G1 X75.473 Y104.012 E23.62127
G1 X75.454 Y104.171 E23.62913
G1 X75.439 Y104.812 E23.6606
G1 X61.069 Y90.442 E24.65797
G1 X60.234 Y90.442 E24.69895
G1 X75.46 Y105.668 E25.75573
G1 X75.549 Y106.592 E25.80129
G1 X59.4 Y90.442 E26.92217
G1 X58.565 Y90.442 E26.96315
G1 X75.782 Y107.659 E28.15812
G1 X75.953 Y108.25 E28.18831
G1 X76.225 Y108.937 E28.22457
G1 X57.73 Y90.442 E29.50824
G1 X56.895 Y90.442 E29.54922
G1 X86.011 Y119.558 E31.57005
G1 X85.176 Y119.558 E31.61103
G1 X56.061 Y90.442 E33.63183
G1 X55.226 Y90.442 E33.67281
G1 X84.341 Y119.558 E35.69361
G1 X83.507 Y119.558 E35.73454
G1 X54.391 Y90.442 E37.75537
G1 X53.557 Y90.442 E37.7963
G1 X82.672 Y119.558 E39.8171
G1 X81.837 Y119.558 E39.85808
G1 X52.722 Y90.442 E41.87888
G1 X51.887 Y90.442 E41.91986
G1 X81.002 Y119.558 E43.94066
G1 X80.168 Y119.558 E43.98159
G1 X51.123 Y90.513 E45.9975
G1 X51.123 Y91.347 E46.03843
G1 X59.878 Y100.103 E46.64612
G1 X59.261 Y99.94 E46.67744
G1 X58.837 Y99.896 E46.69836
G1 X51.123 Y92.182 E47.23376
G1 X51.123 Y93.017 E47.27474
G1 X57.982 Y99.876 E47.7508
G1 X57.527 Y99.921 E47.77324
G1 X57.25 Y99.979 E47.78713
G1 X51.123 Y93.851 E48.21242
G1 X51.123 Y94.686 E48.2534
G1 X56.607 Y100.17 E48.63402
G1 X56.181 Y100.32 E48.65619
G1 X56.005 Y100.403 E48.66574
G1 X51.123 Y95.521 E49.00458
G1 X51.123 Y96.355 E49.04551
G1 X55.476 Y100.709 E49.34767
G1 X55.172 Y100.911 E49.36558
G1 X54.996 Y101.063 E49.37699
G1 X51.123 Y97.19 E49.6458
G1 X51.123 Y98.025 E49.68678
