; G-Code generated by Simplify3D(R) Version 4.1.2
; Apr 16, 2020 at 5:05:15 PM
; Settings Summary
;   processName,Process1
;   applyToModels,unten,vorne,unten(2),vorne(2)
;   profileName,HBot (modified)
;   profileVersion,2019-10-26 23:38:43
;   baseProfile,Default
;   printMaterial,PLA
;   printQuality,Medium
;   printExtruders,
;   extruderName,Extruder 1
;   extruderToolheadNumber,0
;   extruderDiameter,0.4
;   extruderAutoWidth,1
;   extruderWidth,0.48
;   extrusionMultiplier,0.94
;   extruderUseRetract,1
;   extruderRetractionDistance,3
;   extruderExtraRestartDistance,0
;   extruderRetractionZLift,0
;   extruderRetractionSpeed,3600
;   extruderUseCoasting,1
;   extruderCoastingDistance,0.2
;   extruderUseWipe,1
;   extruderWipeDistance,5
;   primaryExtruder,0
;   layerHeight,0.2
;   topSolidLayers,3
;   bottomSolidLayers,3
;   perimeterOutlines,3
;   printPerimetersInsideOut,1
;   startPointOption,3
;   startPointOriginX,200
;   startPointOriginY,100
;   sequentialIslands,0
;   spiralVaseMode,0
;   firstLayerHeightPercentage,100
;   firstLayerWidthPercentage,150
;   firstLayerUnderspeed,0.5
;   useRaft,0
;   raftExtruder,0
;   raftTopLayers,3
;   raftBaseLayers,2
;   raftOffset,3
;   raftSeparationDistance,0.18
;   raftTopInfill,100
;   aboveRaftSpeedMultiplier,0.3
;   useSkirt,1
;   skirtExtruder,0
;   skirtLayers,1
;   skirtOutlines,5
;   skirtOffset,0
;   usePrimePillar,0
;   primePillarExtruder,999
;   primePillarWidth,12
;   primePillarLocation,7
;   primePillarSpeedMultiplier,1
;   useOozeShield,0
;   oozeShieldExtruder,999
;   oozeShieldOffset,2
;   oozeShieldOutlines,1
;   oozeShieldSidewallShape,1
;   oozeShieldSidewallAngle,30
;   oozeShieldSpeedMultiplier,1
;   infillExtruder,0
;   internalInfillPattern,Rectilinear
;   externalInfillPattern,Rectilinear
;   infillPercentage,20
;   outlineOverlapPercentage,25
;   infillExtrusionWidthPercentage,150
;   minInfillLength,5
;   infillLayerInterval,1
;   internalInfillAngles,45,-45
;   overlapInternalInfillAngles,0
;   externalInfillAngles,45,-45
;   generateSupport,0
;   supportExtruder,0
;   supportInfillPercentage,30
;   supportExtraInflation,0
;   supportBaseLayers,1
;   denseSupportExtruder,0
;   denseSupportLayers,0
;   denseSupportInfillPercentage,70
;   supportLayerInterval,1
;   supportHorizontalPartOffset,0.3
;   supportUpperSeparationLayers,1
;   supportLowerSeparationLayers,1
;   supportType,0
;   supportGridSpacing,4
;   maxOverhangAngle,25
;   supportAngles,0
;   temperatureName,Extruder 1,Heated Bed
;   temperatureNumber,0,1
;   temperatureSetpointCount,2,1
;   temperatureSetpointLayers,1,2,1
;   temperatureSetpointTemperatures,217,208,65
;   temperatureStabilizeAtStartup,1,1
;   temperatureHeatedBed,0,1
;   fanLayers,1,2,4
;   fanSpeeds,0,20,30
;   blipFanToFullPower,1
;   adjustSpeedForCooling,1
;   minSpeedLayerTime,15
;   minCoolingSpeedSlowdown,20
;   increaseFanForCooling,0
;   minFanLayerTime,45
;   maxCoolingFanSpeed,40
;   increaseFanForBridging,1
;   bridgingFanSpeed,80
;   use5D,1
;   relativeEdistances,0
;   allowEaxisZeroing,1
;   independentExtruderAxes,0
;   includeM10123,0
;   stickySupport,1
;   applyToolheadOffsets,0
;   gcodeXoffset,0
;   gcodeYoffset,0
;   gcodeZoffset,0
;   overrideMachineDefinition,1
;   machineTypeOverride,0
;   strokeXoverride,200
;   strokeYoverride,200
;   strokeZoverride,150
;   originOffsetXoverride,0
;   originOffsetYoverride,0
;   originOffsetZoverride,0
;   homeXdirOverride,-1
;   homeYdirOverride,-1
;   homeZdirOverride,-1
;   flipXoverride,1
;   flipYoverride,-1
;   flipZoverride,1
;   toolheadOffsets,0,0|0,0|0,0|0,0|0,0|0,0
;   overrideFirmwareConfiguration,1
;   firmwareTypeOverride,RepRap (Marlin/Repetier/Sprinter)
;   GPXconfigOverride,r2
;   baudRateOverride,115200
;   overridePrinterModels,0
;   printerModelsOverride
;   startingGcode,G28 ; home all axes,G32 ; run bed.g -- probe bed and enable compensation
;   layerChangeGcode,
;   retractionGcode,
;   toolChangeGcode,
;   endingGcode,M0 ; call stop.g
;   exportFileFormat,gcode
;   celebration,0
;   celebrationSong,Random Song
;   postProcessing,
;   defaultSpeed,3600
;   outlineUnderspeed,0.5
;   solidInfillUnderspeed,0.8
;   supportUnderspeed,0.8
;   rapidXYspeed,18000
;   rapidZspeed,1200
;   minBridgingArea,50
;   bridgingExtraInflation,0
;   bridgingExtrusionMultiplier,0.96
;   bridgingSpeedMultiplier,1
;   useFixedBridgingAngle,0
;   fixedBridgingAngle,0
;   applyBridgingToPerimeters,0
;   filamentDiameters,1.75|1.75|1.75|1.75|1.75|1.75
;   filamentPricesPerKg,46|46|46|46|46|46
;   filamentDensities,1.25|1.25|1.25|1.25|1.25|1.25
;   useMinPrintHeight,0
;   minPrintHeight,0
;   useMaxPrintHeight,0
;   maxPrintHeight,0
;   useDiaphragm,0
;   diaphragmLayerInterval,20
;   robustSlicing,1
;   mergeAllIntoSolid,0
;   onlyRetractWhenCrossingOutline,1
;   retractBetweenLayers,0
;   useRetractionMinTravel,1
;   retractionMinTravel,3
;   retractWhileWiping,1
;   onlyWipeOutlines,1
;   avoidCrossingOutline,1
;   maxMovementDetourFactor,30
;   toolChangeRetractionDistance,12
;   toolChangeExtraRestartDistance,-0.5
;   toolChangeRetractionSpeed,600
;   externalThinWallType,1
;   internalThinWallType,1
;   thinWallAllowedOverlapPercentage,10
;   singleExtrusionMinLength,1
;   singleExtrusionMinPrintingWidthPercentage,50
;   singleExtrusionMaxPrintingWidthPercentage,200
;   singleExtrusionEndpointExtension,0.2
;   horizontalSizeCompensation,-0.1
G90
M82
M106 S0
M140 S65
M190 S65
M104 S217 T0
M109 S217 T0
G28 ; home all axes
G32 ; run bed.g -- probe bed and enable compensation
; process Process1
; layer 1, Z = 0.200
T0
G92 E0.0000
G1 E-3.0000 F3600
; feature skirt
; tool H0.200 W0.720
G1 Z0.200 F1200
G1 X143.706 Y79.521 F18000
G1 E0.0000 F3600
G92 E0.0000
G1 X143.173 Y80.586 E0.0670 F1800
G1 X141.868 Y81.563 E0.1588
G1 X141.723 Y81.657 E0.1685
G1 X141.005 Y82.054 E0.2147
G1 X140.877 Y82.116 E0.2226
G1 X140.136 Y82.423 E0.2678
G1 X140.002 Y82.470 E0.2758
G1 X139.228 Y82.693 E0.3211
G1 X139.090 Y82.725 E0.3291
G1 X138.301 Y82.859 E0.3741
G1 X138.161 Y82.875 E0.3821
G1 X137.389 Y82.918 E0.4256
G1 X137.318 Y82.920 E0.4295
G1 X62.682 Y82.920 E4.6298
G1 X62.611 Y82.918 E4.6338
G1 X61.841 Y82.875 E4.6772
G1 X61.700 Y82.859 E4.6852
G1 X60.909 Y82.724 E4.7303
G1 X60.771 Y82.693 E4.7383
G1 X59.997 Y82.470 E4.7836
G1 X59.863 Y82.423 E4.7916
G1 X59.124 Y82.116 E4.8367
G1 X58.996 Y82.055 E4.8446
G1 X58.278 Y81.657 E4.8908
G1 X58.132 Y81.563 E4.9006
G1 X56.827 Y80.586 E4.9924
G1 X56.294 Y79.521 E5.0594
G1 X56.294 Y69.479 E5.6245
G1 X56.827 Y68.414 E5.6915
G1 X58.132 Y67.437 E5.7833
G1 X58.278 Y67.342 E5.7930
G1 X58.995 Y66.946 E5.8392
G1 X59.122 Y66.884 E5.8471
G1 X59.880 Y66.570 E5.8933
G1 X60.048 Y66.514 E5.9032
G1 X61.179 Y66.222 E5.9690
G1 X61.353 Y66.190 E5.9790
G1 X62.170 Y66.097 E6.0252
G1 X62.312 Y66.089 E6.0332
G1 X137.317 Y66.080 E10.2542
G1 X137.388 Y66.082 E10.2582
G1 X138.177 Y66.126 E10.3026
G1 X138.352 Y66.148 E10.3126
G1 X139.517 Y66.380 E10.3794
G1 X139.721 Y66.439 E10.3914
G1 X140.829 Y66.863 E10.4582
G1 X140.990 Y66.937 E10.4681
G1 X141.723 Y67.343 E10.5153
G1 X141.868 Y67.437 E10.5250
G1 X143.173 Y68.414 E10.6168
G1 X143.706 Y69.479 E10.6838
G1 X143.706 Y79.521 E11.2489
G1 X142.986 Y79.351 F18000
G92 E0.0000
G1 X142.605 Y80.112 E0.0479 F1800
G1 X141.456 Y80.972 E0.1287
G1 X141.352 Y81.039 E0.1356
G1 X140.674 Y81.415 E0.1792
G1 X140.583 Y81.458 E0.1849
G1 X139.879 Y81.750 E0.2278
G1 X139.783 Y81.784 E0.2335
G1 X139.048 Y81.996 E0.2766
G1 X138.949 Y82.018 E0.2823
G1 X138.200 Y82.146 E0.3250
G1 X138.100 Y82.157 E0.3307
G1 X137.359 Y82.199 E0.3725
G1 X137.308 Y82.200 E0.3753
G1 X62.692 Y82.200 E4.5745
G1 X62.641 Y82.199 E4.5773
G1 X61.901 Y82.157 E4.6190
G1 X61.801 Y82.146 E4.6247
G1 X61.049 Y82.018 E4.6676
G1 X60.951 Y81.995 E4.6733
G1 X60.216 Y81.784 E4.7164
G1 X60.120 Y81.750 E4.7220
G1 X59.418 Y81.459 E4.7648
G1 X59.327 Y81.415 E4.7705
G1 X58.648 Y81.039 E4.8142
G1 X58.544 Y80.972 E4.8212
G1 X57.395 Y80.111 E4.9020
G1 X57.014 Y79.351 E4.9498
G1 X57.014 Y69.649 E5.4958
G1 X57.395 Y68.888 E5.5437
G1 X58.544 Y68.028 E5.6245
G1 X58.648 Y67.960 E5.6314
G1 X59.326 Y67.586 E5.6750
G1 X59.417 Y67.542 E5.6807
G1 X60.133 Y67.245 E5.7244
G1 X60.253 Y67.205 E5.7315
G1 X61.335 Y66.925 E5.7944
G1 X61.459 Y66.902 E5.8015
G1 X62.231 Y66.815 E5.8452
G1 X62.332 Y66.809 E5.8509
G1 X137.307 Y66.800 E10.0702
G1 X137.358 Y66.801 E10.0730
G1 X138.111 Y66.844 E10.1155
G1 X138.236 Y66.860 E10.1226
G1 X139.346 Y67.080 E10.1863
G1 X139.492 Y67.122 E10.1948
G1 X140.549 Y67.526 E10.2585
G1 X140.663 Y67.579 E10.2656
G1 X141.352 Y67.961 E10.3099
G1 X141.456 Y68.028 E10.3169
G1 X142.605 Y68.888 E10.3977
G1 X142.986 Y69.649 E10.4455
G1 X142.986 Y79.351 E10.9915
G1 X142.266 Y79.181 F18000
G92 E0.0000
G1 X142.038 Y79.637 E0.0287 F1800
G1 X141.044 Y80.381 E0.0986
G1 X140.982 Y80.421 E0.1027
G1 X140.343 Y80.775 E0.1438
G1 X140.289 Y80.801 E0.1472
G1 X139.622 Y81.078 E0.1879
G1 X139.564 Y81.098 E0.1913
G1 X138.868 Y81.298 E0.2320
G1 X138.809 Y81.312 E0.2355
G1 X138.099 Y81.432 E0.2760
G1 X138.039 Y81.439 E0.2794
G1 X137.329 Y81.479 E0.3194
G1 X137.298 Y81.480 E0.3211
G1 X62.702 Y81.480 E4.5191
G1 X62.671 Y81.479 E4.5208
G1 X61.962 Y81.439 E4.5608
G1 X61.902 Y81.432 E4.5642
G1 X61.190 Y81.311 E4.6049
G1 X61.131 Y81.298 E4.6083
G1 X60.435 Y81.097 E4.6491
G1 X60.377 Y81.077 E4.6525
G1 X59.712 Y80.802 E4.6930
G1 X59.658 Y80.775 E4.6964
G1 X59.018 Y80.421 E4.7375
G1 X58.956 Y80.381 E4.7417
G1 X57.962 Y79.637 E4.8116
G1 X57.734 Y79.181 E4.8403
G1 X57.734 Y69.819 E5.3671
G1 X57.962 Y69.363 E5.3958
G1 X58.956 Y68.619 E5.4657
G1 X59.018 Y68.578 E5.4699
G1 X59.657 Y68.225 E5.5109
G1 X59.711 Y68.199 E5.5143
G1 X60.386 Y67.919 E5.5554
G1 X60.457 Y67.895 E5.5597
G1 X61.490 Y67.629 E5.6197
G1 X61.565 Y67.615 E5.6240
G1 X62.292 Y67.533 E5.6652
G1 X62.352 Y67.529 E5.6686
G1 X137.298 Y67.520 E9.8862
G1 X137.328 Y67.521 E9.8879
G1 X138.045 Y67.561 E9.9283
G1 X138.120 Y67.571 E9.9326
G1 X139.176 Y67.781 E9.9932
G1 X139.263 Y67.806 E9.9983
G1 X140.268 Y68.190 E10.0588
G1 X140.337 Y68.222 E10.0631
G1 X140.982 Y68.579 E10.1046
G1 X141.044 Y68.619 E10.1088
G1 X142.038 Y69.363 E10.1786
G1 X142.266 Y69.819 E10.2073
G1 X142.266 Y79.181 E10.7341
G1 X141.546 Y79.011 F18000
G92 E0.0000
G1 X141.470 Y79.163 E0.0096 F1800
G1 X140.632 Y79.790 E0.0684
G1 X140.612 Y79.804 E0.0698
G1 X140.013 Y80.135 E0.1084
G1 X139.994 Y80.144 E0.1095
G1 X139.364 Y80.405 E0.1479
G1 X139.345 Y80.411 E0.1490
G1 X138.688 Y80.601 E0.1875
G1 X138.669 Y80.605 E0.1886
G1 X137.999 Y80.719 E0.2269
G1 X137.979 Y80.721 E0.2280
G1 X137.298 Y80.760 E0.2664
G1 X137.288 Y80.760 E0.2669
G1 X62.712 Y80.760 E4.4638
G1 X62.702 Y80.760 E4.4644
G1 X62.023 Y80.722 E4.5026
G1 X62.003 Y80.719 E4.5038
G1 X61.330 Y80.605 E4.5422
G1 X61.310 Y80.600 E4.5433
G1 X60.654 Y80.411 E4.5818
G1 X60.634 Y80.404 E4.5829
G1 X60.007 Y80.144 E4.6212
G1 X59.989 Y80.136 E4.6223
G1 X59.388 Y79.804 E4.6609
G1 X59.368 Y79.790 E4.6623
G1 X58.530 Y79.163 E4.7212
G1 X58.454 Y79.011 E4.7307
G1 X58.454 Y69.989 E5.2384
G1 X58.530 Y69.837 E5.2480
G1 X59.368 Y69.210 E5.3069
G1 X59.388 Y69.196 E5.3083
G1 X59.987 Y68.865 E5.3468
G1 X60.006 Y68.856 E5.3479
G1 X60.638 Y68.594 E5.3865
G1 X60.662 Y68.586 E5.3879
G1 X61.646 Y68.332 E5.4451
G1 X61.671 Y68.327 E5.4465
G1 X62.353 Y68.251 E5.4851
G1 X62.373 Y68.249 E5.4863
G1 X137.288 Y68.240 E9.7022
G1 X137.298 Y68.240 E9.7028
G1 X137.980 Y68.279 E9.7412
G1 X138.005 Y68.282 E9.7426
G1 X139.006 Y68.481 E9.8000
G1 X139.035 Y68.489 E9.8017
G1 X139.988 Y68.853 E9.8591
G1 X140.010 Y68.864 E9.8606
G1 X140.612 Y69.196 E9.8992
G1 X140.632 Y69.210 E9.9006
G1 X141.470 Y69.837 E9.9595
G1 X141.546 Y69.989 E9.9691
G1 X141.546 Y79.011 E10.4768
G92 E0.0000
G1 E-3.0000 F3600
G1 X133.615 Y96.518 F18000
G1 E0.0000 F3600
G92 E0.0000
G1 X133.084 Y97.582 E0.0669 F1800
G1 X131.781 Y98.561 E0.1586
G1 X131.633 Y98.656 E0.1685
G1 X130.898 Y99.063 E0.2158
G1 X130.738 Y99.137 E0.2257
G1 X129.648 Y99.554 E0.2914
G1 X129.478 Y99.606 E0.3014
G1 X128.657 Y99.793 E0.3488
G1 X128.482 Y99.820 E0.3587
G1 X127.351 Y99.916 E0.4227
G1 X127.245 Y99.920 E0.4286
G1 X57.769 Y99.920 E4.3384
G1 X56.293 Y98.441 E4.4560
G1 X56.305 Y90.274 E4.9157
G1 X56.305 Y90.231 E4.9181
G1 X56.391 Y87.792 E5.0554
G1 X56.393 Y87.748 E5.0579
G1 X56.625 Y84.434 E5.2449
G1 X58.077 Y83.080 E5.3566
G1 X127.247 Y83.080 E9.2492
G1 X127.353 Y83.084 E9.2552
G1 X128.503 Y83.182 E9.3201
G1 X128.713 Y83.217 E9.3321
G1 X129.861 Y83.514 E9.3988
G1 X130.028 Y83.570 E9.4088
G1 X130.786 Y83.884 E9.4549
G1 X130.914 Y83.946 E9.4629
G1 X131.631 Y84.342 E9.5091
G1 X131.777 Y84.437 E9.5188
G1 X133.082 Y85.414 E9.6106
G1 X133.615 Y86.479 E9.6776
G1 X133.615 Y96.518 E10.2426
G1 X132.895 Y96.348 F18000
G92 E0.0000
G1 X132.516 Y97.108 E0.0478 F1800
G1 X131.368 Y97.970 E0.1286
G1 X131.263 Y98.039 E0.1356
G1 X130.572 Y98.421 E0.1800
G1 X130.458 Y98.474 E0.1871
G1 X129.414 Y98.873 E0.2500
G1 X129.293 Y98.909 E0.2571
G1 X128.522 Y99.086 E0.3017
G1 X128.397 Y99.105 E0.3088
G1 X127.305 Y99.197 E0.3704
G1 X127.230 Y99.200 E0.3747
G1 X58.068 Y99.200 E4.2668
G1 X57.013 Y98.144 E4.3509
G1 X57.025 Y90.281 E4.7933
G1 X57.025 Y90.251 E4.7950
G1 X57.110 Y87.823 E4.9317
G1 X57.112 Y87.792 E4.9335
G1 X57.324 Y84.767 E5.1041
G1 X58.361 Y83.800 E5.1839
G1 X127.232 Y83.800 E9.0597
G1 X127.307 Y83.803 E9.0640
G1 X128.413 Y83.897 E9.1264
G1 X128.562 Y83.922 E9.1350
G1 X129.656 Y84.205 E9.1985
G1 X129.776 Y84.245 E9.2056
G1 X130.492 Y84.542 E9.2493
G1 X130.583 Y84.585 E9.2550
G1 X131.261 Y84.960 E9.2986
G1 X131.365 Y85.028 E9.3055
G1 X132.514 Y85.888 E9.3863
G1 X132.895 Y86.649 E9.4342
G1 X132.895 Y96.348 E9.9801
G1 X132.175 Y96.179 F18000
G92 E0.0000
G1 X131.948 Y96.634 E0.0287 F1800
G1 X130.956 Y97.380 E0.0985
G1 X130.893 Y97.421 E0.1027
G1 X130.246 Y97.778 E0.1443
G1 X130.177 Y97.810 E0.1486
G1 X129.181 Y98.191 E0.2086
G1 X129.108 Y98.213 E0.2129
G1 X128.386 Y98.378 E0.2546
G1 X128.311 Y98.390 E0.2588
G1 X127.260 Y98.478 E0.3182
G1 X127.215 Y98.480 E0.3207
G1 X58.366 Y98.480 E4.1953
G1 X57.733 Y97.846 E4.2457
G1 X57.745 Y90.289 E4.6710
G1 X57.745 Y90.271 E4.6720
G1 X57.830 Y87.855 E4.8080
G1 X57.831 Y87.836 E4.8091
G1 X58.022 Y85.100 E4.9634
G1 X58.644 Y84.520 E5.0113
G1 X127.217 Y84.520 E8.8703
G1 X127.262 Y84.522 E8.8728
G1 X128.322 Y84.611 E8.9327
G1 X128.411 Y84.627 E8.9378
G1 X129.452 Y84.895 E8.9983
G1 X129.523 Y84.919 E9.0025
G1 X130.198 Y85.199 E9.0436
G1 X130.252 Y85.225 E9.0470
G1 X130.891 Y85.578 E9.0881
G1 X130.953 Y85.619 E9.0923
G1 X131.947 Y86.363 E9.1621
G1 X132.175 Y86.819 E9.1908
G1 X132.175 Y96.179 E9.7175
G1 X131.455 Y96.009 F18000
G92 E0.0000
G1 X131.379 Y96.161 E0.0096 F1800
G1 X130.543 Y96.789 E0.0684
G1 X130.522 Y96.803 E0.0698
G1 X129.919 Y97.136 E0.1086
G1 X129.897 Y97.147 E0.1100
G1 X128.947 Y97.509 E0.1672
G1 X128.923 Y97.517 E0.1686
G1 X128.250 Y97.670 E0.2074
G1 X128.225 Y97.674 E0.2089
G1 X127.215 Y97.759 E0.2659
G1 X127.200 Y97.760 E0.2668
G1 X58.665 Y97.760 E4.1237
G1 X58.454 Y97.549 E4.1405
G1 X58.465 Y90.297 E4.5486
G1 X58.465 Y90.290 E4.5489
G1 X58.549 Y87.887 E4.6843
G1 X58.549 Y87.880 E4.6846
G1 X58.721 Y85.433 E4.8227
G1 X58.928 Y85.240 E4.8387
G1 X127.201 Y85.240 E8.6808
G1 X127.216 Y85.241 E8.6817
G1 X128.231 Y85.326 E8.7390
G1 X128.261 Y85.331 E8.7407
G1 X129.247 Y85.586 E8.7980
G1 X129.271 Y85.594 E8.7994
G1 X129.903 Y85.856 E8.8379
G1 X129.922 Y85.865 E8.8391
G1 X130.521 Y86.196 E8.8776
G1 X130.542 Y86.210 E8.8790
G1 X131.379 Y86.837 E8.9379
G1 X131.455 Y86.989 E8.9475
G1 X131.455 Y96.009 E9.4550
G92 E0.0000
G1 E-3.0000 F3600
G1 X144.426 Y79.691 F18000
G1 E0.0000 F3600
G92 E0.0000
G1 X143.741 Y81.060 E0.0861 F1800
G1 X142.280 Y82.154 E0.1889
G1 X142.093 Y82.275 E0.2014
G1 X141.335 Y82.694 E0.2501
G1 X141.171 Y82.773 E0.2604
G1 X140.393 Y83.096 E0.3078
G1 X140.222 Y83.156 E0.3180
G1 X139.408 Y83.391 E0.3657
G1 X139.230 Y83.431 E0.3759
G1 X138.402 Y83.572 E0.4232
G1 X138.221 Y83.592 E0.4334
G1 X137.420 Y83.637 E0.4786
G1 X137.329 Y83.640 E0.4837
G1 X131.849 Y83.640 E0.7921
G1 X132.002 Y83.724 E0.8019
G1 X132.189 Y83.846 E0.8145
G1 X133.650 Y84.940 E0.9172
