; G-Code generated by Simplify3D(R) Version 4.1.2
; Apr 13, 2020 at 7:16:54 PM
; Settings Summary
;   processName,Process1
;   applyToModels,test-kurve-ode
;   profileName,HBot (modified)
;   profileVersion,2019-10-26 23:38:43
;   baseProfile,Default
;   printMaterial,PLA
;   printQuality,Medium
;   printExtruders,
;   extruderName,Extruder 1
;   extruderToolheadNumber,0
;   extruderDiameter,0.4
;   extruderAutoWidth,1
;   extruderWidth,0.48
;   extrusionMultiplier,0.94
;   extruderUseRetract,1
;   extruderRetractionDistance,3
;   extruderExtraRestartDistance,0
;   extruderRetractionZLift,0
;   extruderRetractionSpeed,3600
;   extruderUseCoasting,1
;   extruderCoastingDistance,0.2
;   extruderUseWipe,1
;   extruderWipeDistance,5
;   primaryExtruder,0
;   layerHeight,0.2
;   topSolidLayers,3
;   bottomSolidLayers,3
;   perimeterOutlines,3
;   printPerimetersInsideOut,1
;   startPointOption,3
;   startPointOriginX,200
;   startPointOriginY,100
;   sequentialIslands,0
;   spiralVaseMode,0
;   firstLayerHeightPercentage,100
;   firstLayerWidthPercentage,150
;   firstLayerUnderspeed,0.5
;   useRaft,0
;   raftExtruder,0
;   raftTopLayers,3
;   raftBaseLayers,2
;   raftOffset,3
;   raftSeparationDistance,0.18
;   raftTopInfill,100
;   aboveRaftSpeedMultiplier,0.3
;   useSkirt,1
;   skirtExtruder,0
;   skirtLayers,1
;   skirtOutlines,5
;   skirtOffset,0
;   usePrimePillar,0
;   primePillarExtruder,999
;   primePillarWidth,12
;   primePillarLocation,7
;   primePillarSpeedMultiplier,1
;   useOozeShield,0
;   oozeShieldExtruder,999
;   oozeShieldOffset,2
;   oozeShieldOutlines,1
;   oozeShieldSidewallShape,1
;   oozeShieldSidewallAngle,30
;   oozeShieldSpeedMultiplier,1
;   infillExtruder,0
;   internalInfillPattern,Rectilinear
;   externalInfillPattern,Rectilinear
;   infillPercentage,20
;   outlineOverlapPercentage,25
;   infillExtrusionWidthPercentage,150
;   minInfillLength,5
;   infillLayerInterval,1
;   internalInfillAngles,45,-45
;   overlapInternalInfillAngles,0
;   externalInfillAngles,45,-45
;   generateSupport,0
;   supportExtruder,0
;   supportInfillPercentage,30
;   supportExtraInflation,0
;   supportBaseLayers,1
;   denseSupportExtruder,0
;   denseSupportLayers,0
;   denseSupportInfillPercentage,70
;   supportLayerInterval,1
;   supportHorizontalPartOffset,0.3
;   supportUpperSeparationLayers,1
;   supportLowerSeparationLayers,1
;   supportType,0
;   supportGridSpacing,4
;   maxOverhangAngle,25
;   supportAngles,0
;   temperatureName,Extruder 1,Heated Bed
;   temperatureNumber,0,1
;   temperatureSetpointCount,2,1
;   temperatureSetpointLayers,1,2,1
;   temperatureSetpointTemperatures,217,208,65
;   temperatureStabilizeAtStartup,1,1
;   temperatureHeatedBed,0,1
;   fanLayers,1,2,4
;   fanSpeeds,0,20,30
;   blipFanToFullPower,1
;   adjustSpeedForCooling,1
;   minSpeedLayerTime,15
;   minCoolingSpeedSlowdown,20
;   increaseFanForCooling,0
;   minFanLayerTime,45
;   maxCoolingFanSpeed,40
;   increaseFanForBridging,1
;   bridgingFanSpeed,80
;   use5D,1
;   relativeEdistances,0
;   allowEaxisZeroing,1
;   independentExtruderAxes,0
;   includeM10123,0
;   stickySupport,1
;   applyToolheadOffsets,0
;   gcodeXoffset,0
;   gcodeYoffset,0
;   gcodeZoffset,0
;   overrideMachineDefinition,1
;   machineTypeOverride,0
;   strokeXoverride,200
;   strokeYoverride,200
;   strokeZoverride,150
;   originOffsetXoverride,0
;   originOffsetYoverride,0
;   originOffsetZoverride,0
;   homeXdirOverride,-1
;   homeYdirOverride,-1
;   homeZdirOverride,-1
;   flipXoverride,1
;   flipYoverride,-1
;   flipZoverride,1
;   toolheadOffsets,0,0|0,0|0,0|0,0|0,0|0,0
;   overrideFirmwareConfiguration,1
;   firmwareTypeOverride,RepRap (Marlin/Repetier/Sprinter)
;   GPXconfigOverride,r2
;   baudRateOverride,115200
;   overridePrinterModels,0
;   printerModelsOverride
;   startingGcode,G28 ; home all axes,G32 ; run bed.g -- probe bed and enable compensation
;   layerChangeGcode,
;   retractionGcode,
;   toolChangeGcode,
;   endingGcode,M0 ; call stop.g
;   exportFileFormat,gcode
;   celebration,0
;   celebrationSong,Random Song
;   postProcessing,
;   defaultSpeed,3600
;   outlineUnderspeed,0.5
;   solidInfillUnderspeed,0.8
;   supportUnderspeed,0.8
;   rapidXYspeed,18000
;   rapidZspeed,1200
;   minBridgingArea,50
;   bridgingExtraInflation,0
;   bridgingExtrusionMultiplier,0.96
;   bridgingSpeedMultiplier,1
;   useFixedBridgingAngle,0
;   fixedBridgingAngle,0
;   applyBridgingToPerimeters,0
;   filamentDiameters,1.75|1.75|1.75|1.75|1.75|1.75
;   filamentPricesPerKg,46|46|46|46|46|46
;   filamentDensities,1.25|1.25|1.25|1.25|1.25|1.25
;   useMinPrintHeight,0
;   minPrintHeight,0
;   useMaxPrintHeight,0
;   maxPrintHeight,0
;   useDiaphragm,0
;   diaphragmLayerInterval,20
;   robustSlicing,1
;   mergeAllIntoSolid,0
;   onlyRetractWhenCrossingOutline,1
;   retractBetweenLayers,0
;   useRetractionMinTravel,1
;   retractionMinTravel,3
;   retractWhileWiping,1
;   onlyWipeOutlines,1
;   avoidCrossingOutline,1
;   maxMovementDetourFactor,30
;   toolChangeRetractionDistance,12
;   toolChangeExtraRestartDistance,-0.5
;   toolChangeRetractionSpeed,600
;   externalThinWallType,1
;   internalThinWallType,1
;   thinWallAllowedOverlapPercentage,10
;   singleExtrusionMinLength,1
;   singleExtrusionMinPrintingWidthPercentage,50
;   singleExtrusionMaxPrintingWidthPercentage,200
;   singleExtrusionEndpointExtension,0.2
;   horizontalSizeCompensation,-0.1
G90
M82
M106 S0
M140 S65
M190 S65
M104 S217 T0
M109 S217 T0
G28 ; home all axes
G32 ; run bed.g -- probe bed and enable compensation
; process Process1
; layer 1, Z = 0.200
T0
G92 E0.0000
G1 E-3.0000 F3600
; feature skirt
; tool H0.200 W0.720
G1 Z0.200 F1200
G1 X128.140 Y92.758 F18000
G1 E0.0000 F3600
G92 E0.0000
G1 X128.140 Y107.242 E0.8151 F1800
G1 X126.242 Y109.140 E0.9662
G1 X79.564 Y109.130 E3.5930
G1 X79.377 Y109.119 E3.6036
G1 X78.511 Y109.018 E3.6526
G1 X78.326 Y108.986 E3.6632
G1 X77.479 Y108.786 E3.7122
G1 X77.299 Y108.732 E3.7228
G1 X76.479 Y108.435 E3.7718
G1 X76.307 Y108.361 E3.7824
G1 X75.528 Y107.972 E3.8314
G1 X75.365 Y107.878 E3.8419
G1 X74.636 Y107.401 E3.8910
G1 X74.485 Y107.290 E3.9015
G1 X73.816 Y106.731 E3.9506
G1 X73.679 Y106.602 E3.9612
G1 X73.080 Y105.971 E4.0101
G1 X72.960 Y105.830 E4.0206
G1 X72.194 Y104.811 E4.0923
G1 X71.860 Y103.812 E4.1516
G1 X71.860 Y96.188 E4.5806
G1 X72.194 Y95.189 E4.6399
G1 X72.960 Y94.170 E4.7116
G1 X73.080 Y94.029 E4.7221
G1 X73.695 Y93.380 E4.7724
G1 X73.869 Y93.222 E4.7856
G1 X74.877 Y92.429 E4.8578
G1 X75.113 Y92.275 E4.8737
G1 X76.243 Y91.668 E4.9458
G1 X76.458 Y91.573 E4.9591
G1 X77.277 Y91.276 E5.0081
G1 X77.413 Y91.233 E5.0162
G1 X77.883 Y91.108 E5.0435
G1 X78.020 Y91.078 E5.0514
G1 X78.852 Y90.932 E5.0989
G1 X79.038 Y90.910 E5.1095
G1 X79.861 Y90.863 E5.1559
G1 X79.955 Y90.860 E5.1611
G1 X126.242 Y90.860 E7.7660
G1 X128.140 Y92.758 E7.9171
G1 X127.420 Y93.056 F18000
G92 E0.0000
G1 X127.420 Y106.944 E0.7816 F1800
G1 X125.943 Y108.420 E0.8991
G1 X79.585 Y108.410 E3.5079
G1 X79.439 Y108.402 E3.5161
G1 X78.615 Y108.306 E3.5628
G1 X78.472 Y108.280 E3.5710
G1 X77.664 Y108.090 E3.6177
G1 X77.524 Y108.048 E3.6259
G1 X76.744 Y107.765 E3.6726
G1 X76.610 Y107.708 E3.6808
G1 X75.869 Y107.337 E3.7275
G1 X75.742 Y107.264 E3.7357
G1 X75.048 Y106.810 E3.7824
G1 X74.931 Y106.723 E3.7906
G1 X74.293 Y106.192 E3.8373
G1 X74.187 Y106.092 E3.8455
G1 X73.616 Y105.491 E3.8922
G1 X73.523 Y105.380 E3.9003
G1 X72.840 Y104.472 E3.9643
G1 X72.580 Y103.695 E4.0104
G1 X72.580 Y96.305 E4.4262
G1 X72.840 Y95.528 E4.4724
G1 X73.523 Y94.620 E4.5363
G1 X73.616 Y94.509 E4.5444
G1 X74.199 Y93.895 E4.5921
G1 X74.335 Y93.772 E4.6024
G1 X75.298 Y93.015 E4.6714
G1 X75.481 Y92.895 E4.6837
G1 X76.561 Y92.315 E4.7526
G1 X76.727 Y92.241 E4.7629
G1 X77.508 Y91.958 E4.8096
G1 X77.614 Y91.925 E4.8159
G1 X78.054 Y91.808 E4.8415
G1 X78.160 Y91.784 E4.8476
G1 X78.956 Y91.645 E4.8931
G1 X79.101 Y91.628 E4.9013
G1 X79.892 Y91.582 E4.9459
G1 X79.965 Y91.580 E4.9500
G1 X125.944 Y91.580 E7.5375
G1 X127.420 Y93.056 E7.6550
G1 X126.700 Y93.354 F18000
G92 E0.0000
G1 X126.700 Y106.646 E0.7480 F1800
G1 X125.645 Y107.700 E0.8319
G1 X79.606 Y107.690 E3.4228
G1 X79.502 Y107.684 E3.4287
G1 X78.719 Y107.593 E3.4730
G1 X78.617 Y107.575 E3.4789
G1 X77.850 Y107.394 E3.5232
G1 X77.750 Y107.364 E3.5291
G1 X77.009 Y107.096 E3.5734
G1 X76.914 Y107.055 E3.5793
G1 X76.209 Y106.702 E3.6236
G1 X76.119 Y106.650 E3.6295
G1 X75.460 Y106.219 E3.6738
G1 X75.376 Y106.157 E3.6797
G1 X74.771 Y105.652 E3.7240
G1 X74.695 Y105.581 E3.7299
G1 X74.153 Y105.010 E3.7742
G1 X74.086 Y104.931 E3.7800
G1 X73.486 Y104.133 E3.8362
G1 X73.300 Y103.578 E3.8692
G1 X73.300 Y96.422 E4.2718
G1 X73.486 Y95.867 E4.3048
G1 X74.086 Y95.069 E4.3610
G1 X74.153 Y94.990 E4.3668
G1 X74.704 Y94.410 E4.4118
G1 X74.800 Y94.322 E4.4192
G1 X75.718 Y93.600 E4.4849
G1 X75.849 Y93.514 E4.4937
G1 X76.878 Y92.962 E4.5594
G1 X76.997 Y92.909 E4.5668
G1 X77.738 Y92.640 E4.6111
G1 X77.814 Y92.617 E4.6156
G1 X78.224 Y92.508 E4.6395
G1 X78.299 Y92.491 E4.6438
G1 X79.060 Y92.358 E4.6873
G1 X79.163 Y92.346 E4.6931
G1 X79.924 Y92.302 E4.7360
G1 X79.976 Y92.300 E4.7389
G1 X125.646 Y92.300 E7.3091
G1 X126.700 Y93.354 E7.3930
G1 X125.980 Y93.653 F18000
G92 E0.0000
G1 X125.980 Y106.347 E0.7144 F1800
G1 X125.347 Y106.980 E0.7648
G1 X79.627 Y106.970 E3.3377
G1 X79.564 Y106.966 E3.3413
G1 X78.824 Y106.880 E3.3832
G1 X78.762 Y106.869 E3.3868
G1 X78.036 Y106.698 E3.4287
G1 X77.976 Y106.680 E3.4323
G1 X77.274 Y106.426 E3.4742
G1 X77.217 Y106.401 E3.4778
G1 X76.550 Y106.068 E3.5197
G1 X76.496 Y106.037 E3.5233
G1 X75.871 Y105.628 E3.5652
G1 X75.821 Y105.591 E3.5688
G1 X75.248 Y105.113 E3.6108
G1 X75.202 Y105.070 E3.6143
G1 X74.689 Y104.529 E3.6562
G1 X74.649 Y104.482 E3.6597
G1 X74.131 Y103.794 E3.7082
G1 X74.020 Y103.461 E3.7280
G1 X74.020 Y96.539 E4.1174
G1 X74.131 Y96.206 E4.1372
G1 X74.649 Y95.518 E4.1857
G1 X74.689 Y95.471 E4.1892
G1 X75.208 Y94.924 E4.2316
G1 X75.266 Y94.872 E4.2360
G1 X76.139 Y94.185 E4.2985
G1 X76.217 Y94.134 E4.3038
G1 X77.196 Y93.609 E4.3662
G1 X77.267 Y93.577 E4.3707
G1 X77.969 Y93.323 E4.4126
G1 X78.014 Y93.308 E4.4153
G1 X78.394 Y93.207 E4.4374
G1 X78.439 Y93.197 E4.4401
G1 X79.163 Y93.070 E4.4814
G1 X79.226 Y93.063 E4.4850
G1 X79.955 Y93.021 E4.5261
G1 X79.986 Y93.020 E4.5278
G1 X125.347 Y93.020 E7.0806
G1 X125.980 Y93.653 E7.1309
G1 X125.260 Y93.951 F18000
G92 E0.0000
G1 X125.260 Y106.049 E0.6808 F1800
G1 X125.049 Y106.260 E0.6976
G1 X79.648 Y106.250 E3.2526
G1 X79.627 Y106.249 E3.2538
G1 X78.928 Y106.167 E3.2934
G1 X78.907 Y106.164 E3.2946
G1 X78.221 Y106.002 E3.3343
G1 X78.201 Y105.996 E3.3354
G1 X77.539 Y105.756 E3.3751
G1 X77.520 Y105.748 E3.3762
G1 X76.890 Y105.433 E3.4159
G1 X76.872 Y105.423 E3.4170
G1 X76.283 Y105.037 E3.4567
G1 X76.266 Y105.025 E3.4578
G1 X75.725 Y104.573 E3.4975
G1 X75.710 Y104.559 E3.4987
G1 X75.225 Y104.048 E3.5383
G1 X75.212 Y104.033 E3.5394
G1 X74.777 Y103.454 E3.5802
G1 X74.740 Y103.343 E3.5867
G1 X74.740 Y96.657 E3.9631
G1 X74.777 Y96.545 E3.9696
G1 X75.212 Y95.967 E4.0104
G1 X75.225 Y95.952 E4.0115
G1 X75.712 Y95.439 E4.0513
G1 X75.731 Y95.422 E4.0528
G1 X76.559 Y94.771 E4.1120
G1 X76.585 Y94.753 E4.1138
G1 X77.513 Y94.255 E4.1730
G1 X77.537 Y94.245 E4.1745
G1 X78.199 Y94.005 E4.2141
G1 X78.214 Y94.000 E4.2150
G1 X78.564 Y93.907 E4.2354
G1 X78.579 Y93.904 E4.2363
G1 X79.267 Y93.783 E4.2756
G1 X79.288 Y93.781 E4.2768
G1 X79.986 Y93.740 E4.3161
G1 X79.996 Y93.740 E4.3167
G1 X125.049 Y93.740 E6.8521
G1 X125.260 Y93.951 E6.8689
G92 E0.0000
G1 E-3.0000 F3600
; feature inner perimeter
G1 X124.540 Y94.460 F18000
G1 X124.540 Y97.334
G1 X123.100 Y104.100
G1 E0.0000 F3600
G92 E0.0000
G1 X100.553 Y104.100 E1.2688 F1350
G1 X101.206 Y103.400 E1.3227
G1 X101.441 Y103.065 E1.3457
G1 X101.627 Y102.701 E1.3687
G1 X101.762 Y102.314 E1.3918
G1 X101.841 Y101.912 E1.4148
G1 X101.865 Y101.504 E1.4379
G1 X101.831 Y101.096 E1.4609
G1 X101.742 Y100.696 E1.4839
G1 X101.598 Y100.313 E1.5070
G1 X101.403 Y99.953 E1.5300
G1 X101.177 Y99.647 E1.5514
G1 X100.766 Y99.202 E1.5855
G1 X100.431 Y98.884 E1.6115
G1 X99.789 Y98.368 E1.6578
G1 X99.073 Y97.915 E1.7055
G1 X98.629 Y97.684 E1.7337
G1 X97.890 Y97.374 E1.7788
G1 X97.177 Y97.157 E1.8207
G1 X96.565 Y97.028 E1.8559
G1 X95.881 Y96.940 E1.8947
G1 X95.403 Y96.910 E1.9217
G1 X94.686 Y96.908 E1.9620
G1 X93.813 Y96.960 E2.0113
G1 X92.954 Y97.049 E2.0598
G1 X91.649 Y97.219 E2.1339
G1 X90.854 Y97.358 E2.1794
G1 X90.366 Y97.464 E2.2075
G1 X89.591 Y97.666 E2.2525
G1 X88.926 Y97.869 E2.2917
G1 X88.040 Y98.178 E2.3445
G1 X87.468 Y98.400 E2.3790
G1 X86.533 Y98.798 E2.4362
G1 X85.761 Y99.153 E2.4840
G1 X84.912 Y99.563 E2.5370
G1 X84.752 Y98.797 E2.5811
G1 X84.636 Y98.408 E2.6039
G1 X84.489 Y98.031 E2.6267
G1 X84.311 Y97.667 E2.6495
G1 X84.103 Y97.319 E2.6723
G1 X83.868 Y96.989 E2.6951
G1 X83.606 Y96.680 E2.7179
G1 X82.826 Y95.900 E2.7800
G1 X123.100 Y95.900 E5.0465
G1 X123.100 Y103.900 E5.4967
G1 X123.100 Y104.100 F1350
G1 X97.280 Y104.100 F18000
G92 E0.0000
G1 X90.619 Y104.100 E0.3749 F1350
G1 X90.533 Y103.553 E0.4060
G1 X90.966 Y103.413 E0.4317
G1 X91.770 Y103.196 E0.4785
G1 X92.133 Y103.120 E0.4994
G1 X92.519 Y103.055 E0.5214
G1 X93.378 Y102.940 E0.5702
G1 X93.984 Y102.871 E0.6045
G1 X94.651 Y102.816 E0.6422
G1 X95.198 Y102.809 E0.6730
G1 X95.360 Y102.820 E0.6821
G1 X95.648 Y102.862 E0.6985
G1 X95.778 Y102.893 E0.7060
G1 X95.905 Y102.934 E0.7135
G1 X96.071 Y103.003 E0.7237
G1 X96.138 Y103.038 E0.7279
G1 X96.388 Y103.197 E0.7445
G1 X96.456 Y103.249 E0.7494
G1 X96.529 Y103.315 E0.7549
G1 X97.142 Y103.955 E0.8048
G1 X97.280 Y104.100 F1350
G1 X97.686 Y103.411 F18000
G92 E0.0000
G1 X98.186 Y103.661 E0.0314 F1350
G1 X98.772 Y103.777 E0.0651
G1 X99.369 Y103.734 E0.0987
G1 X99.896 Y103.547 E0.1302
G1 X100.194 Y103.367 E0.1498
G1 X100.434 Y103.172 E0.1672
G1 X100.645 Y102.946 E0.1846
G1 X100.823 Y102.693 E0.2020
G1 X100.964 Y102.417 E0.2194
G1 X101.065 Y102.125 E0.2368
G1 X101.125 Y101.821 E0.2542
G1 X101.143 Y101.513 E0.2716
G1 X101.118 Y101.204 E0.2891
G1 X101.050 Y100.902 E0.3065
G1 X100.941 Y100.613 E0.3239
G1 X100.794 Y100.341 E0.3413
G1 X100.621 Y100.107 E0.3577
G1 X100.253 Y99.707 E0.3882
G1 X99.957 Y99.426 E0.4112
G1 X99.369 Y98.955 E0.4536
G1 X98.714 Y98.539 E0.4973
G1 X98.323 Y98.336 E0.5221
G1 X97.646 Y98.052 E0.5634
G1 X96.998 Y97.855 E0.6015
G1 X96.445 Y97.739 E0.6333
G1 X95.813 Y97.657 E0.6692
G1 X95.379 Y97.630 E0.6936
G1 X94.706 Y97.628 E0.7315
G1 X93.872 Y97.678 E0.7785
G1 X93.038 Y97.764 E0.8257
G1 X91.757 Y97.931 E0.8984
G1 X90.992 Y98.064 E0.9421
G1 X90.534 Y98.165 E0.9685
G1 X89.787 Y98.359 E1.0119
G1 X89.149 Y98.553 E1.0494
G1 X88.289 Y98.853 E1.1007
G1 X87.739 Y99.067 E1.1339
G1 X86.825 Y99.456 E1.1898
G1 X86.068 Y99.804 E1.2367
G1 X84.151 Y100.732 E1.3566
G1 X84.181 Y100.000 E1.3978
G1 X84.167 Y99.655 E1.4172
G1 X84.124 Y99.312 E1.4367
G1 X84.053 Y98.974 E1.4561
G1 X83.954 Y98.642 E1.4756
G1 X83.829 Y98.321 E1.4950
G1 X83.677 Y98.010 E1.5145
G1 X83.500 Y97.713 E1.5339
G1 X83.299 Y97.432 E1.5534
G1 X83.076 Y97.168 E1.5728
G1 X82.832 Y96.924 E1.5922
G1 X82.568 Y96.701 E1.6117
G1 X82.287 Y96.500 E1.6311
G1 X81.990 Y96.323 E1.6506
G1 X81.679 Y96.171 E1.6700
G1 X81.358 Y96.046 E1.6895
G1 X81.026 Y95.947 E1.7089
G1 X80.688 Y95.876 E1.7284
G1 X80.345 Y95.833 E1.7478
G1 X79.894 Y95.815 E1.7732
G1 X79.907 Y95.180 E1.8090
G1 X123.820 Y95.180 E4.2802
G1 X123.820 Y104.820 E4.8227
G1 X87.100 Y104.820 E6.8892
G1 X86.985 Y104.316 E6.9182
G1 X88.143 Y103.758 E6.9906
G1 X89.226 Y103.278 E7.0573
G1 X89.744 Y103.071 E7.0887
G1 X90.264 Y102.883 E7.1198
G1 X90.761 Y102.722 E7.1492
G1 X91.603 Y102.495 E7.1982
G1 X91.999 Y102.413 E7.2210
G1 X92.412 Y102.343 E7.2446
G1 X93.289 Y102.226 E7.2944
G1 X93.913 Y102.154 E7.3297
G1 X94.617 Y102.096 E7.3695
G1 X95.217 Y102.089 E7.4032
G1 X95.436 Y102.103 E7.4156
G1 X95.784 Y102.154 E7.4354
G1 X95.973 Y102.199 E7.4463
G1 X96.155 Y102.258 E7.4571
G1 X96.375 Y102.350 E7.4705
G1 X96.496 Y102.412 E7.4782
G1 X96.803 Y102.607 E7.4987
G1 X96.916 Y102.696 E7.5067
G1 X97.029 Y102.796 E7.5152
G1 X97.415 Y103.199 E7.5466
G1 X97.529 Y103.288 E7.5548
G1 X97.686 Y103.411 F1350
