; G-Code generated by Simplify3D(R) Version 4.1.2
; Mar 27, 2020 at 8:27:35 PM
; Settings Summary
;   processName,Process1
;   applyToModels,test-aussen-v2,test-innen-v2,test-stange-v2
;   profileName,HBot (modified)
;   profileVersion,2019-10-26 23:38:43
;   baseProfile,Default
;   printMaterial,PLA
;   printQuality,Medium
;   printExtruders,
;   extruderName,Extruder 1
;   extruderToolheadNumber,0
;   extruderDiameter,0.4
;   extruderAutoWidth,1
;   extruderWidth,0.48
;   extrusionMultiplier,0.94
;   extruderUseRetract,1
;   extruderRetractionDistance,3
;   extruderExtraRestartDistance,0
;   extruderRetractionZLift,0
;   extruderRetractionSpeed,3600
;   extruderUseCoasting,1
;   extruderCoastingDistance,0.2
;   extruderUseWipe,1
;   extruderWipeDistance,5
;   primaryExtruder,0
;   layerHeight,0.2
;   topSolidLayers,3
;   bottomSolidLayers,3
;   perimeterOutlines,3
;   printPerimetersInsideOut,1
;   startPointOption,3
;   startPointOriginX,200
;   startPointOriginY,100
;   sequentialIslands,0
;   spiralVaseMode,0
;   firstLayerHeightPercentage,100
;   firstLayerWidthPercentage,150
;   firstLayerUnderspeed,0.5
;   useRaft,0
;   raftExtruder,0
;   raftTopLayers,3
;   raftBaseLayers,2
;   raftOffset,3
;   raftSeparationDistance,0.18
;   raftTopInfill,100
;   aboveRaftSpeedMultiplier,0.3
;   useSkirt,1
;   skirtExtruder,0
;   skirtLayers,1
;   skirtOutlines,3
;   skirtOffset,4
;   usePrimePillar,0
;   primePillarExtruder,999
;   primePillarWidth,12
;   primePillarLocation,7
;   primePillarSpeedMultiplier,1
;   useOozeShield,0
;   oozeShieldExtruder,999
;   oozeShieldOffset,2
;   oozeShieldOutlines,1
;   oozeShieldSidewallShape,1
;   oozeShieldSidewallAngle,30
;   oozeShieldSpeedMultiplier,1
;   infillExtruder,0
;   internalInfillPattern,Rectilinear
;   externalInfillPattern,Rectilinear
;   infillPercentage,20
;   outlineOverlapPercentage,25
;   infillExtrusionWidthPercentage,150
;   minInfillLength,5
;   infillLayerInterval,1
;   internalInfillAngles,45,-45
;   overlapInternalInfillAngles,0
;   externalInfillAngles,45,-45
;   generateSupport,0
;   supportExtruder,0
;   supportInfillPercentage,30
;   supportExtraInflation,0
;   supportBaseLayers,1
;   denseSupportExtruder,0
;   denseSupportLayers,0
;   denseSupportInfillPercentage,70
;   supportLayerInterval,1
;   supportHorizontalPartOffset,0.3
;   supportUpperSeparationLayers,1
;   supportLowerSeparationLayers,1
;   supportType,0
;   supportGridSpacing,4
;   maxOverhangAngle,25
;   supportAngles,0
;   temperatureName,Extruder 1,Heated Bed
;   temperatureNumber,0,1
;   temperatureSetpointCount,2,1
;   temperatureSetpointLayers,1,2,1
;   temperatureSetpointTemperatures,217,208,55
;   temperatureStabilizeAtStartup,1,1
;   temperatureHeatedBed,0,1
;   fanLayers,1,2,4
;   fanSpeeds,0,20,30
;   blipFanToFullPower,1
;   adjustSpeedForCooling,1
;   minSpeedLayerTime,15
;   minCoolingSpeedSlowdown,20
;   increaseFanForCooling,0
;   minFanLayerTime,45
;   maxCoolingFanSpeed,40
;   increaseFanForBridging,0
;   bridgingFanSpeed,80
;   use5D,1
;   relativeEdistances,0
;   allowEaxisZeroing,1
;   independentExtruderAxes,0
;   includeM10123,0
;   stickySupport,1
;   applyToolheadOffsets,0
;   gcodeXoffset,0
;   gcodeYoffset,0
;   gcodeZoffset,0
;   overrideMachineDefinition,1
;   machineTypeOverride,0
;   strokeXoverride,200
;   strokeYoverride,200
;   strokeZoverride,150
;   originOffsetXoverride,0
;   originOffsetYoverride,0
;   originOffsetZoverride,0
;   homeXdirOverride,-1
;   homeYdirOverride,-1
;   homeZdirOverride,-1
;   flipXoverride,1
;   flipYoverride,-1
;   flipZoverride,1
;   toolheadOffsets,0,0|0,0|0,0|0,0|0,0|0,0
;   overrideFirmwareConfiguration,1
;   firmwareTypeOverride,RepRap (Marlin/Repetier/Sprinter)
;   GPXconfigOverride,r2
;   baudRateOverride,115200
;   overridePrinterModels,0
;   printerModelsOverride
;   startingGcode,G28 ; home all axes,G32 ; run bed.g -- probe bed and enable compensation
;   layerChangeGcode,
;   retractionGcode,
;   toolChangeGcode,
;   endingGcode,M0 ; call stop.g
;   exportFileFormat,gcode
;   celebration,0
;   celebrationSong,Random Song
;   postProcessing,
;   defaultSpeed,3600
;   outlineUnderspeed,0.5
;   solidInfillUnderspeed,0.8
;   supportUnderspeed,0.8
;   rapidXYspeed,18000
;   rapidZspeed,1200
;   minBridgingArea,50
;   bridgingExtraInflation,0
;   bridgingExtrusionMultiplier,0.96
;   bridgingSpeedMultiplier,1
;   useFixedBridgingAngle,0
;   fixedBridgingAngle,0
;   applyBridgingToPerimeters,0
;   filamentDiameters,1.75|1.75|1.75|1.75|1.75|1.75
;   filamentPricesPerKg,46|46|46|46|46|46
;   filamentDensities,1.25|1.25|1.25|1.25|1.25|1.25
;   useMinPrintHeight,0
;   minPrintHeight,0
;   useMaxPrintHeight,0
;   maxPrintHeight,0
;   useDiaphragm,0
;   diaphragmLayerInterval,20
;   robustSlicing,1
;   mergeAllIntoSolid,0
;   onlyRetractWhenCrossingOutline,1
;   retractBetweenLayers,0
;   useRetractionMinTravel,1
;   retractionMinTravel,3
;   retractWhileWiping,1
;   onlyWipeOutlines,1
;   avoidCrossingOutline,1
;   maxMovementDetourFactor,3
;   toolChangeRetractionDistance,12
;   toolChangeExtraRestartDistance,-0.5
;   toolChangeRetractionSpeed,600
;   externalThinWallType,1
;   internalThinWallType,1
;   thinWallAllowedOverlapPercentage,10
;   singleExtrusionMinLength,1
;   singleExtrusionMinPrintingWidthPercentage,50
;   singleExtrusionMaxPrintingWidthPercentage,200
;   singleExtrusionEndpointExtension,0.2
;   horizontalSizeCompensation,-0.1
G90
M82
M106 S0
M140 S55
M190 S55
M104 S217 T0
M109 S217 T0
G28 ; home all axes
G32 ; run bed.g -- probe bed and enable compensation
; process Process1
; layer 1, Z = 0.200
T0
G92 E0.0000
G1 E-3.0000 F3600
; feature skirt
; tool H0.200 W0.720
G1 Z0.200 F1200
G1 X137.040 Y112.773 F18000
G1 E0.0000 F3600
G92 E0.0000
G1 X137.040 Y119.227 E0.3633 F1800
G1 X133.643 Y122.625 E0.6337
G1 X73.005 Y122.625 E4.0461
G1 X72.984 Y122.626 E4.0473
G1 X72.329 Y122.876 E4.0868
G1 X71.672 Y123.041 E4.1249
G1 X70.343 Y123.216 E4.2003
G1 X69.321 Y123.169 E4.2579
G1 X67.928 Y122.855 E4.3383
G1 X67.132 Y122.549 E4.3862
G1 X66.180 Y122.010 E4.4478
G1 X65.630 Y121.607 E4.4861
G1 X64.829 Y120.862 E4.5477
G1 X64.297 Y120.196 E4.5957
G1 X63.578 Y118.963 E4.6761
G1 X63.225 Y118.002 E4.7336
G1 X62.960 Y116.512 E4.8188
G1 X62.960 Y115.488 E4.8764
G1 X63.225 Y113.998 E4.9616
G1 X63.578 Y113.037 E5.0192
G1 X64.297 Y111.804 E5.0995
G1 X64.829 Y111.138 E5.1475
G1 X65.630 Y110.393 E5.2091
G1 X66.180 Y109.990 E5.2474
G1 X67.132 Y109.451 E5.3090
G1 X67.886 Y109.161 E5.3545
G1 X67.567 Y108.318 E5.4052
G1 X67.484 Y108.063 E5.4203
G1 X67.179 Y106.955 E5.4849
G1 X67.133 Y106.759 E5.4962
G1 X67.003 Y106.114 E5.5333
G1 X66.970 Y105.916 E5.5446
G1 X66.821 Y104.776 E5.6093
G1 X66.798 Y104.510 E5.6243
G1 X66.754 Y103.332 E5.6907
G1 X66.756 Y103.070 E5.7054
G1 X66.816 Y101.936 E5.7693
G1 X66.841 Y101.681 E5.7837
G1 X67.000 Y100.561 E5.8474
G1 X67.047 Y100.310 E5.8618
G1 X67.072 Y100.202 E5.8680
G1 X66.357 Y100.202 E5.9083
G1 X62.960 Y96.804 E6.1787
G1 X62.960 Y80.199 E7.1131
G1 X66.357 Y76.802 E7.3835
G1 X120.962 Y76.802 E10.4565
G1 X124.360 Y80.199 E10.7269
G1 X124.360 Y96.804 E11.6613
G1 X120.962 Y100.202 E11.9317
G1 X83.097 Y100.202 E14.0626
G1 X82.768 Y100.874 E14.1047
G1 X82.320 Y101.538 E14.1498
G1 X81.454 Y102.505 E14.2229
G1 X81.340 Y102.678 E14.2346
G1 X81.275 Y102.804 E14.2425
G1 X81.212 Y102.970 E14.2525
G1 X81.169 Y103.179 E14.2646
G1 X81.162 Y103.392 E14.2766
G1 X81.186 Y103.569 E14.2866
G1 X81.228 Y103.741 E14.2966
G1 X81.312 Y103.937 E14.3086
G1 X81.409 Y104.087 E14.3186
G1 X81.520 Y104.224 E14.3286
G1 X81.654 Y104.342 E14.3386
G1 X81.799 Y104.445 E14.3486
G1 X82.023 Y104.553 E14.3626
G1 X82.168 Y104.586 E14.3709
G1 X85.095 Y104.869 E14.5364
G1 X88.112 Y108.221 E14.7902
G1 X88.102 Y109.375 E14.8552
G1 X133.643 Y109.375 E17.4180
G1 X137.040 Y112.773 E17.6884
G1 X136.320 Y113.071 F18000
G92 E0.0000
G1 X136.320 Y118.929 E0.3297 F1800
G1 X133.345 Y121.905 E0.5665
G1 X72.983 Y121.905 E3.9634
G1 X72.830 Y121.914 E3.9721
G1 X72.112 Y122.188 E4.0153
G1 X71.537 Y122.333 E4.0487
G1 X70.312 Y122.493 E4.1182
G1 X69.417 Y122.453 E4.1686
G1 X68.137 Y122.165 E4.2424
G1 X67.441 Y121.896 E4.2845
G1 X66.571 Y121.404 E4.3407
G1 X66.090 Y121.051 E4.3743
G1 X65.358 Y120.371 E4.4305
G1 X64.892 Y119.788 E4.4725
G1 X64.232 Y118.655 E4.5463
G1 X63.923 Y117.813 E4.5967
G1 X63.680 Y116.448 E4.6748
G1 X63.680 Y115.552 E4.7252
G1 X63.923 Y114.187 E4.8032
G1 X64.232 Y113.345 E4.8537
G1 X64.892 Y112.212 E4.9275
G1 X65.358 Y111.629 E4.9695
G1 X66.090 Y110.949 E5.0257
G1 X66.571 Y110.596 E5.0593
G1 X67.441 Y110.104 E5.1155
G1 X68.137 Y109.835 E5.1576
G1 X68.890 Y109.666 E5.2010
G1 X68.746 Y109.370 E5.2195
G1 X68.653 Y109.154 E5.2327
G1 X68.247 Y108.079 E5.2974
G1 X68.174 Y107.856 E5.3106
G1 X67.877 Y106.776 E5.3737
G1 X67.836 Y106.605 E5.3836
G1 X67.711 Y105.984 E5.4192
G1 X67.682 Y105.810 E5.4291
G1 X67.537 Y104.700 E5.4921
G1 X67.517 Y104.466 E5.5053
G1 X67.474 Y103.321 E5.5698
G1 X67.476 Y103.091 E5.5827
G1 X67.534 Y101.990 E5.6448
G1 X67.556 Y101.767 E5.6574
G1 X67.710 Y100.679 E5.7193
G1 X67.752 Y100.458 E5.7319
G1 X67.980 Y99.482 E5.7883
G1 X66.655 Y99.482 E5.8629
G1 X63.680 Y96.506 E6.0997
G1 X63.680 Y80.497 E7.0006
G1 X66.655 Y77.522 E7.2374
G1 X120.664 Y77.522 E10.2768
G1 X123.640 Y80.497 E10.5137
G1 X123.640 Y96.506 E11.4145
G1 X120.664 Y99.482 E11.6514
G1 X82.626 Y99.482 E13.7920
G1 X82.571 Y99.639 E13.8014
G1 X82.144 Y100.513 E13.8561
G1 X81.751 Y101.095 E13.8956
G1 X80.892 Y102.052 E13.9680
G1 X80.876 Y102.074 E13.9695
G1 X80.717 Y102.314 E13.9857
G1 X80.616 Y102.511 E13.9982
G1 X80.517 Y102.770 E14.0138
G1 X80.452 Y103.096 E14.0325
G1 X80.441 Y103.428 E14.0512
G1 X80.477 Y103.702 E14.0668
G1 X80.543 Y103.971 E14.0824
G1 X80.675 Y104.277 E14.1011
G1 X80.824 Y104.509 E14.1166
G1 X80.999 Y104.724 E14.1322
G1 X81.206 Y104.908 E14.1478
G1 X81.433 Y105.067 E14.1634
G1 X81.745 Y105.218 E14.1829
G1 X81.784 Y105.233 E14.1852
G1 X81.823 Y105.245 E14.1875
G1 X82.051 Y105.298 E14.2007
G1 X84.747 Y105.559 E14.3532
G1 X87.390 Y108.494 E14.5755
G1 X87.376 Y110.095 E14.6655
G1 X133.345 Y110.095 E17.2525
G1 X136.320 Y113.071 E17.4893
G1 X135.600 Y113.369 F18000
G92 E0.0000
G1 X135.600 Y118.631 E0.2961 F1800
G1 X133.046 Y121.185 E0.4994
G1 X72.962 Y121.185 E3.8807
G1 X72.744 Y121.198 E3.8930
G1 X72.636 Y121.218 E3.8992
G1 X71.895 Y121.500 E3.9438
G1 X71.401 Y121.624 E3.9724
G1 X70.282 Y121.771 E4.0360
G1 X69.513 Y121.736 E4.0793
G1 X68.347 Y121.474 E4.1466
G1 X67.749 Y121.243 E4.1826
G1 X66.963 Y120.798 E4.2335
G1 X66.550 Y120.495 E4.2623
G1 X65.888 Y119.879 E4.3132
G1 X65.488 Y119.379 E4.3492
G1 X64.885 Y118.347 E4.4165
G1 X64.620 Y117.625 E4.4598
G1 X64.400 Y116.385 E4.5307
G1 X64.400 Y115.615 E4.5740
G1 X64.620 Y114.375 E4.6448
G1 X64.885 Y113.653 E4.6881
G1 X65.488 Y112.621 E4.7554
G1 X65.888 Y112.121 E4.7914
G1 X66.550 Y111.505 E4.8423
G1 X66.963 Y111.202 E4.8711
G1 X67.749 Y110.757 E4.9220
G1 X68.347 Y110.526 E4.9581
G1 X69.515 Y110.263 E5.0254
G1 X69.983 Y110.242 E5.0518
G1 X69.949 Y110.183 E5.0557
G1 X69.878 Y110.049 E5.0642
G1 X69.400 Y109.069 E5.1255
G1 X69.320 Y108.884 E5.1369
G1 X68.926 Y107.840 E5.1997
G1 X68.864 Y107.648 E5.2110
G1 X68.574 Y106.597 E5.2724
G1 X68.539 Y106.450 E5.2809
G1 X68.419 Y105.853 E5.3151
G1 X68.394 Y105.704 E5.3236
G1 X68.253 Y104.623 E5.3850
G1 X68.236 Y104.422 E5.3963
G1 X68.194 Y103.310 E5.4590
G1 X68.196 Y103.113 E5.4701
G1 X68.252 Y102.044 E5.5303
G1 X68.271 Y101.852 E5.5412
G1 X68.421 Y100.796 E5.6012
G1 X68.457 Y100.606 E5.6120
G1 X68.700 Y99.567 E5.6721
G1 X68.752 Y99.381 E5.6830
G1 X68.956 Y98.762 E5.7197
G1 X66.954 Y98.762 E5.8323
G1 X64.400 Y96.208 E6.0356
G1 X64.400 Y80.796 E6.9029
G1 X66.954 Y78.242 E7.1062
G1 X120.366 Y78.242 E10.1120
G1 X122.920 Y80.796 E10.3153
G1 X122.920 Y96.208 E11.1826
G1 X120.366 Y98.762 E11.3859
G1 X82.101 Y98.762 E13.5392
G1 X82.074 Y98.882 E13.5462
G1 X81.905 Y99.361 E13.5748
G1 X81.519 Y100.151 E13.6243
G1 X81.182 Y100.651 E13.6582
G1 X80.341 Y101.589 E13.7291
G1 X80.292 Y101.651 E13.7336
G1 X80.094 Y101.950 E13.7537
G1 X79.957 Y102.218 E13.7706
G1 X79.829 Y102.555 E13.7909
G1 X79.820 Y102.584 E13.7927
G1 X79.737 Y102.997 E13.8163
G1 X79.734 Y103.027 E13.8181
G1 X79.720 Y103.448 E13.8417
G1 X79.721 Y103.478 E13.8435
G1 X79.768 Y103.836 E13.8638
G1 X79.855 Y104.186 E13.8841
G1 X79.864 Y104.215 E13.8858
G1 X80.031 Y104.602 E13.9095
G1 X80.045 Y104.629 E13.9112
G1 X80.240 Y104.932 E13.9315
G1 X80.468 Y105.213 E13.9518
G1 X80.489 Y105.235 E13.9535
G1 X80.759 Y105.474 E13.9738
G1 X81.054 Y105.681 E13.9941
G1 X81.080 Y105.697 E13.9959
G1 X81.460 Y105.879 E14.0195
G1 X81.544 Y105.912 E14.0247
G1 X81.631 Y105.940 E14.0297
G1 X81.934 Y106.010 E14.0473
G1 X84.400 Y106.249 E14.1867
G1 X86.668 Y108.768 E14.3775
G1 X86.650 Y110.815 E14.4926
G1 X133.046 Y110.815 E17.1037
G1 X135.600 Y113.369 E17.3069
G92 E0.0000
G1 E-3.0000 F3600
; feature inner perimeter
G1 X118.200 Y94.042 F18000
G1 X118.066 Y94.042
G1 X116.760 Y92.602
G1 E0.0000 F3600
G92 E0.0000
G1 X70.560 Y92.602 E2.6000 F1350
G1 X70.560 Y84.402 E3.0614
G1 X116.760 Y84.402 E5.6614
G1 X116.760 Y92.402 E6.1116
G1 X116.760 Y92.602 F1350
G1 X117.480 Y93.322 F18000
G92 E0.0000
G1 X69.840 Y93.322 E2.6810 F1350
G1 X69.840 Y83.682 E3.2235
G1 X117.480 Y83.682 E5.9045
G1 X117.480 Y93.122 E6.4357
G1 X117.480 Y93.322 F1350
; feature outer perimeter
G1 X118.200 Y94.042 F18000
G92 E0.0000
G1 X69.120 Y94.042 E2.7620 F900
G1 X69.120 Y82.962 E3.3856
G1 X118.200 Y82.962 E6.1476
G1 X118.200 Y93.842 E6.7599
G1 X118.200 Y94.042 F900
G1 X113.200 Y94.042 F900
; feature solid layer
G1 X115.489 Y84.942 F18000
G92 E0.0000
G1 X116.220 Y85.673 E0.0582 F1440
G1 X116.220 Y86.691 E0.1155
G1 X114.470 Y84.942 E0.2547
G1 X113.452 Y84.942 E0.3120
G1 X116.220 Y87.709 E0.5323
G1 X116.220 Y88.727 E0.5896
G1 X112.434 Y84.942 E0.8908
G1 X111.416 Y84.942 E0.9481
G1 X116.220 Y89.745 E1.3305
G1 X116.220 Y90.764 E1.3878
G1 X110.397 Y84.942 E1.8511
G1 X109.379 Y84.942 E1.9084
G1 X116.220 Y91.782 E2.4529
G1 X116.220 Y92.062 E2.4686
G1 X115.481 Y92.062 E2.5102
G1 X108.361 Y84.942 E3.0768
G1 X107.343 Y84.942 E3.1341
G1 X114.463 Y92.062 E3.7008
G1 X113.444 Y92.062 E3.7581
G1 X106.324 Y84.942 E4.3247
G1 X105.306 Y84.942 E4.3820
G1 X112.426 Y92.062 E4.9487
G1 X111.408 Y92.062 E5.0060
G1 X104.288 Y84.942 E5.5726
G1 X103.270 Y84.942 E5.6299
G1 X110.390 Y92.062 E6.1966
G1 X109.372 Y92.062 E6.2539
G1 X102.252 Y84.942 E6.8206
G1 X101.233 Y84.942 E6.8779
G1 X108.353 Y92.062 E7.4445
G1 X107.335 Y92.062 E7.5018
G1 X100.215 Y84.942 E8.0685
G1 X99.197 Y84.942 E8.1258
G1 X106.317 Y92.062 E8.6924
G1 X105.299 Y92.062 E8.7497
G1 X98.179 Y84.942 E9.3164
G1 X97.160 Y84.942 E9.3737
G1 X104.280 Y92.062 E9.9404
G1 X103.262 Y92.062 E9.9977
G1 X96.142 Y84.942 E10.5643
G1 X95.124 Y84.942 E10.6216
G1 X102.244 Y92.062 E11.1883
G1 X101.226 Y92.062 E11.2456
G1 X94.106 Y84.942 E11.8122
G1 X93.087 Y84.942 E11.8695
G1 X100.207 Y92.062 E12.4362
G1 X99.189 Y92.062 E12.4935
G1 X92.069 Y84.942 E13.0602
G1 X91.051 Y84.942 E13.1175
G1 X98.171 Y92.062 E13.6841
G1 X97.153 Y92.062 E13.7414
G1 X90.033 Y84.942 E14.3081
G1 X89.014 Y84.942 E14.3654
G1 X96.134 Y92.062 E14.9320
G1 X95.116 Y92.062 E14.9893
G1 X87.996 Y84.942 E15.5560
G1 X86.978 Y84.942 E15.6133
G1 X94.098 Y92.062 E16.1799
G1 X93.080 Y92.062 E16.2372
G1 X85.960 Y84.942 E16.8039
G1 X84.942 Y84.942 E16.8612
G1 X92.062 Y92.062 E17.4279
G1 X91.043 Y92.062 E17.4852
G1 X83.923 Y84.942 E18.0518
G1 X82.905 Y84.942 E18.1091
G1 X90.025 Y92.062 E18.6758
G1 X89.007 Y92.062 E18.7331
G1 X81.887 Y84.942 E19.2997
G1 X80.869 Y84.942 E19.3570
G1 X87.989 Y92.062 E19.9237
G1 X86.970 Y92.062 E19.9810
G1 X79.850 Y84.942 E20.5477
G1 X78.832 Y84.942 E20.6050
G1 X85.952 Y92.062 E21.1716
G1 X84.934 Y92.062 E21.2289
G1 X77.814 Y84.942 E21.7956
G1 X76.796 Y84.942 E21.8529
G1 X83.916 Y92.062 E22.4195
G1 X82.897 Y92.062 E22.4768
G1 X75.777 Y84.942 E23.0435
G1 X74.759 Y84.942 E23.1008
G1 X81.879 Y92.062 E23.6675
G1 X80.861 Y92.062 E23.7248
G1 X73.741 Y84.942 E24.2914
G1 X72.723 Y84.942 E24.3487
G1 X79.843 Y92.062 E24.9154
G1 X78.825 Y92.062 E24.9727
