; G-Code generated by Simplify3D(R) Version 4.1.2
; Apr 4, 2020 at 5:34:49 PM
; Settings Summary
;   processName,Process1
;   applyToModels,test-innen-v2,test-kurve
;   profileName,HBot (modified)
;   profileVersion,2019-10-26 23:38:43
;   baseProfile,Default
;   printMaterial,PLA
;   printQuality,Medium
;   printExtruders,
;   extruderName,Extruder 1
;   extruderToolheadNumber,0
;   extruderDiameter,0.4
;   extruderAutoWidth,1
;   extruderWidth,0.48
;   extrusionMultiplier,0.94
;   extruderUseRetract,1
;   extruderRetractionDistance,3
;   extruderExtraRestartDistance,0
;   extruderRetractionZLift,0
;   extruderRetractionSpeed,3600
;   extruderUseCoasting,1
;   extruderCoastingDistance,0.2
;   extruderUseWipe,1
;   extruderWipeDistance,5
;   primaryExtruder,0
;   layerHeight,0.2
;   topSolidLayers,3
;   bottomSolidLayers,3
;   perimeterOutlines,3
;   printPerimetersInsideOut,1
;   startPointOption,3
;   startPointOriginX,200
;   startPointOriginY,100
;   sequentialIslands,0
;   spiralVaseMode,0
;   firstLayerHeightPercentage,100
;   firstLayerWidthPercentage,150
;   firstLayerUnderspeed,0.5
;   useRaft,0
;   raftExtruder,0
;   raftTopLayers,3
;   raftBaseLayers,2
;   raftOffset,3
;   raftSeparationDistance,0.18
;   raftTopInfill,100
;   aboveRaftSpeedMultiplier,0.3
;   useSkirt,1
;   skirtExtruder,0
;   skirtLayers,1
;   skirtOutlines,3
;   skirtOffset,0
;   usePrimePillar,0
;   primePillarExtruder,999
;   primePillarWidth,12
;   primePillarLocation,7
;   primePillarSpeedMultiplier,1
;   useOozeShield,0
;   oozeShieldExtruder,999
;   oozeShieldOffset,2
;   oozeShieldOutlines,1
;   oozeShieldSidewallShape,1
;   oozeShieldSidewallAngle,30
;   oozeShieldSpeedMultiplier,1
;   infillExtruder,0
;   internalInfillPattern,Rectilinear
;   externalInfillPattern,Rectilinear
;   infillPercentage,20
;   outlineOverlapPercentage,25
;   infillExtrusionWidthPercentage,150
;   minInfillLength,5
;   infillLayerInterval,1
;   internalInfillAngles,45,-45
;   overlapInternalInfillAngles,0
;   externalInfillAngles,45,-45
;   generateSupport,0
;   supportExtruder,0
;   supportInfillPercentage,30
;   supportExtraInflation,0
;   supportBaseLayers,1
;   denseSupportExtruder,0
;   denseSupportLayers,0
;   denseSupportInfillPercentage,70
;   supportLayerInterval,1
;   supportHorizontalPartOffset,0.3
;   supportUpperSeparationLayers,1
;   supportLowerSeparationLayers,1
;   supportType,0
;   supportGridSpacing,4
;   maxOverhangAngle,25
;   supportAngles,0
;   temperatureName,Extruder 1,Heated Bed
;   temperatureNumber,0,1
;   temperatureSetpointCount,2,1
;   temperatureSetpointLayers,1,2,1
;   temperatureSetpointTemperatures,217,208,55
;   temperatureStabilizeAtStartup,1,1
;   temperatureHeatedBed,0,1
;   fanLayers,1,2,4
;   fanSpeeds,0,20,30
;   blipFanToFullPower,1
;   adjustSpeedForCooling,1
;   minSpeedLayerTime,15
;   minCoolingSpeedSlowdown,20
;   increaseFanForCooling,0
;   minFanLayerTime,45
;   maxCoolingFanSpeed,40
;   increaseFanForBridging,0
;   bridgingFanSpeed,80
;   use5D,1
;   relativeEdistances,0
;   allowEaxisZeroing,1
;   independentExtruderAxes,0
;   includeM10123,0
;   stickySupport,1
;   applyToolheadOffsets,0
;   gcodeXoffset,0
;   gcodeYoffset,0
;   gcodeZoffset,0
;   overrideMachineDefinition,1
;   machineTypeOverride,0
;   strokeXoverride,200
;   strokeYoverride,200
;   strokeZoverride,150
;   originOffsetXoverride,0
;   originOffsetYoverride,0
;   originOffsetZoverride,0
;   homeXdirOverride,-1
;   homeYdirOverride,-1
;   homeZdirOverride,-1
;   flipXoverride,1
;   flipYoverride,-1
;   flipZoverride,1
;   toolheadOffsets,0,0|0,0|0,0|0,0|0,0|0,0
;   overrideFirmwareConfiguration,1
;   firmwareTypeOverride,RepRap (Marlin/Repetier/Sprinter)
;   GPXconfigOverride,r2
;   baudRateOverride,115200
;   overridePrinterModels,0
;   printerModelsOverride
;   startingGcode,G28 ; home all axes,G32 ; run bed.g -- probe bed and enable compensation
;   layerChangeGcode,
;   retractionGcode,
;   toolChangeGcode,
;   endingGcode,M0 ; call stop.g
;   exportFileFormat,gcode
;   celebration,0
;   celebrationSong,Random Song
;   postProcessing,
;   defaultSpeed,3600
;   outlineUnderspeed,0.5
;   solidInfillUnderspeed,0.8
;   supportUnderspeed,0.8
;   rapidXYspeed,18000
;   rapidZspeed,1200
;   minBridgingArea,50
;   bridgingExtraInflation,0
;   bridgingExtrusionMultiplier,0.96
;   bridgingSpeedMultiplier,1
;   useFixedBridgingAngle,0
;   fixedBridgingAngle,0
;   applyBridgingToPerimeters,0
;   filamentDiameters,1.75|1.75|1.75|1.75|1.75|1.75
;   filamentPricesPerKg,46|46|46|46|46|46
;   filamentDensities,1.25|1.25|1.25|1.25|1.25|1.25
;   useMinPrintHeight,0
;   minPrintHeight,0
;   useMaxPrintHeight,0
;   maxPrintHeight,0
;   useDiaphragm,0
;   diaphragmLayerInterval,20
;   robustSlicing,1
;   mergeAllIntoSolid,0
;   onlyRetractWhenCrossingOutline,1
;   retractBetweenLayers,0
;   useRetractionMinTravel,1
;   retractionMinTravel,3
;   retractWhileWiping,1
;   onlyWipeOutlines,1
;   avoidCrossingOutline,1
;   maxMovementDetourFactor,3
;   toolChangeRetractionDistance,12
;   toolChangeExtraRestartDistance,-0.5
;   toolChangeRetractionSpeed,600
;   externalThinWallType,1
;   internalThinWallType,1
;   thinWallAllowedOverlapPercentage,10
;   singleExtrusionMinLength,1
;   singleExtrusionMinPrintingWidthPercentage,50
;   singleExtrusionMaxPrintingWidthPercentage,200
;   singleExtrusionEndpointExtension,0.2
;   horizontalSizeCompensation,-0.1
G90
M82
M106 S0
M140 S55
M190 S55
M104 S217 T0
M109 S217 T0
G28 ; home all axes
G32 ; run bed.g -- probe bed and enable compensation
; process Process1
; layer 1, Z = 0.200
T0
G92 E0.0000
G1 E-3.0000 F3600
; feature skirt
; tool H0.200 W0.720
G1 Z0.200 F1200
G1 X46.644 Y96.722 F18000
G1 E0.0000 F3600
G92 E0.0000
G1 X46.607 Y100.994 E0.2404 F1800
G1 X45.481 Y102.048 E0.3272
G1 X43.857 Y101.954 E0.4188
G1 X43.777 Y101.946 E0.4233
G1 X42.802 Y101.801 E0.4788
G1 X42.740 Y101.790 E0.4823
G1 X42.233 Y101.678 E0.5115
G1 X42.172 Y101.663 E0.5150
G1 X41.236 Y101.388 E0.5700
G1 X41.176 Y101.368 E0.5735
G1 X40.689 Y101.187 E0.6028
G1 X40.631 Y101.163 E0.6063
G1 X39.731 Y100.757 E0.6618
G1 X39.657 Y100.719 E0.6665
G1 X38.790 Y100.226 E0.7227
G1 X38.719 Y100.182 E0.7274
G1 X37.902 Y99.611 E0.7835
G1 X37.836 Y99.561 E0.7881
G1 X37.081 Y98.923 E0.8437
G1 X37.035 Y98.881 E0.8472
G1 X36.670 Y98.527 E0.8759
G1 X36.641 Y98.497 E0.8782
G1 X36.292 Y98.125 E0.9069
G1 X36.251 Y98.078 E0.9104
G1 X35.627 Y97.313 E0.9660
G1 X35.578 Y97.247 E0.9706
G1 X35.021 Y96.419 E1.0268
G1 X34.978 Y96.348 E1.0315
G1 X34.505 Y95.482 E1.0870
G1 X34.477 Y95.426 E1.0905
G1 X34.260 Y94.953 E1.1198
G1 X34.236 Y94.895 E1.1233
G1 X33.887 Y93.972 E1.1788
G1 X33.862 Y93.893 E1.1835
G1 X33.600 Y92.941 E1.2391
G1 X33.585 Y92.880 E1.2426
G1 X33.482 Y92.371 E1.2718
G1 X33.472 Y92.310 E1.2753
G1 X33.344 Y91.330 E1.3309
G1 X33.337 Y91.247 E1.3356
G1 X33.300 Y90.253 E1.3916
G1 X33.300 Y90.171 E1.3962
G1 X33.351 Y89.216 E1.4500
G1 X33.359 Y89.137 E1.4545
G1 X33.493 Y88.192 E1.5082
G1 X33.508 Y88.114 E1.5127
G1 X33.725 Y87.185 E1.5664
G1 X33.746 Y87.109 E1.5708
G1 X34.048 Y86.193 E1.6251
G1 X34.084 Y86.100 E1.6307
G1 X34.669 Y84.818 E1.7100
G1 X34.716 Y84.730 E1.7156
G1 X35.216 Y83.893 E1.7705
G1 X35.272 Y83.810 E1.7761
G1 X36.124 Y82.687 E1.8554
G1 X36.189 Y82.611 E1.8611
G1 X36.875 Y81.889 E1.9171
G1 X36.983 Y81.792 E1.9253
G1 X37.383 Y81.488 E1.9536
G1 X37.564 Y81.381 E1.9654
G1 X38.076 Y81.154 E1.9969
G1 X38.329 Y81.083 E2.0117
G1 X39.045 Y80.992 E2.0523
G1 X39.255 Y80.989 E2.0642
G1 X39.625 Y81.029 E2.0851
G1 X39.830 Y81.075 E2.0969
G1 X40.511 Y81.315 E2.1376
G1 X40.743 Y81.437 E2.1523
G1 X41.196 Y81.767 E2.1839
G1 X41.350 Y81.909 E2.1957
G1 X41.716 Y82.335 E2.2272
G1 X41.856 Y82.557 E2.2420
G1 X42.170 Y83.265 E2.2856
G1 X42.246 Y83.571 E2.3033
G1 X42.299 Y84.344 E2.3469
G1 X42.279 Y84.606 E2.3617
G1 X42.155 Y85.153 E2.3933
G1 X42.086 Y85.351 E2.4051
G1 X41.842 Y85.848 E2.4363
G1 X41.703 Y86.055 E2.4503
G1 X40.926 Y86.921 E2.5157
G1 X40.761 Y87.131 E2.5308
G1 X40.426 Y87.637 E2.5649
G1 X40.149 Y88.178 E2.5991
G1 X40.057 Y88.401 E2.6127
G1 X39.872 Y88.980 E2.6469
G1 X39.752 Y89.576 E2.6811
G1 X39.724 Y89.816 E2.6947
G1 X39.704 Y90.423 E2.7289
G1 X39.748 Y91.004 E2.7617
G1 X39.861 Y91.601 E2.7959
G1 X39.932 Y91.859 E2.8109
G1 X40.016 Y92.111 E2.8259
G1 X40.267 Y92.692 E2.8615
G1 X40.380 Y92.906 E2.8751
G1 X40.709 Y93.417 E2.9093
G1 X41.092 Y93.888 E2.9435
G1 X41.259 Y94.063 E2.9571
G1 X41.733 Y94.482 E2.9927
G1 X41.927 Y94.627 E3.0063
G1 X42.442 Y94.949 E3.0405
G1 X42.989 Y95.213 E3.0747
G1 X43.215 Y95.299 E3.0883
G1 X43.822 Y95.476 E3.1239
G1 X44.040 Y95.521 E3.1364
G1 X45.708 Y95.682 E3.2307
G1 X46.644 Y96.722 E3.3095
G1 X45.922 Y96.996 F18000
G92 E0.0000
G1 X45.890 Y100.679 E0.2073 F1800
G1 X45.214 Y101.311 E0.2594
G1 X43.915 Y101.236 E0.3326
G1 X43.866 Y101.231 E0.3354
G1 X42.920 Y101.091 E0.3892
G1 X42.883 Y101.084 E0.3913
G1 X42.400 Y100.978 E0.4192
G1 X42.363 Y100.969 E0.4213
G1 X41.450 Y100.700 E0.4748
G1 X41.415 Y100.688 E0.4769
G1 X40.951 Y100.516 E0.5048
G1 X40.916 Y100.502 E0.5069
G1 X40.043 Y100.108 E0.5608
G1 X39.999 Y100.085 E0.5636
G1 X39.160 Y99.608 E0.6179
G1 X39.118 Y99.582 E0.6207
G1 X38.327 Y99.030 E0.6750
G1 X38.288 Y99.000 E0.6778
G1 X37.556 Y98.381 E0.7317
G1 X37.528 Y98.356 E0.7338
G1 X37.178 Y98.016 E0.7613
G1 X37.160 Y97.998 E0.7627
G1 X36.826 Y97.641 E0.7902
G1 X36.801 Y97.613 E0.7923
G1 X36.195 Y96.871 E0.8462
G1 X36.166 Y96.831 E0.8490
G1 X35.628 Y96.031 E0.9033
G1 X35.602 Y95.988 E0.9061
G1 X35.143 Y95.147 E0.9600
G1 X35.126 Y95.114 E0.9621
G1 X34.920 Y94.664 E0.9900
G1 X34.905 Y94.629 E0.9921
G1 X34.567 Y93.733 E1.0460
G1 X34.551 Y93.686 E1.0488
G1 X34.297 Y92.762 E1.1027
G1 X34.288 Y92.725 E1.1048
G1 X34.191 Y92.241 E1.1327
G1 X34.184 Y92.204 E1.1348
G1 X34.060 Y91.254 E1.1887
G1 X34.056 Y91.204 E1.1915
G1 X34.020 Y90.242 E1.2457
G1 X34.020 Y90.193 E1.2484
G1 X34.069 Y89.270 E1.3004
G1 X34.074 Y89.223 E1.3031
G1 X34.203 Y88.310 E1.3550
G1 X34.212 Y88.263 E1.3577
G1 X34.422 Y87.364 E1.4096
G1 X34.435 Y87.319 E1.4123
G1 X34.725 Y86.437 E1.4646
G1 X34.747 Y86.381 E1.4679
G1 X35.316 Y85.135 E1.5450
G1 X35.344 Y85.082 E1.5484
G1 X35.824 Y84.279 E1.6010
G1 X35.857 Y84.230 E1.6044
G1 X36.686 Y83.138 E1.6815
G1 X36.724 Y83.093 E1.6848
G1 X37.377 Y82.406 E1.7382
G1 X37.442 Y82.348 E1.7431
G1 X37.786 Y82.086 E1.7674
G1 X37.894 Y82.022 E1.7745
G1 X38.320 Y81.833 E1.8007
G1 X38.472 Y81.791 E1.8096
G1 X39.095 Y81.711 E1.8449
G1 X39.221 Y81.710 E1.8520
G1 X39.508 Y81.740 E1.8682
G1 X39.630 Y81.768 E1.8753
G1 X40.222 Y81.977 E1.9106
G1 X40.362 Y82.050 E1.9195
G1 X40.739 Y82.325 E1.9457
G1 X40.831 Y82.410 E1.9528
G1 X41.135 Y82.764 E1.9791
G1 X41.219 Y82.897 E1.9879
G1 X41.486 Y83.500 E2.0250
G1 X41.532 Y83.683 E2.0357
G1 X41.577 Y84.341 E2.0728
G1 X41.565 Y84.498 E2.0816
G1 X41.462 Y84.953 E2.1079
G1 X41.420 Y85.072 E2.1150
G1 X41.217 Y85.487 E2.1410
G1 X41.134 Y85.611 E2.1494
G1 X40.375 Y86.457 E2.2134
G1 X40.176 Y86.709 E2.2314
G1 X39.804 Y87.273 E2.2695
G1 X39.495 Y87.876 E2.3076
G1 X39.380 Y88.154 E2.3245
G1 X39.174 Y88.799 E2.3626
G1 X39.040 Y89.463 E2.4007
G1 X39.005 Y89.762 E2.4177
G1 X38.983 Y90.439 E2.4558
G1 X39.033 Y91.099 E2.4930
G1 X39.159 Y91.764 E2.5311
G1 X39.243 Y92.069 E2.5489
G1 X39.343 Y92.369 E2.5667
G1 X39.617 Y93.004 E2.6057
G1 X39.759 Y93.270 E2.6226
G1 X40.125 Y93.840 E2.6607
G1 X40.551 Y94.365 E2.6988
G1 X40.760 Y94.583 E2.7158
G1 X41.278 Y95.041 E2.7547
G1 X41.520 Y95.221 E2.7717
G1 X42.094 Y95.580 E2.8098
G1 X42.704 Y95.874 E2.8479
G1 X42.985 Y95.982 E2.8648
G1 X43.649 Y96.176 E2.9038
G1 X43.933 Y96.234 E2.9200
G1 X45.360 Y96.372 E3.0007
G1 X45.922 Y96.996 E3.0480
G1 X45.200 Y97.269 F18000
G92 E0.0000
G1 X45.173 Y100.364 E0.1742 F1800
G1 X44.947 Y100.575 E0.1915
G1 X43.972 Y100.518 E0.2465
G1 X43.956 Y100.517 E0.2474
G1 X43.038 Y100.381 E0.2997
G1 X43.025 Y100.378 E0.3004
G1 X42.566 Y100.277 E0.3268
G1 X42.554 Y100.274 E0.3275
G1 X41.665 Y100.013 E0.3797
G1 X41.653 Y100.009 E0.3804
G1 X41.213 Y99.846 E0.4068
G1 X41.201 Y99.841 E0.4075
G1 X40.355 Y99.458 E0.4598
G1 X40.340 Y99.451 E0.4607
G1 X39.530 Y98.991 E0.5131
G1 X39.516 Y98.982 E0.5141
G1 X38.753 Y98.449 E0.5664
G1 X38.740 Y98.439 E0.5674
G1 X38.030 Y97.839 E0.6197
G1 X38.021 Y97.831 E0.6204
G1 X37.685 Y97.505 E0.6467
G1 X37.679 Y97.499 E0.6472
G1 X37.359 Y97.158 E0.6735
G1 X37.351 Y97.149 E0.6742
G1 X36.764 Y96.429 E0.7265
G1 X36.754 Y96.415 E0.7274
G1 X36.234 Y95.643 E0.7798
G1 X36.226 Y95.629 E0.7807
G1 X35.781 Y94.813 E0.8330
G1 X35.775 Y94.802 E0.8337
G1 X35.579 Y94.375 E0.8602
G1 X35.574 Y94.363 E0.8609
G1 X35.246 Y93.494 E0.9131
G1 X35.241 Y93.478 E0.9141
G1 X34.995 Y92.583 E0.9664
G1 X34.992 Y92.571 E0.9671
G1 X34.899 Y92.110 E0.9935
G1 X34.897 Y92.098 E0.9942
G1 X34.776 Y91.177 E1.0465
G1 X34.775 Y91.160 E1.0474
G1 X34.740 Y90.231 E1.0997
G1 X34.740 Y90.215 E1.1007
G1 X34.787 Y89.324 E1.1509
G1 X34.789 Y89.308 E1.1517
G1 X34.914 Y88.427 E1.2019
G1 X34.917 Y88.411 E1.2028
G1 X35.120 Y87.544 E1.2529
G1 X35.124 Y87.528 E1.2538
G1 X35.403 Y86.681 E1.3040
G1 X35.410 Y86.662 E1.3051
G1 X35.963 Y85.452 E1.3800
G1 X35.972 Y85.435 E1.3811
G1 X36.432 Y84.666 E1.4315
G1 X36.443 Y84.649 E1.4326
G1 X37.247 Y83.590 E1.5075
G1 X37.260 Y83.575 E1.5086
G1 X37.879 Y82.923 E1.5592
G1 X37.901 Y82.903 E1.5608
G1 X38.188 Y82.685 E1.5812
G1 X38.224 Y82.663 E1.5835
G1 X38.565 Y82.512 E1.6045
G1 X38.615 Y82.498 E1.6074
G1 X39.144 Y82.431 E1.6374
G1 X39.186 Y82.430 E1.6398
G1 X39.390 Y82.452 E1.6513
G1 X39.431 Y82.461 E1.6537
G1 X39.934 Y82.638 E1.6837
G1 X39.980 Y82.663 E1.6867
G1 X40.281 Y82.882 E1.7076
G1 X40.312 Y82.910 E1.7100
G1 X40.554 Y83.193 E1.7309
G1 X40.582 Y83.237 E1.7339
G1 X40.803 Y83.734 E1.7645
G1 X40.818 Y83.795 E1.7680
G1 X40.855 Y84.338 E1.7986
G1 X40.851 Y84.390 E1.8016
G1 X40.769 Y84.753 E1.8225
G1 X40.755 Y84.793 E1.8249
G1 X40.592 Y85.126 E1.8457
G1 X40.564 Y85.167 E1.8485
G1 X39.824 Y85.994 E1.9110
G1 X39.592 Y86.287 E1.9320
G1 X39.181 Y86.909 E1.9740
G1 X38.840 Y87.573 E2.0160
G1 X38.703 Y87.907 E2.0363
G1 X38.476 Y88.618 E2.0783
G1 X38.329 Y89.350 E2.1203
G1 X38.287 Y89.708 E2.1406
G1 X38.262 Y90.454 E2.1826
G1 X38.318 Y91.193 E2.2243
G1 X38.457 Y91.927 E2.2663
G1 X38.554 Y92.279 E2.2869
G1 X38.670 Y92.626 E2.3075
G1 X38.967 Y93.316 E2.3498
G1 X39.137 Y93.635 E2.3701
G1 X39.541 Y94.263 E2.4121
G1 X40.011 Y94.842 E2.4541
G1 X40.261 Y95.103 E2.4744
G1 X40.824 Y95.600 E2.5167
G1 X41.113 Y95.816 E2.5370
G1 X41.746 Y96.212 E2.5790
G1 X42.418 Y96.536 E2.6210
G1 X42.755 Y96.665 E2.6413
G1 X43.476 Y96.875 E2.6836
G1 X43.826 Y96.947 E2.7037
G1 X45.012 Y97.061 E2.7708
G1 X45.200 Y97.269 E2.7865
G92 E0.0000
G1 E-3.0000 F3600
G1 X166.700 Y104.664 F18000
G1 E0.0000 F3600
G92 E0.0000
G1 X166.700 Y117.955 E0.7480 F1800
G1 X165.646 Y119.010 E0.8319
G1 X34.354 Y119.010 E8.2205
G1 X33.300 Y117.955 E8.3044
G1 X33.300 Y104.664 E9.0523
G1 X34.354 Y103.610 E9.1363
G1 X165.646 Y103.610 E16.5248
G1 X166.700 Y104.664 E16.6087
G1 X165.980 Y104.962 F18000
G92 E0.0000
G1 X165.980 Y117.657 E0.7144 F1800
G1 X165.347 Y118.290 E0.7648
G1 X34.653 Y118.290 E8.1198
G1 X34.020 Y117.657 E8.1701
G1 X34.020 Y104.962 E8.8845
G1 X34.653 Y104.330 E8.9349
G1 X165.347 Y104.330 E16.2899
G1 X165.980 Y104.962 E16.3402
G1 X165.260 Y105.260 F18000
G92 E0.0000
G1 X165.260 Y117.359 E0.6808 F1800
G1 X165.049 Y117.570 E0.6976
G1 X34.951 Y117.570 E8.0191
G1 X34.740 Y117.359 E8.0358
G1 X34.740 Y105.260 E8.7167
G1 X34.951 Y105.050 E8.7335
G1 X165.049 Y105.050 E16.0549
G1 X165.260 Y105.260 E16.0717
G92 E0.0000
G1 E-3.0000 F3600
; feature outer perimeter
G1 X44.457 Y99.834 F18000
G1 X44.475 Y97.751
G1 E0.0000 F3600
G92 E0.0000
G1 X44.457 Y99.834 E0.1173 F900
G1 X44.038 Y99.801 E0.1410
G1 X43.600 Y99.747 E0.1658
G1 X43.166 Y99.672 E0.1906
G1 X42.735 Y99.577 E0.2154
G1 X42.310 Y99.463 E0.2402
G1 X41.890 Y99.329 E0.2650
G1 X41.477 Y99.176 E0.2898
G1 X41.071 Y99.003 E0.3146
G1 X40.674 Y98.813 E0.3394
G1 X40.286 Y98.604 E0.3642
G1 X39.908 Y98.377 E0.3890
G1 X39.541 Y98.134 E0.4138
G1 X39.185 Y97.873 E0.4386
G1 X38.842 Y97.596 E0.4634
G1 X38.512 Y97.304 E0.4882
G1 X38.196 Y96.997 E0.5130
