; G-Code generated by Simplify3D(R) Version 4.1.2
; Apr 8, 2020 at 5:00:29 PM
; Settings Summary
;   processName,Process1
;   applyToModels,test-kurve-v4
;   profileName,HBot (modified)
;   profileVersion,2019-10-26 23:38:43
;   baseProfile,Default
;   printMaterial,PLA
;   printQuality,Medium
;   printExtruders,
;   extruderName,Extruder 1
;   extruderToolheadNumber,0
;   extruderDiameter,0.4
;   extruderAutoWidth,1
;   extruderWidth,0.48
;   extrusionMultiplier,0.94
;   extruderUseRetract,1
;   extruderRetractionDistance,3
;   extruderExtraRestartDistance,0
;   extruderRetractionZLift,0
;   extruderRetractionSpeed,3600
;   extruderUseCoasting,1
;   extruderCoastingDistance,0.2
;   extruderUseWipe,1
;   extruderWipeDistance,5
;   primaryExtruder,0
;   layerHeight,0.2
;   topSolidLayers,3
;   bottomSolidLayers,3
;   perimeterOutlines,3
;   printPerimetersInsideOut,1
;   startPointOption,3
;   startPointOriginX,200
;   startPointOriginY,100
;   sequentialIslands,0
;   spiralVaseMode,0
;   firstLayerHeightPercentage,100
;   firstLayerWidthPercentage,150
;   firstLayerUnderspeed,0.5
;   useRaft,0
;   raftExtruder,0
;   raftTopLayers,3
;   raftBaseLayers,2
;   raftOffset,3
;   raftSeparationDistance,0.18
;   raftTopInfill,100
;   aboveRaftSpeedMultiplier,0.3
;   useSkirt,1
;   skirtExtruder,0
;   skirtLayers,1
;   skirtOutlines,5
;   skirtOffset,0
;   usePrimePillar,0
;   primePillarExtruder,999
;   primePillarWidth,12
;   primePillarLocation,7
;   primePillarSpeedMultiplier,1
;   useOozeShield,0
;   oozeShieldExtruder,999
;   oozeShieldOffset,2
;   oozeShieldOutlines,1
;   oozeShieldSidewallShape,1
;   oozeShieldSidewallAngle,30
;   oozeShieldSpeedMultiplier,1
;   infillExtruder,0
;   internalInfillPattern,Rectilinear
;   externalInfillPattern,Rectilinear
;   infillPercentage,20
;   outlineOverlapPercentage,25
;   infillExtrusionWidthPercentage,150
;   minInfillLength,5
;   infillLayerInterval,1
;   internalInfillAngles,45,-45
;   overlapInternalInfillAngles,0
;   externalInfillAngles,45,-45
;   generateSupport,0
;   supportExtruder,0
;   supportInfillPercentage,30
;   supportExtraInflation,0
;   supportBaseLayers,1
;   denseSupportExtruder,0
;   denseSupportLayers,0
;   denseSupportInfillPercentage,70
;   supportLayerInterval,1
;   supportHorizontalPartOffset,0.3
;   supportUpperSeparationLayers,1
;   supportLowerSeparationLayers,1
;   supportType,0
;   supportGridSpacing,4
;   maxOverhangAngle,25
;   supportAngles,0
;   temperatureName,Extruder 1,Heated Bed
;   temperatureNumber,0,1
;   temperatureSetpointCount,2,1
;   temperatureSetpointLayers,1,2,1
;   temperatureSetpointTemperatures,217,208,65
;   temperatureStabilizeAtStartup,1,1
;   temperatureHeatedBed,0,1
;   fanLayers,1,2,4
;   fanSpeeds,0,20,30
;   blipFanToFullPower,1
;   adjustSpeedForCooling,1
;   minSpeedLayerTime,15
;   minCoolingSpeedSlowdown,20
;   increaseFanForCooling,0
;   minFanLayerTime,45
;   maxCoolingFanSpeed,40
;   increaseFanForBridging,1
;   bridgingFanSpeed,80
;   use5D,1
;   relativeEdistances,0
;   allowEaxisZeroing,1
;   independentExtruderAxes,0
;   includeM10123,0
;   stickySupport,1
;   applyToolheadOffsets,0
;   gcodeXoffset,0
;   gcodeYoffset,0
;   gcodeZoffset,0
;   overrideMachineDefinition,1
;   machineTypeOverride,0
;   strokeXoverride,200
;   strokeYoverride,200
;   strokeZoverride,150
;   originOffsetXoverride,0
;   originOffsetYoverride,0
;   originOffsetZoverride,0
;   homeXdirOverride,-1
;   homeYdirOverride,-1
;   homeZdirOverride,-1
;   flipXoverride,1
;   flipYoverride,-1
;   flipZoverride,1
;   toolheadOffsets,0,0|0,0|0,0|0,0|0,0|0,0
;   overrideFirmwareConfiguration,1
;   firmwareTypeOverride,RepRap (Marlin/Repetier/Sprinter)
;   GPXconfigOverride,r2
;   baudRateOverride,115200
;   overridePrinterModels,0
;   printerModelsOverride
;   startingGcode,G28 ; home all axes,G32 ; run bed.g -- probe bed and enable compensation
;   layerChangeGcode,
;   retractionGcode,
;   toolChangeGcode,
;   endingGcode,M0 ; call stop.g
;   exportFileFormat,gcode
;   celebration,0
;   celebrationSong,Random Song
;   postProcessing,
;   defaultSpeed,3600
;   outlineUnderspeed,0.5
;   solidInfillUnderspeed,0.8
;   supportUnderspeed,0.8
;   rapidXYspeed,18000
;   rapidZspeed,1200
;   minBridgingArea,50
;   bridgingExtraInflation,0
;   bridgingExtrusionMultiplier,0.96
;   bridgingSpeedMultiplier,1
;   useFixedBridgingAngle,0
;   fixedBridgingAngle,0
;   applyBridgingToPerimeters,0
;   filamentDiameters,1.75|1.75|1.75|1.75|1.75|1.75
;   filamentPricesPerKg,46|46|46|46|46|46
;   filamentDensities,1.25|1.25|1.25|1.25|1.25|1.25
;   useMinPrintHeight,0
;   minPrintHeight,0
;   useMaxPrintHeight,0
;   maxPrintHeight,0
;   useDiaphragm,0
;   diaphragmLayerInterval,20
;   robustSlicing,1
;   mergeAllIntoSolid,0
;   onlyRetractWhenCrossingOutline,1
;   retractBetweenLayers,0
;   useRetractionMinTravel,1
;   retractionMinTravel,3
;   retractWhileWiping,1
;   onlyWipeOutlines,1
;   avoidCrossingOutline,1
;   maxMovementDetourFactor,30
;   toolChangeRetractionDistance,12
;   toolChangeExtraRestartDistance,-0.5
;   toolChangeRetractionSpeed,600
;   externalThinWallType,1
;   internalThinWallType,1
;   thinWallAllowedOverlapPercentage,10
;   singleExtrusionMinLength,1
;   singleExtrusionMinPrintingWidthPercentage,50
;   singleExtrusionMaxPrintingWidthPercentage,200
;   singleExtrusionEndpointExtension,0.2
;   horizontalSizeCompensation,-0.1
G90
M82
M106 S0
M140 S65
M190 S65
M104 S217 T0
M109 S217 T0
G28 ; home all axes
G32 ; run bed.g -- probe bed and enable compensation
; process Process1
; layer 1, Z = 0.200
T0
G92 E0.0000
G1 E-3.0000 F3600
; feature skirt
; tool H0.200 W0.720
G1 Z0.200 F1200
G1 X128.140 Y92.758 F18000
G1 E0.0000 F3600
G92 E0.0000
G1 X128.140 Y107.242 E0.8151 F1800
G1 X126.242 Y109.140 E0.9662
G1 X79.564 Y109.130 E3.5930
G1 X79.377 Y109.119 E3.6036
G1 X78.511 Y109.018 E3.6526
G1 X78.326 Y108.986 E3.6632
G1 X77.479 Y108.786 E3.7122
G1 X77.299 Y108.732 E3.7228
G1 X76.479 Y108.435 E3.7718
G1 X76.307 Y108.361 E3.7824
G1 X75.528 Y107.972 E3.8314
G1 X75.365 Y107.878 E3.8419
G1 X74.636 Y107.401 E3.8910
G1 X74.485 Y107.290 E3.9015
G1 X73.816 Y106.731 E3.9506
G1 X73.679 Y106.602 E3.9612
G1 X73.080 Y105.971 E4.0101
G1 X72.960 Y105.830 E4.0206
G1 X72.194 Y104.811 E4.0923
G1 X71.860 Y103.812 E4.1516
G1 X71.860 Y96.188 E4.5806
G1 X72.194 Y95.189 E4.6399
G1 X72.960 Y94.170 E4.7116
G1 X73.080 Y94.029 E4.7221
G1 X73.695 Y93.380 E4.7724
G1 X73.869 Y93.222 E4.7856
G1 X74.858 Y92.444 E4.8565
G1 X75.053 Y92.313 E4.8697
G1 X75.829 Y91.867 E4.9200
G1 X75.997 Y91.783 E4.9306
G1 X76.798 Y91.439 E4.9797
G1 X76.974 Y91.375 E4.9902
G1 X77.787 Y91.133 E5.0380
G1 X77.925 Y91.098 E5.0460
G1 X78.426 Y90.996 E5.0747
G1 X78.610 Y90.969 E5.0852
G1 X79.791 Y90.866 E5.1519
G1 X79.931 Y90.860 E5.1598
G1 X126.242 Y90.860 E7.7660
G1 X128.140 Y92.758 E7.9171
G1 X127.420 Y93.056 F18000
G92 E0.0000
G1 X127.420 Y106.944 E0.7816 F1800
G1 X125.943 Y108.420 E0.8991
G1 X79.585 Y108.410 E3.5079
G1 X79.439 Y108.402 E3.5161
G1 X78.615 Y108.306 E3.5628
G1 X78.472 Y108.280 E3.5710
G1 X77.664 Y108.090 E3.6177
G1 X77.524 Y108.048 E3.6259
G1 X76.744 Y107.765 E3.6726
G1 X76.610 Y107.708 E3.6808
G1 X75.869 Y107.337 E3.7275
G1 X75.742 Y107.264 E3.7357
G1 X75.048 Y106.810 E3.7824
G1 X74.931 Y106.723 E3.7906
G1 X74.293 Y106.192 E3.8373
G1 X74.187 Y106.092 E3.8455
G1 X73.616 Y105.491 E3.8922
G1 X73.523 Y105.380 E3.9003
G1 X72.840 Y104.472 E3.9643
G1 X72.580 Y103.695 E4.0104
G1 X72.580 Y96.305 E4.4262
G1 X72.840 Y95.528 E4.4724
G1 X73.523 Y94.620 E4.5363
G1 X73.616 Y94.509 E4.5444
G1 X74.199 Y93.895 E4.5921
G1 X74.335 Y93.772 E4.6024
G1 X75.283 Y93.026 E4.6703
G1 X75.434 Y92.924 E4.6806
G1 X76.170 Y92.501 E4.7283
G1 X76.300 Y92.436 E4.7365
G1 X77.063 Y92.109 E4.7832
G1 X77.200 Y92.059 E4.7914
G1 X77.978 Y91.827 E4.8371
G1 X78.085 Y91.800 E4.8434
G1 X78.550 Y91.705 E4.8700
G1 X78.693 Y91.684 E4.8782
G1 X79.838 Y91.585 E4.9428
G1 X79.947 Y91.580 E4.9490
G1 X125.944 Y91.580 E7.5375
G1 X127.420 Y93.056 E7.6550
G1 X126.700 Y93.354 F18000
G92 E0.0000
G1 X126.700 Y106.646 E0.7480 F1800
G1 X125.645 Y107.700 E0.8319
G1 X79.606 Y107.690 E3.4228
G1 X79.502 Y107.684 E3.4287
G1 X78.719 Y107.593 E3.4730
G1 X78.617 Y107.575 E3.4789
G1 X77.850 Y107.394 E3.5232
G1 X77.750 Y107.364 E3.5291
G1 X77.009 Y107.096 E3.5734
G1 X76.914 Y107.055 E3.5793
G1 X76.209 Y106.702 E3.6236
G1 X76.119 Y106.650 E3.6295
G1 X75.460 Y106.219 E3.6738
G1 X75.376 Y106.157 E3.6797
G1 X74.771 Y105.652 E3.7240
G1 X74.695 Y105.581 E3.7299
G1 X74.153 Y105.010 E3.7742
G1 X74.086 Y104.931 E3.7800
G1 X73.486 Y104.133 E3.8362
G1 X73.300 Y103.578 E3.8692
G1 X73.300 Y96.422 E4.2718
G1 X73.486 Y95.867 E4.3048
G1 X74.086 Y95.069 E4.3610
G1 X74.153 Y94.990 E4.3668
G1 X74.704 Y94.410 E4.4118
G1 X74.800 Y94.322 E4.4192
G1 X75.708 Y93.608 E4.4842
G1 X75.816 Y93.535 E4.4915
G1 X76.510 Y93.136 E4.5366
G1 X76.604 Y93.089 E4.5425
G1 X77.328 Y92.778 E4.5868
G1 X77.426 Y92.743 E4.5927
G1 X78.168 Y92.522 E4.6363
G1 X78.245 Y92.502 E4.6407
G1 X78.674 Y92.415 E4.6654
G1 X78.776 Y92.400 E4.6712
G1 X79.884 Y92.303 E4.7338
G1 X79.962 Y92.300 E4.7382
G1 X125.646 Y92.300 E7.3091
G1 X126.700 Y93.354 E7.3930
G1 X125.980 Y93.653 F18000
G92 E0.0000
G1 X125.980 Y106.347 E0.7144 F1800
G1 X125.347 Y106.980 E0.7648
G1 X79.627 Y106.970 E3.3377
G1 X79.564 Y106.966 E3.3413
G1 X78.824 Y106.880 E3.3832
G1 X78.762 Y106.869 E3.3868
G1 X78.036 Y106.698 E3.4287
G1 X77.976 Y106.680 E3.4323
G1 X77.274 Y106.426 E3.4742
G1 X77.217 Y106.401 E3.4778
G1 X76.550 Y106.068 E3.5197
G1 X76.496 Y106.037 E3.5233
G1 X75.871 Y105.628 E3.5652
G1 X75.821 Y105.591 E3.5688
G1 X75.248 Y105.113 E3.6108
G1 X75.202 Y105.070 E3.6143
G1 X74.689 Y104.529 E3.6562
G1 X74.649 Y104.482 E3.6597
G1 X74.131 Y103.794 E3.7082
G1 X74.020 Y103.461 E3.7280
G1 X74.020 Y96.539 E4.1174
G1 X74.131 Y96.206 E4.1372
G1 X74.649 Y95.518 E4.1857
G1 X74.689 Y95.471 E4.1892
G1 X75.208 Y94.924 E4.2316
G1 X75.266 Y94.872 E4.2360
G1 X76.132 Y94.190 E4.2980
G1 X76.197 Y94.146 E4.3024
G1 X76.851 Y93.771 E4.3449
G1 X76.907 Y93.743 E4.3484
G1 X77.592 Y93.448 E4.3904
G1 X77.651 Y93.427 E4.3939
G1 X78.359 Y93.216 E4.4354
G1 X78.405 Y93.205 E4.4381
G1 X78.798 Y93.124 E4.4607
G1 X78.859 Y93.115 E4.4642
G1 X79.931 Y93.022 E4.5247
G1 X79.978 Y93.020 E4.5274
G1 X125.347 Y93.020 E7.0806
G1 X125.980 Y93.653 E7.1309
G1 X125.260 Y93.951 F18000
G92 E0.0000
G1 X125.260 Y106.049 E0.6808 F1800
G1 X125.049 Y106.260 E0.6976
G1 X79.648 Y106.250 E3.2526
G1 X79.627 Y106.249 E3.2538
G1 X78.928 Y106.167 E3.2934
G1 X78.907 Y106.164 E3.2946
G1 X78.221 Y106.002 E3.3343
G1 X78.201 Y105.996 E3.3354
G1 X77.539 Y105.756 E3.3751
G1 X77.520 Y105.748 E3.3762
G1 X76.890 Y105.433 E3.4159
G1 X76.872 Y105.423 E3.4170
G1 X76.283 Y105.037 E3.4567
G1 X76.266 Y105.025 E3.4578
G1 X75.725 Y104.573 E3.4975
G1 X75.710 Y104.559 E3.4987
G1 X75.225 Y104.048 E3.5383
G1 X75.212 Y104.033 E3.5394
G1 X74.777 Y103.454 E3.5802
G1 X74.740 Y103.343 E3.5867
G1 X74.740 Y96.657 E3.9631
G1 X74.777 Y96.545 E3.9696
G1 X75.212 Y95.967 E4.0104
G1 X75.225 Y95.952 E4.0115
G1 X75.712 Y95.439 E4.0513
G1 X75.731 Y95.422 E4.0528
G1 X76.557 Y94.772 E4.1119
G1 X76.579 Y94.758 E4.1133
G1 X77.191 Y94.405 E4.1531
G1 X77.210 Y94.396 E4.1543
G1 X77.857 Y94.118 E4.1939
G1 X77.877 Y94.111 E4.1951
G1 X78.549 Y93.911 E4.2346
G1 X78.565 Y93.907 E4.2355
G1 X78.922 Y93.834 E4.2560
G1 X78.942 Y93.831 E4.2572
G1 X79.978 Y93.741 E4.3157
G1 X79.994 Y93.740 E4.3166
G1 X125.049 Y93.740 E6.8521
G1 X125.260 Y93.951 E6.8689
G92 E0.0000
G1 E-3.0000 F3600
; feature inner perimeter
G1 X124.540 Y94.460 F18000
G1 X117.864 Y94.460
G1 X88.811 Y96.460
G1 E0.0000 F3600
G92 E0.0000
G1 X88.085 Y96.663 E0.0424 F1350
G1 X87.546 Y96.839 E0.0743
G1 X87.015 Y97.039 E0.1063
G1 X86.493 Y97.261 E0.1382
G1 X85.981 Y97.505 E0.1701
G1 X85.481 Y97.771 E0.2020
G1 X84.992 Y98.058 E0.2339
G1 X84.620 Y98.298 E0.2588
G1 X84.311 Y97.667 E0.2984
G1 X84.103 Y97.319 E0.3212
G1 X83.868 Y96.989 E0.3440
G1 X83.606 Y96.680 E0.3668
G1 X82.826 Y95.900 E0.4289
G1 X88.734 Y95.900 E0.7613
G1 X88.784 Y96.262 E0.7819
G1 X88.811 Y96.460 F1350
G1 X89.171 Y97.863 F18000
G1 X89.481 Y97.790
G1 X89.977 Y97.696
G1 X90.477 Y97.624
G1 X90.980 Y97.573
G1 X91.484 Y97.543
G1 X91.989 Y97.536
G1 X92.494 Y97.550
G1 X92.998 Y97.585
G1 X93.500 Y97.643
G1 X93.999 Y97.722
G1 X94.494 Y97.822
G1 X94.984 Y97.943
G1 X95.468 Y98.086
G1 X95.946 Y98.249
G1 X96.417 Y98.433
G1 X96.889 Y98.640
G1 X97.066 Y98.738
G1 X97.237 Y98.866
G1 X97.389 Y99.015
G1 X97.519 Y99.184
G1 X97.625 Y99.369
G1 X97.704 Y99.566
G1 X97.756 Y99.773
G1 X97.780 Y99.985
G1 X97.774 Y100.198
G1 X97.739 Y100.408
G1 X97.676 Y100.612
G1 X97.586 Y100.805
G1 X97.471 Y100.984
G1 X97.332 Y101.145
G1 X97.173 Y101.287
G1 X96.995 Y101.405
G1 X96.804 Y101.498
G1 X96.601 Y101.564
G1 X96.391 Y101.602
G1 X96.178 Y101.611
G1 X95.966 Y101.590
G1 X95.755 Y101.541
G1 X94.801 Y101.153
G1 X94.418 Y101.027
G1 X94.025 Y100.918
G1 X93.627 Y100.827
G1 X93.225 Y100.756
G1 X92.821 Y100.703
G1 X92.414 Y100.670
G1 X92.006 Y100.656
G1 X91.598 Y100.661
G1 X91.191 Y100.686
G1 X90.785 Y100.730
G1 X90.382 Y100.793
G1 X89.982 Y100.875
G1 X89.947 Y100.884
G1 X90.305 Y102.278
G92 E0.0000
G1 X90.638 Y102.210 E0.0191 F1350
G1 X90.974 Y102.158 E0.0383
G1 X91.312 Y102.121 E0.0574
G1 X91.651 Y102.101 E0.0765
G1 X91.991 Y102.096 E0.0956
G1 X92.331 Y102.108 E0.1148
G1 X92.669 Y102.136 E0.1339
G1 X93.006 Y102.179 E0.1530
G1 X93.341 Y102.239 E0.1722
G1 X93.673 Y102.314 E0.1913
G1 X94.000 Y102.405 E0.2104
G1 X94.304 Y102.505 E0.2285
G1 X95.316 Y102.917 E0.2899
G1 X95.732 Y103.015 E0.3140
G1 X96.140 Y103.053 E0.3370
G1 X96.550 Y103.036 E0.3601
G1 X96.953 Y102.963 E0.3832
G1 X97.343 Y102.837 E0.4063
G1 X97.712 Y102.658 E0.4293
G1 X98.053 Y102.430 E0.4524
G1 X98.360 Y102.158 E0.4755
G1 X98.628 Y101.847 E0.4986
G1 X98.850 Y101.503 E0.5216
G1 X99.023 Y101.131 E0.5447
G1 X99.144 Y100.739 E0.5678
G1 X99.211 Y100.335 E0.5909
G1 X99.222 Y99.925 E0.6139
G1 X99.177 Y99.517 E0.6370
G1 X99.077 Y99.119 E0.6601
G1 X98.923 Y98.739 E0.6832
G1 X98.720 Y98.383 E0.7062
G1 X98.469 Y98.058 E0.7293
G1 X98.177 Y97.771 E0.7524
G1 X97.849 Y97.525 E0.7755
G1 X97.529 Y97.349 E0.7961
G1 X96.969 Y97.102 E0.8305
G1 X96.441 Y96.896 E0.8624
G1 X95.904 Y96.713 E0.8943
G1 X95.360 Y96.553 E0.9262
G1 X95.023 Y96.470 E0.9458
G1 X95.092 Y95.900 E0.9781
G1 X123.100 Y95.900 E2.5542
G1 X123.100 Y104.100 E3.0157
G1 X87.585 Y104.100 E5.0143
G1 X87.440 Y103.652 E5.0408
G1 X87.831 Y103.368 E5.0680
G1 X88.115 Y103.182 E5.0871
G1 X88.408 Y103.009 E5.1063
G1 X88.708 Y102.850 E5.1254
G1 X89.016 Y102.706 E5.1445
G1 X89.330 Y102.576 E5.1637
G1 X89.650 Y102.462 E5.1828
G1 X89.976 Y102.362 E5.2019
G1 X90.111 Y102.328 E5.2098
G1 X90.305 Y102.278 F1350
G1 X90.144 Y101.577 F18000
G92 E0.0000
G1 X90.510 Y101.501 E0.0210 F1350
G1 X90.879 Y101.444 E0.0421
G1 X91.251 Y101.404 E0.0631
G1 X91.625 Y101.381 E0.0842
G1 X91.998 Y101.376 E0.1052
G1 X92.373 Y101.389 E0.1263
G1 X92.745 Y101.420 E0.1473
G1 X93.116 Y101.468 E0.1684
G1 X93.484 Y101.533 E0.1894
G1 X93.849 Y101.616 E0.2105
G1 X94.209 Y101.716 E0.2315
G1 X94.553 Y101.829 E0.2519
G1 X95.536 Y102.229 E0.3116
G1 X95.849 Y102.302 E0.3297
G1 X96.159 Y102.332 E0.3472
G1 X96.471 Y102.319 E0.3648
G1 X96.777 Y102.264 E0.3823
G1 X97.073 Y102.167 E0.3998
G1 X97.354 Y102.031 E0.4174
G1 X97.613 Y101.858 E0.4349
G1 X97.846 Y101.652 E0.4524
G1 X98.049 Y101.415 E0.4700
G1 X98.218 Y101.154 E0.4875
G1 X98.350 Y100.871 E0.5050
G1 X98.442 Y100.574 E0.5226
G1 X98.492 Y100.266 E0.5401
G1 X98.501 Y99.955 E0.5576
G1 X98.466 Y99.645 E0.5752
G1 X98.390 Y99.343 E0.5927
G1 X98.274 Y99.054 E0.6102
G1 X98.119 Y98.784 E0.6278
G1 X97.929 Y98.537 E0.6453
G1 X97.707 Y98.318 E0.6628
G1 X97.457 Y98.132 E0.6804
G1 X97.209 Y97.994 E0.6963
G1 X96.693 Y97.767 E0.7281
G1 X96.193 Y97.573 E0.7582
G1 X95.686 Y97.399 E0.7884
G1 X95.172 Y97.248 E0.8186
G1 X94.652 Y97.119 E0.8487
G1 X94.126 Y97.013 E0.8789
G1 X93.597 Y96.929 E0.9091
G1 X93.064 Y96.868 E0.9392
G1 X92.529 Y96.830 E0.9694
G1 X91.994 Y96.815 E0.9996
G1 X91.458 Y96.823 E1.0297
G1 X90.923 Y96.855 E1.0599
G1 X90.389 Y96.909 E1.0901
