; G-Code generated by Simplify3D(R) Version 4.1.2
; Apr 7, 2020 at 7:32:44 PM
; Settings Summary
;   processName,Process1
;   applyToModels,test-kurve-v2(2)
;   profileName,HBot (modified)
;   profileVersion,2019-10-26 23:38:43
;   baseProfile,Default
;   printMaterial,PLA
;   printQuality,Medium
;   printExtruders,
;   extruderName,Extruder 1
;   extruderToolheadNumber,0
;   extruderDiameter,0.4
;   extruderAutoWidth,1
;   extruderWidth,0.48
;   extrusionMultiplier,0.94
;   extruderUseRetract,1
;   extruderRetractionDistance,3
;   extruderExtraRestartDistance,0
;   extruderRetractionZLift,0
;   extruderRetractionSpeed,3600
;   extruderUseCoasting,1
;   extruderCoastingDistance,0.2
;   extruderUseWipe,1
;   extruderWipeDistance,5
;   primaryExtruder,0
;   layerHeight,0.2
;   topSolidLayers,3
;   bottomSolidLayers,3
;   perimeterOutlines,3
;   printPerimetersInsideOut,1
;   startPointOption,3
;   startPointOriginX,200
;   startPointOriginY,100
;   sequentialIslands,0
;   spiralVaseMode,0
;   firstLayerHeightPercentage,100
;   firstLayerWidthPercentage,150
;   firstLayerUnderspeed,0.5
;   useRaft,0
;   raftExtruder,0
;   raftTopLayers,3
;   raftBaseLayers,2
;   raftOffset,3
;   raftSeparationDistance,0.18
;   raftTopInfill,100
;   aboveRaftSpeedMultiplier,0.3
;   useSkirt,1
;   skirtExtruder,0
;   skirtLayers,1
;   skirtOutlines,3
;   skirtOffset,5
;   usePrimePillar,0
;   primePillarExtruder,999
;   primePillarWidth,12
;   primePillarLocation,7
;   primePillarSpeedMultiplier,1
;   useOozeShield,0
;   oozeShieldExtruder,999
;   oozeShieldOffset,2
;   oozeShieldOutlines,1
;   oozeShieldSidewallShape,1
;   oozeShieldSidewallAngle,30
;   oozeShieldSpeedMultiplier,1
;   infillExtruder,0
;   internalInfillPattern,Rectilinear
;   externalInfillPattern,Rectilinear
;   infillPercentage,20
;   outlineOverlapPercentage,25
;   infillExtrusionWidthPercentage,150
;   minInfillLength,5
;   infillLayerInterval,1
;   internalInfillAngles,45,-45
;   overlapInternalInfillAngles,0
;   externalInfillAngles,45,-45
;   generateSupport,0
;   supportExtruder,0
;   supportInfillPercentage,30
;   supportExtraInflation,0
;   supportBaseLayers,1
;   denseSupportExtruder,0
;   denseSupportLayers,0
;   denseSupportInfillPercentage,70
;   supportLayerInterval,1
;   supportHorizontalPartOffset,0.3
;   supportUpperSeparationLayers,1
;   supportLowerSeparationLayers,1
;   supportType,0
;   supportGridSpacing,4
;   maxOverhangAngle,25
;   supportAngles,0
;   temperatureName,Extruder 1,Heated Bed
;   temperatureNumber,0,1
;   temperatureSetpointCount,2,1
;   temperatureSetpointLayers,1,2,1
;   temperatureSetpointTemperatures,217,208,55
;   temperatureStabilizeAtStartup,1,1
;   temperatureHeatedBed,0,1
;   fanLayers,1,2,4
;   fanSpeeds,0,20,30
;   blipFanToFullPower,1
;   adjustSpeedForCooling,1
;   minSpeedLayerTime,15
;   minCoolingSpeedSlowdown,20
;   increaseFanForCooling,0
;   minFanLayerTime,45
;   maxCoolingFanSpeed,40
;   increaseFanForBridging,0
;   bridgingFanSpeed,80
;   use5D,1
;   relativeEdistances,0
;   allowEaxisZeroing,1
;   independentExtruderAxes,0
;   includeM10123,0
;   stickySupport,1
;   applyToolheadOffsets,0
;   gcodeXoffset,0
;   gcodeYoffset,0
;   gcodeZoffset,0
;   overrideMachineDefinition,1
;   machineTypeOverride,0
;   strokeXoverride,200
;   strokeYoverride,200
;   strokeZoverride,150
;   originOffsetXoverride,0
;   originOffsetYoverride,0
;   originOffsetZoverride,0
;   homeXdirOverride,-1
;   homeYdirOverride,-1
;   homeZdirOverride,-1
;   flipXoverride,1
;   flipYoverride,-1
;   flipZoverride,1
;   toolheadOffsets,0,0|0,0|0,0|0,0|0,0|0,0
;   overrideFirmwareConfiguration,1
;   firmwareTypeOverride,RepRap (Marlin/Repetier/Sprinter)
;   GPXconfigOverride,r2
;   baudRateOverride,115200
;   overridePrinterModels,0
;   printerModelsOverride
;   startingGcode,G28 ; home all axes,G32 ; run bed.g -- probe bed and enable compensation
;   layerChangeGcode,
;   retractionGcode,
;   toolChangeGcode,
;   endingGcode,M0 ; call stop.g
;   exportFileFormat,gcode
;   celebration,0
;   celebrationSong,Random Song
;   postProcessing,
;   defaultSpeed,3600
;   outlineUnderspeed,0.5
;   solidInfillUnderspeed,0.8
;   supportUnderspeed,0.8
;   rapidXYspeed,18000
;   rapidZspeed,1200
;   minBridgingArea,50
;   bridgingExtraInflation,0
;   bridgingExtrusionMultiplier,0.96
;   bridgingSpeedMultiplier,1
;   useFixedBridgingAngle,0
;   fixedBridgingAngle,0
;   applyBridgingToPerimeters,0
;   filamentDiameters,1.75|1.75|1.75|1.75|1.75|1.75
;   filamentPricesPerKg,46|46|46|46|46|46
;   filamentDensities,1.25|1.25|1.25|1.25|1.25|1.25
;   useMinPrintHeight,0
;   minPrintHeight,0
;   useMaxPrintHeight,0
;   maxPrintHeight,0
;   useDiaphragm,0
;   diaphragmLayerInterval,20
;   robustSlicing,1
;   mergeAllIntoSolid,0
;   onlyRetractWhenCrossingOutline,1
;   retractBetweenLayers,0
;   useRetractionMinTravel,1
;   retractionMinTravel,3
;   retractWhileWiping,1
;   onlyWipeOutlines,1
;   avoidCrossingOutline,1
;   maxMovementDetourFactor,3
;   toolChangeRetractionDistance,12
;   toolChangeExtraRestartDistance,-0.5
;   toolChangeRetractionSpeed,600
;   externalThinWallType,1
;   internalThinWallType,1
;   thinWallAllowedOverlapPercentage,10
;   singleExtrusionMinLength,1
;   singleExtrusionMinPrintingWidthPercentage,50
;   singleExtrusionMaxPrintingWidthPercentage,200
;   singleExtrusionEndpointExtension,0.2
;   horizontalSizeCompensation,-0.1
G90
M82
M106 S0
M140 S55
M190 S55
M104 S217 T0
M109 S217 T0
G28 ; home all axes
G32 ; run bed.g -- probe bed and enable compensation
; process Process1
; layer 1, Z = 0.200
T0
G92 E0.0000
G1 E-3.0000 F3600
; feature skirt
; tool H0.200 W0.720
G1 Z0.200 F1200
G1 X131.700 Y91.283 F18000
G1 E0.0000 F3600
G92 E0.0000
G1 X131.700 Y108.717 E0.9811 F1800
G1 X127.716 Y112.701 E1.2982
G1 X79.459 Y112.690 E4.0139
G1 X79.066 Y112.667 E4.0360
G1 X77.997 Y112.543 E4.0966
G1 X77.609 Y112.474 E4.1188
G1 X76.560 Y112.227 E4.1794
G1 X76.183 Y112.114 E4.2016
G1 X75.170 Y111.747 E4.2622
G1 X74.807 Y111.592 E4.2844
G1 X73.844 Y111.110 E4.3450
G1 X73.502 Y110.913 E4.3672
G1 X72.600 Y110.323 E4.4278
G1 X72.284 Y110.089 E4.4500
G1 X71.456 Y109.398 E4.5107
G1 X71.169 Y109.129 E4.5328
G1 X70.428 Y108.349 E4.5934
G1 X70.173 Y108.047 E4.6156
G1 X68.998 Y106.481 E4.7258
G1 X68.300 Y104.387 E4.8500
G1 X68.300 Y95.609 E5.3440
G1 X69.001 Y93.511 E5.4685
G1 X70.176 Y91.949 E5.5785
G1 X70.428 Y91.651 E5.6004
G1 X71.202 Y90.836 E5.6637
G1 X71.567 Y90.504 E5.6915
G1 X72.759 Y89.566 E5.7769
G1 X73.168 Y89.290 E5.8046
G1 X74.145 Y88.729 E5.8680
G1 X74.497 Y88.552 E5.8902
G1 X75.533 Y88.108 E5.9536
G1 X75.999 Y87.946 E5.9813
G1 X77.512 Y87.543 E6.0695
G1 X78.095 Y87.440 E6.1028
G1 X79.559 Y87.313 E6.1855
G1 X79.854 Y87.300 E6.2021
G1 X127.717 Y87.300 E8.8956
G1 X131.700 Y91.283 E9.2127
G1 X130.980 Y91.582 F18000
G92 E0.0000
G1 X130.980 Y108.419 E0.9475 F1800
G1 X127.417 Y111.981 E1.2310
G1 X79.480 Y111.970 E3.9288
G1 X79.128 Y111.949 E3.9486
G1 X78.101 Y111.830 E4.0068
G1 X77.754 Y111.769 E4.0266
G1 X76.746 Y111.531 E4.0849
G1 X76.408 Y111.430 E4.1047
G1 X75.435 Y111.077 E4.1630
G1 X75.111 Y110.938 E4.1829
G1 X74.184 Y110.475 E4.2411
G1 X73.879 Y110.300 E4.2610
G1 X73.012 Y109.732 E4.3193
G1 X72.729 Y109.523 E4.3391
G1 X71.933 Y108.859 E4.3974
G1 X71.677 Y108.618 E4.4172
G1 X70.964 Y107.868 E4.4754
G1 X70.737 Y107.599 E4.4953
G1 X69.644 Y106.143 E4.5977
G1 X69.020 Y104.270 E4.7088
G1 X69.020 Y95.726 E5.1896
G1 X69.647 Y93.850 E5.3009
G1 X70.739 Y92.398 E5.4032
G1 X70.964 Y92.132 E5.4228
G1 X71.707 Y91.350 E5.4835
G1 X72.032 Y91.053 E5.5083
G1 X73.184 Y90.148 E5.5907
G1 X73.549 Y89.901 E5.6155
G1 X74.485 Y89.363 E5.6763
G1 X74.801 Y89.206 E5.6961
G1 X75.793 Y88.779 E5.7569
G1 X76.209 Y88.635 E5.7817
G1 X77.668 Y88.246 E5.8666
G1 X78.189 Y88.155 E5.8964
G1 X79.606 Y88.031 E5.9764
G1 X79.870 Y88.020 E5.9913
G1 X127.418 Y88.020 E8.6672
G1 X130.980 Y91.582 E8.9506
G1 X130.260 Y91.880 F18000
G92 E0.0000
G1 X130.260 Y108.121 E0.9140 F1800
G1 X127.119 Y111.260 E1.1639
G1 X79.501 Y111.250 E3.8437
G1 X79.191 Y111.232 E3.8611
G1 X78.205 Y111.117 E3.9170
G1 X77.899 Y111.063 E3.9345
G1 X76.932 Y110.835 E3.9904
G1 X76.634 Y110.746 E4.0079
G1 X75.700 Y110.408 E4.0638
G1 X75.414 Y110.285 E4.0813
G1 X74.525 Y109.840 E4.1373
G1 X74.256 Y109.686 E4.1547
G1 X73.424 Y109.141 E4.2107
G1 X73.174 Y108.956 E4.2282
G1 X72.411 Y108.320 E4.2841
G1 X72.184 Y108.107 E4.3016
G1 X71.501 Y107.387 E4.3575
G1 X71.300 Y107.150 E4.3749
G1 X70.290 Y105.804 E4.4696
G1 X69.740 Y104.153 E4.5676
G1 X69.740 Y95.843 E5.0352
G1 X70.293 Y94.190 E5.1333
G1 X71.302 Y92.847 E5.2279
G1 X71.501 Y92.613 E5.2452
G1 X72.211 Y91.865 E5.3032
G1 X72.498 Y91.603 E5.3250
G1 X73.608 Y90.730 E5.4046
G1 X73.930 Y90.513 E5.4264
G1 X74.826 Y89.998 E5.4845
G1 X75.104 Y89.859 E5.5020
G1 X76.053 Y89.451 E5.5602
G1 X76.420 Y89.324 E5.5820
G1 X77.823 Y88.950 E5.6637
G1 X78.282 Y88.869 E5.6900
G1 X79.653 Y88.750 E5.7674
G1 X79.885 Y88.740 E5.7805
G1 X127.120 Y88.740 E8.4387
G1 X130.260 Y91.880 E8.6886
G92 E0.0000
G1 E-3.0000 F3600
; feature inner perimeter
G1 X124.540 Y94.460 F18000
G1 X124.540 Y101.642
G1 X123.100 Y104.100
G1 E0.0000 F3600
G92 E0.0000
G1 X91.874 Y104.093 E1.7573 F1350
G1 X91.822 Y103.501 E1.7907
G1 X93.125 Y103.274 E1.8652
G1 X94.373 Y103.129 E1.9358
G1 X94.969 Y103.087 E1.9695
G1 X96.596 Y103.033 E2.0611
G1 X97.031 Y102.943 E2.0861
G1 X97.417 Y102.806 E2.1091
G1 X97.781 Y102.617 E2.1322
G1 X98.116 Y102.381 E2.1553
G1 X98.416 Y102.101 E2.1784
G1 X98.674 Y101.783 E2.2015
G1 X98.888 Y101.432 E2.2245
G1 X99.051 Y101.056 E2.2476
G1 X99.162 Y100.661 E2.2707
G1 X99.217 Y100.255 E2.2938
G1 X99.217 Y99.845 E2.3168
G1 X99.162 Y99.439 E2.3399
G1 X99.051 Y99.044 E2.3630
G1 X98.888 Y98.668 E2.3861
G1 X98.674 Y98.317 E2.4091
G1 X98.416 Y97.999 E2.4322
G1 X98.116 Y97.719 E2.4553
G1 X97.781 Y97.483 E2.4784
G1 X97.417 Y97.294 E2.5014
G1 X97.031 Y97.157 E2.5245
G1 X96.629 Y97.074 E2.5476
G1 X96.271 Y97.049 E2.5678
G1 X95.426 Y97.061 E2.6153
G1 X94.633 Y97.095 E2.6600
G1 X93.842 Y97.152 E2.7046
G1 X93.052 Y97.232 E2.7493
G1 X92.266 Y97.334 E2.7940
G1 X91.482 Y97.459 E2.8386
G1 X90.702 Y97.607 E2.8833
G1 X89.927 Y97.777 E2.9280
G1 X89.157 Y97.969 E2.9726
G1 X88.393 Y98.183 E3.0173
G1 X87.635 Y98.419 E3.0619
G1 X86.884 Y98.676 E3.1066
G1 X86.142 Y98.955 E3.1512
G1 X85.407 Y99.256 E3.1959
G1 X84.895 Y99.482 E3.2274
G1 X84.752 Y98.797 E3.2668
G1 X84.636 Y98.408 E3.2896
G1 X84.489 Y98.031 E3.3124
G1 X84.311 Y97.667 E3.3352
G1 X84.103 Y97.319 E3.3580
G1 X83.868 Y96.989 E3.3808
G1 X83.606 Y96.680 E3.4036
G1 X82.826 Y95.900 E3.4657
G1 X123.100 Y95.900 E5.7322
G1 X123.100 Y103.900 E6.1823
G1 X123.100 Y104.100 F1350
G1 X123.820 Y104.820 F18000
G92 E0.0000
G1 X87.178 Y104.812 E2.0621 F1350
G1 X87.067 Y104.302 E2.0914
G1 X87.475 Y104.114 E2.1167
G1 X88.678 Y103.643 E2.1894
G1 X89.269 Y103.440 E2.2246
G1 X90.508 Y103.074 E2.2973
G1 X91.757 Y102.781 E2.3695
G1 X93.022 Y102.561 E2.4417
G1 X94.305 Y102.412 E2.5144
G1 X94.931 Y102.367 E2.5497
G1 X96.510 Y102.316 E2.6386
G1 X96.836 Y102.248 E2.6574
G1 X97.129 Y102.144 E2.6749
G1 X97.406 Y102.000 E2.6924
G1 X97.661 Y101.821 E2.7100
G1 X97.888 Y101.608 E2.7275
G1 X98.085 Y101.366 E2.7450
G1 X98.247 Y101.100 E2.7626
G1 X98.371 Y100.814 E2.7801
G1 X98.455 Y100.514 E2.7976
G1 X98.497 Y100.206 E2.8152
G1 X98.497 Y99.894 E2.8327
G1 X98.455 Y99.586 E2.8502
G1 X98.371 Y99.286 E2.8678
G1 X98.247 Y99.000 E2.8853
G1 X98.085 Y98.734 E2.9028
G1 X97.888 Y98.492 E2.9204
G1 X97.661 Y98.279 E2.9379
G1 X97.406 Y98.100 E2.9554
G1 X97.129 Y97.956 E2.9730
G1 X96.836 Y97.852 E2.9905
G1 X96.531 Y97.788 E3.0080
G1 X96.252 Y97.769 E3.0238
G1 X95.447 Y97.781 E3.0691
G1 X94.675 Y97.814 E3.1126
G1 X93.904 Y97.870 E3.1560
G1 X93.135 Y97.947 E3.1996
G1 X92.369 Y98.047 E3.2430
G1 X91.605 Y98.169 E3.2865
G1 X90.846 Y98.312 E3.3300
G1 X90.091 Y98.478 E3.3735
G1 X89.341 Y98.665 E3.4170
G1 X88.597 Y98.873 E3.4605
G1 X87.859 Y99.103 E3.5040
G1 X87.128 Y99.354 E3.5475
G1 X86.404 Y99.626 E3.5910
G1 X85.689 Y99.918 E3.6345
G1 X84.982 Y100.231 E3.6780
G1 X84.155 Y100.626 E3.7296
G1 X84.181 Y100.000 E3.7648
G1 X84.167 Y99.655 E3.7843
G1 X84.124 Y99.312 E3.8037
G1 X84.053 Y98.974 E3.8232
G1 X83.954 Y98.642 E3.8426
G1 X83.829 Y98.321 E3.8621
G1 X83.677 Y98.010 E3.8815
G1 X83.500 Y97.713 E3.9010
G1 X83.299 Y97.432 E3.9204
G1 X83.076 Y97.168 E3.9399
G1 X82.832 Y96.924 E3.9593
G1 X82.568 Y96.701 E3.9788
G1 X82.287 Y96.500 E3.9982
G1 X81.990 Y96.323 E4.0176
G1 X81.679 Y96.171 E4.0371
G1 X81.358 Y96.046 E4.0565
G1 X81.026 Y95.947 E4.0760
G1 X80.688 Y95.876 E4.0954
G1 X80.345 Y95.833 E4.1149
G1 X79.894 Y95.815 E4.1403
G1 X79.907 Y95.180 E4.1760
G1 X123.820 Y95.180 E6.6473
G1 X123.820 Y104.620 E7.1785
G1 X123.820 Y104.820 F1350
G1 X84.508 Y104.811 F18000
G1 X84.068 Y105.059
G1 X83.859 Y105.133
G1 X83.651 Y105.177
G1 X83.438 Y105.191
G1 X83.226 Y105.176
G1 X83.017 Y105.133
G1 X82.816 Y105.062
G1 X82.627 Y104.964
G1 X82.453 Y104.841
G1 X82.421 Y104.811
G1 X81.404 Y104.810
G92 E0.0000
G1 X80.098 Y104.810 E0.0735 F1350
G1 X80.060 Y104.202 E0.1078
G1 X80.688 Y104.124 E0.1434
G1 X81.183 Y104.020 E0.1718
G1 X81.350 Y104.618 E0.2067
G1 X81.404 Y104.810 F1350
G1 X81.060 Y103.292 F18000
G1 X80.849 Y103.355
G1 X80.570 Y103.413
G1 X80.286 Y103.449
G1 X80.000 Y103.460
G1 X79.714 Y103.449
G1 X79.430 Y103.413
G1 X79.151 Y103.355
G1 X78.876 Y103.273
G1 X78.610 Y103.169
G1 X78.353 Y103.043
G1 X78.107 Y102.897
G1 X77.875 Y102.731
G1 X77.656 Y102.546
G1 X77.454 Y102.344
G1 X77.269 Y102.125
G1 X77.103 Y101.893
G1 X76.957 Y101.647
G1 X76.831 Y101.390
G1 X76.727 Y101.124
G1 X76.645 Y100.849
G1 X76.587 Y100.570
G1 X76.551 Y100.286
G1 X76.540 Y100.000
G1 X76.551 Y99.714
G1 X76.587 Y99.430
G1 X76.645 Y99.151
G1 X76.727 Y98.876
G1 X76.831 Y98.610
G1 X76.957 Y98.353
G1 X77.103 Y98.107
G1 X77.269 Y97.875
G1 X77.454 Y97.656
G1 X77.656 Y97.454
G1 X77.875 Y97.269
G1 X78.107 Y97.103
G1 X78.353 Y96.957
G1 X78.610 Y96.831
G1 X78.885 Y96.724
G1 X79.421 Y96.588
G1 X79.539 Y96.573
G1 X79.376 Y95.857
G92 E0.0000
G1 X78.657 Y96.039 E0.0417 F1350
G1 X78.495 Y95.415 E0.0780
G1 X78.893 Y95.309 E0.1011
G1 X79.235 Y95.239 E0.1208
G1 X79.332 Y95.662 E0.1452
G1 X79.376 Y95.857 F1350
; feature outer perimeter
G1 X79.421 Y96.588 F18000
G92 E0.0000
G1 X78.885 Y96.724 E0.0311 F900
G1 X78.610 Y96.831 E0.0477
G1 X78.353 Y96.957 E0.0638
G1 X78.107 Y97.103 E0.0799
G1 X77.875 Y97.269 E0.0960
G1 X77.656 Y97.454 E0.1121
G1 X77.454 Y97.656 E0.1282
G1 X77.269 Y97.875 E0.1443
G1 X77.103 Y98.107 E0.1604
G1 X76.957 Y98.353 E0.1765
G1 X76.831 Y98.610 E0.1926
G1 X76.727 Y98.876 E0.2087
G1 X76.645 Y99.151 E0.2248
G1 X76.587 Y99.430 E0.2409
G1 X76.551 Y99.714 E0.2570
G1 X76.540 Y100.000 E0.2731
G1 X76.551 Y100.286 E0.2892
G1 X76.587 Y100.570 E0.3053
G1 X76.645 Y100.849 E0.3213
G1 X76.727 Y101.124 E0.3374
G1 X76.831 Y101.390 E0.3535
G1 X76.957 Y101.647 E0.3696
G1 X77.103 Y101.893 E0.3857
G1 X77.269 Y102.125 E0.4018
G1 X77.454 Y102.344 E0.4179
G1 X77.656 Y102.546 E0.4340
G1 X77.875 Y102.731 E0.4501
G1 X78.107 Y102.897 E0.4662
G1 X78.353 Y103.043 E0.4823
G1 X78.610 Y103.169 E0.4984
G1 X78.876 Y103.273 E0.5145
G1 X79.151 Y103.355 E0.5306
G1 X79.430 Y103.413 E0.5467
G1 X79.714 Y103.449 E0.5628
G1 X80.000 Y103.460 E0.5789
G1 X80.286 Y103.449 E0.5950
G1 X80.570 Y103.413 E0.6111
G1 X80.849 Y103.355 E0.6271
G1 X81.124 Y103.273 E0.6433
G1 X81.390 Y103.169 E0.6593
G1 X81.969 Y102.886 E0.6956
G1 X81.881 Y103.523 E0.7318
G1 X81.881 Y103.736 E0.7438
G1 X81.910 Y103.947 E0.7558
G1 X81.967 Y104.153 E0.7678
G1 X82.052 Y104.348 E0.7798
G1 X82.163 Y104.530 E0.7917
G1 X82.297 Y104.695 E0.8037
G1 X82.453 Y104.841 E0.8157
G1 X82.790 Y105.079 E0.8389
G1 X82.646 Y105.531 E0.8656
G1 X79.673 Y105.530 E1.0330
G1 X79.359 Y105.503 E1.0507
G1 X79.042 Y105.456 E1.0687
G1 X78.727 Y105.392 E1.0868
G1 X78.417 Y105.309 E1.1049
G1 X78.113 Y105.208 E1.1229
G1 X77.814 Y105.090 E1.1410
G1 X77.523 Y104.955 E1.1590
G1 X77.240 Y104.803 E1.1771
G1 X76.966 Y104.635 E1.1952
G1 X76.703 Y104.452 E1.2132
G1 X76.451 Y104.253 E1.2313
G1 X76.210 Y104.041 E1.2494
G1 X75.983 Y103.815 E1.2674
G1 X75.773 Y103.581 E1.2851
