; G-Code generated by Simplify3D(R) Version 4.1.2
; Mar 27, 2020 at 9:17:21 PM
; Settings Summary
;   processName,Process1
;   applyToModels,test-innen-v2
;   profileName,HBot (modified)
;   profileVersion,2019-10-26 23:38:43
;   baseProfile,Default
;   printMaterial,PLA
;   printQuality,Medium
;   printExtruders,
;   extruderName,Extruder 1
;   extruderToolheadNumber,0
;   extruderDiameter,0.4
;   extruderAutoWidth,1
;   extruderWidth,0.48
;   extrusionMultiplier,0.94
;   extruderUseRetract,1
;   extruderRetractionDistance,3
;   extruderExtraRestartDistance,0
;   extruderRetractionZLift,0
;   extruderRetractionSpeed,3600
;   extruderUseCoasting,1
;   extruderCoastingDistance,0.2
;   extruderUseWipe,1
;   extruderWipeDistance,5
;   primaryExtruder,0
;   layerHeight,0.2
;   topSolidLayers,3
;   bottomSolidLayers,3
;   perimeterOutlines,3
;   printPerimetersInsideOut,1
;   startPointOption,3
;   startPointOriginX,200
;   startPointOriginY,100
;   sequentialIslands,0
;   spiralVaseMode,0
;   firstLayerHeightPercentage,100
;   firstLayerWidthPercentage,150
;   firstLayerUnderspeed,0.5
;   useRaft,0
;   raftExtruder,0
;   raftTopLayers,3
;   raftBaseLayers,2
;   raftOffset,3
;   raftSeparationDistance,0.18
;   raftTopInfill,100
;   aboveRaftSpeedMultiplier,0.3
;   useSkirt,1
;   skirtExtruder,0
;   skirtLayers,1
;   skirtOutlines,3
;   skirtOffset,0
;   usePrimePillar,0
;   primePillarExtruder,999
;   primePillarWidth,12
;   primePillarLocation,7
;   primePillarSpeedMultiplier,1
;   useOozeShield,0
;   oozeShieldExtruder,999
;   oozeShieldOffset,2
;   oozeShieldOutlines,1
;   oozeShieldSidewallShape,1
;   oozeShieldSidewallAngle,30
;   oozeShieldSpeedMultiplier,1
;   infillExtruder,0
;   internalInfillPattern,Rectilinear
;   externalInfillPattern,Rectilinear
;   infillPercentage,20
;   outlineOverlapPercentage,25
;   infillExtrusionWidthPercentage,150
;   minInfillLength,5
;   infillLayerInterval,1
;   internalInfillAngles,45,-45
;   overlapInternalInfillAngles,0
;   externalInfillAngles,45,-45
;   generateSupport,0
;   supportExtruder,0
;   supportInfillPercentage,30
;   supportExtraInflation,0
;   supportBaseLayers,1
;   denseSupportExtruder,0
;   denseSupportLayers,0
;   denseSupportInfillPercentage,70
;   supportLayerInterval,1
;   supportHorizontalPartOffset,0.3
;   supportUpperSeparationLayers,1
;   supportLowerSeparationLayers,1
;   supportType,0
;   supportGridSpacing,4
;   maxOverhangAngle,25
;   supportAngles,0
;   temperatureName,Extruder 1,Heated Bed
;   temperatureNumber,0,1
;   temperatureSetpointCount,2,1
;   temperatureSetpointLayers,1,2,1
;   temperatureSetpointTemperatures,217,208,55
;   temperatureStabilizeAtStartup,1,1
;   temperatureHeatedBed,0,1
;   fanLayers,1,2,4
;   fanSpeeds,0,20,30
;   blipFanToFullPower,1
;   adjustSpeedForCooling,1
;   minSpeedLayerTime,15
;   minCoolingSpeedSlowdown,20
;   increaseFanForCooling,0
;   minFanLayerTime,45
;   maxCoolingFanSpeed,40
;   increaseFanForBridging,0
;   bridgingFanSpeed,80
;   use5D,1
;   relativeEdistances,0
;   allowEaxisZeroing,1
;   independentExtruderAxes,0
;   includeM10123,0
;   stickySupport,1
;   applyToolheadOffsets,0
;   gcodeXoffset,0
;   gcodeYoffset,0
;   gcodeZoffset,0
;   overrideMachineDefinition,1
;   machineTypeOverride,0
;   strokeXoverride,200
;   strokeYoverride,200
;   strokeZoverride,150
;   originOffsetXoverride,0
;   originOffsetYoverride,0
;   originOffsetZoverride,0
;   homeXdirOverride,-1
;   homeYdirOverride,-1
;   homeZdirOverride,-1
;   flipXoverride,1
;   flipYoverride,-1
;   flipZoverride,1
;   toolheadOffsets,0,0|0,0|0,0|0,0|0,0|0,0
;   overrideFirmwareConfiguration,1
;   firmwareTypeOverride,RepRap (Marlin/Repetier/Sprinter)
;   GPXconfigOverride,r2
;   baudRateOverride,115200
;   overridePrinterModels,0
;   printerModelsOverride
;   startingGcode,G28 ; home all axes,G32 ; run bed.g -- probe bed and enable compensation
;   layerChangeGcode,
;   retractionGcode,
;   toolChangeGcode,
;   endingGcode,M0 ; call stop.g
;   exportFileFormat,gcode
;   celebration,0
;   celebrationSong,Random Song
;   postProcessing,
;   defaultSpeed,3600
;   outlineUnderspeed,0.5
;   solidInfillUnderspeed,0.8
;   supportUnderspeed,0.8
;   rapidXYspeed,18000
;   rapidZspeed,1200
;   minBridgingArea,50
;   bridgingExtraInflation,0
;   bridgingExtrusionMultiplier,0.96
;   bridgingSpeedMultiplier,1
;   useFixedBridgingAngle,0
;   fixedBridgingAngle,0
;   applyBridgingToPerimeters,0
;   filamentDiameters,1.75|1.75|1.75|1.75|1.75|1.75
;   filamentPricesPerKg,46|46|46|46|46|46
;   filamentDensities,1.25|1.25|1.25|1.25|1.25|1.25
;   useMinPrintHeight,0
;   minPrintHeight,0
;   useMaxPrintHeight,0
;   maxPrintHeight,0
;   useDiaphragm,0
;   diaphragmLayerInterval,20
;   robustSlicing,1
;   mergeAllIntoSolid,0
;   onlyRetractWhenCrossingOutline,1
;   retractBetweenLayers,0
;   useRetractionMinTravel,1
;   retractionMinTravel,3
;   retractWhileWiping,1
;   onlyWipeOutlines,1
;   avoidCrossingOutline,1
;   maxMovementDetourFactor,3
;   toolChangeRetractionDistance,12
;   toolChangeExtraRestartDistance,-0.5
;   toolChangeRetractionSpeed,600
;   externalThinWallType,1
;   internalThinWallType,1
;   thinWallAllowedOverlapPercentage,10
;   singleExtrusionMinLength,1
;   singleExtrusionMinPrintingWidthPercentage,50
;   singleExtrusionMaxPrintingWidthPercentage,200
;   singleExtrusionEndpointExtension,0.2
;   horizontalSizeCompensation,-0.1
G90
M82
M106 S0
M140 S55
M190 S55
M104 S217 T0
M109 S217 T0
G28 ; home all axes
G32 ; run bed.g -- probe bed and enable compensation
; process Process1
; layer 1, Z = 0.200
T0
G92 E0.0000
G1 E-3.0000 F3600
; feature skirt
; tool H0.200 W0.720
G1 Z0.200 F1200
G1 X84.099 Y109.741 F18000
G1 E0.0000 F3600
G92 E0.0000
G1 X84.062 Y114.013 E0.2404 F513
G1 X82.936 Y115.067 E0.3272
G1 X81.312 Y114.973 E0.4188
G1 X81.232 Y114.965 E0.4233
G1 X80.257 Y114.821 E0.4788
G1 X80.196 Y114.809 E0.4823
G1 X79.687 Y114.698 E0.5115
G1 X79.627 Y114.682 E0.5151
G1 X78.690 Y114.407 E0.5700
G1 X78.631 Y114.387 E0.5735
G1 X78.144 Y114.206 E0.6028
G1 X78.086 Y114.183 E0.6063
G1 X77.186 Y113.776 E0.6618
G1 X77.112 Y113.738 E0.6665
G1 X76.245 Y113.245 E0.7227
G1 X76.174 Y113.201 E0.7274
G1 X75.356 Y112.630 E0.7835
G1 X75.290 Y112.580 E0.7882
G1 X74.536 Y111.942 E0.8438
G1 X74.490 Y111.900 E0.8473
G1 X74.125 Y111.546 E0.8759
G1 X74.096 Y111.516 E0.8782
G1 X73.747 Y111.144 E0.9069
G1 X73.706 Y111.098 E0.9104
G1 X73.082 Y110.332 E0.9660
G1 X73.032 Y110.265 E0.9707
G1 X72.481 Y109.446 E1.0263
G1 X72.448 Y109.393 E1.0298
G1 X72.189 Y108.944 E1.0589
G1 X72.160 Y108.889 E1.0624
G1 X71.728 Y108.001 E1.1180
G1 X71.695 Y107.925 E1.1227
G1 X71.342 Y106.991 E1.1788
G1 X71.316 Y106.912 E1.1835
G1 X71.054 Y105.960 E1.2391
G1 X71.040 Y105.900 E1.2426
G1 X70.937 Y105.390 E1.2718
G1 X70.927 Y105.329 E1.2753
G1 X70.799 Y104.350 E1.3309
G1 X70.792 Y104.267 E1.3356
G1 X70.755 Y103.272 E1.3916
G1 X70.755 Y103.191 E1.3962
G1 X70.806 Y102.236 E1.4500
G1 X70.813 Y102.156 E1.4545
G1 X70.948 Y101.212 E1.5082
G1 X70.962 Y101.134 E1.5126
G1 X71.180 Y100.204 E1.5664
G1 X71.201 Y100.127 E1.5709
G1 X71.502 Y99.212 E1.6251
G1 X71.539 Y99.119 E1.6307
G1 X72.124 Y97.838 E1.7100
G1 X72.170 Y97.749 E1.7156
G1 X72.671 Y96.912 E1.7705
G1 X72.726 Y96.830 E1.7761
G1 X73.579 Y95.707 E1.8554
G1 X73.643 Y95.631 E1.8610
G1 X74.330 Y94.908 E1.9172
G1 X74.438 Y94.811 E1.9253
G1 X74.859 Y94.491 E1.9551
G1 X75.088 Y94.364 E1.9698
G1 X75.789 Y94.101 E2.0119
G1 X76.045 Y94.045 E2.0267
G1 X76.631 Y94.005 E2.0597
G1 X76.893 Y94.025 E2.0745
G1 X77.623 Y94.190 E2.1166
G1 X77.867 Y94.284 E2.1314
G1 X78.379 Y94.573 E2.1644
G1 X78.587 Y94.733 E2.1792
G1 X79.124 Y95.291 E2.2228
G1 X79.300 Y95.552 E2.2405
G1 X79.625 Y96.285 E2.2856
G1 X79.701 Y96.591 E2.3033
G1 X79.754 Y97.363 E2.3469
G1 X79.734 Y97.625 E2.3617
G1 X79.610 Y98.172 E2.3933
G1 X79.540 Y98.370 E2.4051
G1 X79.297 Y98.868 E2.4363
G1 X79.158 Y99.074 E2.4503
G1 X78.381 Y99.940 E2.5157
G1 X78.215 Y100.151 E2.5308
G1 X77.881 Y100.656 E2.5649
G1 X77.615 Y101.175 E2.5977
G1 X77.399 Y101.743 E2.6319
G1 X77.332 Y101.975 E2.6455
G1 X77.207 Y102.595 E2.6811
G1 X77.179 Y102.835 E2.6947
G1 X77.157 Y103.467 E2.7303
G1 X77.169 Y103.709 E2.7439
G1 X77.249 Y104.311 E2.7781
G1 X77.394 Y104.901 E2.8123
G1 X77.471 Y105.131 E2.8259
G1 X77.721 Y105.711 E2.8615
G1 X77.835 Y105.925 E2.8751
G1 X78.164 Y106.436 E2.9093
G1 X78.547 Y106.908 E2.9435
G1 X78.714 Y107.082 E2.9571
G1 X79.169 Y107.485 E2.9913
G1 X79.666 Y107.835 E3.0255
G1 X79.874 Y107.957 E3.0391
G1 X80.444 Y108.232 E3.0747
G1 X80.693 Y108.327 E3.0897
G1 X80.947 Y108.409 E3.1047
G1 X81.519 Y108.542 E3.1378
G1 X83.163 Y108.701 E3.2307
G1 X84.099 Y109.741 E3.3095
G1 X83.377 Y110.015 F18000
G92 E0.0000
G1 X83.345 Y113.698 E0.2073 F513
G1 X82.669 Y114.331 E0.2594
G1 X81.369 Y114.256 E0.3326
G1 X81.321 Y114.251 E0.3354
G1 X80.375 Y114.110 E0.3892
G1 X80.338 Y114.103 E0.3913
G1 X79.854 Y113.997 E0.4192
G1 X79.818 Y113.988 E0.4213
G1 X78.905 Y113.719 E0.4749
G1 X78.869 Y113.708 E0.4770
G1 X78.406 Y113.536 E0.5048
G1 X78.371 Y113.521 E0.5069
G1 X77.498 Y113.127 E0.5608
G1 X77.453 Y113.104 E0.5636
G1 X76.615 Y112.628 E0.6179
G1 X76.573 Y112.601 E0.6207
G1 X75.782 Y112.049 E0.6750
G1 X75.742 Y112.019 E0.6778
G1 X75.010 Y111.400 E0.7317
G1 X74.983 Y111.375 E0.7338
G1 X74.632 Y111.035 E0.7613
G1 X74.615 Y111.017 E0.7627
G1 X74.281 Y110.661 E0.7902
G1 X74.256 Y110.633 E0.7923
G1 X73.650 Y109.890 E0.8462
G1 X73.620 Y109.850 E0.8490
G1 X73.086 Y109.055 E0.9030
G1 X73.066 Y109.023 E0.9051
G1 X72.819 Y108.595 E0.9329
G1 X72.802 Y108.562 E0.9350
G1 X72.382 Y107.701 E0.9889
G1 X72.362 Y107.655 E0.9917
G1 X72.022 Y106.752 E1.0460
G1 X72.006 Y106.705 E1.0488
G1 X71.752 Y105.781 E1.1027
G1 X71.743 Y105.745 E1.1048
G1 X71.645 Y105.260 E1.1327
G1 X71.639 Y105.223 E1.1348
G1 X71.515 Y104.273 E1.1887
G1 X71.511 Y104.223 E1.1915
G1 X71.475 Y103.261 E1.2457
G1 X71.475 Y103.212 E1.2484
G1 X71.524 Y102.290 E1.3004
G1 X71.528 Y102.242 E1.3031
G1 X71.658 Y101.329 E1.3550
G1 X71.667 Y101.282 E1.3577
G1 X71.877 Y100.384 E1.4096
G1 X71.890 Y100.338 E1.4123
G1 X72.180 Y99.456 E1.4646
G1 X72.202 Y99.400 E1.4679
G1 X72.771 Y98.154 E1.5450
G1 X72.798 Y98.102 E1.5483
G1 X73.279 Y97.299 E1.6010
G1 X73.312 Y97.249 E1.6044
G1 X74.140 Y96.158 E1.6815
G1 X74.179 Y96.112 E1.6848
G1 X74.832 Y95.425 E1.7382
G1 X74.897 Y95.367 E1.7431
G1 X75.253 Y95.096 E1.7683
G1 X75.391 Y95.020 E1.7771
G1 X75.993 Y94.793 E1.8133
G1 X76.147 Y94.760 E1.8222
G1 X76.628 Y94.727 E1.8493
G1 X76.785 Y94.739 E1.8582
G1 X77.413 Y94.881 E1.8944
G1 X77.560 Y94.937 E1.9033
G1 X77.980 Y95.174 E1.9304
G1 X78.104 Y95.271 E1.9393
G1 X78.562 Y95.745 E1.9764
G1 X78.667 Y95.902 E1.9870
G1 X78.941 Y96.519 E2.0250
G1 X78.987 Y96.703 E2.0356
G1 X79.032 Y97.360 E2.0727
G1 X79.020 Y97.517 E2.0816
G1 X78.917 Y97.972 E2.1078
G1 X78.875 Y98.091 E2.1149
G1 X78.672 Y98.507 E2.1410
G1 X78.588 Y98.630 E2.1494
G1 X77.830 Y99.476 E2.2133
G1 X77.631 Y99.728 E2.2314
G1 X77.258 Y100.293 E2.2694
G1 X76.956 Y100.882 E2.3067
G1 X76.715 Y101.514 E2.3448
G1 X76.632 Y101.804 E2.3617
G1 X76.495 Y102.482 E2.4007
G1 X76.460 Y102.781 E2.4176
G1 X76.437 Y103.473 E2.4566
G1 X76.452 Y103.774 E2.4735
G1 X76.540 Y104.445 E2.5116
G1 X76.702 Y105.102 E2.5497
G1 X76.798 Y105.388 E2.5667
G1 X77.072 Y106.023 E2.6056
G1 X77.213 Y106.290 E2.6226
G1 X77.580 Y106.859 E2.6607
G1 X78.006 Y107.384 E2.6988
G1 X78.215 Y107.602 E2.7157
G1 X78.722 Y108.050 E2.7538
G1 X79.275 Y108.440 E2.7919
G1 X79.535 Y108.593 E2.8089
G1 X80.158 Y108.893 E2.8478
G1 X80.454 Y109.007 E2.8656
G1 X80.755 Y109.104 E2.8834
G1 X81.402 Y109.254 E2.9208
G1 X82.815 Y109.391 E3.0007
G1 X83.377 Y110.015 E3.0480
G1 X82.654 Y110.289 F18000
G92 E0.0000
G1 X82.628 Y113.383 E0.1742 F513
G1 X82.402 Y113.594 E0.1915
G1 X81.427 Y113.538 E0.2465
G1 X81.411 Y113.536 E0.2474
G1 X80.493 Y113.400 E0.2997
G1 X80.480 Y113.398 E0.3004
G1 X80.021 Y113.297 E0.3268
G1 X80.009 Y113.293 E0.3275
G1 X79.120 Y113.032 E0.3797
G1 X79.108 Y113.028 E0.3804
G1 X78.668 Y112.865 E0.4068
G1 X78.656 Y112.860 E0.4075
G1 X77.810 Y112.478 E0.4598
G1 X77.795 Y112.470 E0.4607
G1 X76.985 Y112.010 E0.5131
G1 X76.971 Y112.001 E0.5141
G1 X76.208 Y111.468 E0.5665
G1 X76.195 Y111.458 E0.5674
G1 X75.485 Y110.859 E0.6197
G1 X75.476 Y110.850 E0.6204
G1 X75.140 Y110.524 E0.6467
G1 X75.134 Y110.518 E0.6472
G1 X74.814 Y110.177 E0.6735
G1 X74.806 Y110.168 E0.6742
G1 X74.219 Y109.448 E0.7265
G1 X74.209 Y109.435 E0.7274
G1 X73.690 Y108.664 E0.7797
G1 X73.684 Y108.653 E0.7804
G1 X73.449 Y108.246 E0.8068
G1 X73.443 Y108.235 E0.8075
G1 X73.037 Y107.400 E0.8598
G1 X73.030 Y107.385 E0.8607
G1 X72.701 Y106.514 E0.9131
G1 X72.696 Y106.498 E0.9141
G1 X72.449 Y105.602 E0.9664
G1 X72.447 Y105.590 E0.9671
G1 X72.354 Y105.130 E0.9935
G1 X72.352 Y105.117 E0.9942
G1 X72.231 Y104.196 E1.0465
G1 X72.230 Y104.180 E1.0474
G1 X72.195 Y103.250 E1.0997
G1 X72.195 Y103.234 E1.1007
G1 X72.242 Y102.343 E1.1509
G1 X72.244 Y102.328 E1.1517
G1 X72.369 Y101.446 E1.2019
G1 X72.372 Y101.430 E1.2028
G1 X72.574 Y100.563 E1.2529
G1 X72.579 Y100.548 E1.2538
G1 X72.858 Y99.700 E1.3040
G1 X72.865 Y99.681 E1.3051
G1 X73.418 Y98.471 E1.3800
G1 X73.427 Y98.454 E1.3811
G1 X73.886 Y97.685 E1.4315
G1 X73.898 Y97.669 E1.4326
G1 X74.702 Y96.609 E1.5075
G1 X74.715 Y96.594 E1.5086
G1 X75.334 Y95.942 E1.5592
G1 X75.356 Y95.923 E1.5608
G1 X75.647 Y95.701 E1.5815
G1 X75.693 Y95.675 E1.5844
G1 X76.197 Y95.486 E1.6147
G1 X76.249 Y95.475 E1.6177
G1 X76.625 Y95.449 E1.6389
G1 X76.678 Y95.453 E1.6419
G1 X77.203 Y95.572 E1.6722
G1 X77.252 Y95.590 E1.6751
G1 X77.581 Y95.776 E1.6964
G1 X77.622 Y95.808 E1.6993
G1 X78.000 Y96.199 E1.7299
G1 X78.035 Y96.252 E1.7335
G1 X78.258 Y96.754 E1.7644
G1 X78.273 Y96.815 E1.7679
G1 X78.310 Y97.357 E1.7985
G1 X78.306 Y97.410 E1.8015
G1 X78.224 Y97.773 E1.8224
G1 X78.210 Y97.812 E1.8248
G1 X78.047 Y98.145 E1.8457
G1 X78.019 Y98.187 E1.8485
G1 X77.279 Y99.013 E1.9109
G1 X77.047 Y99.306 E1.9319
G1 X76.636 Y99.929 E1.9739
G1 X76.297 Y100.588 E2.0156
G1 X76.032 Y101.286 E2.0576
G1 X75.932 Y101.632 E2.0780
G1 X75.783 Y102.369 E2.1202
G1 X75.742 Y102.727 E2.1405
G1 X75.716 Y103.478 E2.1828
G1 X75.734 Y103.839 E2.2031
G1 X75.832 Y104.579 E2.2451
G1 X76.010 Y105.303 E2.2871
G1 X76.125 Y105.646 E2.3074
G1 X76.422 Y106.336 E2.3497
G1 X76.592 Y106.654 E2.3700
G1 X76.996 Y107.282 E2.4120
G1 X77.466 Y107.861 E2.4540
G1 X77.716 Y108.122 E2.4743
G1 X78.275 Y108.616 E2.5163
G1 X78.885 Y109.046 E2.5583
G1 X79.196 Y109.229 E2.5787
G1 X79.873 Y109.555 E2.6209
G1 X80.214 Y109.686 E2.6415
G1 X80.563 Y109.798 E2.6621
G1 X81.286 Y109.966 E2.7039
G1 X82.467 Y110.081 E2.7707
G1 X82.654 Y110.289 E2.7864
; feature outer perimeter
G1 X81.930 Y110.770 F18000
G92 E0.0000
G1 X81.912 Y112.853 E0.1173 F257
G1 X81.492 Y112.821 E0.1410
G1 X81.055 Y112.766 E0.1658
G1 X80.621 Y112.691 E0.1906
G1 X80.190 Y112.597 E0.2154
G1 X79.765 Y112.482 E0.2402
G1 X79.345 Y112.348 E0.2650
G1 X78.931 Y112.195 E0.2898
G1 X78.526 Y112.023 E0.3146
G1 X78.129 Y111.832 E0.3394
G1 X77.741 Y111.623 E0.3642
G1 X77.362 Y111.397 E0.3890
G1 X76.995 Y111.153 E0.4138
G1 X76.640 Y110.892 E0.4386
G1 X76.297 Y110.616 E0.4634
G1 X75.967 Y110.324 E0.4882
G1 X75.651 Y110.017 E0.5130
G1 X75.349 Y109.695 E0.5378
G1 X75.063 Y109.360 E0.5626
G1 X74.792 Y109.012 E0.5874
G1 X74.538 Y108.652 E0.6122
G1 X74.300 Y108.281 E0.6370
G1 X74.080 Y107.899 E0.6618
G1 X73.878 Y107.508 E0.6866
G1 X73.695 Y107.108 E0.7114
G1 X73.529 Y106.698 E0.7362
G1 X73.383 Y106.283 E0.7610
G1 X73.256 Y105.861 E0.7858
G1 X73.149 Y105.433 E0.8106
G1 X73.062 Y105.001 E0.8354
G1 X72.995 Y104.566 E0.8602
G1 X72.948 Y104.127 E0.8850
G1 X72.921 Y103.688 E0.9098
G1 X72.915 Y103.252 E0.9343
G1 X72.960 Y102.405 E0.9820
G1 X73.078 Y101.571 E1.0294
G1 X73.270 Y100.750 E1.0769
G1 X73.534 Y99.950 E1.1243
G1 X73.869 Y99.171 E1.1720
G1 X74.056 Y98.804 E1.1952
G1 X74.491 Y98.077 E1.2429
G1 X74.996 Y97.380 E1.2913
G1 X75.321 Y97.987 E1.3301
G1 X75.445 Y98.155 E1.3418
G1 X75.591 Y98.304 E1.3536
G1 X75.756 Y98.430 E1.3653
G1 X75.939 Y98.532 E1.3770
G1 X76.133 Y98.606 E1.3887
G1 X76.586 Y98.709 E1.4149
G1 X76.230 Y99.217 E1.4498
