; G-Code generated by Simplify3D(R) Version 4.1.2
; Mar 27, 2020 at 4:31:25 PM
; Settings Summary
;   processName,Process1
;   applyToModels,test-aussen,test-innen
;   profileName,HBot (modified)
;   profileVersion,2019-10-26 23:38:43
;   baseProfile,Default
;   printMaterial,PLA
;   printQuality,Medium
;   printExtruders,
;   extruderName,Extruder 1
;   extruderToolheadNumber,0
;   extruderDiameter,0.4
;   extruderAutoWidth,1
;   extruderWidth,0.48
;   extrusionMultiplier,0.94
;   extruderUseRetract,1
;   extruderRetractionDistance,3
;   extruderExtraRestartDistance,0
;   extruderRetractionZLift,0
;   extruderRetractionSpeed,3600
;   extruderUseCoasting,1
;   extruderCoastingDistance,0.2
;   extruderUseWipe,1
;   extruderWipeDistance,5
;   primaryExtruder,0
;   layerHeight,0.2
;   topSolidLayers,3
;   bottomSolidLayers,3
;   perimeterOutlines,3
;   printPerimetersInsideOut,1
;   startPointOption,2
;   startPointOriginX,0
;   startPointOriginY,0
;   sequentialIslands,0
;   spiralVaseMode,0
;   firstLayerHeightPercentage,100
;   firstLayerWidthPercentage,150
;   firstLayerUnderspeed,0.5
;   useRaft,0
;   raftExtruder,0
;   raftTopLayers,3
;   raftBaseLayers,2
;   raftOffset,3
;   raftSeparationDistance,0.18
;   raftTopInfill,100
;   aboveRaftSpeedMultiplier,0.3
;   useSkirt,1
;   skirtExtruder,0
;   skirtLayers,1
;   skirtOutlines,3
;   skirtOffset,4
;   usePrimePillar,0
;   primePillarExtruder,999
;   primePillarWidth,12
;   primePillarLocation,7
;   primePillarSpeedMultiplier,1
;   useOozeShield,0
;   oozeShieldExtruder,999
;   oozeShieldOffset,2
;   oozeShieldOutlines,1
;   oozeShieldSidewallShape,1
;   oozeShieldSidewallAngle,30
;   oozeShieldSpeedMultiplier,1
;   infillExtruder,0
;   internalInfillPattern,Rectilinear
;   externalInfillPattern,Rectilinear
;   infillPercentage,20
;   outlineOverlapPercentage,25
;   infillExtrusionWidthPercentage,150
;   minInfillLength,5
;   infillLayerInterval,1
;   internalInfillAngles,45,-45
;   overlapInternalInfillAngles,0
;   externalInfillAngles,45,-45
;   generateSupport,0
;   supportExtruder,0
;   supportInfillPercentage,30
;   supportExtraInflation,0
;   supportBaseLayers,1
;   denseSupportExtruder,0
;   denseSupportLayers,0
;   denseSupportInfillPercentage,70
;   supportLayerInterval,1
;   supportHorizontalPartOffset,0.3
;   supportUpperSeparationLayers,1
;   supportLowerSeparationLayers,1
;   supportType,0
;   supportGridSpacing,4
;   maxOverhangAngle,25
;   supportAngles,0
;   temperatureName,Extruder 1,Heated Bed
;   temperatureNumber,0,1
;   temperatureSetpointCount,2,1
;   temperatureSetpointLayers,1,2,1
;   temperatureSetpointTemperatures,217,208,55
;   temperatureStabilizeAtStartup,1,1
;   temperatureHeatedBed,0,1
;   fanLayers,1,2,4
;   fanSpeeds,0,20,30
;   blipFanToFullPower,1
;   adjustSpeedForCooling,1
;   minSpeedLayerTime,15
;   minCoolingSpeedSlowdown,20
;   increaseFanForCooling,0
;   minFanLayerTime,45
;   maxCoolingFanSpeed,40
;   increaseFanForBridging,0
;   bridgingFanSpeed,80
;   use5D,1
;   relativeEdistances,0
;   allowEaxisZeroing,1
;   independentExtruderAxes,0
;   includeM10123,0
;   stickySupport,1
;   applyToolheadOffsets,0
;   gcodeXoffset,0
;   gcodeYoffset,0
;   gcodeZoffset,0
;   overrideMachineDefinition,1
;   machineTypeOverride,0
;   strokeXoverride,200
;   strokeYoverride,200
;   strokeZoverride,150
;   originOffsetXoverride,0
;   originOffsetYoverride,0
;   originOffsetZoverride,0
;   homeXdirOverride,-1
;   homeYdirOverride,-1
;   homeZdirOverride,-1
;   flipXoverride,1
;   flipYoverride,-1
;   flipZoverride,1
;   toolheadOffsets,0,0|0,0|0,0|0,0|0,0|0,0
;   overrideFirmwareConfiguration,1
;   firmwareTypeOverride,RepRap (Marlin/Repetier/Sprinter)
;   GPXconfigOverride,r2
;   baudRateOverride,115200
;   overridePrinterModels,0
;   printerModelsOverride
;   startingGcode,G28 ; home all axes,G32 ; run bed.g -- probe bed and enable compensation
;   layerChangeGcode,
;   retractionGcode,
;   toolChangeGcode,
;   endingGcode,M0 ; call stop.g
;   exportFileFormat,gcode
;   celebration,0
;   celebrationSong,Random Song
;   postProcessing,
;   defaultSpeed,3600
;   outlineUnderspeed,0.5
;   solidInfillUnderspeed,0.8
;   supportUnderspeed,0.8
;   rapidXYspeed,18000
;   rapidZspeed,1200
;   minBridgingArea,50
;   bridgingExtraInflation,0
;   bridgingExtrusionMultiplier,0.96
;   bridgingSpeedMultiplier,1
;   useFixedBridgingAngle,0
;   fixedBridgingAngle,0
;   applyBridgingToPerimeters,0
;   filamentDiameters,1.75|1.75|1.75|1.75|1.75|1.75
;   filamentPricesPerKg,46|46|46|46|46|46
;   filamentDensities,1.25|1.25|1.25|1.25|1.25|1.25
;   useMinPrintHeight,0
;   minPrintHeight,0
;   useMaxPrintHeight,0
;   maxPrintHeight,0
;   useDiaphragm,0
;   diaphragmLayerInterval,20
;   robustSlicing,1
;   mergeAllIntoSolid,0
;   onlyRetractWhenCrossingOutline,1
;   retractBetweenLayers,0
;   useRetractionMinTravel,1
;   retractionMinTravel,3
;   retractWhileWiping,1
;   onlyWipeOutlines,1
;   avoidCrossingOutline,1
;   maxMovementDetourFactor,3
;   toolChangeRetractionDistance,12
;   toolChangeExtraRestartDistance,-0.5
;   toolChangeRetractionSpeed,600
;   externalThinWallType,1
;   internalThinWallType,1
;   thinWallAllowedOverlapPercentage,10
;   singleExtrusionMinLength,1
;   singleExtrusionMinPrintingWidthPercentage,50
;   singleExtrusionMaxPrintingWidthPercentage,200
;   singleExtrusionEndpointExtension,0.2
;   horizontalSizeCompensation,-0.1
G90
M82
M106 S0
M140 S55
M190 S55
M104 S217 T0
M109 S217 T0
G28 ; home all axes
G32 ; run bed.g -- probe bed and enable compensation
; process Process1
; layer 1, Z = 0.200
T0
G92 E0.0000
G1 E-3.0000 F3600
; feature skirt
; tool H0.200 W0.720
G1 Z0.200 F1200
G1 X72.698 Y80.800 F18000
G1 E0.0000 F3600
G92 E0.0000
G1 X127.302 Y80.800 E3.0730 F1800
G1 X130.700 Y84.198 E3.3434
G1 X130.700 Y100.802 E4.2778
G1 X127.302 Y104.200 E4.5482
G1 X98.030 Y104.200 E6.1956
G1 X98.729 Y104.853 E6.2494
G1 X95.841 Y112.194 E6.6934
G1 X84.897 Y112.210 E7.3092
G1 X84.722 Y112.239 E7.3192
G1 X84.554 Y112.285 E7.3291
G1 X84.363 Y112.374 E7.3409
G1 X84.218 Y112.472 E7.3507
G1 X84.085 Y112.585 E7.3606
G1 X83.949 Y112.745 E7.3724
G1 X83.859 Y112.895 E7.3822
G1 X83.771 Y113.086 E7.3940
G1 X83.739 Y113.229 E7.4023
G1 X83.486 Y116.149 E7.5672
G1 X80.160 Y119.200 E7.8213
G1 X72.575 Y119.200 E8.2481
G1 X69.134 Y115.498 E8.5326
G1 X69.422 Y111.548 E8.7554
G1 X69.464 Y111.226 E8.7737
G1 X69.686 Y110.036 E8.8418
G1 X69.748 Y109.775 E8.8569
G1 X70.071 Y108.638 E8.9235
G1 X70.156 Y108.384 E8.9385
G1 X70.584 Y107.281 E9.0051
G1 X70.692 Y107.036 E9.0202
G1 X71.219 Y105.977 E9.0867
G1 X71.349 Y105.743 E9.1018
G1 X71.972 Y104.738 E9.1683
G1 X72.123 Y104.517 E9.1834
G1 X72.507 Y104.009 E9.2192
G1 X69.300 Y100.802 E9.4744
G1 X69.300 Y84.198 E10.4089
G1 X72.698 Y80.800 E10.6793
G1 X72.996 Y81.520 F18000
G92 E0.0000
G1 X127.004 Y81.520 E3.0394 F1800
G1 X129.980 Y84.496 E3.2762
G1 X129.980 Y100.504 E4.1771
G1 X127.004 Y103.480 E4.4139
G1 X96.204 Y103.480 E6.1473
G1 X97.880 Y105.045 E6.2763
G1 X95.350 Y111.475 E6.6652
G1 X84.838 Y111.490 E7.2567
G1 X84.567 Y111.534 E7.2722
G1 X84.305 Y111.607 E7.2875
G1 X84.008 Y111.745 E7.3059
G1 X83.782 Y111.898 E7.3213
G1 X83.574 Y112.074 E7.3366
G1 X83.362 Y112.324 E7.3550
G1 X83.222 Y112.557 E7.3704
G1 X83.101 Y112.818 E7.3865
G1 X83.088 Y112.855 E7.3888
G1 X83.076 Y112.894 E7.3911
G1 X83.026 Y113.120 E7.4041
G1 X82.793 Y115.808 E7.5559
G1 X79.879 Y118.480 E7.7784
G1 X72.889 Y118.480 E8.1718
G1 X69.875 Y115.237 E8.4209
G1 X70.139 Y111.621 E8.6250
G1 X70.175 Y111.339 E8.6410
G1 X70.391 Y110.185 E8.7071
G1 X70.445 Y109.956 E8.7203
G1 X70.759 Y108.851 E8.7850
G1 X70.834 Y108.628 E8.7982
G1 X71.249 Y107.557 E8.8629
G1 X71.344 Y107.342 E8.8761
G1 X71.856 Y106.313 E8.9407
G1 X71.970 Y106.108 E8.9540
G1 X72.575 Y105.131 E9.0186
G1 X72.708 Y104.937 E9.0318
G1 X73.400 Y104.020 E9.0965
G1 X73.550 Y103.840 E9.1097
G1 X73.878 Y103.480 E9.1371
G1 X72.996 Y103.480 E9.1868
G1 X70.020 Y100.504 E9.4236
G1 X70.020 Y84.496 E10.3245
G1 X72.996 Y81.520 E10.5613
G1 X73.294 Y82.240 F18000
G92 E0.0000
G1 X126.706 Y82.240 E3.0058 F1800
G1 X129.260 Y84.794 E3.2091
G1 X129.260 Y100.206 E4.0764
G1 X126.706 Y102.760 E4.2797
G1 X94.378 Y102.760 E6.0990
G1 X97.031 Y105.237 E6.3032
G1 X94.859 Y110.756 E6.6370
G1 X84.796 Y110.770 E7.2033
G1 X84.763 Y110.773 E7.2052
G1 X84.412 Y110.830 E7.2251
G1 X84.070 Y110.925 E7.2451
G1 X84.042 Y110.936 E7.2468
G1 X83.666 Y111.110 E7.2701
G1 X83.640 Y111.124 E7.2718
G1 X83.346 Y111.324 E7.2918
G1 X83.075 Y111.554 E7.3118
G1 X83.054 Y111.575 E7.3135
G1 X82.785 Y111.891 E7.3368
G1 X82.768 Y111.915 E7.3385
G1 X82.585 Y112.220 E7.3585
G1 X82.436 Y112.542 E7.3785
G1 X82.405 Y112.626 E7.3835
G1 X82.379 Y112.711 E7.3885
G1 X82.313 Y113.011 E7.4058
G1 X82.100 Y115.466 E7.5445
G1 X79.599 Y117.760 E7.7355
G1 X73.202 Y117.760 E8.0955
G1 X70.615 Y114.977 E8.3093
G1 X70.855 Y111.693 E8.4946
G1 X70.887 Y111.451 E8.5083
G1 X71.096 Y110.333 E8.5723
G1 X71.142 Y110.137 E8.5837
G1 X71.447 Y109.064 E8.6465
G1 X71.511 Y108.873 E8.6578
G1 X71.914 Y107.832 E8.7206
G1 X71.996 Y107.648 E8.7319
G1 X72.493 Y106.649 E8.7947
G1 X72.591 Y106.473 E8.8061
G1 X73.179 Y105.524 E8.8689
G1 X73.293 Y105.358 E8.8802
G1 X73.965 Y104.467 E8.9430
G1 X74.094 Y104.313 E8.9544
G1 X74.845 Y103.488 E9.0171
G1 X74.988 Y103.345 E9.0285
G1 X75.630 Y102.760 E9.0774
G1 X73.294 Y102.760 E9.2089
G1 X70.740 Y100.206 E9.4121
G1 X70.740 Y84.794 E10.2794
G1 X73.294 Y82.240 E10.4827
G92 E0.0000
G1 E-3.0000 F3600
; feature inner perimeter
G1 X75.460 Y86.960 F18000
G1 X76.057 Y86.960
G1 X76.900 Y88.400
G1 E0.0000 F3600
G92 E0.0000
G1 X123.100 Y88.400 E2.6000 F1350
G1 X123.100 Y96.600 E3.0614
G1 X76.900 Y96.600 E5.6614
G1 X76.900 Y88.600 E6.1116
G1 X76.900 Y88.400 F1350
G1 X76.180 Y87.680 F18000
G92 E0.0000
G1 X123.820 Y87.680 E2.6810 F1350
G1 X123.820 Y97.320 E3.2235
G1 X76.180 Y97.320 E5.9045
G1 X76.180 Y87.880 E6.4357
G1 X76.180 Y87.680 F1350
; feature outer perimeter
G1 X75.460 Y86.960 F18000
G92 E0.0000
G1 X124.540 Y86.960 E2.7620 F900
G1 X124.540 Y98.040 E3.3856
G1 X75.460 Y98.040 E6.1476
G1 X75.460 Y87.160 E6.7599
G1 X75.460 Y86.960 F900
G1 X80.460 Y86.960 F900
; feature solid layer
G1 X77.440 Y95.768 F18000
G92 E0.0000
G1 X77.732 Y96.060 E0.0232 F1440
G1 X78.750 Y96.060 E0.0805
G1 X77.440 Y94.750 E0.1848
G1 X77.440 Y93.732 E0.2421
G1 X79.768 Y96.060 E0.4274
G1 X80.787 Y96.060 E0.4847
G1 X77.440 Y92.713 E0.7510
G1 X77.440 Y91.695 E0.8083
G1 X81.805 Y96.060 E1.1557
G1 X82.823 Y96.060 E1.2130
G1 X77.440 Y90.677 E1.6414
G1 X77.440 Y89.659 E1.6987
G1 X83.841 Y96.060 E2.2082
G1 X84.859 Y96.060 E2.2655
G1 X77.739 Y88.940 E2.8321
G1 X78.758 Y88.940 E2.8894
G1 X85.878 Y96.060 E3.4561
G1 X86.896 Y96.060 E3.5134
G1 X79.776 Y88.940 E4.0800
G1 X80.794 Y88.940 E4.1373
G1 X87.914 Y96.060 E4.7040
G1 X88.932 Y96.060 E4.7613
G1 X81.812 Y88.940 E5.3280
G1 X82.831 Y88.940 E5.3853
G1 X89.951 Y96.060 E5.9519
G1 X90.969 Y96.060 E6.0092
G1 X83.849 Y88.940 E6.5759
G1 X84.867 Y88.940 E6.6332
G1 X91.987 Y96.060 E7.1998
G1 X93.005 Y96.060 E7.2571
G1 X85.885 Y88.940 E7.8238
G1 X86.904 Y88.940 E7.8811
G1 X94.024 Y96.060 E8.4478
G1 X95.042 Y96.060 E8.5051
G1 X87.922 Y88.940 E9.0717
G1 X88.940 Y88.940 E9.1290
G1 X96.060 Y96.060 E9.6957
G1 X97.078 Y96.060 E9.7530
G1 X89.958 Y88.940 E10.3196
G1 X90.976 Y88.940 E10.3769
G1 X98.096 Y96.060 E10.9436
G1 X99.115 Y96.060 E11.0009
G1 X91.995 Y88.940 E11.5675
G1 X93.013 Y88.940 E11.6248
G1 X100.133 Y96.060 E12.1915
G1 X101.151 Y96.060 E12.2488
G1 X94.031 Y88.940 E12.8155
G1 X95.049 Y88.940 E12.8728
G1 X102.169 Y96.060 E13.4394
G1 X103.188 Y96.060 E13.4967
G1 X96.068 Y88.940 E14.0634
G1 X97.086 Y88.940 E14.1207
G1 X104.206 Y96.060 E14.6873
G1 X105.224 Y96.060 E14.7446
G1 X98.104 Y88.940 E15.3113
G1 X99.122 Y88.940 E15.3686
G1 X106.242 Y96.060 E15.9352
G1 X107.261 Y96.060 E15.9926
G1 X100.141 Y88.940 E16.5592
G1 X101.159 Y88.940 E16.6165
G1 X108.279 Y96.060 E17.1832
G1 X109.297 Y96.060 E17.2405
G1 X102.177 Y88.940 E17.8071
G1 X103.195 Y88.940 E17.8644
G1 X110.315 Y96.060 E18.4311
G1 X111.334 Y96.060 E18.4884
G1 X104.214 Y88.940 E19.0550
G1 X105.232 Y88.940 E19.1123
G1 X112.352 Y96.060 E19.6790
G1 X113.370 Y96.060 E19.7363
G1 X106.250 Y88.940 E20.3030
G1 X107.268 Y88.940 E20.3603
G1 X114.388 Y96.060 E20.9269
G1 X115.406 Y96.060 E20.9842
G1 X108.286 Y88.940 E21.5509
G1 X109.305 Y88.940 E21.6082
G1 X116.425 Y96.060 E22.1748
G1 X117.443 Y96.060 E22.2321
G1 X110.323 Y88.940 E22.7988
G1 X111.341 Y88.940 E22.8561
G1 X118.461 Y96.060 E23.4227
G1 X119.479 Y96.060 E23.4800
G1 X112.359 Y88.940 E24.0467
G1 X113.378 Y88.940 E24.1040
G1 X120.498 Y96.060 E24.6707
G1 X121.516 Y96.060 E24.7280
G1 X114.396 Y88.940 E25.2946
G1 X115.414 Y88.940 E25.3519
G1 X122.534 Y96.060 E25.9186
G1 X122.560 Y96.060 E25.9200
G1 X122.560 Y95.068 E25.9759
G1 X116.432 Y88.940 E26.4636
G1 X117.451 Y88.940 E26.5209
G1 X122.560 Y94.049 E26.9275
G1 X122.560 Y93.031 E26.9848
G1 X118.469 Y88.940 E27.3104
G1 X119.487 Y88.940 E27.3677
G1 X122.560 Y92.013 E27.6123
G1 X122.560 Y90.995 E27.6696
G1 X120.505 Y88.940 E27.8331
G1 X121.523 Y88.940 E27.8904
G1 X122.560 Y89.977 E27.9729
G1 X122.560 Y89.132 E28.0204
G1 X122.560 Y88.958 F1440
G1 X122.542 Y88.940
G92 E0.0000
G1 E-3.0000 F3600
; feature outer perimeter
G1 X90.303 Y105.562 F18000
G1 E0.0000 F3600
G92 E0.0000
G1 X90.173 Y106.040 E0.0279 F900
G1 X84.994 Y106.040 E0.3194
G1 X84.596 Y106.051 E0.3418
G1 X84.193 Y106.084 E0.3645
G1 X83.793 Y106.138 E0.3872
G1 X83.396 Y106.214 E0.4100
G1 X83.004 Y106.312 E0.4327
G1 X82.618 Y106.430 E0.4555
G1 X82.239 Y106.570 E0.4782
G1 X81.867 Y106.729 E0.5009
G1 X81.506 Y106.909 E0.5236
G1 X81.154 Y107.108 E0.5464
G1 X80.814 Y107.325 E0.5691
G1 X80.485 Y107.561 E0.5919
G1 X80.170 Y107.814 E0.6146
G1 X79.870 Y108.084 E0.6374
G1 X79.584 Y108.370 E0.6601
G1 X79.314 Y108.670 E0.6828
G1 X79.061 Y108.985 E0.7056
G1 X78.825 Y109.313 E0.7283
G1 X78.608 Y109.654 E0.7510
G1 X78.409 Y110.006 E0.7738
G1 X78.229 Y110.367 E0.7965
G1 X78.070 Y110.739 E0.8192
G1 X77.930 Y111.118 E0.8420
G1 X77.812 Y111.504 E0.8647
G1 X77.714 Y111.896 E0.8875
G1 X77.638 Y112.293 E0.9102
G1 X77.584 Y112.694 E0.9329
G1 X77.555 Y113.040 E0.9525
G1 X75.472 Y113.040 E1.0698
G1 X75.501 Y112.620 E1.0935
G1 X75.552 Y112.182 E1.1183
G1 X75.623 Y111.747 E1.1431
G1 X75.714 Y111.316 E1.1679
G1 X75.824 Y110.889 E1.1927
G1 X75.955 Y110.469 E1.2175
G1 X76.104 Y110.054 E1.2423
G1 X76.273 Y109.647 E1.2671
G1 X76.460 Y109.248 E1.2919
G1 X76.666 Y108.858 E1.3167
G1 X76.889 Y108.478 E1.3415
G1 X77.130 Y108.109 E1.3663
G1 X77.387 Y107.751 E1.3911
G1 X77.661 Y107.405 E1.4159
G1 X77.950 Y107.073 E1.4407
G1 X78.254 Y106.754 E1.4655
G1 X78.573 Y106.450 E1.4903
G1 X78.905 Y106.161 E1.5151
G1 X79.251 Y105.887 E1.5399
G1 X79.609 Y105.630 E1.5647
G1 X79.978 Y105.389 E1.5895
G1 X80.358 Y105.166 E1.6143
G1 X80.748 Y104.960 E1.6391
G1 X81.147 Y104.773 E1.6639
G1 X81.554 Y104.604 E1.6887
G1 X81.968 Y104.455 E1.7135
G1 X82.389 Y104.324 E1.7383
G1 X82.816 Y104.213 E1.7631
G1 X83.247 Y104.123 E1.7879
G1 X83.682 Y104.052 E1.8127
G1 X84.120 Y104.001 E1.8375
G1 X84.559 Y103.970 E1.8623
G1 X85.000 Y103.960 E1.8871
G1 X85.416 Y103.969 E1.9105
G1 X86.261 Y104.044 E1.9583
G1 X87.091 Y104.192 E2.0057
G1 X87.909 Y104.415 E2.0534
G1 X88.298 Y104.548 E2.0765
G1 X89.084 Y104.879 E2.1246
G1 X89.452 Y105.063 E2.1477
G1 X90.131 Y105.461 E2.1920
G1 X90.303 Y105.562 F900
G92 E0.0000
G1 X90.173 Y106.040 E-1.9821 F900
G1 X89.919 Y106.040 E-3.0000
G1 X85.669 Y106.040 F900
; feature external single extrusion
; tool H0.200 W0.240
G1 X90.303 Y105.573 F18000
G1 X90.528 Y105.725
G1 X90.758 Y105.527
G1 E0.0000 F3600
G92 E0.0000
G1 X90.764 Y105.546 E0.0004 F900
G1 X90.797 Y105.646 E0.0025
; tool H0.200 W0.322
G1 X90.831 Y105.746 E0.0052
; tool H0.200 W0.438
G1 X90.864 Y105.845 E0.0090
; tool H0.200 W0.554
G1 X90.897 Y105.945 E0.0137
; tool H0.200 W0.666
G1 X90.933 Y106.041 E0.0193
; tool H0.200 W0.688
G1 X91.021 Y106.071 E0.0245
; tool H0.200 W0.628
G1 X91.109 Y106.101 E0.0292
; tool H0.200 W0.568
G1 X91.196 Y106.131 E0.0335
; tool H0.200 W0.511
G1 X91.273 Y106.157 E0.0369
; tool H0.200 W0.454
