; G-Code generated by Simplify3D(R) Version 4.1.2
; Apr 16, 2020 at 12:26:22 PM
; Settings Summary
;   processName,Process1
;   applyToModels,vorne,vorne(2)
;   profileName,HBot (modified)
;   profileVersion,2019-10-26 23:38:43
;   baseProfile,Default
;   printMaterial,PLA
;   printQuality,Medium
;   printExtruders,
;   extruderName,Extruder 1
;   extruderToolheadNumber,0
;   extruderDiameter,0.4
;   extruderAutoWidth,1
;   extruderWidth,0.48
;   extrusionMultiplier,0.94
;   extruderUseRetract,1
;   extruderRetractionDistance,3
;   extruderExtraRestartDistance,0
;   extruderRetractionZLift,0
;   extruderRetractionSpeed,3600
;   extruderUseCoasting,1
;   extruderCoastingDistance,0.2
;   extruderUseWipe,1
;   extruderWipeDistance,5
;   primaryExtruder,0
;   layerHeight,0.2
;   topSolidLayers,3
;   bottomSolidLayers,3
;   perimeterOutlines,3
;   printPerimetersInsideOut,1
;   startPointOption,3
;   startPointOriginX,200
;   startPointOriginY,100
;   sequentialIslands,0
;   spiralVaseMode,0
;   firstLayerHeightPercentage,100
;   firstLayerWidthPercentage,150
;   firstLayerUnderspeed,0.5
;   useRaft,0
;   raftExtruder,0
;   raftTopLayers,3
;   raftBaseLayers,2
;   raftOffset,3
;   raftSeparationDistance,0.18
;   raftTopInfill,100
;   aboveRaftSpeedMultiplier,0.3
;   useSkirt,1
;   skirtExtruder,0
;   skirtLayers,1
;   skirtOutlines,5
;   skirtOffset,0
;   usePrimePillar,0
;   primePillarExtruder,999
;   primePillarWidth,12
;   primePillarLocation,7
;   primePillarSpeedMultiplier,1
;   useOozeShield,0
;   oozeShieldExtruder,999
;   oozeShieldOffset,2
;   oozeShieldOutlines,1
;   oozeShieldSidewallShape,1
;   oozeShieldSidewallAngle,30
;   oozeShieldSpeedMultiplier,1
;   infillExtruder,0
;   internalInfillPattern,Rectilinear
;   externalInfillPattern,Rectilinear
;   infillPercentage,20
;   outlineOverlapPercentage,25
;   infillExtrusionWidthPercentage,150
;   minInfillLength,5
;   infillLayerInterval,1
;   internalInfillAngles,45,-45
;   overlapInternalInfillAngles,0
;   externalInfillAngles,45,-45
;   generateSupport,0
;   supportExtruder,0
;   supportInfillPercentage,30
;   supportExtraInflation,0
;   supportBaseLayers,1
;   denseSupportExtruder,0
;   denseSupportLayers,0
;   denseSupportInfillPercentage,70
;   supportLayerInterval,1
;   supportHorizontalPartOffset,0.3
;   supportUpperSeparationLayers,1
;   supportLowerSeparationLayers,1
;   supportType,0
;   supportGridSpacing,4
;   maxOverhangAngle,25
;   supportAngles,0
;   temperatureName,Extruder 1,Heated Bed
;   temperatureNumber,0,1
;   temperatureSetpointCount,2,1
;   temperatureSetpointLayers,1,2,1
;   temperatureSetpointTemperatures,217,208,65
;   temperatureStabilizeAtStartup,1,1
;   temperatureHeatedBed,0,1
;   fanLayers,1,2,4
;   fanSpeeds,0,20,30
;   blipFanToFullPower,1
;   adjustSpeedForCooling,1
;   minSpeedLayerTime,15
;   minCoolingSpeedSlowdown,20
;   increaseFanForCooling,0
;   minFanLayerTime,45
;   maxCoolingFanSpeed,40
;   increaseFanForBridging,1
;   bridgingFanSpeed,80
;   use5D,1
;   relativeEdistances,0
;   allowEaxisZeroing,1
;   independentExtruderAxes,0
;   includeM10123,0
;   stickySupport,1
;   applyToolheadOffsets,0
;   gcodeXoffset,0
;   gcodeYoffset,0
;   gcodeZoffset,0
;   overrideMachineDefinition,1
;   machineTypeOverride,0
;   strokeXoverride,200
;   strokeYoverride,200
;   strokeZoverride,150
;   originOffsetXoverride,0
;   originOffsetYoverride,0
;   originOffsetZoverride,0
;   homeXdirOverride,-1
;   homeYdirOverride,-1
;   homeZdirOverride,-1
;   flipXoverride,1
;   flipYoverride,-1
;   flipZoverride,1
;   toolheadOffsets,0,0|0,0|0,0|0,0|0,0|0,0
;   overrideFirmwareConfiguration,1
;   firmwareTypeOverride,RepRap (Marlin/Repetier/Sprinter)
;   GPXconfigOverride,r2
;   baudRateOverride,115200
;   overridePrinterModels,0
;   printerModelsOverride
;   startingGcode,G28 ; home all axes,G32 ; run bed.g -- probe bed and enable compensation
;   layerChangeGcode,
;   retractionGcode,
;   toolChangeGcode,
;   endingGcode,M0 ; call stop.g
;   exportFileFormat,gcode
;   celebration,0
;   celebrationSong,Random Song
;   postProcessing,
;   defaultSpeed,3600
;   outlineUnderspeed,0.5
;   solidInfillUnderspeed,0.8
;   supportUnderspeed,0.8
;   rapidXYspeed,18000
;   rapidZspeed,1200
;   minBridgingArea,50
;   bridgingExtraInflation,0
;   bridgingExtrusionMultiplier,0.96
;   bridgingSpeedMultiplier,1
;   useFixedBridgingAngle,0
;   fixedBridgingAngle,0
;   applyBridgingToPerimeters,0
;   filamentDiameters,1.75|1.75|1.75|1.75|1.75|1.75
;   filamentPricesPerKg,46|46|46|46|46|46
;   filamentDensities,1.25|1.25|1.25|1.25|1.25|1.25
;   useMinPrintHeight,0
;   minPrintHeight,0
;   useMaxPrintHeight,0
;   maxPrintHeight,0
;   useDiaphragm,0
;   diaphragmLayerInterval,20
;   robustSlicing,1
;   mergeAllIntoSolid,0
;   onlyRetractWhenCrossingOutline,1
;   retractBetweenLayers,0
;   useRetractionMinTravel,1
;   retractionMinTravel,3
;   retractWhileWiping,1
;   onlyWipeOutlines,1
;   avoidCrossingOutline,1
;   maxMovementDetourFactor,30
;   toolChangeRetractionDistance,12
;   toolChangeExtraRestartDistance,-0.5
;   toolChangeRetractionSpeed,600
;   externalThinWallType,1
;   internalThinWallType,1
;   thinWallAllowedOverlapPercentage,10
;   singleExtrusionMinLength,1
;   singleExtrusionMinPrintingWidthPercentage,50
;   singleExtrusionMaxPrintingWidthPercentage,200
;   singleExtrusionEndpointExtension,0.2
;   horizontalSizeCompensation,-0.1
G90
M82
M106 S0
M140 S65
M190 S65
M104 S217 T0
M109 S217 T0
G28 ; home all axes
G32 ; run bed.g -- probe bed and enable compensation
; process Process1
; layer 1, Z = 0.200
T0
G92 E0.0000
G1 E-3.0000 F3600
; feature skirt
; tool H0.200 W0.720
G1 Z0.200 F1200
G1 X117.640 Y130.045 F18000
G1 E0.0000 F3600
G92 E0.0000
G1 X117.637 Y130.139 E0.0053 F1800
G1 X117.590 Y130.963 E0.0518
G1 X117.568 Y131.150 E0.0623
G1 X117.417 Y132.008 E0.1114
G1 X117.374 Y132.191 E0.1219
G1 X117.118 Y133.049 E0.1723
G1 X117.035 Y133.268 E0.1855
G1 X116.505 Y134.410 E0.2564
G1 X116.391 Y134.615 E0.2696
G1 X115.901 Y135.364 E0.3199
G1 X115.789 Y135.515 E0.3305
G1 X115.231 Y136.184 E0.3795
G1 X115.103 Y136.321 E0.3901
G1 X114.472 Y136.920 E0.4391
G1 X114.330 Y137.040 E0.4495
G1 X113.311 Y137.806 E0.5212
G1 X112.312 Y138.140 E0.5806
G1 X104.688 Y138.140 E1.0096
G1 X103.689 Y137.806 E1.0689
G1 X102.670 Y137.040 E1.1406
G1 X102.528 Y136.920 E1.1511
G1 X101.897 Y136.321 E1.2000
G1 X101.769 Y136.184 E1.2106
G1 X101.211 Y135.515 E1.2596
G1 X101.099 Y135.364 E1.2702
G1 X100.622 Y134.635 E1.3192
G1 X100.528 Y134.472 E1.3298
G1 X100.139 Y133.693 E1.3788
G1 X100.065 Y133.520 E1.3894
G1 X100.000 Y133.343 E1.4000
G1 X99.505 Y134.410 E1.4662
G1 X99.391 Y134.615 E1.4794
G1 X98.901 Y135.364 E1.5298
G1 X98.789 Y135.515 E1.5404
G1 X98.231 Y136.184 E1.5894
G1 X98.103 Y136.321 E1.6000
G1 X97.472 Y136.920 E1.6489
G1 X97.330 Y137.040 E1.6594
G1 X96.311 Y137.806 E1.7311
G1 X95.312 Y138.140 E1.7904
G1 X87.688 Y138.140 E2.2194
G1 X86.689 Y137.806 E2.2787
G1 X85.670 Y137.040 E2.3505
G1 X85.528 Y136.920 E2.3609
G1 X84.897 Y136.321 E2.4099
G1 X84.769 Y136.184 E2.4205
G1 X84.211 Y135.515 E2.4695
G1 X84.099 Y135.364 E2.4801
G1 X83.622 Y134.635 E2.5291
G1 X83.528 Y134.472 E2.5396
G1 X83.139 Y133.693 E2.5887
G1 X83.065 Y133.520 E2.5992
G1 X82.768 Y132.701 E2.6483
G1 X82.714 Y132.521 E2.6588
G1 X82.514 Y131.673 E2.7079
G1 X82.482 Y131.488 E2.7184
G1 X82.381 Y130.623 E2.7675
G1 X82.370 Y130.436 E2.7780
G1 X82.370 Y69.561 E6.2038
G1 X82.381 Y69.373 E6.2144
G1 X82.482 Y68.510 E6.2633
G1 X82.514 Y68.325 E6.2739
G1 X82.714 Y67.478 E6.3228
G1 X82.768 Y67.298 E6.3334
G1 X83.065 Y66.480 E6.3824
G1 X83.139 Y66.308 E6.3930
G1 X83.528 Y65.528 E6.4420
G1 X83.622 Y65.365 E6.4526
G1 X84.099 Y64.636 E6.5016
G1 X84.210 Y64.485 E6.5122
G1 X84.769 Y63.816 E6.5612
G1 X84.898 Y63.679 E6.5718
G1 X85.529 Y63.080 E6.6208
G1 X85.670 Y62.960 E6.6312
G1 X86.689 Y62.194 E6.7029
G1 X87.688 Y61.860 E6.7622
G1 X95.336 Y61.860 E7.1926
G1 X96.377 Y62.225 E7.2547
G1 X97.676 Y63.263 E7.3483
G1 X97.847 Y63.421 E7.3613
G1 X98.458 Y64.072 E7.4116
G1 X98.578 Y64.216 E7.4222
G1 X99.096 Y64.916 E7.4712
G1 X99.199 Y65.073 E7.4818
G1 X99.645 Y65.850 E7.5322
G1 X99.747 Y66.061 E7.5454
G1 X99.991 Y66.677 E7.5826
G1 X100.495 Y65.590 E7.6500
G1 X100.609 Y65.385 E7.6632
G1 X101.099 Y64.636 E7.7136
G1 X101.210 Y64.485 E7.7242
G1 X101.769 Y63.816 E7.7732
G1 X101.898 Y63.679 E7.7838
G1 X102.529 Y63.080 E7.8328
G1 X102.670 Y62.960 E7.8432
G1 X103.689 Y62.194 E7.9149
G1 X104.688 Y61.860 E7.9742
G1 X112.336 Y61.860 E8.4046
G1 X113.377 Y62.225 E8.4667
G1 X114.676 Y63.263 E8.5603
G1 X114.847 Y63.421 E8.5733
G1 X115.458 Y64.072 E8.6236
G1 X115.578 Y64.216 E8.6342
G1 X116.096 Y64.916 E8.6832
G1 X116.199 Y65.073 E8.6938
G1 X116.645 Y65.850 E8.7441
G1 X116.747 Y66.061 E8.7574
G1 X117.210 Y67.232 E8.8282
G1 X117.280 Y67.456 E8.8414
G1 X117.486 Y68.327 E8.8918
G1 X117.518 Y68.512 E8.9023
G1 X117.619 Y69.377 E8.9513
G1 X117.630 Y69.564 E8.9619
G1 X117.640 Y130.045 E12.3655
G92 E0.0000
G1 E-3.0000 F3600
G1 X114.040 Y129.993 F18000
G1 X114.039 Y130.043
G1 X111.959 Y130.041
G1 X111.949 Y130.286
G1 X111.913 Y130.570
G1 X111.855 Y130.849
G1 X111.770 Y131.133
G1 X111.548 Y131.639
G1 X111.397 Y131.893
G1 X111.231 Y132.125
G1 X111.046 Y132.344
G1 X110.844 Y132.546
G1 X110.625 Y132.731
G1 X110.393 Y132.897
G1 X110.147 Y133.043
G1 X109.890 Y133.169
G1 X109.624 Y133.273
G1 X109.349 Y133.355
G1 X109.070 Y133.413
G1 X108.786 Y133.449
G1 X108.500 Y133.460
G1 X108.214 Y133.449
G1 X107.930 Y133.413
G1 X107.651 Y133.355
G1 X107.376 Y133.273
G1 X107.110 Y133.169
G1 X106.853 Y133.043
G1 X106.607 Y132.897
G1 X106.375 Y132.731
G1 X106.156 Y132.546
G1 X105.954 Y132.344
G1 X105.769 Y132.125
G1 X105.603 Y131.893
G1 X105.457 Y131.647
G1 X105.331 Y131.390
G1 X105.227 Y131.124
G1 X105.145 Y130.849
G1 X105.087 Y130.570
G1 X105.051 Y130.286
G1 X105.041 Y130.037
G1 X102.961 Y130.036
G1 X102.960 Y129.993
G1 X99.920 Y130.034
G1 E0.0000 F3600
G92 E0.0000
G1 X99.918 Y130.108 E0.0041 F1800
G1 X99.872 Y130.901 E0.0488
G1 X99.855 Y131.046 E0.0571
G1 X99.712 Y131.863 E0.1037
G1 X99.678 Y132.005 E0.1120
G1 X99.436 Y132.818 E0.1597
G1 X99.371 Y132.989 E0.1700
G1 X98.863 Y134.083 E0.2379
G1 X98.774 Y134.243 E0.2481
G1 X98.310 Y134.952 E0.2959
G1 X98.223 Y135.070 E0.3041
G1 X97.692 Y135.707 E0.3508
G1 X97.592 Y135.813 E0.3590
G1 X96.991 Y136.384 E0.4056
G1 X96.881 Y136.477 E0.4137
G1 X95.972 Y137.160 E0.4777
G1 X95.195 Y137.420 E0.5238
G1 X87.805 Y137.420 E0.9397
G1 X87.028 Y137.160 E0.9858
G1 X86.119 Y136.477 E1.0498
G1 X86.009 Y136.384 E1.0579
G1 X85.408 Y135.813 E1.1045
G1 X85.308 Y135.707 E1.1128
G1 X84.777 Y135.070 E1.1594
G1 X84.690 Y134.952 E1.1677
G1 X84.236 Y134.258 E1.2143
G1 X84.163 Y134.132 E1.2226
G1 X83.792 Y133.390 E1.2692
G1 X83.734 Y133.255 E1.2775
G1 X83.452 Y132.475 E1.3242
G1 X83.410 Y132.336 E1.3324
G1 X83.220 Y131.528 E1.3790
G1 X83.194 Y131.384 E1.3873
G1 X83.098 Y130.561 E1.4339
G1 X83.090 Y130.415 E1.4422
G1 X83.090 Y69.582 E4.8656
G1 X83.099 Y69.435 E4.8739
G1 X83.195 Y68.614 E4.9204
G1 X83.220 Y68.470 E4.9286
G1 X83.410 Y67.664 E4.9752
G1 X83.452 Y67.524 E4.9834
G1 X83.734 Y66.745 E5.0301
G1 X83.792 Y66.611 E5.0383
G1 X84.163 Y65.868 E5.0850
G1 X84.236 Y65.742 E5.0932
G1 X84.690 Y65.048 E5.1399
G1 X84.777 Y64.931 E5.1481
G1 X85.308 Y64.293 E5.1948
G1 X85.408 Y64.187 E5.2030
G1 X86.009 Y63.616 E5.2497
G1 X86.120 Y63.523 E5.2578
G1 X87.028 Y62.840 E5.3218
G1 X87.805 Y62.580 E5.3679
G1 X95.214 Y62.580 E5.7848
G1 X96.023 Y62.864 E5.8331
G1 X97.206 Y63.809 E5.9183
G1 X97.339 Y63.932 E5.9285
G1 X97.918 Y64.550 E5.9761
G1 X98.012 Y64.662 E5.9843
G1 X98.505 Y65.328 E6.0310
G1 X98.585 Y65.450 E6.0392
G1 X99.008 Y66.186 E6.0870
G1 X99.087 Y66.350 E6.0972
G1 X99.531 Y67.473 E6.1652
G1 X99.586 Y67.647 E6.1754
G1 X99.780 Y68.472 E6.2231
G1 X99.806 Y68.616 E6.2314
G1 X99.902 Y69.439 E6.2780
G1 X99.910 Y69.585 E6.2862
G1 X99.920 Y130.034 E9.6881
G1 X99.200 Y130.024 F18000
G92 E0.0000
G1 X99.198 Y130.076 E0.0029 F1800
G1 X99.154 Y130.838 E0.0459
G1 X99.142 Y130.942 E0.0518
G1 X99.006 Y131.718 E0.0961
G1 X98.982 Y131.819 E0.1020
G1 X98.753 Y132.587 E0.1471
G1 X98.707 Y132.709 E0.1544
G1 X98.221 Y133.756 E0.2194
G1 X98.158 Y133.870 E0.2267
G1 X97.719 Y134.541 E0.2718
G1 X97.657 Y134.624 E0.2776
G1 X97.152 Y135.229 E0.3220
G1 X97.081 Y135.305 E0.3279
G1 X96.510 Y135.847 E0.3721
G1 X96.431 Y135.914 E0.3780
G1 X95.633 Y136.514 E0.4342
G1 X95.078 Y136.700 E0.4671
G1 X87.922 Y136.700 E0.8698
G1 X87.367 Y136.514 E0.9027
G1 X86.569 Y135.914 E0.9590
G1 X86.490 Y135.847 E0.9648
G1 X85.919 Y135.305 E1.0091
G1 X85.848 Y135.229 E1.0149
G1 X85.343 Y134.624 E1.0593
G1 X85.281 Y134.541 E1.0651
G1 X84.850 Y133.881 E1.1095
G1 X84.798 Y133.791 E1.1153
G1 X84.445 Y133.086 E1.1597
G1 X84.404 Y132.990 E1.1655
G1 X84.136 Y132.250 E1.2099
G1 X84.106 Y132.150 E1.2157
G1 X83.925 Y131.383 E1.2601
G1 X83.907 Y131.280 E1.2659
G1 X83.816 Y130.498 E1.3103
G1 X83.810 Y130.394 E1.3161
G1 X83.810 Y69.602 E4.7373
G1 X83.816 Y69.498 E4.7431
G1 X83.907 Y68.718 E4.7873
G1 X83.925 Y68.615 E4.7932
G1 X84.106 Y67.850 E4.8375
G1 X84.136 Y67.750 E4.8433
G1 X84.404 Y67.010 E4.8876
G1 X84.445 Y66.914 E4.8935
G1 X84.798 Y66.209 E4.9378
G1 X84.850 Y66.119 E4.9437
G1 X85.281 Y65.460 E4.9880
G1 X85.343 Y65.376 E4.9939
G1 X85.848 Y64.771 E5.0383
G1 X85.919 Y64.695 E5.0441
G1 X86.490 Y64.153 E5.0884
G1 X86.569 Y64.086 E5.0942
G1 X87.367 Y63.486 E5.1504
G1 X87.922 Y63.300 E5.1834
G1 X95.091 Y63.300 E5.5868
G1 X95.669 Y63.503 E5.6213
G1 X96.737 Y64.356 E5.6982
G1 X96.831 Y64.443 E5.7055
G1 X97.379 Y65.027 E5.7505
G1 X97.446 Y65.107 E5.7564
G1 X97.914 Y65.740 E5.8007
G1 X97.971 Y65.827 E5.8065
G1 X98.371 Y66.522 E5.8516
G1 X98.427 Y66.639 E5.8590
G1 X98.852 Y67.713 E5.9240
G1 X98.891 Y67.838 E5.9313
G1 X99.075 Y68.617 E5.9764
G1 X99.093 Y68.720 E5.9822
G1 X99.184 Y69.502 E6.0265
G1 X99.190 Y69.606 E6.0324
G1 X99.200 Y130.024 E9.4325
G1 X98.480 Y130.014 F18000
G92 E0.0000
G1 X98.479 Y130.045 E0.0018 F1800
G1 X98.437 Y130.776 E0.0430
G1 X98.430 Y130.838 E0.0465
G1 X98.300 Y131.573 E0.0885
G1 X98.286 Y131.634 E0.0920
G1 X98.071 Y132.356 E0.1344
G1 X98.043 Y132.430 E0.1388
G1 X97.579 Y133.430 E0.2009
G1 X97.541 Y133.498 E0.2053
G1 X97.128 Y134.129 E0.2477
G1 X97.091 Y134.179 E0.2512
G1 X96.613 Y134.752 E0.2932
G1 X96.570 Y134.798 E0.2967
G1 X96.029 Y135.311 E0.3387
G1 X95.982 Y135.351 E0.3422
G1 X95.294 Y135.869 E0.3906
G1 X94.961 Y135.980 E0.4104
G1 X88.039 Y135.980 E0.7999
G1 X87.706 Y135.869 E0.8197
G1 X87.018 Y135.351 E0.8681
G1 X86.971 Y135.311 E0.8716
G1 X86.430 Y134.798 E0.9136
G1 X86.387 Y134.752 E0.9171
G1 X85.909 Y134.179 E0.9591
G1 X85.872 Y134.129 E0.9626
G1 X85.464 Y133.505 E1.0046
G1 X85.432 Y133.450 E1.0081
G1 X85.099 Y132.783 E1.0501
G1 X85.074 Y132.726 E1.0536
G1 X84.820 Y132.024 E1.0956
G1 X84.802 Y131.964 E1.0991
G1 X84.631 Y131.238 E1.1411
G1 X84.620 Y131.176 E1.1446
G1 X84.534 Y130.436 E1.1866
G1 X84.530 Y130.373 E1.1901
G1 X84.530 Y69.623 E4.6089
G1 X84.534 Y69.561 E4.6124
G1 X84.620 Y68.822 E4.6543
G1 X84.631 Y68.760 E4.6578
G1 X84.802 Y68.036 E4.6997
G1 X84.820 Y67.976 E4.7032
G1 X85.074 Y67.275 E4.7452
G1 X85.099 Y67.217 E4.7487
G1 X85.432 Y66.550 E4.7907
G1 X85.463 Y66.496 E4.7942
G1 X85.872 Y65.871 E4.8362
G1 X85.909 Y65.821 E4.8397
G1 X86.387 Y65.248 E4.8817
G1 X86.430 Y65.202 E4.8852
G1 X86.971 Y64.689 E4.9272
G1 X87.018 Y64.649 E4.9307
G1 X87.706 Y64.131 E4.9791
G1 X88.039 Y64.020 E4.9989
G1 X94.969 Y64.020 E5.3889
G1 X95.316 Y64.142 E5.4095
G1 X96.267 Y64.902 E5.4781
G1 X96.324 Y64.955 E5.4824
G1 X96.839 Y65.504 E5.5248
G1 X96.879 Y65.552 E5.5284
G1 X97.323 Y66.152 E5.5703
G1 X97.358 Y66.204 E5.5739
G1 X97.733 Y66.858 E5.6163
G1 X97.767 Y66.928 E5.6207
G1 X98.173 Y67.953 E5.6827
G1 X98.196 Y68.028 E5.6871
G1 X98.369 Y68.762 E5.7296
G1 X98.380 Y68.824 E5.7331
G1 X98.466 Y69.564 E5.7751
G1 X98.470 Y69.627 E5.7786
G1 X98.480 Y130.014 E9.1769
G1 X97.760 Y130.004 F18000
G92 E0.0000
G1 X97.760 Y130.014 E0.0006 F1800
G1 X97.719 Y130.714 E0.0400
G1 X97.717 Y130.734 E0.0412
G1 X97.595 Y131.428 E0.0808
G1 X97.590 Y131.448 E0.0820
G1 X97.388 Y132.126 E0.1218
