; G-Code generated by Simplify3D(R) Version 4.1.2
; Apr 23, 2020 at 6:31:15 PM
; Settings Summary
;   processName,Process1
;   applyToModels,bottom-side-v2,bottom-side-v2(2)
;   profileName,HBot
;   profileVersion,2019-10-26 23:38:43
;   baseProfile,Default
;   printMaterial,PETG - ERYONE
;   printQuality,High
;   printExtruders,
;   extruderName,Extruder 1
;   extruderToolheadNumber,0
;   extruderDiameter,0.4
;   extruderAutoWidth,1
;   extruderWidth,0.48
;   extrusionMultiplier,0.98
;   extruderUseRetract,1
;   extruderRetractionDistance,3
;   extruderExtraRestartDistance,-0.1
;   extruderRetractionZLift,0
;   extruderRetractionSpeed,3600
;   extruderUseCoasting,1
;   extruderCoastingDistance,0.2
;   extruderUseWipe,1
;   extruderWipeDistance,5
;   primaryExtruder,0
;   layerHeight,0.1
;   topSolidLayers,4
;   bottomSolidLayers,4
;   perimeterOutlines,3
;   printPerimetersInsideOut,1
;   startPointOption,3
;   startPointOriginX,200
;   startPointOriginY,100
;   sequentialIslands,0
;   spiralVaseMode,0
;   firstLayerHeightPercentage,100
;   firstLayerWidthPercentage,150
;   firstLayerUnderspeed,0.5
;   useRaft,0
;   raftExtruder,0
;   raftTopLayers,3
;   raftBaseLayers,2
;   raftOffset,3
;   raftSeparationDistance,0.18
;   raftTopInfill,100
;   aboveRaftSpeedMultiplier,0.3
;   useSkirt,1
;   skirtExtruder,0
;   skirtLayers,1
;   skirtOutlines,8
;   skirtOffset,0
;   usePrimePillar,0
;   primePillarExtruder,999
;   primePillarWidth,12
;   primePillarLocation,7
;   primePillarSpeedMultiplier,1
;   useOozeShield,0
;   oozeShieldExtruder,999
;   oozeShieldOffset,2
;   oozeShieldOutlines,1
;   oozeShieldSidewallShape,1
;   oozeShieldSidewallAngle,30
;   oozeShieldSpeedMultiplier,1
;   infillExtruder,0
;   internalInfillPattern,Rectilinear
;   externalInfillPattern,Rectilinear
;   infillPercentage,30
;   outlineOverlapPercentage,25
;   infillExtrusionWidthPercentage,150
;   minInfillLength,5
;   infillLayerInterval,1
;   internalInfillAngles,45,-45
;   overlapInternalInfillAngles,0
;   externalInfillAngles,45,-45
;   generateSupport,0
;   supportExtruder,0
;   supportInfillPercentage,40
;   supportExtraInflation,0
;   supportBaseLayers,1
;   denseSupportExtruder,0
;   denseSupportLayers,0
;   denseSupportInfillPercentage,70
;   supportLayerInterval,1
;   supportHorizontalPartOffset,0.3
;   supportUpperSeparationLayers,1
;   supportLowerSeparationLayers,1
;   supportType,0
;   supportGridSpacing,4
;   maxOverhangAngle,25
;   supportAngles,0
;   temperatureName,Extruder 1,Heated Bed
;   temperatureNumber,0,1
;   temperatureSetpointCount,1,1
;   temperatureSetpointLayers,1,1
;   temperatureSetpointTemperatures,230,75
;   temperatureStabilizeAtStartup,1,1
;   temperatureHeatedBed,0,1
;   fanLayers,1,2
;   fanSpeeds,0,20
;   blipFanToFullPower,1
;   adjustSpeedForCooling,1
;   minSpeedLayerTime,15
;   minCoolingSpeedSlowdown,20
;   increaseFanForCooling,1
;   minFanLayerTime,45
;   maxCoolingFanSpeed,35
;   increaseFanForBridging,1
;   bridgingFanSpeed,80
;   use5D,1
;   relativeEdistances,0
;   allowEaxisZeroing,1
;   independentExtruderAxes,0
;   includeM10123,0
;   stickySupport,1
;   applyToolheadOffsets,0
;   gcodeXoffset,0
;   gcodeYoffset,0
;   gcodeZoffset,0
;   overrideMachineDefinition,1
;   machineTypeOverride,0
;   strokeXoverride,200
;   strokeYoverride,200
;   strokeZoverride,150
;   originOffsetXoverride,0
;   originOffsetYoverride,0
;   originOffsetZoverride,0
;   homeXdirOverride,-1
;   homeYdirOverride,-1
;   homeZdirOverride,-1
;   flipXoverride,1
;   flipYoverride,-1
;   flipZoverride,1
;   toolheadOffsets,0,0|0,0|0,0|0,0|0,0|0,0
;   overrideFirmwareConfiguration,1
;   firmwareTypeOverride,RepRap (Marlin/Repetier/Sprinter)
;   GPXconfigOverride,r2
;   baudRateOverride,115200
;   overridePrinterModels,0
;   printerModelsOverride
;   startingGcode,G28 ; home all axes,G32 ; run bed.g -- probe bed and enable compensation
;   layerChangeGcode,
;   retractionGcode,
;   toolChangeGcode,
;   endingGcode,M0 ; call stop.g
;   exportFileFormat,gcode
;   celebration,0
;   celebrationSong,Random Song
;   postProcessing,
;   defaultSpeed,3600
;   outlineUnderspeed,0.5
;   solidInfillUnderspeed,0.8
;   supportUnderspeed,0.8
;   rapidXYspeed,18000
;   rapidZspeed,1200
;   minBridgingArea,50
;   bridgingExtraInflation,0
;   bridgingExtrusionMultiplier,0.96
;   bridgingSpeedMultiplier,1
;   useFixedBridgingAngle,0
;   fixedBridgingAngle,0
;   applyBridgingToPerimeters,0
;   filamentDiameters,1.75|1.75|1.75|1.75|1.75|1.75
;   filamentPricesPerKg,46|46|46|46|46|46
;   filamentDensities,1.25|1.25|1.25|1.25|1.25|1.25
;   useMinPrintHeight,0
;   minPrintHeight,0
;   useMaxPrintHeight,0
;   maxPrintHeight,0
;   useDiaphragm,0
;   diaphragmLayerInterval,20
;   robustSlicing,1
;   mergeAllIntoSolid,0
;   onlyRetractWhenCrossingOutline,1
;   retractBetweenLayers,0
;   useRetractionMinTravel,1
;   retractionMinTravel,3
;   retractWhileWiping,1
;   onlyWipeOutlines,1
;   avoidCrossingOutline,1
;   maxMovementDetourFactor,50
;   toolChangeRetractionDistance,12
;   toolChangeExtraRestartDistance,-0.5
;   toolChangeRetractionSpeed,600
;   externalThinWallType,0
;   internalThinWallType,2
;   thinWallAllowedOverlapPercentage,10
;   singleExtrusionMinLength,1
;   singleExtrusionMinPrintingWidthPercentage,50
;   singleExtrusionMaxPrintingWidthPercentage,200
;   singleExtrusionEndpointExtension,0.2
;   horizontalSizeCompensation,-0.1
G90
M82
M106 S0
M140 S75
M190 S75
M104 S230 T0
M109 S230 T0
G28 ; home all axes
G32 ; run bed.g -- probe bed and enable compensation
; process Process1
; layer 1, Z = 0.100
T0
G92 E0.0000
G1 E-3.0000 F3600
; feature skirt
; tool H0.100 W0.720
G1 Z0.100 F1200
G1 X139.073 Y96.552 F18000
G1 E-0.1000 F3600
G92 E0.0000
G1 X138.533 Y97.623 E0.0352 F1800
G1 X137.175 Y98.626 E0.0847
G1 X137.022 Y98.723 E0.0900
G1 X136.264 Y99.129 E0.1152
G1 X136.130 Y99.191 E0.1196
G1 X135.363 Y99.492 E0.1437
G1 X135.258 Y99.528 E0.1470
G1 X134.819 Y99.658 E0.1605
G1 X134.711 Y99.685 E0.1637
G1 X133.921 Y99.843 E0.1873
G1 X133.812 Y99.860 E0.1906
G1 X133.345 Y99.912 E0.2044
G1 X133.205 Y99.920 E0.2085
G1 X62.402 Y99.920 E2.2855
G1 X60.925 Y98.441 E2.3468
G1 X60.937 Y90.275 E2.5864
G1 X60.938 Y90.233 E2.5876
G1 X61.022 Y87.793 E2.6592
G1 X61.025 Y87.750 E2.6605
G1 X61.254 Y84.435 E2.7580
G1 X62.706 Y83.080 E2.8162
G1 X133.205 Y83.080 E4.8844
G1 X133.344 Y83.088 E4.8885
G1 X133.807 Y83.139 E4.9021
G1 X133.916 Y83.156 E4.9053
G1 X134.728 Y83.319 E4.9296
G1 X134.872 Y83.357 E4.9340
G1 X135.655 Y83.613 E4.9582
G1 X135.759 Y83.652 E4.9614
G1 X136.181 Y83.832 E4.9749
G1 X136.281 Y83.880 E4.9781
G1 X137.022 Y84.277 E5.0028
G1 X137.175 Y84.374 E5.0081
G1 X138.533 Y85.377 E5.0577
G1 X139.073 Y86.448 E5.0928
G1 X139.073 Y96.552 E5.3892
G1 X138.353 Y96.380 F18000
G92 E0.0000
G1 X137.967 Y97.145 E0.0251 F1800
G1 X136.768 Y98.031 E0.0689
G1 X136.659 Y98.100 E0.0727
G1 X135.943 Y98.484 E0.0965
G1 X135.847 Y98.528 E0.0996
G1 X135.115 Y98.816 E0.1227
G1 X135.040 Y98.842 E0.1250
G1 X134.630 Y98.963 E0.1375
G1 X134.553 Y98.982 E0.1399
G1 X133.795 Y99.134 E0.1626
G1 X133.716 Y99.147 E0.1649
G1 X133.285 Y99.195 E0.1776
G1 X133.186 Y99.200 E0.1805
G1 X62.700 Y99.200 E2.2482
G1 X61.646 Y98.144 E2.2920
G1 X61.657 Y90.282 E2.5227
G1 X61.658 Y90.252 E2.5235
G1 X61.742 Y87.824 E2.5948
G1 X61.743 Y87.794 E2.5957
G1 X61.952 Y84.768 E2.6847
G1 X62.990 Y83.800 E2.7263
G1 X133.186 Y83.800 E4.7855
G1 X133.285 Y83.805 E4.7884
G1 X133.712 Y83.853 E4.8010
G1 X133.790 Y83.865 E4.8033
G1 X134.565 Y84.021 E4.8266
G1 X134.668 Y84.048 E4.8297
G1 X135.416 Y84.292 E4.8528
G1 X135.490 Y84.320 E4.8551
G1 X135.883 Y84.488 E4.8676
G1 X135.954 Y84.522 E4.8699
G1 X136.659 Y84.900 E4.8934
G1 X136.768 Y84.969 E4.8972
G1 X137.967 Y85.855 E4.9409
G1 X138.353 Y86.620 E4.9660
G1 X138.353 Y96.380 E5.2524
G1 X137.633 Y96.209 F18000
G92 E0.0000
G1 X137.402 Y96.668 E0.0151 F1800
G1 X136.362 Y97.436 E0.0530
G1 X136.296 Y97.478 E0.0553
G1 X135.621 Y97.840 E0.0778
G1 X135.564 Y97.866 E0.0796
G1 X134.866 Y98.141 E0.1016
G1 X134.821 Y98.156 E0.1030
G1 X134.442 Y98.268 E0.1146
G1 X134.396 Y98.279 E0.1160
G1 X133.668 Y98.425 E0.1378
G1 X133.621 Y98.433 E0.1392
G1 X133.225 Y98.477 E0.1508
G1 X133.166 Y98.480 E0.1526
G1 X62.999 Y98.480 E2.2110
G1 X62.366 Y97.846 E2.2372
G1 X62.377 Y90.289 E2.4589
G1 X62.377 Y90.271 E2.4594
G1 X62.461 Y87.856 E2.5304
G1 X62.462 Y87.837 E2.5309
G1 X62.651 Y85.101 E2.6114
G1 X63.274 Y84.520 E2.6363
G1 X133.166 Y84.520 E4.6867
G1 X133.225 Y84.523 E4.6884
G1 X133.617 Y84.567 E4.7000
G1 X133.663 Y84.574 E4.7013
G1 X134.403 Y84.722 E4.7235
G1 X134.465 Y84.739 E4.7253
G1 X135.177 Y84.972 E4.7473
G1 X135.222 Y84.988 E4.7487
G1 X135.585 Y85.144 E4.7603
G1 X135.628 Y85.164 E4.7617
G1 X136.296 Y85.522 E4.7839
G1 X136.362 Y85.564 E4.7862
G1 X137.402 Y86.332 E4.8242
G1 X137.633 Y86.791 E4.8393
G1 X137.633 Y96.209 E5.1155
G1 X136.913 Y96.038 F18000
G92 E0.0000
G1 X136.836 Y96.191 E0.0050 F1800
G1 X135.955 Y96.842 E0.0372
G1 X135.933 Y96.856 E0.0379
G1 X135.300 Y97.195 E0.0590
G1 X135.281 Y97.204 E0.0596
G1 X134.617 Y97.465 E0.0805
G1 X134.602 Y97.470 E0.0810
G1 X134.253 Y97.573 E0.0917
G1 X134.238 Y97.576 E0.0921
G1 X133.542 Y97.716 E0.1130
G1 X133.526 Y97.719 E0.1134
G1 X133.166 Y97.759 E0.1241
G1 X133.146 Y97.760 E0.1247
G1 X63.297 Y97.760 E2.1737
G1 X63.086 Y97.549 E2.1824
G1 X63.097 Y90.297 E2.3952
G1 X63.097 Y90.291 E2.3954
G1 X63.180 Y87.887 E2.4659
G1 X63.181 Y87.881 E2.4661
G1 X63.350 Y85.434 E2.5381
G1 X63.557 Y85.240 E2.5464
G1 X133.146 Y85.240 E4.5878
G1 X133.166 Y85.241 E4.5884
G1 X133.522 Y85.281 E4.5989
G1 X133.537 Y85.283 E4.5993
G1 X134.241 Y85.424 E4.6204
G1 X134.261 Y85.429 E4.6210
G1 X134.939 Y85.651 E4.6419
G1 X134.954 Y85.657 E4.6424
G1 X135.288 Y85.799 E4.6531
G1 X135.302 Y85.806 E4.6535
G1 X135.933 Y86.144 E4.6745
G1 X135.955 Y86.158 E4.6753
G1 X136.836 Y86.809 E4.7074
G1 X136.913 Y86.962 E4.7125
G1 X136.913 Y96.038 E4.9787
G92 E0.0000
G1 E-3.0000 F3600
G1 X141.953 Y102.763 F18000
G1 E-0.1000 F3600
G92 E0.0000
G1 X141.953 Y114.237 E0.3366 F1800
G1 X140.795 Y116.532 E0.4120
G1 X138.803 Y118.004 E0.4847
G1 X138.474 Y118.212 E0.4961
G1 X137.551 Y118.707 E0.5268
G1 X137.263 Y118.840 E0.5361
G1 X136.358 Y119.196 E0.5647
G1 X136.133 Y119.273 E0.5716
G1 X135.572 Y119.438 E0.5888
G1 X135.342 Y119.495 E0.5958
G1 X134.427 Y119.679 E0.6231
G1 X134.192 Y119.716 E0.6301
G1 X133.583 Y119.784 E0.6481
G1 X133.285 Y119.800 E0.6568
G1 X61.571 Y119.800 E2.7606
G1 X58.459 Y116.896 E2.8855
G1 X58.150 Y112.424 E3.0170
G1 X58.145 Y112.331 E3.0197
G1 X58.059 Y109.843 E3.0927
G1 X58.057 Y109.753 E3.0954
G1 X58.043 Y100.369 E3.3707
G1 X58.412 Y100.000 E3.3859
G1 X58.043 Y99.631 E3.4012
G1 X58.057 Y90.247 E3.6765
G1 X58.059 Y90.157 E3.6792
G1 X58.145 Y87.669 E3.7522
G1 X58.150 Y87.576 E3.7549
G1 X58.459 Y83.104 E3.8864
G1 X61.571 Y80.200 E4.0113
G1 X133.285 Y80.200 E6.1151
G1 X133.583 Y80.216 E6.1238
G1 X134.187 Y80.284 E6.1416
G1 X134.421 Y80.320 E6.1486
G1 X135.378 Y80.512 E6.1772
G1 X135.686 Y80.593 E6.1866
G1 X136.609 Y80.895 E6.2151
G1 X136.832 Y80.978 E6.2220
G1 X137.371 Y81.209 E6.2392
G1 X137.586 Y81.312 E6.2462
G1 X138.474 Y81.788 E6.2758
G1 X138.803 Y81.996 E6.2872
G1 X140.795 Y83.468 E6.3599
G1 X141.953 Y85.763 E6.4353
G1 X141.953 Y97.237 E6.7719
G1 X140.795 Y99.532 E6.8473
G1 X140.162 Y100.000 E6.8704
G1 X140.795 Y100.468 E6.8935
G1 X141.953 Y102.763 E6.9689
G1 X141.233 Y102.934 F18000
G92 E0.0000
G1 X141.233 Y114.066 E0.3266 F1800
G1 X140.230 Y116.055 E0.3919
G1 X138.396 Y117.409 E0.4588
G1 X138.111 Y117.590 E0.4687
G1 X137.229 Y118.062 E0.4980
G1 X136.980 Y118.178 E0.5061
G1 X136.109 Y118.520 E0.5335
G1 X135.914 Y118.587 E0.5396
G1 X135.384 Y118.743 E0.5558
G1 X135.184 Y118.793 E0.5618
G1 X134.301 Y118.970 E0.5883
G1 X134.097 Y119.002 E0.5943
G1 X133.523 Y119.066 E0.6113
G1 X133.265 Y119.080 E0.6188
G1 X61.855 Y119.080 E2.7137
G1 X59.158 Y116.563 E2.8219
G1 X58.869 Y112.380 E2.9449
G1 X58.864 Y112.300 E2.9473
G1 X58.778 Y109.824 E3.0199
G1 X58.777 Y109.746 E3.0222
G1 X58.764 Y100.666 E3.2886
G1 X59.429 Y100.000 E3.3162
G1 X58.764 Y99.334 E3.3438
G1 X58.777 Y90.254 E3.6102
G1 X58.778 Y90.176 E3.6125
G1 X58.864 Y87.700 E3.6852
G1 X58.869 Y87.620 E3.6875
G1 X59.158 Y83.437 E3.8105
G1 X61.855 Y80.920 E3.9187
G1 X133.265 Y80.920 E6.0136
G1 X133.523 Y80.934 E6.0212
G1 X134.092 Y80.997 E6.0380
G1 X134.294 Y81.029 E6.0440
G1 X135.215 Y81.214 E6.0715
G1 X135.482 Y81.284 E6.0796
G1 X136.370 Y81.574 E6.1070
G1 X136.563 Y81.647 E6.1131
G1 X137.074 Y81.865 E6.1294
G1 X137.259 Y81.954 E6.1354
G1 X138.111 Y82.410 E6.1637
G1 X138.396 Y82.591 E6.1736
G1 X140.230 Y83.945 E6.2405
G1 X141.233 Y85.934 E6.3059
G1 X141.233 Y97.066 E6.6324
G1 X140.230 Y99.055 E6.6978
G1 X138.950 Y100.000 E6.7445
G1 X140.230 Y100.945 E6.7911
G1 X141.233 Y102.934 E6.8565
G1 X140.513 Y103.105 F18000
G92 E0.0000
G1 X140.513 Y113.895 E0.3165 F1800
G1 X139.664 Y115.577 E0.3718
G1 X137.989 Y116.815 E0.4329
G1 X137.748 Y116.967 E0.4413
G1 X136.908 Y117.418 E0.4692
G1 X136.697 Y117.515 E0.4761
G1 X135.861 Y117.844 E0.5024
G1 X135.696 Y117.901 E0.5075
G1 X135.196 Y118.048 E0.5228
G1 X135.026 Y118.090 E0.5279
G1 X134.174 Y118.261 E0.5534
G1 X134.002 Y118.288 E0.5585
G1 X133.464 Y118.348 E0.5744
G1 X133.245 Y118.360 E0.5808
G1 X62.138 Y118.360 E2.6668
G1 X59.856 Y116.230 E2.7584
G1 X59.587 Y112.337 E2.8729
G1 X59.584 Y112.269 E2.8749
G1 X59.498 Y109.805 E2.9472
G1 X59.497 Y109.739 E2.9491
G1 X59.484 Y100.964 E3.2065
G1 X60.447 Y100.000 E3.2465
G1 X59.484 Y99.036 E3.2864
G1 X59.497 Y90.261 E3.5439
G1 X59.498 Y90.195 E3.5458
G1 X59.584 Y87.731 E3.6181
G1 X59.587 Y87.663 E3.6201
G1 X59.856 Y83.770 E3.7346
G1 X62.138 Y81.640 E3.8262
G1 X133.245 Y81.640 E5.9121
G1 X133.464 Y81.652 E5.9186
G1 X133.997 Y81.711 E5.9343
G1 X134.168 Y81.738 E5.9394
G1 X135.053 Y81.915 E5.9658
G1 X135.279 Y81.975 E5.9727
G1 X136.132 Y82.254 E5.9990
G1 X136.295 Y82.315 E6.0041
G1 X136.776 Y82.520 E6.0195
G1 X136.933 Y82.596 E6.0246
G1 X137.748 Y83.033 E6.0517
G1 X137.989 Y83.185 E6.0601
G1 X139.664 Y84.423 E6.1212
G1 X140.513 Y86.105 E6.1765
G1 X140.513 Y96.895 E6.4930
G1 X139.664 Y98.577 E6.5483
G1 X137.989 Y99.815 E6.6094
G1 X137.748 Y99.967 E6.6177
G1 X137.687 Y100.000 E6.6198
G1 X137.748 Y100.033 E6.6218
G1 X137.989 Y100.185 E6.6302
G1 X139.664 Y101.423 E6.6913
G1 X140.513 Y103.105 E6.7466
G1 X139.793 Y103.277 F18000
G92 E0.0000
G1 X139.793 Y113.723 E0.3064 F1800
G1 X139.099 Y115.100 E0.3517
G1 X137.582 Y116.220 E0.4070
G1 X137.385 Y116.345 E0.4139
G1 X136.586 Y116.773 E0.4404
G1 X136.413 Y116.853 E0.4460
G1 X135.612 Y117.168 E0.4713
G1 X135.477 Y117.214 E0.4755
G1 X135.007 Y117.353 E0.4898
G1 X134.869 Y117.387 E0.4940
G1 X134.048 Y117.552 E0.5186
G1 X133.907 Y117.574 E0.5228
G1 X133.404 Y117.630 E0.5376
G1 X133.225 Y117.640 E0.5429
G1 X62.422 Y117.640 E2.6199
G1 X60.555 Y115.897 E2.6948
G1 X60.306 Y112.293 E2.8008
G1 X60.303 Y112.238 E2.8024
G1 X60.218 Y109.786 E2.8744
G1 X60.217 Y109.732 E2.8760
G1 X60.205 Y101.261 E3.1245
G1 X61.464 Y100.000 E3.1768
G1 X60.205 Y98.739 E3.2291
G1 X60.217 Y90.268 E3.4775
G1 X60.218 Y90.214 E3.4791
G1 X60.303 Y87.762 E3.5511
G1 X60.306 Y87.707 E3.5527
G1 X60.555 Y84.103 E3.6587
G1 X62.422 Y82.360 E3.7336
G1 X133.225 Y82.360 E5.8107
G1 X133.404 Y82.370 E5.8159
G1 X133.902 Y82.425 E5.8306
G1 X134.042 Y82.447 E5.8348
G1 X134.890 Y82.617 E5.8602
G1 X135.075 Y82.666 E5.8658
G1 X135.893 Y82.933 E5.8910
G1 X136.027 Y82.983 E5.8952
G1 X136.478 Y83.176 E5.9096
G1 X136.607 Y83.238 E5.9138
G1 X137.385 Y83.655 E5.9397
G1 X137.582 Y83.780 E5.9465
G1 X139.099 Y84.900 E6.0018
G1 X139.793 Y86.277 E6.0471
G1 X139.793 Y96.723 E6.3535
G1 X139.099 Y98.100 E6.3988
G1 X137.582 Y99.220 E6.4541
G1 X137.385 Y99.345 E6.4609
G1 X136.586 Y99.773 E6.4875
G1 X136.413 Y99.853 E6.4931
G1 X136.040 Y100.000 E6.5049
G1 X136.413 Y100.147 E6.5167
G1 X136.586 Y100.227 E6.5222
G1 X137.385 Y100.655 E6.5488
G1 X137.582 Y100.780 E6.5557
G1 X139.099 Y101.900 E6.6110
G1 X139.793 Y103.277 E6.6562
G1 X139.073 Y103.448 F18000
G92 E0.0000
G1 X139.073 Y113.552 E0.2964 F1800
G1 X138.533 Y114.623 E0.3316
G1 X137.175 Y115.626 E0.3811
