; G-Code generated by Simplify3D(R) Version 4.1.2
; Apr 22, 2020 at 12:46:18 AM
; Settings Summary
;   processName,Process1
;   applyToModels,bottom-side-high-tolerance,bottom-side-mirrored-high-tolerance
;   profileName,HBot (modified)
;   profileVersion,2019-10-26 23:38:43
;   baseProfile,Default
;   printMaterial,PETG - ERYONE
;   printQuality,Medium
;   printExtruders,
;   extruderName,Extruder 1
;   extruderToolheadNumber,0
;   extruderDiameter,0.4
;   extruderAutoWidth,1
;   extruderWidth,0.48
;   extrusionMultiplier,1
;   extruderUseRetract,1
;   extruderRetractionDistance,3
;   extruderExtraRestartDistance,0
;   extruderRetractionZLift,0
;   extruderRetractionSpeed,3600
;   extruderUseCoasting,1
;   extruderCoastingDistance,0.2
;   extruderUseWipe,1
;   extruderWipeDistance,5
;   primaryExtruder,0
;   layerHeight,0.2
;   topSolidLayers,3
;   bottomSolidLayers,3
;   perimeterOutlines,3
;   printPerimetersInsideOut,1
;   startPointOption,3
;   startPointOriginX,200
;   startPointOriginY,100
;   sequentialIslands,0
;   spiralVaseMode,0
;   firstLayerHeightPercentage,100
;   firstLayerWidthPercentage,150
;   firstLayerUnderspeed,0.5
;   useRaft,0
;   raftExtruder,0
;   raftTopLayers,3
;   raftBaseLayers,2
;   raftOffset,3
;   raftSeparationDistance,0.18
;   raftTopInfill,100
;   aboveRaftSpeedMultiplier,0.3
;   useSkirt,1
;   skirtExtruder,0
;   skirtLayers,1
;   skirtOutlines,8
;   skirtOffset,0
;   usePrimePillar,0
;   primePillarExtruder,999
;   primePillarWidth,12
;   primePillarLocation,7
;   primePillarSpeedMultiplier,1
;   useOozeShield,0
;   oozeShieldExtruder,999
;   oozeShieldOffset,2
;   oozeShieldOutlines,1
;   oozeShieldSidewallShape,1
;   oozeShieldSidewallAngle,30
;   oozeShieldSpeedMultiplier,1
;   infillExtruder,0
;   internalInfillPattern,Rectilinear
;   externalInfillPattern,Rectilinear
;   infillPercentage,20
;   outlineOverlapPercentage,25
;   infillExtrusionWidthPercentage,150
;   minInfillLength,5
;   infillLayerInterval,1
;   internalInfillAngles,45,-45
;   overlapInternalInfillAngles,0
;   externalInfillAngles,45,-45
;   generateSupport,0
;   supportExtruder,0
;   supportInfillPercentage,30
;   supportExtraInflation,0
;   supportBaseLayers,1
;   denseSupportExtruder,0
;   denseSupportLayers,0
;   denseSupportInfillPercentage,70
;   supportLayerInterval,1
;   supportHorizontalPartOffset,0.3
;   supportUpperSeparationLayers,1
;   supportLowerSeparationLayers,1
;   supportType,0
;   supportGridSpacing,4
;   maxOverhangAngle,25
;   supportAngles,0
;   temperatureName,Extruder 1,Heated Bed
;   temperatureNumber,0,1
;   temperatureSetpointCount,1,1
;   temperatureSetpointLayers,1,1
;   temperatureSetpointTemperatures,230,75
;   temperatureStabilizeAtStartup,1,1
;   temperatureHeatedBed,0,1
;   fanLayers,1,2
;   fanSpeeds,0,20
;   blipFanToFullPower,1
;   adjustSpeedForCooling,1
;   minSpeedLayerTime,15
;   minCoolingSpeedSlowdown,20
;   increaseFanForCooling,0
;   minFanLayerTime,45
;   maxCoolingFanSpeed,40
;   increaseFanForBridging,1
;   bridgingFanSpeed,80
;   use5D,1
;   relativeEdistances,0
;   allowEaxisZeroing,1
;   independentExtruderAxes,0
;   includeM10123,0
;   stickySupport,1
;   applyToolheadOffsets,0
;   gcodeXoffset,0
;   gcodeYoffset,0
;   gcodeZoffset,0
;   overrideMachineDefinition,1
;   machineTypeOverride,0
;   strokeXoverride,200
;   strokeYoverride,200
;   strokeZoverride,150
;   originOffsetXoverride,0
;   originOffsetYoverride,0
;   originOffsetZoverride,0
;   homeXdirOverride,-1
;   homeYdirOverride,-1
;   homeZdirOverride,-1
;   flipXoverride,1
;   flipYoverride,-1
;   flipZoverride,1
;   toolheadOffsets,0,0|0,0|0,0|0,0|0,0|0,0
;   overrideFirmwareConfiguration,1
;   firmwareTypeOverride,RepRap (Marlin/Repetier/Sprinter)
;   GPXconfigOverride,r2
;   baudRateOverride,115200
;   overridePrinterModels,0
;   printerModelsOverride
;   startingGcode,G28 ; home all axes,G32 ; run bed.g -- probe bed and enable compensation
;   layerChangeGcode,
;   retractionGcode,
;   toolChangeGcode,
;   endingGcode,M0 ; call stop.g
;   exportFileFormat,gcode
;   celebration,0
;   celebrationSong,Random Song
;   postProcessing,
;   defaultSpeed,3600
;   outlineUnderspeed,0.5
;   solidInfillUnderspeed,0.8
;   supportUnderspeed,0.8
;   rapidXYspeed,18000
;   rapidZspeed,1200
;   minBridgingArea,50
;   bridgingExtraInflation,0
;   bridgingExtrusionMultiplier,0.96
;   bridgingSpeedMultiplier,1
;   useFixedBridgingAngle,0
;   fixedBridgingAngle,0
;   applyBridgingToPerimeters,0
;   filamentDiameters,1.75|1.75|1.75|1.75|1.75|1.75
;   filamentPricesPerKg,46|46|46|46|46|46
;   filamentDensities,1.25|1.25|1.25|1.25|1.25|1.25
;   useMinPrintHeight,0
;   minPrintHeight,0
;   useMaxPrintHeight,0
;   maxPrintHeight,0
;   useDiaphragm,0
;   diaphragmLayerInterval,20
;   robustSlicing,1
;   mergeAllIntoSolid,0
;   onlyRetractWhenCrossingOutline,1
;   retractBetweenLayers,0
;   useRetractionMinTravel,1
;   retractionMinTravel,3
;   retractWhileWiping,1
;   onlyWipeOutlines,1
;   avoidCrossingOutline,1
;   maxMovementDetourFactor,50
;   toolChangeRetractionDistance,12
;   toolChangeExtraRestartDistance,-0.5
;   toolChangeRetractionSpeed,600
;   externalThinWallType,0
;   internalThinWallType,2
;   thinWallAllowedOverlapPercentage,10
;   singleExtrusionMinLength,1
;   singleExtrusionMinPrintingWidthPercentage,50
;   singleExtrusionMaxPrintingWidthPercentage,200
;   singleExtrusionEndpointExtension,0.2
;   horizontalSizeCompensation,-0.1
G90
M82
M106 S0
M140 S75
M190 S75
M104 S230 T0
M109 S230 T0
G28 ; home all axes
G32 ; run bed.g -- probe bed and enable compensation
; process Process1
; layer 1, Z = 0.200
T0
G92 E0.0000
G1 E-3.0000 F3600
; feature skirt
; tool H0.200 W0.720
G1 Z0.200 F1200
G1 X141.953 Y97.238 F18000
G1 E0.0000 F3600
G92 E0.0000
G1 X140.794 Y99.534 E0.1540 F1800
G1 X140.162 Y100.000 E0.2010
G1 X140.796 Y100.468 E0.2481
G1 X141.953 Y102.763 E0.4020
G1 X141.953 Y114.237 E1.0889
G1 X140.796 Y116.531 E1.2427
G1 X138.803 Y118.005 E1.3912
G1 X138.470 Y118.215 E1.4147
G1 X137.547 Y118.708 E1.4774
G1 X137.264 Y118.839 E1.4960
G1 X136.362 Y119.195 E1.5541
G1 X136.135 Y119.273 E1.5684
G1 X135.572 Y119.439 E1.6036
G1 X135.339 Y119.496 E1.6180
G1 X134.426 Y119.679 E1.6737
G1 X134.193 Y119.716 E1.6878
G1 X133.583 Y119.784 E1.7246
G1 X133.285 Y119.800 E1.7425
G1 X61.208 Y119.800 E6.0576
G1 X58.044 Y116.631 E6.3257
G1 X58.057 Y107.247 E6.8875
G1 X58.059 Y107.157 E6.8929
G1 X58.145 Y104.669 E7.0419
G1 X58.150 Y104.576 E7.0475
G1 X58.459 Y100.104 E7.3158
G1 X58.571 Y100.000 E7.3250
G1 X58.459 Y99.896 E7.3341
G1 X58.150 Y95.424 E7.6025
G1 X58.145 Y95.331 E7.6081
G1 X58.059 Y92.843 E7.7571
G1 X58.057 Y92.753 E7.7625
G1 X58.044 Y83.369 E8.3243
G1 X61.208 Y80.200 E8.5924
G1 X133.285 Y80.200 E12.9075
G1 X133.583 Y80.216 E12.9254
G1 X134.193 Y80.284 E12.9621
G1 X134.426 Y80.321 E12.9763
G1 X135.340 Y80.504 E13.0321
G1 X135.572 Y80.562 E13.0464
G1 X136.134 Y80.727 E13.0815
G1 X136.359 Y80.805 E13.0957
G1 X137.263 Y81.160 E13.1539
G1 X137.552 Y81.294 E13.1729
G1 X138.475 Y81.789 E13.2356
G1 X138.803 Y81.996 E13.2589
G1 X140.795 Y83.467 E13.4071
G1 X141.953 Y85.763 E13.5610
G1 X141.953 Y97.238 E14.2481
G1 X139.793 Y96.724 F18000
G92 E0.0000
G1 X139.098 Y98.101 E0.0924 F1800
G1 X137.579 Y99.222 E0.2054
G1 X137.381 Y99.347 E0.2194
G1 X136.585 Y99.773 E0.2734
G1 X136.415 Y99.852 E0.2847
G1 X136.039 Y100.000 E0.3088
G1 X136.415 Y100.148 E0.3330
G1 X136.584 Y100.226 E0.3442
G1 X137.382 Y100.653 E0.3983
G1 X137.581 Y100.779 E0.4124
G1 X139.099 Y101.900 E0.5254
G1 X139.793 Y103.277 E0.6177
G1 X139.793 Y113.723 E1.2431
G1 X139.099 Y115.100 E1.3354
G1 X137.582 Y116.221 E1.4483
G1 X137.383 Y116.347 E1.4625
G1 X136.584 Y116.774 E1.5167
G1 X136.414 Y116.852 E1.5279
G1 X135.614 Y117.168 E1.5794
G1 X135.478 Y117.214 E1.5880
G1 X135.007 Y117.353 E1.6174
G1 X134.867 Y117.388 E1.6260
G1 X134.047 Y117.552 E1.6761
G1 X133.907 Y117.574 E1.6846
G1 X133.404 Y117.630 E1.7149
G1 X133.225 Y117.640 E1.7256
G1 X62.104 Y117.640 E5.9835
G1 X60.205 Y115.739 E6.1444
G1 X60.217 Y107.268 E6.6515
G1 X60.218 Y107.215 E6.6547
G1 X60.303 Y104.762 E6.8016
G1 X60.306 Y104.707 E6.8050
G1 X60.555 Y101.103 E7.0212
G1 X61.737 Y100.000 E7.1180
G1 X60.555 Y98.897 E7.2147
G1 X60.306 Y95.293 E7.4310
G1 X60.303 Y95.238 E7.4343
G1 X60.218 Y92.785 E7.5813
G1 X60.217 Y92.732 E7.5845
G1 X60.205 Y84.261 E8.0916
G1 X62.104 Y82.360 E8.2524
G1 X133.225 Y82.360 E12.5104
G1 X133.404 Y82.370 E12.5211
G1 X133.907 Y82.426 E12.5514
G1 X134.047 Y82.448 E12.5599
G1 X134.868 Y82.612 E12.6100
G1 X135.007 Y82.647 E12.6186
G1 X135.478 Y82.786 E12.6480
G1 X135.613 Y82.832 E12.6565
G1 X136.414 Y83.147 E12.7080
G1 X136.587 Y83.227 E12.7194
G1 X137.385 Y83.656 E12.7737
G1 X137.582 Y83.780 E12.7876
G1 X139.098 Y84.900 E12.9005
G1 X139.793 Y86.277 E12.9928
G1 X139.793 Y96.724 E13.6183
G1 X139.073 Y96.553 F18000
G92 E0.0000
G1 X138.532 Y97.624 E0.0718 F1800
G1 X137.173 Y98.627 E0.1730
G1 X137.019 Y98.724 E0.1839
G1 X136.264 Y99.128 E0.2352
G1 X136.131 Y99.190 E0.2439
G1 X135.365 Y99.492 E0.2932
G1 X135.259 Y99.528 E0.2999
G1 X134.819 Y99.658 E0.3274
G1 X134.710 Y99.685 E0.3341
G1 X133.920 Y99.843 E0.3823
G1 X133.812 Y99.860 E0.3889
G1 X133.345 Y99.912 E0.4171
G1 X133.205 Y99.920 E0.4254
G1 X62.706 Y99.920 E4.6461
G1 X61.254 Y98.565 E4.7650
G1 X61.025 Y95.250 E4.9639
G1 X61.023 Y95.207 E4.9665
G1 X60.938 Y92.766 E5.1127
G1 X60.937 Y92.724 E5.1152
G1 X60.925 Y84.559 E5.6041
G1 X62.402 Y83.080 E5.7292
G1 X133.205 Y83.080 E9.9680
G1 X133.345 Y83.088 E9.9764
G1 X133.812 Y83.140 E10.0045
G1 X133.921 Y83.157 E10.0111
G1 X134.711 Y83.315 E10.0594
G1 X134.819 Y83.342 E10.0660
G1 X135.259 Y83.472 E10.0935
G1 X135.364 Y83.508 E10.1002
G1 X136.130 Y83.809 E10.1495
G1 X136.265 Y83.872 E10.1584
G1 X137.022 Y84.278 E10.2098
G1 X137.175 Y84.375 E10.2206
G1 X138.533 Y85.377 E10.3217
G1 X139.073 Y86.448 E10.3935
G1 X139.073 Y96.553 E10.9984
G1 X138.353 Y96.381 F18000
G92 E0.0000
G1 X137.967 Y97.146 E0.0513 F1800
G1 X136.766 Y98.032 E0.1407
G1 X136.656 Y98.102 E0.1484
G1 X135.943 Y98.484 E0.1969
G1 X135.848 Y98.528 E0.2032
G1 X135.116 Y98.816 E0.2502
G1 X135.041 Y98.842 E0.2550
G1 X134.631 Y98.963 E0.2806
G1 X134.553 Y98.982 E0.2854
G1 X133.794 Y99.134 E0.3317
G1 X133.716 Y99.147 E0.3364
G1 X133.285 Y99.195 E0.3624
G1 X133.185 Y99.200 E0.3684
G1 X62.990 Y99.200 E4.5709
G1 X61.953 Y98.232 E4.6558
G1 X61.744 Y95.206 E4.8374
G1 X61.742 Y95.176 E4.8392
G1 X61.658 Y92.747 E4.9847
G1 X61.657 Y92.717 E4.9865
G1 X61.646 Y84.856 E5.4571
G1 X62.701 Y83.800 E5.5465
G1 X133.185 Y83.800 E9.7663
G1 X133.285 Y83.805 E9.7723
G1 X133.716 Y83.853 E9.7982
G1 X133.794 Y83.866 E9.8030
G1 X134.553 Y84.018 E9.8493
G1 X134.630 Y84.037 E9.8541
G1 X135.040 Y84.158 E9.8796
G1 X135.115 Y84.184 E9.8844
G1 X135.847 Y84.472 E9.9315
G1 X135.943 Y84.516 E9.9378
G1 X136.659 Y84.900 E9.9864
G1 X136.768 Y84.969 E9.9942
G1 X137.967 Y85.854 E10.0834
G1 X138.353 Y86.619 E10.1347
G1 X138.353 Y96.381 E10.7191
G1 X137.633 Y96.210 F18000
G92 E0.0000
G1 X137.401 Y96.669 E0.0308 F1800
G1 X136.359 Y97.438 E0.1083
G1 X136.294 Y97.479 E0.1130
G1 X135.621 Y97.839 E0.1586
G1 X135.564 Y97.865 E0.1624
G1 X134.867 Y98.140 E0.2073
G1 X134.822 Y98.156 E0.2101
G1 X134.442 Y98.268 E0.2338
G1 X134.396 Y98.279 E0.2367
G1 X133.668 Y98.425 E0.2811
G1 X133.621 Y98.433 E0.2840
G1 X133.225 Y98.477 E0.3078
G1 X133.165 Y98.480 E0.3114
G1 X63.274 Y98.480 E4.4957
G1 X62.651 Y97.899 E4.5467
G1 X62.462 Y95.163 E4.7109
G1 X62.461 Y95.145 E4.7120
G1 X62.378 Y92.728 E4.8567
G1 X62.377 Y92.710 E4.8578
G1 X62.366 Y85.154 E5.3102
G1 X62.999 Y84.520 E5.3638
G1 X133.165 Y84.520 E9.5645
G1 X133.225 Y84.523 E9.5681
G1 X133.621 Y84.567 E9.5920
G1 X133.668 Y84.575 E9.5948
G1 X134.396 Y84.721 E9.6392
G1 X134.442 Y84.732 E9.6421
G1 X134.821 Y84.844 E9.6658
G1 X134.866 Y84.859 E9.6686
G1 X135.564 Y85.134 E9.7135
G1 X135.622 Y85.161 E9.7173
G1 X136.296 Y85.522 E9.7631
G1 X136.361 Y85.564 E9.7677
G1 X137.402 Y86.332 E9.8452
G1 X137.633 Y86.791 E9.8759
G1 X137.633 Y96.210 E10.4398
G1 X136.913 Y96.038 F18000
G92 E0.0000
G1 X136.836 Y96.191 E0.0103 F1800
G1 X135.953 Y96.843 E0.0760
G1 X135.931 Y96.857 E0.0775
G1 X135.300 Y97.195 E0.1204
G1 X135.281 Y97.203 E0.1216
G1 X134.618 Y97.465 E0.1643
G1 X134.603 Y97.470 E0.1653
G1 X134.254 Y97.573 E0.1870
G1 X134.238 Y97.577 E0.1880
G1 X133.541 Y97.716 E0.2305
G1 X133.526 Y97.719 E0.2315
G1 X133.166 Y97.759 E0.2532
G1 X133.146 Y97.760 E0.2544
G1 X63.558 Y97.760 E4.4205
G1 X63.350 Y97.566 E4.4375
G1 X63.181 Y95.120 E4.5843
G1 X63.181 Y95.113 E4.5847
G1 X63.097 Y92.709 E4.7287
G1 X63.097 Y92.703 E4.7291
G1 X63.087 Y85.451 E5.1632
G1 X63.298 Y85.240 E5.1811
G1 X133.146 Y85.240 E9.3628
G1 X133.166 Y85.241 E9.3640
G1 X133.526 Y85.281 E9.3857
G1 X133.542 Y85.284 E9.3866
G1 X134.238 Y85.424 E9.4292
G1 X134.254 Y85.427 E9.4301
G1 X134.602 Y85.530 E9.4519
G1 X134.617 Y85.535 E9.4528
G1 X135.281 Y85.796 E9.4955
G1 X135.300 Y85.805 E9.4968
G1 X135.932 Y86.144 E9.5397
G1 X135.954 Y86.158 E9.5413
G1 X136.836 Y86.809 E9.6069
G1 X136.913 Y86.962 E9.6172
G1 X136.913 Y96.038 E10.1605
G92 E0.0000
G1 E-3.0000 F3600
G1 X141.233 Y97.067 F18000
G1 E0.0000 F3600
G92 E0.0000
G1 X140.229 Y99.056 E0.1334 F1800
G1 X138.950 Y100.000 E0.2285
G1 X140.230 Y100.945 E0.3238
G1 X141.233 Y102.934 E0.4571
G1 X141.233 Y114.066 E1.1236
G1 X140.230 Y116.054 E1.2569
G1 X138.396 Y117.410 E1.3935
G1 X138.108 Y117.592 E1.4139
G1 X137.226 Y118.063 E1.4737
G1 X136.981 Y118.177 E1.4899
G1 X136.113 Y118.519 E1.5458
G1 X135.916 Y118.586 E1.5582
G1 X135.384 Y118.744 E1.5915
G1 X135.182 Y118.793 E1.6039
G1 X134.299 Y118.970 E1.6578
G1 X134.097 Y119.002 E1.6700
G1 X133.524 Y119.066 E1.7046
G1 X133.265 Y119.080 E1.7201
G1 X61.506 Y119.080 E6.0162
G1 X58.764 Y116.334 E6.2485
G1 X58.777 Y107.254 E6.7921
G1 X58.779 Y107.176 E6.7967
G1 X58.865 Y104.700 E6.9451
G1 X58.869 Y104.620 E6.9499
G1 X59.158 Y100.437 E7.2009
G1 X59.626 Y100.000 E7.2393
G1 X59.158 Y99.563 E7.2776
G1 X58.869 Y95.380 E7.5286
G1 X58.865 Y95.300 E7.5334
G1 X58.779 Y92.824 E7.6818
G1 X58.777 Y92.746 E7.6864
G1 X58.764 Y83.666 E8.2300
G1 X61.506 Y80.920 E8.4624
G1 X133.265 Y80.920 E12.7584
G1 X133.523 Y80.934 E12.7739
G1 X134.097 Y80.998 E12.8085
G1 X134.300 Y81.030 E12.8207
G1 X135.183 Y81.207 E12.8747
G1 X135.384 Y81.257 E12.8871
G1 X135.916 Y81.413 E12.9203
G1 X136.111 Y81.480 E12.9326
G1 X136.980 Y81.822 E12.9885
G1 X137.230 Y81.938 E13.0050
G1 X138.112 Y82.411 E13.0649
G1 X138.396 Y82.591 E13.0851
G1 X140.229 Y83.945 E13.2215
G1 X141.233 Y85.934 E13.3549
G1 X141.233 Y97.067 E14.0214
G1 X140.513 Y96.895 F18000
G92 E0.0000
G1 X139.663 Y98.579 E0.1129 F1800
G1 X137.986 Y99.817 E0.2377
G1 X137.744 Y99.969 E0.2548
G1 X137.688 Y100.000 E0.2587
G1 X137.744 Y100.030 E0.2625
G1 X137.988 Y100.184 E0.2798
G1 X139.664 Y101.423 E0.4046
G1 X140.513 Y103.105 E0.5174
G1 X140.513 Y113.894 E1.1633
G1 X139.665 Y115.577 E1.2761
G1 X137.989 Y116.815 E1.4009
G1 X137.745 Y116.969 E1.4181
G1 X136.905 Y117.419 E1.4752
G1 X136.698 Y117.514 E1.4889
G1 X135.863 Y117.843 E1.5425
G1 X135.697 Y117.900 E1.5530
G1 X135.195 Y118.048 E1.5844
G1 X135.024 Y118.091 E1.5949
G1 X134.173 Y118.261 E1.6469
G1 X134.002 Y118.288 E1.6573
G1 X133.464 Y118.348 E1.6897
G1 X133.245 Y118.360 E1.7028
G1 X61.805 Y118.360 E5.9798
G1 X59.485 Y116.036 E6.1764
G1 X59.497 Y107.261 E6.7017
G1 X59.498 Y107.196 E6.7057
G1 X59.584 Y104.731 E6.8533
G1 X59.587 Y104.663 E6.8574
G1 X59.857 Y100.770 E7.0910
G1 X60.681 Y100.000 E7.1586
G1 X59.857 Y99.230 E7.2261
G1 X59.587 Y95.337 E7.4598
G1 X59.584 Y95.269 E7.4638
G1 X59.498 Y92.804 E7.6115
G1 X59.497 Y92.739 E7.6154
G1 X59.485 Y83.964 E8.1408
G1 X61.805 Y81.640 E8.3374
G1 X133.245 Y81.640 E12.6143
G1 X133.464 Y81.652 E12.6275
G1 X134.002 Y81.712 E12.6599
G1 X134.173 Y81.739 E12.6703
G1 X135.026 Y81.910 E12.7223
G1 X135.195 Y81.952 E12.7328
G1 X135.697 Y82.100 E12.7641
G1 X135.862 Y82.156 E12.7745
G1 X136.697 Y82.485 E12.8282
G1 X136.908 Y82.583 E12.8422
G1 X137.749 Y83.033 E12.8993
G1 X137.989 Y83.185 E12.9163
G1 X139.664 Y84.422 E13.0409
G1 X140.513 Y86.105 E13.1538
G1 X140.513 Y96.895 E13.7998
G92 E0.0000
G1 E-3.0000 F3600
