; G-Code generated by Simplify3D(R) Version 4.1.2
; Apr 21, 2020 at 3:35:56 AM
; Settings Summary
;   processName,Process1
;   applyToModels,bottom-inner
;   profileName,HBot
;   profileVersion,2019-10-26 23:38:43
;   baseProfile,Default
;   printMaterial,PETG - ERYONE
;   printQuality,Medium
;   printExtruders,
;   extruderName,Extruder 1
;   extruderToolheadNumber,0
;   extruderDiameter,0.4
;   extruderAutoWidth,1
;   extruderWidth,0.48
;   extrusionMultiplier,1
;   extruderUseRetract,1
;   extruderRetractionDistance,3
;   extruderExtraRestartDistance,-0.1
;   extruderRetractionZLift,0
;   extruderRetractionSpeed,3600
;   extruderUseCoasting,1
;   extruderCoastingDistance,0.2
;   extruderUseWipe,1
;   extruderWipeDistance,5
;   primaryExtruder,0
;   layerHeight,0.2
;   topSolidLayers,3
;   bottomSolidLayers,3
;   perimeterOutlines,3
;   printPerimetersInsideOut,1
;   startPointOption,3
;   startPointOriginX,200
;   startPointOriginY,100
;   sequentialIslands,0
;   spiralVaseMode,0
;   firstLayerHeightPercentage,100
;   firstLayerWidthPercentage,150
;   firstLayerUnderspeed,0.5
;   useRaft,0
;   raftExtruder,0
;   raftTopLayers,3
;   raftBaseLayers,2
;   raftOffset,3
;   raftSeparationDistance,0.18
;   raftTopInfill,100
;   aboveRaftSpeedMultiplier,0.3
;   useSkirt,1
;   skirtExtruder,0
;   skirtLayers,1
;   skirtOutlines,8
;   skirtOffset,0
;   usePrimePillar,0
;   primePillarExtruder,999
;   primePillarWidth,12
;   primePillarLocation,7
;   primePillarSpeedMultiplier,1
;   useOozeShield,0
;   oozeShieldExtruder,999
;   oozeShieldOffset,2
;   oozeShieldOutlines,1
;   oozeShieldSidewallShape,1
;   oozeShieldSidewallAngle,30
;   oozeShieldSpeedMultiplier,1
;   infillExtruder,0
;   internalInfillPattern,Rectilinear
;   externalInfillPattern,Rectilinear
;   infillPercentage,20
;   outlineOverlapPercentage,25
;   infillExtrusionWidthPercentage,150
;   minInfillLength,5
;   infillLayerInterval,1
;   internalInfillAngles,45,-45
;   overlapInternalInfillAngles,0
;   externalInfillAngles,45,-45
;   generateSupport,0
;   supportExtruder,0
;   supportInfillPercentage,30
;   supportExtraInflation,0
;   supportBaseLayers,1
;   denseSupportExtruder,0
;   denseSupportLayers,0
;   denseSupportInfillPercentage,70
;   supportLayerInterval,1
;   supportHorizontalPartOffset,0.3
;   supportUpperSeparationLayers,1
;   supportLowerSeparationLayers,1
;   supportType,0
;   supportGridSpacing,4
;   maxOverhangAngle,25
;   supportAngles,0
;   temperatureName,Extruder 1,Heated Bed
;   temperatureNumber,0,1
;   temperatureSetpointCount,1,2
;   temperatureSetpointLayers,1,1,20
;   temperatureSetpointTemperatures,230,75,70
;   temperatureStabilizeAtStartup,1,1
;   temperatureHeatedBed,0,1
;   fanLayers,1,2,4
;   fanSpeeds,0,20,30
;   blipFanToFullPower,1
;   adjustSpeedForCooling,1
;   minSpeedLayerTime,15
;   minCoolingSpeedSlowdown,20
;   increaseFanForCooling,0
;   minFanLayerTime,45
;   maxCoolingFanSpeed,40
;   increaseFanForBridging,1
;   bridgingFanSpeed,80
;   use5D,1
;   relativeEdistances,0
;   allowEaxisZeroing,1
;   independentExtruderAxes,0
;   includeM10123,0
;   stickySupport,1
;   applyToolheadOffsets,0
;   gcodeXoffset,0
;   gcodeYoffset,0
;   gcodeZoffset,0
;   overrideMachineDefinition,1
;   machineTypeOverride,0
;   strokeXoverride,200
;   strokeYoverride,200
;   strokeZoverride,150
;   originOffsetXoverride,0
;   originOffsetYoverride,0
;   originOffsetZoverride,0
;   homeXdirOverride,-1
;   homeYdirOverride,-1
;   homeZdirOverride,-1
;   flipXoverride,1
;   flipYoverride,-1
;   flipZoverride,1
;   toolheadOffsets,0,0|0,0|0,0|0,0|0,0|0,0
;   overrideFirmwareConfiguration,1
;   firmwareTypeOverride,RepRap (Marlin/Repetier/Sprinter)
;   GPXconfigOverride,r2
;   baudRateOverride,115200
;   overridePrinterModels,0
;   printerModelsOverride
;   startingGcode,G28 ; home all axes,G32 ; run bed.g -- probe bed and enable compensation
;   layerChangeGcode,
;   retractionGcode,
;   toolChangeGcode,
;   endingGcode,M0 ; call stop.g
;   exportFileFormat,gcode
;   celebration,0
;   celebrationSong,Random Song
;   postProcessing,
;   defaultSpeed,3600
;   outlineUnderspeed,0.5
;   solidInfillUnderspeed,0.8
;   supportUnderspeed,0.8
;   rapidXYspeed,18000
;   rapidZspeed,1200
;   minBridgingArea,50
;   bridgingExtraInflation,0
;   bridgingExtrusionMultiplier,0.96
;   bridgingSpeedMultiplier,1
;   useFixedBridgingAngle,0
;   fixedBridgingAngle,0
;   applyBridgingToPerimeters,0
;   filamentDiameters,1.75|1.75|1.75|1.75|1.75|1.75
;   filamentPricesPerKg,46|46|46|46|46|46
;   filamentDensities,1.25|1.25|1.25|1.25|1.25|1.25
;   useMinPrintHeight,0
;   minPrintHeight,0
;   useMaxPrintHeight,0
;   maxPrintHeight,0
;   useDiaphragm,0
;   diaphragmLayerInterval,20
;   robustSlicing,1
;   mergeAllIntoSolid,0
;   onlyRetractWhenCrossingOutline,1
;   retractBetweenLayers,0
;   useRetractionMinTravel,1
;   retractionMinTravel,3
;   retractWhileWiping,1
;   onlyWipeOutlines,1
;   avoidCrossingOutline,1
;   maxMovementDetourFactor,5
;   toolChangeRetractionDistance,12
;   toolChangeExtraRestartDistance,-0.5
;   toolChangeRetractionSpeed,600
;   externalThinWallType,0
;   internalThinWallType,2
;   thinWallAllowedOverlapPercentage,10
;   singleExtrusionMinLength,1
;   singleExtrusionMinPrintingWidthPercentage,50
;   singleExtrusionMaxPrintingWidthPercentage,200
;   singleExtrusionEndpointExtension,0.2
;   horizontalSizeCompensation,-0.1
G90
M82
M106 S0
M140 S75
M190 S75
M104 S230 T0
M109 S230 T0
G28 ; home all axes
G32 ; run bed.g -- probe bed and enable compensation
; process Process1
; layer 1, Z = 0.200
T0
G92 E0.0000
G1 E-3.0000 F3600
; feature skirt
; tool H0.200 W0.720
G1 Z0.200 F1200
G1 X116.964 Y94.264 F18000
G1 E-0.1000 F3600
G92 E0.0000
G1 X116.964 Y105.737 E0.6869 F1184
G1 X115.807 Y108.031 E0.8407
G1 X113.816 Y109.503 E0.9889
G1 X113.487 Y109.712 E1.0123
G1 X112.597 Y110.189 E1.0727
G1 X112.383 Y110.292 E1.0870
G1 X111.846 Y110.521 E1.1219
G1 X111.621 Y110.606 E1.1363
G1 X110.734 Y110.895 E1.1921
G1 X110.508 Y110.958 E1.2062
G1 X109.938 Y111.091 E1.2413
G1 X109.700 Y111.135 E1.2557
G1 X108.779 Y111.264 E1.3114
G1 X108.548 Y111.287 E1.3253
G1 X107.958 Y111.318 E1.3607
G1 X107.712 Y111.320 E1.3754
G1 X106.729 Y111.283 E1.4343
G1 X106.410 Y111.252 E1.4535
G1 X105.438 Y111.099 E1.5124
G1 X105.199 Y111.050 E1.5270
G1 X104.629 Y110.906 E1.5622
G1 X104.403 Y110.839 E1.5763
G1 X103.475 Y110.518 E1.6351
G1 X103.179 Y110.395 E1.6543
G1 X102.241 Y109.939 E1.7167
G1 X101.929 Y109.761 E1.7382
G1 X100.379 Y108.733 E1.8496
G1 X100.097 Y108.565 E1.8692
G1 X99.827 Y108.417 E1.8877
G1 X99.099 Y108.070 E1.9360
G1 X98.862 Y107.973 E1.9513
G1 X98.148 Y107.725 E1.9966
G1 X97.464 Y107.543 E2.0389
G1 X96.721 Y107.404 E2.0842
G1 X96.467 Y107.371 E2.0995
G1 X95.703 Y107.314 E2.1454
G1 X88.197 Y107.297 E2.5947
G1 X85.045 Y104.152 E2.8613
G1 X85.036 Y101.993 E2.9906
G1 X82.960 Y100.884 E3.1314
G1 X84.898 Y92.777 E3.6305
G1 X89.939 Y92.668 E3.9323
G1 X91.511 Y92.566 E4.0266
G1 X93.956 Y92.274 E4.1741
G1 X95.507 Y92.003 E4.2683
G1 X97.046 Y91.666 E4.3626
G1 X99.421 Y91.008 E4.5102
G1 X100.912 Y90.508 E4.6043
G1 X102.446 Y89.917 E4.7027
G1 X103.639 Y89.419 E4.7801
G1 X103.879 Y89.332 E4.7954
G1 X104.760 Y89.059 E4.8507
G1 X105.045 Y88.987 E4.8683
G1 X105.968 Y88.808 E4.9245
G1 X106.260 Y88.767 E4.9422
G1 X107.199 Y88.689 E4.9986
G1 X107.494 Y88.681 E5.0162
G1 X108.441 Y88.706 E5.0730
G1 X108.746 Y88.732 E5.0913
G1 X109.703 Y88.866 E5.1492
G1 X109.938 Y88.910 E5.1634
G1 X110.506 Y89.042 E5.1984
G1 X110.735 Y89.106 E5.2126
G1 X111.622 Y89.396 E5.2685
G1 X111.843 Y89.479 E5.2826
G1 X112.382 Y89.709 E5.3177
G1 X112.596 Y89.812 E5.3319
G1 X113.486 Y90.288 E5.3923
G1 X113.816 Y90.498 E5.4158
G1 X115.807 Y91.970 E5.5640
G1 X116.964 Y94.264 E5.7178
G1 X116.244 Y94.435 F18000
G92 E0.0000
G1 X116.244 Y105.566 E0.6664 F1184
G1 X115.241 Y107.554 E0.7997
G1 X113.409 Y108.909 E0.9361
G1 X113.124 Y109.089 E0.9563
G1 X112.271 Y109.547 E1.0143
G1 X112.085 Y109.636 E1.0266
G1 X111.577 Y109.853 E1.0597
G1 X111.383 Y109.926 E1.0721
G1 X110.526 Y110.206 E1.1261
G1 X110.330 Y110.261 E1.1383
G1 X109.790 Y110.386 E1.1714
G1 X109.585 Y110.424 E1.1840
G1 X108.694 Y110.549 E1.2378
G1 X108.494 Y110.568 E1.2498
G1 X107.936 Y110.598 E1.2833
G1 X107.723 Y110.600 E1.2960
G1 X106.777 Y110.564 E1.3527
G1 X106.501 Y110.537 E1.3693
G1 X105.566 Y110.390 E1.4260
G1 X105.359 Y110.348 E1.4386
G1 X104.819 Y110.212 E1.4719
G1 X104.623 Y110.154 E1.4842
G1 X103.731 Y109.844 E1.5407
G1 X103.474 Y109.738 E1.5574
G1 X102.578 Y109.302 E1.6171
G1 X102.307 Y109.147 E1.6357
G1 X100.762 Y108.123 E1.7466
G1 X100.454 Y107.940 E1.7681
G1 X100.155 Y107.776 E1.7885
G1 X99.391 Y107.412 E1.8392
G1 X99.118 Y107.299 E1.8569
G1 X98.358 Y107.036 E1.9050
G1 X97.623 Y106.840 E1.9506
G1 X96.834 Y106.692 E1.9987
G1 X96.540 Y106.654 E2.0164
G1 X95.731 Y106.594 E2.0650
G1 X88.496 Y106.578 E2.4981
G1 X85.764 Y103.852 E2.7292
G1 X85.754 Y101.560 E2.8664
G1 X83.790 Y100.511 E2.9997
G1 X85.469 Y93.485 E3.4322
G1 X89.970 Y93.387 E3.7017
G1 X91.577 Y93.283 E3.7981
G1 X94.061 Y92.987 E3.9479
G1 X95.646 Y92.710 E4.0442
G1 X97.219 Y92.365 E4.1406
G1 X99.631 Y91.697 E4.2905
G1 X101.156 Y91.185 E4.3867
G1 X102.714 Y90.586 E4.4867
G1 X103.901 Y90.090 E4.5637
G1 X104.108 Y90.015 E4.5769
G1 X104.955 Y89.752 E4.6300
G1 X105.202 Y89.690 E4.6452
G1 X106.086 Y89.518 E4.6991
G1 X106.339 Y89.483 E4.7145
G1 X107.239 Y89.409 E4.7685
G1 X107.494 Y89.401 E4.7838
G1 X108.401 Y89.425 E4.8381
G1 X108.665 Y89.447 E4.8540
G1 X109.587 Y89.577 E4.9097
G1 X109.790 Y89.615 E4.9221
G1 X110.328 Y89.740 E4.9551
G1 X110.527 Y89.795 E4.9675
G1 X111.383 Y90.075 E5.0214
G1 X111.575 Y90.147 E5.0337
G1 X112.084 Y90.365 E5.0668
G1 X112.270 Y90.454 E5.0792
G1 X113.123 Y90.911 E5.1371
G1 X113.409 Y91.092 E5.1574
G1 X115.242 Y92.447 E5.2938
G1 X116.244 Y94.435 E5.4271
G1 X115.524 Y94.606 F18000
G92 E0.0000
G1 X115.524 Y105.395 E0.6459 F1184
G1 X114.676 Y107.077 E0.7587
G1 X113.002 Y108.314 E0.8833
G1 X112.760 Y108.467 E0.9004
G1 X111.944 Y108.905 E0.9558
G1 X111.787 Y108.980 E0.9663
G1 X111.308 Y109.185 E0.9975
G1 X111.144 Y109.247 E1.0080
G1 X110.317 Y109.517 E1.0600
G1 X110.152 Y109.563 E1.0703
G1 X109.643 Y109.681 E1.1016
G1 X109.469 Y109.714 E1.1122
G1 X108.610 Y109.834 E1.1641
G1 X108.441 Y109.850 E1.1743
G1 X107.914 Y109.878 E1.2059
G1 X107.734 Y109.880 E1.2167
G1 X106.825 Y109.845 E1.2711
G1 X106.592 Y109.823 E1.2851
G1 X105.694 Y109.681 E1.3395
G1 X105.519 Y109.645 E1.3502
G1 X105.010 Y109.517 E1.3817
G1 X104.844 Y109.468 E1.3920
G1 X103.987 Y109.171 E1.4463
G1 X103.770 Y109.081 E1.4604
G1 X102.914 Y108.665 E1.5174
G1 X102.685 Y108.534 E1.5332
G1 X101.146 Y107.514 E1.6437
G1 X100.812 Y107.315 E1.6670
G1 X100.483 Y107.135 E1.6894
G1 X99.683 Y106.753 E1.7425
G1 X99.373 Y106.626 E1.7626
G1 X98.569 Y106.347 E1.8135
G1 X97.782 Y106.137 E1.8623
G1 X96.947 Y105.981 E1.9132
G1 X96.614 Y105.938 E1.9333
G1 X95.758 Y105.874 E1.9846
G1 X88.794 Y105.859 E2.4016
G1 X86.483 Y103.552 E2.5970
G1 X86.472 Y101.128 E2.7422
G1 X84.619 Y100.138 E2.8680
G1 X86.040 Y94.193 E3.2339
G1 X90.001 Y94.107 E3.4711
G1 X91.643 Y94.000 E3.5696
G1 X94.166 Y93.699 E3.7217
G1 X95.785 Y93.417 E3.8201
G1 X97.392 Y93.064 E3.9186
G1 X99.842 Y92.386 E4.0708
G1 X101.400 Y91.863 E4.1692
G1 X102.982 Y91.254 E4.2707
G1 X104.162 Y90.761 E4.3472
G1 X104.338 Y90.698 E4.3584
G1 X105.149 Y90.446 E4.4093
G1 X105.358 Y90.393 E4.4222
G1 X106.204 Y90.229 E4.4738
G1 X106.419 Y90.199 E4.4867
G1 X107.279 Y90.128 E4.5384
G1 X107.495 Y90.122 E4.5513
G1 X108.362 Y90.145 E4.6033
G1 X108.585 Y90.163 E4.6167
G1 X109.471 Y90.288 E4.6702
G1 X109.643 Y90.320 E4.6807
G1 X110.150 Y90.437 E4.7119
G1 X110.318 Y90.484 E4.7223
G1 X111.144 Y90.754 E4.7744
G1 X111.306 Y90.816 E4.7847
G1 X111.787 Y91.021 E4.8160
G1 X111.944 Y91.096 E4.8264
G1 X112.760 Y91.533 E4.8818
G1 X113.002 Y91.687 E4.8990
G1 X114.676 Y92.924 E5.0236
G1 X115.524 Y94.606 E5.1364
G1 X114.804 Y94.778 F18000
G92 E0.0000
G1 X114.804 Y105.223 E0.6254 F1184
G1 X114.110 Y106.600 E0.7177
G1 X112.595 Y107.720 E0.8305
G1 X112.397 Y107.845 E0.8445
G1 X111.618 Y108.263 E0.8974
G1 X111.490 Y108.324 E0.9059
G1 X111.040 Y108.517 E0.9352
G1 X110.905 Y108.567 E0.9438
G1 X110.109 Y108.827 E0.9940
G1 X109.973 Y108.865 E1.0024
G1 X109.496 Y108.976 E1.0318
G1 X109.353 Y109.003 E1.0404
G1 X108.525 Y109.119 E1.0905
G1 X108.387 Y109.132 E1.0988
G1 X107.892 Y109.158 E1.1285
G1 X107.745 Y109.160 E1.1373
G1 X106.874 Y109.127 E1.1895
G1 X106.683 Y109.108 E1.2009
G1 X105.822 Y108.973 E1.2531
G1 X105.679 Y108.943 E1.2619
G1 X105.201 Y108.823 E1.2914
G1 X105.065 Y108.783 E1.2999
G1 X104.243 Y108.498 E1.3520
G1 X104.065 Y108.424 E1.3635
G1 X103.250 Y108.028 E1.4177
G1 X103.063 Y107.921 E1.4307
G1 X101.529 Y106.904 E1.5408
G1 X101.169 Y106.690 E1.5659
G1 X100.812 Y106.494 E1.5903
G1 X99.976 Y106.095 E1.6458
G1 X99.628 Y105.952 E1.6683
G1 X98.780 Y105.658 E1.7220
G1 X97.941 Y105.435 E1.7740
G1 X97.060 Y105.270 E1.8277
G1 X96.687 Y105.221 E1.8502
G1 X95.786 Y105.154 E1.9043
G1 X89.092 Y105.139 E2.3050
G1 X87.201 Y103.252 E2.4649
G1 X87.190 Y100.695 E2.6180
G1 X85.449 Y99.764 E2.7362
G1 X86.611 Y94.900 E3.0356
G1 X90.032 Y94.826 E3.2405
G1 X91.709 Y94.718 E3.3411
G1 X94.271 Y94.412 E3.4955
G1 X95.924 Y94.123 E3.5960
G1 X97.565 Y93.763 E3.6966
G1 X100.053 Y93.075 E3.8511
G1 X101.644 Y92.540 E3.9516
G1 X103.250 Y91.922 E4.0546
G1 X104.424 Y91.432 E4.1308
G1 X104.568 Y91.380 E4.1400
G1 X105.344 Y91.139 E4.1886
G1 X105.515 Y91.096 E4.1992
G1 X106.322 Y90.939 E4.2484
G1 X106.498 Y90.915 E4.2590
G1 X107.318 Y90.847 E4.3083
G1 X107.495 Y90.842 E4.3189
G1 X108.323 Y90.864 E4.3684
G1 X108.505 Y90.879 E4.3794
G1 X109.355 Y90.999 E4.4308
G1 X109.495 Y91.025 E4.4393
G1 X109.972 Y91.135 E4.4686
G1 X110.109 Y91.174 E4.4772
G1 X110.905 Y91.434 E4.5273
G1 X111.038 Y91.484 E4.5358
G1 X111.489 Y91.677 E4.5652
G1 X111.618 Y91.738 E4.5737
G1 X112.397 Y92.156 E4.6266
G1 X112.595 Y92.281 E4.6407
G1 X114.110 Y93.401 E4.7535
G1 X114.804 Y94.778 E4.8457
G1 X114.084 Y94.949 F18000
G92 E0.0000
G1 X114.084 Y105.052 E0.6049 F1184
G1 X113.544 Y106.123 E0.6766
G1 X112.188 Y107.125 E0.7776
G1 X112.034 Y107.223 E0.7885
G1 X111.292 Y107.621 E0.8389
G1 X111.192 Y107.669 E0.8456
G1 X110.771 Y107.849 E0.8730
G1 X110.666 Y107.888 E0.8797
G1 X109.901 Y108.138 E0.9279
G1 X109.795 Y108.167 E0.9345
G1 X109.348 Y108.271 E0.9619
G1 X109.238 Y108.292 E0.9687
G1 X108.440 Y108.403 E1.0169
G1 X108.333 Y108.414 E1.0233
G1 X107.870 Y108.439 E1.0511
G1 X107.756 Y108.439 E1.0579
G1 X106.922 Y108.408 E1.1078
G1 X106.774 Y108.393 E1.1168
G1 X105.950 Y108.264 E1.1667
G1 X105.839 Y108.241 E1.1735
G1 X105.391 Y108.128 E1.2011
G1 X105.286 Y108.097 E1.2077
G1 X104.499 Y107.824 E1.2576
G1 X104.361 Y107.767 E1.2665
G1 X103.586 Y107.391 E1.3181
G1 X103.440 Y107.307 E1.3281
G1 X101.912 Y106.294 E1.4379
G1 X101.526 Y106.065 E1.4648
G1 X101.140 Y105.853 E1.4912
G1 X100.268 Y105.437 E1.5490
G1 X99.883 Y105.278 E1.5739
G1 X98.990 Y104.969 E1.6305
G1 X98.100 Y104.732 E1.6857
G1 X97.172 Y104.558 E1.7422
G1 X96.760 Y104.505 E1.7670
G1 X95.813 Y104.434 E1.8239
G1 X89.391 Y104.420 E2.2084
G1 X87.920 Y102.952 E2.3328
G1 X87.908 Y100.262 E2.4938
G1 X86.278 Y99.391 E2.6045
G1 X87.182 Y95.608 E2.8373
G1 X90.063 Y95.546 E3.0099
G1 X91.775 Y95.435 E3.1125
G1 X94.375 Y95.124 E3.2693
G1 X96.064 Y94.830 E3.3719
G1 X97.739 Y94.462 E3.4746
G1 X100.264 Y93.763 E3.6315
G1 X101.888 Y93.218 E3.7340
G1 X103.518 Y92.591 E3.8386
G1 X104.686 Y92.103 E3.9143
G1 X104.798 Y92.063 E3.9215
G1 X105.539 Y91.833 E3.9679
G1 X105.672 Y91.799 E3.9761
G1 X106.440 Y91.650 E4.0230
G1 X106.577 Y91.631 E4.0313
G1 X107.358 Y91.566 E4.0782
G1 X107.496 Y91.562 E4.0864
G1 X108.283 Y91.583 E4.1336
G1 X108.425 Y91.595 E4.1421
G1 X109.239 Y91.709 E4.1913
G1 X109.348 Y91.730 E4.1980
G1 X109.794 Y91.833 E4.2254
G1 X109.901 Y91.863 E4.2320
G1 X110.666 Y92.113 E4.2802
G1 X110.770 Y92.152 E4.2868
G1 X111.192 Y92.332 E4.3143
G1 X111.292 Y92.380 E4.3210
G1 X112.034 Y92.778 E4.3714
G1 X112.188 Y92.876 E4.3823
G1 X113.544 Y93.878 E4.4833
G1 X114.084 Y94.949 E4.5551
G1 X113.364 Y95.120 F18000
G92 E0.0000
