; G-Code generated by Simplify3D(R) Version 4.1.2
; Apr 22, 2020 at 2:13:10 AM
; Settings Summary
;   processName,Process1
;   applyToModels,front-high-tolerance,front-mirrored-high-tolerance
;   profileName,HBot (modified)
;   profileVersion,2019-10-26 23:38:43
;   baseProfile,Default
;   printMaterial,PETG - ERYONE
;   printQuality,Medium
;   printExtruders,
;   extruderName,Extruder 1
;   extruderToolheadNumber,0
;   extruderDiameter,0.4
;   extruderAutoWidth,1
;   extruderWidth,0.48
;   extrusionMultiplier,1
;   extruderUseRetract,1
;   extruderRetractionDistance,3
;   extruderExtraRestartDistance,-0.1
;   extruderRetractionZLift,0
;   extruderRetractionSpeed,3600
;   extruderUseCoasting,1
;   extruderCoastingDistance,0.2
;   extruderUseWipe,1
;   extruderWipeDistance,5
;   primaryExtruder,0
;   layerHeight,0.2
;   topSolidLayers,3
;   bottomSolidLayers,3
;   perimeterOutlines,3
;   printPerimetersInsideOut,1
;   startPointOption,3
;   startPointOriginX,200
;   startPointOriginY,100
;   sequentialIslands,0
;   spiralVaseMode,0
;   firstLayerHeightPercentage,100
;   firstLayerWidthPercentage,150
;   firstLayerUnderspeed,0.5
;   useRaft,0
;   raftExtruder,0
;   raftTopLayers,3
;   raftBaseLayers,2
;   raftOffset,3
;   raftSeparationDistance,0.18
;   raftTopInfill,100
;   aboveRaftSpeedMultiplier,0.3
;   useSkirt,1
;   skirtExtruder,0
;   skirtLayers,1
;   skirtOutlines,8
;   skirtOffset,0
;   usePrimePillar,0
;   primePillarExtruder,999
;   primePillarWidth,12
;   primePillarLocation,7
;   primePillarSpeedMultiplier,1
;   useOozeShield,0
;   oozeShieldExtruder,999
;   oozeShieldOffset,2
;   oozeShieldOutlines,1
;   oozeShieldSidewallShape,1
;   oozeShieldSidewallAngle,30
;   oozeShieldSpeedMultiplier,1
;   infillExtruder,0
;   internalInfillPattern,Rectilinear
;   externalInfillPattern,Rectilinear
;   infillPercentage,20
;   outlineOverlapPercentage,25
;   infillExtrusionWidthPercentage,150
;   minInfillLength,5
;   infillLayerInterval,1
;   internalInfillAngles,45,-45
;   overlapInternalInfillAngles,0
;   externalInfillAngles,45,-45
;   generateSupport,0
;   supportExtruder,0
;   supportInfillPercentage,30
;   supportExtraInflation,0
;   supportBaseLayers,1
;   denseSupportExtruder,0
;   denseSupportLayers,0
;   denseSupportInfillPercentage,70
;   supportLayerInterval,1
;   supportHorizontalPartOffset,0.3
;   supportUpperSeparationLayers,1
;   supportLowerSeparationLayers,1
;   supportType,0
;   supportGridSpacing,4
;   maxOverhangAngle,25
;   supportAngles,0
;   temperatureName,Extruder 1,Heated Bed
;   temperatureNumber,0,1
;   temperatureSetpointCount,1,1
;   temperatureSetpointLayers,1,1
;   temperatureSetpointTemperatures,230,75
;   temperatureStabilizeAtStartup,1,1
;   temperatureHeatedBed,0,1
;   fanLayers,1,2
;   fanSpeeds,0,20
;   blipFanToFullPower,1
;   adjustSpeedForCooling,1
;   minSpeedLayerTime,15
;   minCoolingSpeedSlowdown,20
;   increaseFanForCooling,1
;   minFanLayerTime,45
;   maxCoolingFanSpeed,35
;   increaseFanForBridging,1
;   bridgingFanSpeed,80
;   use5D,1
;   relativeEdistances,0
;   allowEaxisZeroing,1
;   independentExtruderAxes,0
;   includeM10123,0
;   stickySupport,1
;   applyToolheadOffsets,0
;   gcodeXoffset,0
;   gcodeYoffset,0
;   gcodeZoffset,0
;   overrideMachineDefinition,1
;   machineTypeOverride,0
;   strokeXoverride,200
;   strokeYoverride,200
;   strokeZoverride,150
;   originOffsetXoverride,0
;   originOffsetYoverride,0
;   originOffsetZoverride,0
;   homeXdirOverride,-1
;   homeYdirOverride,-1
;   homeZdirOverride,-1
;   flipXoverride,1
;   flipYoverride,-1
;   flipZoverride,1
;   toolheadOffsets,0,0|0,0|0,0|0,0|0,0|0,0
;   overrideFirmwareConfiguration,1
;   firmwareTypeOverride,RepRap (Marlin/Repetier/Sprinter)
;   GPXconfigOverride,r2
;   baudRateOverride,115200
;   overridePrinterModels,0
;   printerModelsOverride
;   startingGcode,G28 ; home all axes,G32 ; run bed.g -- probe bed and enable compensation
;   layerChangeGcode,
;   retractionGcode,
;   toolChangeGcode,
;   endingGcode,M0 ; call stop.g
;   exportFileFormat,gcode
;   celebration,0
;   celebrationSong,Random Song
;   postProcessing,
;   defaultSpeed,3600
;   outlineUnderspeed,0.5
;   solidInfillUnderspeed,0.8
;   supportUnderspeed,0.8
;   rapidXYspeed,18000
;   rapidZspeed,1200
;   minBridgingArea,50
;   bridgingExtraInflation,0
;   bridgingExtrusionMultiplier,0.96
;   bridgingSpeedMultiplier,1
;   useFixedBridgingAngle,0
;   fixedBridgingAngle,0
;   applyBridgingToPerimeters,0
;   filamentDiameters,1.75|1.75|1.75|1.75|1.75|1.75
;   filamentPricesPerKg,46|46|46|46|46|46
;   filamentDensities,1.25|1.25|1.25|1.25|1.25|1.25
;   useMinPrintHeight,0
;   minPrintHeight,0
;   useMaxPrintHeight,0
;   maxPrintHeight,0
;   useDiaphragm,0
;   diaphragmLayerInterval,20
;   robustSlicing,1
;   mergeAllIntoSolid,0
;   onlyRetractWhenCrossingOutline,1
;   retractBetweenLayers,0
;   useRetractionMinTravel,1
;   retractionMinTravel,3
;   retractWhileWiping,1
;   onlyWipeOutlines,1
;   avoidCrossingOutline,1
;   maxMovementDetourFactor,50
;   toolChangeRetractionDistance,12
;   toolChangeExtraRestartDistance,-0.5
;   toolChangeRetractionSpeed,600
;   externalThinWallType,0
;   internalThinWallType,2
;   thinWallAllowedOverlapPercentage,10
;   singleExtrusionMinLength,1
;   singleExtrusionMinPrintingWidthPercentage,50
;   singleExtrusionMaxPrintingWidthPercentage,200
;   singleExtrusionEndpointExtension,0.2
;   horizontalSizeCompensation,-0.1
G90
M82
M106 S0
M140 S75
M190 S75
M104 S230 T0
M109 S230 T0
G28 ; home all axes
G32 ; run bed.g -- probe bed and enable compensation
; process Process1
; layer 1, Z = 0.200
T0
G92 E0.0000
G1 E-3.0000 F3600
; feature skirt
; tool H0.200 W0.720
G1 Z0.200 F1200
G1 X119.800 Y136.849 F18000
G1 E-0.1000 F3600
G92 E0.0000
G1 X119.796 Y137.006 E0.0094 F1800
G1 X119.740 Y137.963 E0.0668
G1 X119.689 Y138.351 E0.0902
G1 X119.404 Y139.738 E0.1750
G1 X119.297 Y140.115 E0.1984
G1 X118.945 Y141.088 E0.2604
G1 X118.821 Y141.376 E0.2792
G1 X118.376 Y142.267 E0.3388
G1 X118.220 Y142.538 E0.3575
G1 X117.675 Y143.371 E0.4171
G1 X117.489 Y143.623 E0.4359
G1 X116.849 Y144.389 E0.4956
G1 X116.635 Y144.617 E0.5143
G1 X115.915 Y145.301 E0.5738
G1 X115.678 Y145.502 E0.5924
G1 X114.329 Y146.516 E0.6935
G1 X112.663 Y147.073 E0.7986
G1 X104.337 Y147.073 E1.2971
G1 X102.671 Y146.517 E1.4022
G1 X101.323 Y145.503 E1.5032
G1 X101.087 Y145.303 E1.5217
G1 X100.363 Y144.615 E1.5815
G1 X100.148 Y144.386 E1.6003
G1 X100.000 Y144.209 E1.6141
G1 X99.851 Y144.388 E1.6281
G1 X99.636 Y144.617 E1.6469
G1 X98.913 Y145.304 E1.7065
G1 X98.677 Y145.504 E1.7251
G1 X97.329 Y146.517 E1.8260
G1 X95.664 Y147.073 E1.9312
G1 X87.337 Y147.073 E2.4297
G1 X85.671 Y146.517 E2.5348
G1 X84.323 Y145.503 E2.6358
G1 X84.086 Y145.303 E2.6544
G1 X83.366 Y144.618 E2.7139
G1 X83.151 Y144.390 E2.7326
G1 X82.512 Y143.624 E2.7923
G1 X82.326 Y143.372 E2.8111
G1 X81.780 Y142.538 E2.8708
G1 X81.624 Y142.268 E2.8895
G1 X81.179 Y141.377 E2.9491
G1 X81.055 Y141.089 E2.9678
G1 X80.716 Y140.152 E3.0275
G1 X80.626 Y139.852 E3.0463
G1 X80.397 Y138.882 E3.1059
G1 X80.343 Y138.574 E3.1247
G1 X80.228 Y137.585 E3.1843
G1 X80.210 Y137.273 E3.2030
G1 X80.200 Y62.155 E7.7001
G1 X80.204 Y62.003 E7.7092
G1 X80.254 Y61.109 E7.7629
G1 X80.289 Y60.808 E7.7810
G1 X80.456 Y59.822 E7.8409
G1 X80.546 Y59.454 E7.8635
G1 X80.962 Y58.148 E7.9456
G1 X81.102 Y57.796 E7.9683
G1 X81.538 Y56.891 E8.0284
G1 X81.685 Y56.625 E8.0466
G1 X82.199 Y55.808 E8.1044
G1 X82.375 Y55.560 E8.1226
G1 X83.624 Y53.995 E8.2425
G1 X85.844 Y52.926 E8.3900
G1 X97.202 Y52.926 E9.0699
G1 X99.484 Y54.069 E9.2227
G1 X100.000 Y54.758 E9.2743
G1 X100.516 Y54.069 E9.3259
G1 X102.798 Y52.926 E9.4787
G1 X114.201 Y52.926 E10.1613
G1 X116.483 Y54.068 E10.3141
G1 X117.952 Y56.029 E10.4607
G1 X118.190 Y56.408 E10.4876
G1 X118.834 Y57.655 E10.5716
G1 X118.984 Y58.004 E10.5943
G1 X119.316 Y58.951 E10.6544
G1 X119.400 Y59.242 E10.6725
G1 X119.623 Y60.222 E10.7327
G1 X119.682 Y60.597 E10.7554
G1 X119.791 Y61.890 E10.8331
G1 X119.800 Y62.117 E10.8467
G1 X119.800 Y136.849 E15.3208
G1 X119.080 Y136.839 F18000
G92 E0.0000
G1 X119.076 Y136.974 E0.0081 F1800
G1 X119.023 Y137.895 E0.0634
G1 X118.979 Y138.232 E0.0836
G1 X118.704 Y139.568 E0.1653
G1 X118.612 Y139.894 E0.1856
G1 X118.275 Y140.823 E0.2448
G1 X118.168 Y141.073 E0.2610
G1 X117.741 Y141.927 E0.3182
G1 X117.606 Y142.161 E0.3344
G1 X117.084 Y142.959 E0.3915
G1 X116.922 Y143.178 E0.4078
G1 X116.310 Y143.911 E0.4650
G1 X116.125 Y144.109 E0.4812
G1 X115.434 Y144.765 E0.5382
G1 X115.229 Y144.939 E0.5543
G1 X113.990 Y145.871 E0.6471
G1 X112.546 Y146.353 E0.7383
G1 X104.454 Y146.353 E1.2227
G1 X103.010 Y145.871 E1.3138
G1 X101.773 Y144.940 E1.4066
G1 X101.568 Y144.767 E1.4226
G1 X100.874 Y144.108 E1.4799
G1 X100.688 Y143.909 E1.4962
G1 X100.078 Y143.178 E1.5532
G1 X100.000 Y143.073 E1.5610
G1 X99.921 Y143.180 E1.5690
G1 X99.311 Y143.911 E1.6260
G1 X99.125 Y144.109 E1.6423
G1 X98.432 Y144.767 E1.6995
G1 X98.227 Y144.941 E1.7155
G1 X96.990 Y145.871 E1.8082
G1 X95.547 Y146.353 E1.8993
G1 X87.454 Y146.353 E2.3838
G1 X86.010 Y145.871 E2.4750
G1 X84.772 Y144.940 E2.5677
G1 X84.567 Y144.766 E2.5838
G1 X83.876 Y144.111 E2.6408
G1 X83.691 Y143.913 E2.6570
G1 X83.078 Y143.179 E2.7143
G1 X82.917 Y142.961 E2.7305
G1 X82.394 Y142.162 E2.7877
G1 X82.259 Y141.927 E2.8039
G1 X81.832 Y141.073 E2.8610
G1 X81.725 Y140.824 E2.8773
G1 X81.400 Y139.926 E2.9345
G1 X81.322 Y139.666 E2.9507
G1 X81.103 Y138.737 E3.0079
G1 X81.056 Y138.470 E3.0241
G1 X80.946 Y137.522 E3.0812
G1 X80.930 Y137.252 E3.0974
G1 X80.920 Y62.165 E7.5927
G1 X80.924 Y62.033 E7.6006
G1 X80.972 Y61.169 E7.6524
G1 X81.002 Y60.909 E7.6681
G1 X81.162 Y59.968 E7.7253
G1 X81.239 Y59.649 E7.7449
G1 X81.640 Y58.391 E7.8240
G1 X81.762 Y58.085 E7.8437
G1 X82.178 Y57.221 E7.9011
G1 X82.305 Y56.991 E7.9168
G1 X82.798 Y56.208 E7.9722
G1 X82.950 Y55.994 E7.9879
G1 X84.084 Y54.573 E8.0968
G1 X86.008 Y53.647 E8.2246
G1 X97.032 Y53.647 E8.8846
G1 X99.009 Y54.637 E9.0170
G1 X100.000 Y55.960 E9.1160
G1 X100.991 Y54.636 E9.2149
G1 X102.968 Y53.647 E9.3473
G1 X114.031 Y53.647 E10.0096
G1 X116.009 Y54.636 E10.1420
G1 X117.357 Y56.437 E10.2767
G1 X117.564 Y56.766 E10.3000
G1 X118.183 Y57.964 E10.3807
G1 X118.313 Y58.266 E10.4004
G1 X118.630 Y59.170 E10.4578
G1 X118.702 Y59.422 E10.4734
G1 X118.916 Y60.357 E10.5309
G1 X118.966 Y60.683 E10.5506
G1 X119.072 Y61.935 E10.6259
G1 X119.080 Y62.132 E10.6376
G1 X119.080 Y136.839 E15.1102
G1 X118.360 Y136.828 F18000
G92 E0.0000
G1 X118.357 Y136.943 E0.0069 F1800
G1 X118.305 Y137.828 E0.0599
G1 X118.268 Y138.112 E0.0771
G1 X118.004 Y139.397 E0.1556
G1 X117.926 Y139.673 E0.1728
G1 X117.605 Y140.558 E0.2292
G1 X117.514 Y140.769 E0.2429
G1 X117.106 Y141.586 E0.2976
G1 X116.992 Y141.785 E0.3113
G1 X116.493 Y142.548 E0.3659
G1 X116.356 Y142.733 E0.3797
G1 X115.771 Y143.434 E0.4344
G1 X115.614 Y143.602 E0.4481
G1 X114.953 Y144.229 E0.5026
G1 X114.779 Y144.376 E0.5162
G1 X113.650 Y145.225 E0.6008
G1 X112.429 Y145.633 E0.6779
G1 X104.571 Y145.633 E1.1484
G1 X103.349 Y145.225 E1.2255
G1 X102.222 Y144.377 E1.3099
G1 X102.049 Y144.230 E1.3235
G1 X101.385 Y143.600 E1.3783
G1 X101.227 Y143.432 E1.3921
G1 X100.644 Y142.733 E1.4466
G1 X100.507 Y142.548 E1.4604
G1 X100.023 Y141.808 E1.5133
G1 X100.000 Y141.768 E1.5161
G1 X99.977 Y141.807 E1.5188
G1 X99.492 Y142.549 E1.5718
G1 X99.355 Y142.734 E1.5856
G1 X98.772 Y143.434 E1.6402
G1 X98.614 Y143.601 E1.6539
G1 X97.952 Y144.231 E1.7087
G1 X97.778 Y144.378 E1.7223
G1 X96.651 Y145.225 E1.8067
G1 X95.429 Y145.633 E1.8838
G1 X87.571 Y145.633 E2.3543
G1 X86.349 Y145.225 E2.4314
G1 X85.221 Y144.377 E2.5159
G1 X85.048 Y144.230 E2.5295
G1 X84.387 Y143.603 E2.5840
G1 X84.230 Y143.435 E2.5978
G1 X83.645 Y142.734 E2.6525
G1 X83.508 Y142.549 E2.6663
G1 X83.008 Y141.785 E2.7209
G1 X82.894 Y141.586 E2.7346
G1 X82.486 Y140.770 E2.7893
G1 X82.395 Y140.559 E2.8030
G1 X82.084 Y139.700 E2.8577
G1 X82.018 Y139.480 E2.8714
G1 X81.808 Y138.592 E2.9261
G1 X81.769 Y138.366 E2.9398
G1 X81.663 Y137.459 E2.9945
G1 X81.650 Y137.231 E3.0082
G1 X81.640 Y62.175 E7.5016
G1 X81.643 Y62.063 E7.5083
G1 X81.690 Y61.230 E7.5583
G1 X81.715 Y61.010 E7.5716
G1 X81.867 Y60.113 E7.6260
G1 X81.933 Y59.843 E7.6426
G1 X82.318 Y58.634 E7.7187
G1 X82.421 Y58.375 E7.7353
G1 X82.818 Y57.552 E7.7900
G1 X82.926 Y57.357 E7.8033
G1 X83.397 Y56.608 E7.8563
G1 X83.525 Y56.427 E7.8696
G1 X84.545 Y55.150 E7.9674
G1 X86.173 Y54.367 E8.0756
G1 X96.861 Y54.367 E8.7155
G1 X98.535 Y55.204 E8.8276
G1 X99.763 Y56.844 E8.9502
G1 X99.936 Y57.120 E8.9697
G1 X100.000 Y57.244 E8.9781
G1 X100.065 Y57.120 E8.9865
G1 X100.238 Y56.844 E9.0060
G1 X101.465 Y55.204 E9.1286
G1 X103.139 Y54.367 E9.2406
G1 X113.861 Y54.367 E9.8826
G1 X115.534 Y55.204 E9.9946
G1 X116.763 Y56.844 E10.1173
G1 X116.938 Y57.123 E10.1370
G1 X117.532 Y58.272 E10.2144
G1 X117.642 Y58.528 E10.2311
G1 X117.943 Y59.389 E10.2857
G1 X118.005 Y59.602 E10.2990
G1 X118.208 Y60.493 E10.3537
G1 X118.251 Y60.768 E10.3704
G1 X118.353 Y61.980 E10.4432
G1 X118.360 Y62.147 E10.4532
G1 X118.360 Y136.828 E14.9242
G1 X117.640 Y136.818 F18000
G92 E0.0000
G1 X117.637 Y136.912 E0.0056 F1800
G1 X117.588 Y137.760 E0.0565
G1 X117.558 Y137.993 E0.0705
G1 X117.304 Y139.226 E0.1459
G1 X117.240 Y139.453 E0.1600
G1 X116.935 Y140.293 E0.2135
G1 X116.861 Y140.466 E0.2248
G1 X116.472 Y141.245 E0.2769
G1 X116.378 Y141.408 E0.2882
G1 X115.902 Y142.136 E0.3403
G1 X115.790 Y142.287 E0.3515
G1 X115.231 Y142.957 E0.4037
G1 X115.103 Y143.094 E0.4150
G1 X114.472 Y143.693 E0.4671
G1 X114.330 Y143.813 E0.4782
G1 X113.311 Y144.579 E0.5545
G1 X112.312 Y144.913 E0.6176
G1 X104.688 Y144.913 E1.0740
G1 X103.689 Y144.579 E1.1371
G1 X102.671 Y143.814 E1.2133
G1 X102.529 Y143.694 E1.2244
G1 X101.896 Y143.092 E1.2767
G1 X101.767 Y142.955 E1.2880
G1 X101.211 Y142.288 E1.3400
G1 X101.099 Y142.137 E1.3513
G1 X100.634 Y141.426 E1.4021
G1 X100.564 Y141.308 E1.4103
G1 X100.336 Y140.885 E1.4391
G1 X100.273 Y140.755 E1.4477
G1 X100.000 Y140.118 E1.4892
G1 X99.727 Y140.756 E1.5308
G1 X99.664 Y140.885 E1.5394
G1 X99.436 Y141.308 E1.5682
G1 X99.366 Y141.426 E1.5764
G1 X98.901 Y142.138 E1.6273
G1 X98.789 Y142.289 E1.6385
G1 X98.233 Y142.956 E1.6905
G1 X98.104 Y143.094 E1.7018
G1 X97.471 Y143.695 E1.7541
G1 X97.329 Y143.815 E1.7652
G1 X96.312 Y144.579 E1.8414
G1 X95.312 Y144.913 E1.9045
G1 X87.688 Y144.913 E2.3609
G1 X86.689 Y144.579 E2.4240
G1 X85.670 Y143.814 E2.5003
G1 X85.528 Y143.694 E2.5114
G1 X84.898 Y143.095 E2.5635
G1 X84.769 Y142.958 E2.5747
G1 X84.211 Y142.289 E2.6269
G1 X84.099 Y142.137 E2.6382
G1 X83.622 Y141.408 E2.6903
G1 X83.528 Y141.246 E2.7016
G1 X83.139 Y140.467 E2.7537
G1 X83.065 Y140.294 E2.7650
G1 X82.768 Y139.475 E2.8171
G1 X82.714 Y139.295 E2.8284
G1 X82.514 Y138.447 E2.8805
G1 X82.482 Y138.262 E2.8918
G1 X82.381 Y137.397 E2.9439
G1 X82.370 Y137.210 E2.9551
G1 X82.360 Y62.185 E7.4468
G1 X82.363 Y62.093 E7.4522
G1 X82.408 Y61.291 E7.5003
G1 X82.428 Y61.110 E7.5112
G1 X82.573 Y60.259 E7.5629
G1 X82.627 Y60.038 E7.5765
G1 X82.997 Y58.876 E7.6495
G1 X83.081 Y58.665 E7.6632
G1 X83.458 Y57.883 E7.7151
G1 X83.546 Y57.723 E7.7260
G1 X83.995 Y57.009 E7.7766
G1 X84.101 Y56.861 E7.7875
G1 X85.005 Y55.728 E7.8742
G1 X86.337 Y55.087 E7.9627
G1 X96.691 Y55.087 E8.5826
G1 X98.061 Y55.772 E8.6743
G1 X99.168 Y57.252 E8.7850
G1 X99.310 Y57.478 E8.8010
G1 X99.878 Y58.574 E8.8749
G1 X99.969 Y58.785 E8.8886
G1 X100.000 Y58.873 E8.8942
G1 X100.031 Y58.785 E8.8998
G1 X100.122 Y58.573 E8.9136
G1 X100.690 Y57.477 E8.9875
G1 X100.832 Y57.251 E9.0035
G1 X101.939 Y55.772 E9.1141
G1 X103.309 Y55.087 E9.2058
G1 X113.691 Y55.087 E9.8274
G1 X115.060 Y55.771 E9.9190
G1 X116.169 Y57.252 E10.0298
G1 X116.312 Y57.480 E10.0459
G1 X116.881 Y58.580 E10.1200
G1 X116.971 Y58.789 E10.1336
G1 X117.257 Y59.608 E10.1856
G1 X117.307 Y59.782 E10.1964
G1 X117.501 Y60.628 E10.2484
G1 X117.536 Y60.854 E10.2621
G1 X117.634 Y62.026 E10.3325
G1 X117.640 Y62.162 E10.3406
G1 X117.640 Y136.818 E14.8102
G92 E0.0000
G1 E-3.0000 F3600
G1 X114.040 Y136.766 F18000
G1 X114.039 Y136.816
G1 X111.959 Y136.815
G1 X111.949 Y137.059
G1 X111.913 Y137.343
