; G-Code generated by Simplify3D(R) Version 4.1.2
; Apr 22, 2020 at 1:46:32 AM
; Settings Summary
;   processName,Process1
;   applyToModels,hook,spacer,spacer-mirrored,hook(2)
;   profileName,HBot (modified)
;   profileVersion,2019-10-26 23:38:43
;   baseProfile,Default
;   printMaterial,PETG - ERYONE
;   printQuality,Medium
;   printExtruders,
;   extruderName,Extruder 1
;   extruderToolheadNumber,0
;   extruderDiameter,0.4
;   extruderAutoWidth,1
;   extruderWidth,0.48
;   extrusionMultiplier,1
;   extruderUseRetract,1
;   extruderRetractionDistance,3
;   extruderExtraRestartDistance,-0.1
;   extruderRetractionZLift,0
;   extruderRetractionSpeed,3600
;   extruderUseCoasting,1
;   extruderCoastingDistance,0.2
;   extruderUseWipe,1
;   extruderWipeDistance,5
;   primaryExtruder,0
;   layerHeight,0.2
;   topSolidLayers,3
;   bottomSolidLayers,3
;   perimeterOutlines,3
;   printPerimetersInsideOut,1
;   startPointOption,3
;   startPointOriginX,200
;   startPointOriginY,100
;   sequentialIslands,0
;   spiralVaseMode,0
;   firstLayerHeightPercentage,100
;   firstLayerWidthPercentage,150
;   firstLayerUnderspeed,0.5
;   useRaft,0
;   raftExtruder,0
;   raftTopLayers,3
;   raftBaseLayers,2
;   raftOffset,3
;   raftSeparationDistance,0.18
;   raftTopInfill,100
;   aboveRaftSpeedMultiplier,0.3
;   useSkirt,1
;   skirtExtruder,0
;   skirtLayers,1
;   skirtOutlines,8
;   skirtOffset,0
;   usePrimePillar,0
;   primePillarExtruder,999
;   primePillarWidth,12
;   primePillarLocation,7
;   primePillarSpeedMultiplier,1
;   useOozeShield,0
;   oozeShieldExtruder,999
;   oozeShieldOffset,2
;   oozeShieldOutlines,1
;   oozeShieldSidewallShape,1
;   oozeShieldSidewallAngle,30
;   oozeShieldSpeedMultiplier,1
;   infillExtruder,0
;   internalInfillPattern,Rectilinear
;   externalInfillPattern,Rectilinear
;   infillPercentage,20
;   outlineOverlapPercentage,25
;   infillExtrusionWidthPercentage,150
;   minInfillLength,5
;   infillLayerInterval,1
;   internalInfillAngles,45,-45
;   overlapInternalInfillAngles,0
;   externalInfillAngles,45,-45
;   generateSupport,0
;   supportExtruder,0
;   supportInfillPercentage,30
;   supportExtraInflation,0
;   supportBaseLayers,1
;   denseSupportExtruder,0
;   denseSupportLayers,0
;   denseSupportInfillPercentage,70
;   supportLayerInterval,1
;   supportHorizontalPartOffset,0.3
;   supportUpperSeparationLayers,1
;   supportLowerSeparationLayers,1
;   supportType,0
;   supportGridSpacing,4
;   maxOverhangAngle,25
;   supportAngles,0
;   temperatureName,Extruder 1,Heated Bed
;   temperatureNumber,0,1
;   temperatureSetpointCount,1,1
;   temperatureSetpointLayers,1,1
;   temperatureSetpointTemperatures,230,75
;   temperatureStabilizeAtStartup,1,1
;   temperatureHeatedBed,0,1
;   fanLayers,1,2
;   fanSpeeds,0,20
;   blipFanToFullPower,1
;   adjustSpeedForCooling,1
;   minSpeedLayerTime,15
;   minCoolingSpeedSlowdown,20
;   increaseFanForCooling,1
;   minFanLayerTime,45
;   maxCoolingFanSpeed,35
;   increaseFanForBridging,1
;   bridgingFanSpeed,80
;   use5D,1
;   relativeEdistances,0
;   allowEaxisZeroing,1
;   independentExtruderAxes,0
;   includeM10123,0
;   stickySupport,1
;   applyToolheadOffsets,0
;   gcodeXoffset,0
;   gcodeYoffset,0
;   gcodeZoffset,0
;   overrideMachineDefinition,1
;   machineTypeOverride,0
;   strokeXoverride,200
;   strokeYoverride,200
;   strokeZoverride,150
;   originOffsetXoverride,0
;   originOffsetYoverride,0
;   originOffsetZoverride,0
;   homeXdirOverride,-1
;   homeYdirOverride,-1
;   homeZdirOverride,-1
;   flipXoverride,1
;   flipYoverride,-1
;   flipZoverride,1
;   toolheadOffsets,0,0|0,0|0,0|0,0|0,0|0,0
;   overrideFirmwareConfiguration,1
;   firmwareTypeOverride,RepRap (Marlin/Repetier/Sprinter)
;   GPXconfigOverride,r2
;   baudRateOverride,115200
;   overridePrinterModels,0
;   printerModelsOverride
;   startingGcode,G28 ; home all axes,G32 ; run bed.g -- probe bed and enable compensation
;   layerChangeGcode,
;   retractionGcode,
;   toolChangeGcode,
;   endingGcode,M0 ; call stop.g
;   exportFileFormat,gcode
;   celebration,0
;   celebrationSong,Random Song
;   postProcessing,
;   defaultSpeed,3600
;   outlineUnderspeed,0.5
;   solidInfillUnderspeed,0.8
;   supportUnderspeed,0.8
;   rapidXYspeed,18000
;   rapidZspeed,1200
;   minBridgingArea,50
;   bridgingExtraInflation,0
;   bridgingExtrusionMultiplier,0.96
;   bridgingSpeedMultiplier,1
;   useFixedBridgingAngle,0
;   fixedBridgingAngle,0
;   applyBridgingToPerimeters,0
;   filamentDiameters,1.75|1.75|1.75|1.75|1.75|1.75
;   filamentPricesPerKg,46|46|46|46|46|46
;   filamentDensities,1.25|1.25|1.25|1.25|1.25|1.25
;   useMinPrintHeight,0
;   minPrintHeight,0
;   useMaxPrintHeight,0
;   maxPrintHeight,0
;   useDiaphragm,0
;   diaphragmLayerInterval,20
;   robustSlicing,1
;   mergeAllIntoSolid,0
;   onlyRetractWhenCrossingOutline,1
;   retractBetweenLayers,0
;   useRetractionMinTravel,1
;   retractionMinTravel,3
;   retractWhileWiping,1
;   onlyWipeOutlines,1
;   avoidCrossingOutline,1
;   maxMovementDetourFactor,5
;   toolChangeRetractionDistance,12
;   toolChangeExtraRestartDistance,-0.5
;   toolChangeRetractionSpeed,600
;   externalThinWallType,0
;   internalThinWallType,2
;   thinWallAllowedOverlapPercentage,10
;   singleExtrusionMinLength,1
;   singleExtrusionMinPrintingWidthPercentage,50
;   singleExtrusionMaxPrintingWidthPercentage,200
;   singleExtrusionEndpointExtension,0.2
;   horizontalSizeCompensation,-0.1
G90
M82
M106 S255
G4 P500
M106 S89
M140 S75
M190 S75
M104 S230 T0
M109 S230 T0
G28 ; home all axes
G32 ; run bed.g -- probe bed and enable compensation
; process Process1
; layer 1, Z = 0.200
T0
G92 E0.0000
G1 E-3.0000 F3600
; feature skirt
; tool H0.200 W0.720
G1 Z0.200 F1200
G1 X94.402 Y93.363 F18000
G1 E-0.1000 F3600
G92 E0.0000
G1 X94.322 Y94.210 E0.0509 F1800
G1 X94.299 Y94.357 E0.0598
G1 X94.124 Y95.170 E0.1096
G1 X94.095 Y95.279 E0.1164
G1 X93.958 Y95.721 E0.1441
G1 X93.920 Y95.826 E0.1507
G1 X93.604 Y96.595 E0.2006
G1 X93.538 Y96.731 E0.2096
G1 X93.131 Y97.458 E0.2595
G1 X93.072 Y97.554 E0.2662
G1 X92.822 Y97.920 E0.2927
G1 X92.779 Y97.980 E0.2972
G1 X92.507 Y98.332 E0.3238
G1 X92.434 Y98.418 E0.3306
G1 X91.856 Y99.041 E0.3815
G1 X91.721 Y99.167 E0.3925
G1 X90.516 Y100.134 E0.4850
G1 X89.704 Y100.420 E0.5365
G1 X82.276 Y100.420 E0.9813
G1 X81.466 Y100.136 E1.0326
G1 X80.269 Y99.180 E1.1244
G1 X80.112 Y99.030 E1.1373
G1 X79.301 Y98.115 E1.2106
G1 X79.189 Y97.968 E1.2216
G1 X78.715 Y97.242 E1.2735
G1 X78.627 Y97.084 E1.2844
G1 X78.126 Y96.006 E1.3555
G1 X78.072 Y95.870 E1.3643
G1 X77.925 Y95.424 E1.3924
G1 X77.895 Y95.318 E1.3990
G1 X77.709 Y94.527 E1.4476
G1 X77.684 Y94.386 E1.4562
G1 X77.588 Y93.564 E1.5058
G1 X77.579 Y93.419 E1.5144
G1 X77.569 Y88.596 E1.8032
G1 X77.580 Y88.424 E1.8135
G1 X77.630 Y88.058 E1.8356
G1 X77.668 Y87.876 E1.8468
G1 X77.836 Y87.298 E1.8828
G1 X77.931 Y87.063 E1.8980
G1 X78.226 Y86.504 E1.9358
G1 X78.364 Y86.294 E1.9509
G1 X78.729 Y85.847 E1.9854
G1 X78.815 Y85.752 E1.9931
G1 X79.604 Y84.963 E2.0599
G1 X80.532 Y84.579 E2.1200
G1 X86.420 Y84.591 E2.4725
G1 X86.567 Y84.600 E2.4813
G1 X87.409 Y84.700 E2.5321
G1 X87.557 Y84.727 E2.5411
G1 X88.365 Y84.923 E2.5909
G1 X88.473 Y84.954 E2.5976
G1 X88.911 Y85.103 E2.6253
G1 X89.016 Y85.144 E2.6321
G1 X89.760 Y85.473 E2.6808
G1 X89.861 Y85.522 E2.6875
G1 X90.265 Y85.746 E2.7151
G1 X90.361 Y85.805 E2.7219
G1 X91.051 Y86.271 E2.7717
G1 X91.170 Y86.362 E2.7807
G1 X91.799 Y86.906 E2.8305
G1 X91.880 Y86.983 E2.8372
G1 X92.190 Y87.303 E2.8638
G1 X92.241 Y87.359 E2.8684
G1 X92.529 Y87.696 E2.8949
G1 X92.598 Y87.784 E2.9016
G1 X93.082 Y88.462 E2.9515
G1 X93.162 Y88.589 E2.9605
G1 X93.561 Y89.319 E3.0103
G1 X93.610 Y89.419 E3.0169
G1 X93.795 Y89.842 E3.0446
G1 X93.836 Y89.948 E3.0514
G1 X94.100 Y90.738 E3.1012
G1 X94.139 Y90.883 E3.1102
G1 X94.307 Y91.697 E3.1600
G1 X94.325 Y91.807 E3.1667
G1 X94.378 Y92.267 E3.1944
G1 X94.386 Y92.380 E3.2012
G1 X94.407 Y93.213 E3.2511
G1 X94.402 Y93.363 E3.2601
G1 X93.683 Y93.317 F18000
G92 E0.0000
G1 X93.607 Y94.121 E0.0484 F1800
G1 X93.591 Y94.226 E0.0547
G1 X93.424 Y95.003 E0.1023
G1 X93.403 Y95.081 E0.1071
G1 X93.275 Y95.492 E0.1329
G1 X93.248 Y95.567 E0.1377
G1 X92.946 Y96.302 E0.1852
G1 X92.899 Y96.399 E0.1917
G1 X92.511 Y97.093 E0.2393
G1 X92.469 Y97.161 E0.2441
G1 X92.234 Y97.505 E0.2691
G1 X92.202 Y97.548 E0.2722
G1 X91.947 Y97.879 E0.2972
G1 X91.895 Y97.940 E0.3021
G1 X91.346 Y98.532 E0.3504
G1 X91.249 Y98.622 E0.3583
G1 X90.162 Y99.496 E0.4418
G1 X89.581 Y99.700 E0.4786
G1 X82.398 Y99.700 E0.9087
G1 X81.820 Y99.497 E0.9454
G1 X80.743 Y98.636 E1.0279
G1 X80.631 Y98.530 E1.0372
G1 X79.857 Y97.657 E1.1070
G1 X79.777 Y97.552 E1.1149
G1 X79.331 Y96.870 E1.1637
G1 X79.269 Y96.757 E1.1714
G1 X78.787 Y95.721 E1.2398
G1 X78.749 Y95.624 E1.2461
G1 X78.613 Y95.214 E1.2719
G1 X78.592 Y95.137 E1.2767
G1 X78.414 Y94.382 E1.3231
G1 X78.397 Y94.281 E1.3293
G1 X78.305 Y93.500 E1.3763
G1 X78.299 Y93.397 E1.3825
G1 X78.289 Y88.619 E1.6686
G1 X78.297 Y88.496 E1.6760
G1 X78.340 Y88.182 E1.6950
G1 X78.367 Y88.051 E1.7029
G1 X78.518 Y87.534 E1.7352
G1 X78.585 Y87.366 E1.7460
G1 X78.846 Y86.871 E1.7795
G1 X78.945 Y86.721 E1.7903
G1 X79.276 Y86.316 E1.8216
G1 X79.337 Y86.248 E1.8271
G1 X80.011 Y85.573 E1.8842
G1 X80.675 Y85.299 E1.9271
G1 X86.397 Y85.311 E2.2698
G1 X86.502 Y85.317 E2.2761
G1 X87.303 Y85.413 E2.3243
G1 X87.408 Y85.432 E2.3307
G1 X88.180 Y85.619 E2.3783
G1 X88.257 Y85.641 E2.3830
G1 X88.665 Y85.779 E2.4088
G1 X88.740 Y85.809 E2.4137
G1 X89.454 Y86.125 E2.4604
G1 X89.526 Y86.160 E2.4652
G1 X89.903 Y86.368 E2.4910
G1 X89.971 Y86.410 E2.4958
G1 X90.630 Y86.856 E2.5434
G1 X90.715 Y86.921 E2.5498
G1 X91.316 Y87.440 E2.5974
G1 X91.374 Y87.495 E2.6022
G1 X91.665 Y87.796 E2.6272
G1 X91.701 Y87.836 E2.6304
G1 X91.972 Y88.152 E2.6554
G1 X92.022 Y88.215 E2.6602
G1 X92.483 Y88.862 E2.7078
G1 X92.540 Y88.953 E2.7142
G1 X92.922 Y89.651 E2.7618
G1 X92.957 Y89.722 E2.7665
G1 X93.129 Y90.116 E2.7923
G1 X93.158 Y90.191 E2.7971
G1 X93.410 Y90.946 E2.8447
G1 X93.438 Y91.049 E2.8512
G1 X93.599 Y91.827 E2.8987
G1 X93.611 Y91.906 E2.9035
G1 X93.661 Y92.333 E2.9293
G1 X93.667 Y92.414 E2.9341
G1 X93.687 Y93.209 E2.9817
G1 X93.683 Y93.317 E2.9882
G1 X92.964 Y93.270 F18000
G92 E0.0000
G1 X92.892 Y94.032 E0.0458 F1800
G1 X92.882 Y94.095 E0.0496
G1 X92.723 Y94.835 E0.0949
G1 X92.711 Y94.882 E0.0978
G1 X92.592 Y95.263 E0.1217
G1 X92.576 Y95.308 E0.1246
G1 X92.288 Y96.008 E0.1699
G1 X92.260 Y96.066 E0.1738
G1 X91.890 Y96.727 E0.2191
G1 X91.865 Y96.768 E0.2220
G1 X91.645 Y97.091 E0.2454
G1 X91.626 Y97.116 E0.2473
G1 X91.387 Y97.426 E0.2707
G1 X91.356 Y97.463 E0.2736
G1 X90.836 Y98.024 E0.3194
G1 X90.778 Y98.077 E0.3241
G1 X89.806 Y98.858 E0.3987
G1 X89.458 Y98.980 E0.4208
G1 X82.521 Y98.980 E0.8361
G1 X82.174 Y98.858 E0.8581
G1 X81.216 Y98.093 E0.9315
G1 X81.149 Y98.029 E0.9371
G1 X80.414 Y97.199 E1.0035
G1 X80.366 Y97.136 E1.0082
G1 X79.948 Y96.498 E1.0539
G1 X79.911 Y96.430 E1.0585
G1 X79.449 Y95.437 E1.1241
G1 X79.426 Y95.379 E1.1278
G1 X79.302 Y95.003 E1.1515
G1 X79.289 Y94.957 E1.1544
G1 X79.120 Y94.238 E1.1986
G1 X79.109 Y94.177 E1.2023
G1 X79.023 Y93.437 E1.2469
G1 X79.019 Y93.375 E1.2506
G1 X79.009 Y88.642 E1.5340
G1 X79.014 Y88.568 E1.5384
G1 X79.049 Y88.305 E1.5543
G1 X79.066 Y88.227 E1.5591
G1 X79.199 Y87.770 E1.5876
G1 X79.240 Y87.669 E1.5941
G1 X79.466 Y87.238 E1.6232
G1 X79.526 Y87.148 E1.6297
G1 X79.822 Y86.785 E1.6578
G1 X79.859 Y86.744 E1.6611
G1 X80.419 Y86.184 E1.7085
G1 X80.817 Y86.020 E1.7342
G1 X86.375 Y86.031 E2.0670
G1 X86.438 Y86.034 E2.0708
G1 X87.196 Y86.125 E2.1165
G1 X87.259 Y86.136 E2.1203
G1 X87.995 Y86.315 E2.1656
G1 X88.041 Y86.328 E2.1685
G1 X88.418 Y86.456 E2.1924
G1 X88.463 Y86.474 E2.1953
G1 X89.149 Y86.777 E2.2401
G1 X89.192 Y86.798 E2.2430
G1 X89.540 Y86.991 E2.2669
G1 X89.581 Y87.016 E2.2697
G1 X90.209 Y87.440 E2.3151
G1 X90.260 Y87.479 E2.3190
G1 X90.833 Y87.975 E2.3643
G1 X90.868 Y88.007 E2.3671
G1 X91.140 Y88.289 E2.3906
G1 X91.161 Y88.313 E2.3925
G1 X91.415 Y88.609 E2.4159
G1 X91.445 Y88.647 E2.4187
G1 X91.885 Y89.263 E2.4641
G1 X91.919 Y89.318 E2.4679
G1 X92.282 Y89.982 E2.5133
G1 X92.303 Y90.025 E2.5161
G1 X92.463 Y90.390 E2.5400
G1 X92.481 Y90.435 E2.5429
G1 X92.721 Y91.154 E2.5882
G1 X92.737 Y91.216 E2.5921
G1 X92.890 Y91.957 E2.6374
G1 X92.898 Y92.004 E2.6403
G1 X92.944 Y92.400 E2.6641
G1 X92.947 Y92.449 E2.6670
G1 X92.966 Y93.206 E2.7124
G1 X92.964 Y93.270 E2.7163
G1 X92.245 Y93.224 F18000
G92 E0.0000
G1 X92.177 Y93.943 E0.0432 F1800
G1 X92.174 Y93.964 E0.0445
G1 X92.023 Y94.668 E0.0876
G1 X92.019 Y94.684 E0.0886
G1 X91.910 Y95.034 E0.1105
G1 X91.904 Y95.048 E0.1115
G1 X91.631 Y95.714 E0.1545
G1 X91.621 Y95.733 E0.1558
G1 X91.270 Y96.362 E0.1989
G1 X91.261 Y96.375 E0.1999
G1 X91.056 Y96.676 E0.2217
G1 X91.050 Y96.684 E0.2223
G1 X90.827 Y96.973 E0.2441
G1 X90.817 Y96.985 E0.2451
G1 X90.326 Y97.515 E0.2883
G1 X90.306 Y97.533 E0.2899
G1 X89.451 Y98.219 E0.3556
G1 X89.335 Y98.260 E0.3629
G1 X82.643 Y98.260 E0.7636
G1 X82.528 Y98.219 E0.7709
G1 X81.690 Y97.550 E0.8351
G1 X81.667 Y97.529 E0.8370
G1 X80.970 Y96.741 E0.8999
G1 X80.954 Y96.720 E0.9015
G1 X80.565 Y96.125 E0.9441
G1 X80.553 Y96.103 E0.9456
G1 X80.111 Y95.152 E1.0083
G1 X80.103 Y95.133 E1.0096
G1 X79.991 Y94.792 E1.0311
G1 X79.987 Y94.777 E1.0320
G1 X79.826 Y94.093 E1.0741
G1 X79.822 Y94.073 E1.0753
G1 X79.740 Y93.373 E1.1175
G1 X79.739 Y93.353 E1.1187
G1 X79.729 Y88.665 E1.3993
G1 X79.730 Y88.641 E1.4008
G1 X79.759 Y88.428 E1.4137
G1 X79.765 Y88.402 E1.4153
G1 X79.880 Y88.006 E1.4400
G1 X79.894 Y87.972 E1.4421
G1 X80.087 Y87.605 E1.4670
G1 X80.107 Y87.575 E1.4691
G1 X80.369 Y87.254 E1.4940
G1 X80.381 Y87.240 E1.4951
G1 X80.826 Y86.795 E1.5328
G1 X80.959 Y86.740 E1.5414
G1 X86.353 Y86.751 E1.8643
G1 X86.374 Y86.752 E1.8655
G1 X87.089 Y86.837 E1.9087
G1 X87.111 Y86.841 E1.9100
G1 X87.809 Y87.011 E1.9530
G1 X87.825 Y87.015 E1.9540
G1 X88.172 Y87.133 E1.9759
G1 X88.187 Y87.139 E1.9769
G1 X88.843 Y87.429 E2.0198
G1 X88.857 Y87.436 E2.0208
G1 X89.178 Y87.613 E2.0427
G1 X89.192 Y87.621 E2.0437
G1 X89.788 Y88.025 E2.0868
G1 X89.805 Y88.038 E2.0881
G1 X90.350 Y88.509 E2.1312
G1 X90.361 Y88.520 E2.1321
G1 X90.614 Y88.781 E2.1539
G1 X90.622 Y88.789 E2.1546
G1 X90.858 Y89.066 E2.1764
G1 X90.868 Y89.078 E2.1773
G1 X91.286 Y89.664 E2.2204
G1 X91.298 Y89.682 E2.2217
G1 X91.643 Y90.314 E2.2648
G1 X91.650 Y90.328 E2.2657
G1 X91.797 Y90.664 E2.2877
G1 X91.803 Y90.679 E2.2886
G1 X92.031 Y91.361 E2.3317
G1 X92.037 Y91.382 E2.3330
G1 X92.182 Y92.087 E2.3761
G1 X92.185 Y92.103 E2.3770
G1 X92.227 Y92.467 E2.3990
G1 X92.228 Y92.483 E2.4000
G1 X92.246 Y93.203 E2.4431
G1 X92.245 Y93.224 E2.4444
G92 E0.0000
G1 E-3.0000 F3600
G1 X97.447 Y92.005 F18000
G1 X97.447 Y95.330
G1 X98.032 Y95.567
G1 X98.081 Y95.913
G1 X98.248 Y96.277
G1 X98.383 Y96.457
G1 X98.541 Y96.616
G1 X98.878 Y96.833
G1 X99.263 Y96.945
G1 X99.487 Y96.961
G1 X99.711 Y96.945
G1 X100.095 Y96.833
G1 X100.432 Y96.616
G1 X100.487 Y96.561
G1 X102.905 Y97.540
G1 X102.980 Y97.540
G1 X103.316 Y97.530
G1 X103.644 Y97.501
G1 X103.969 Y97.452
G1 X104.291 Y97.384
G1 X104.609 Y97.297
G1 X104.921 Y97.191
G1 X105.226 Y97.067
G1 X105.523 Y96.925
G1 X105.811 Y96.766
G1 X106.089 Y96.590
G1 X106.356 Y96.398
G1 X106.611 Y96.189
G1 X106.854 Y95.966
G1 X107.083 Y95.730
G1 X107.297 Y95.480
G1 X107.496 Y95.218
G1 X107.679 Y94.944
G1 X125.305 Y106.609
G1 E-0.1000 F3600
G92 E0.0000
G1 X125.315 Y107.099 E0.0293 F1800
G1 X125.251 Y107.999 E0.0833
G1 X125.127 Y108.641 E0.1225
G1 X124.825 Y109.578 E0.1814
G1 X124.551 Y110.171 E0.2205
G1 X124.076 Y110.939 E0.2746
G1 X123.782 Y111.331 E0.3039
G1 X123.342 Y111.817 E0.3432
G1 X122.982 Y112.149 E0.3725
G1 X122.266 Y112.699 E0.4266
G1 X121.703 Y113.031 E0.4657
G1 X120.877 Y113.393 E0.5197
G1 X120.413 Y113.548 E0.5490
G1 X119.774 Y113.699 E0.5883
G1 X119.289 Y113.768 E0.6176
G1 X118.387 Y113.814 E0.6716
G1 X117.736 Y113.768 E0.7108
G1 X116.689 Y113.565 E0.7746
G1 X115.919 Y113.291 E0.8235
G1 X114.831 Y112.706 E0.8975
G1 X114.288 Y112.322 E0.9373
G1 X113.519 Y111.620 E0.9996
G1 X113.316 Y111.489 E1.0141
G1 X113.102 Y111.381 E1.0284
