; G-Code generated by Simplify3D(R) Version 4.1.2
; Apr 22, 2020 at 8:43:24 PM
; Settings Summary
;   processName,Process1
;   applyToModels,spacer-v3,spacer-v3(2)
;   profileName,HBot
;   profileVersion,2019-10-26 23:38:43
;   baseProfile,Default
;   printMaterial,PETG - ERYONE
;   printQuality,High
;   printExtruders,
;   extruderName,Extruder 1
;   extruderToolheadNumber,0
;   extruderDiameter,0.4
;   extruderAutoWidth,1
;   extruderWidth,0.48
;   extrusionMultiplier,0.98
;   extruderUseRetract,1
;   extruderRetractionDistance,3
;   extruderExtraRestartDistance,-0.1
;   extruderRetractionZLift,0
;   extruderRetractionSpeed,3600
;   extruderUseCoasting,1
;   extruderCoastingDistance,0.2
;   extruderUseWipe,1
;   extruderWipeDistance,5
;   primaryExtruder,0
;   layerHeight,0.1
;   topSolidLayers,4
;   bottomSolidLayers,4
;   perimeterOutlines,3
;   printPerimetersInsideOut,1
;   startPointOption,3
;   startPointOriginX,200
;   startPointOriginY,100
;   sequentialIslands,0
;   spiralVaseMode,0
;   firstLayerHeightPercentage,100
;   firstLayerWidthPercentage,150
;   firstLayerUnderspeed,0.5
;   useRaft,0
;   raftExtruder,0
;   raftTopLayers,3
;   raftBaseLayers,2
;   raftOffset,3
;   raftSeparationDistance,0.18
;   raftTopInfill,100
;   aboveRaftSpeedMultiplier,0.3
;   useSkirt,1
;   skirtExtruder,0
;   skirtLayers,1
;   skirtOutlines,8
;   skirtOffset,0
;   usePrimePillar,0
;   primePillarExtruder,999
;   primePillarWidth,12
;   primePillarLocation,7
;   primePillarSpeedMultiplier,1
;   useOozeShield,0
;   oozeShieldExtruder,999
;   oozeShieldOffset,2
;   oozeShieldOutlines,1
;   oozeShieldSidewallShape,1
;   oozeShieldSidewallAngle,30
;   oozeShieldSpeedMultiplier,1
;   infillExtruder,0
;   internalInfillPattern,Rectilinear
;   externalInfillPattern,Rectilinear
;   infillPercentage,30
;   outlineOverlapPercentage,25
;   infillExtrusionWidthPercentage,150
;   minInfillLength,5
;   infillLayerInterval,1
;   internalInfillAngles,45,-45
;   overlapInternalInfillAngles,0
;   externalInfillAngles,45,-45
;   generateSupport,0
;   supportExtruder,0
;   supportInfillPercentage,40
;   supportExtraInflation,0
;   supportBaseLayers,1
;   denseSupportExtruder,0
;   denseSupportLayers,0
;   denseSupportInfillPercentage,70
;   supportLayerInterval,1
;   supportHorizontalPartOffset,0.3
;   supportUpperSeparationLayers,1
;   supportLowerSeparationLayers,1
;   supportType,0
;   supportGridSpacing,4
;   maxOverhangAngle,25
;   supportAngles,0
;   temperatureName,Extruder 1,Heated Bed
;   temperatureNumber,0,1
;   temperatureSetpointCount,1,1
;   temperatureSetpointLayers,1,1
;   temperatureSetpointTemperatures,230,75
;   temperatureStabilizeAtStartup,1,1
;   temperatureHeatedBed,0,1
;   fanLayers,1,2
;   fanSpeeds,0,20
;   blipFanToFullPower,1
;   adjustSpeedForCooling,1
;   minSpeedLayerTime,15
;   minCoolingSpeedSlowdown,20
;   increaseFanForCooling,1
;   minFanLayerTime,45
;   maxCoolingFanSpeed,35
;   increaseFanForBridging,1
;   bridgingFanSpeed,80
;   use5D,1
;   relativeEdistances,0
;   allowEaxisZeroing,1
;   independentExtruderAxes,0
;   includeM10123,0
;   stickySupport,1
;   applyToolheadOffsets,0
;   gcodeXoffset,0
;   gcodeYoffset,0
;   gcodeZoffset,0
;   overrideMachineDefinition,1
;   machineTypeOverride,0
;   strokeXoverride,200
;   strokeYoverride,200
;   strokeZoverride,150
;   originOffsetXoverride,0
;   originOffsetYoverride,0
;   originOffsetZoverride,0
;   homeXdirOverride,-1
;   homeYdirOverride,-1
;   homeZdirOverride,-1
;   flipXoverride,1
;   flipYoverride,-1
;   flipZoverride,1
;   toolheadOffsets,0,0|0,0|0,0|0,0|0,0|0,0
;   overrideFirmwareConfiguration,1
;   firmwareTypeOverride,RepRap (Marlin/Repetier/Sprinter)
;   GPXconfigOverride,r2
;   baudRateOverride,115200
;   overridePrinterModels,0
;   printerModelsOverride
;   startingGcode,G28 ; home all axes,G32 ; run bed.g -- probe bed and enable compensation
;   layerChangeGcode,
;   retractionGcode,
;   toolChangeGcode,
;   endingGcode,M0 ; call stop.g
;   exportFileFormat,gcode
;   celebration,0
;   celebrationSong,Random Song
;   postProcessing,
;   defaultSpeed,3600
;   outlineUnderspeed,0.5
;   solidInfillUnderspeed,0.8
;   supportUnderspeed,0.8
;   rapidXYspeed,18000
;   rapidZspeed,1200
;   minBridgingArea,50
;   bridgingExtraInflation,0
;   bridgingExtrusionMultiplier,0.96
;   bridgingSpeedMultiplier,1
;   useFixedBridgingAngle,0
;   fixedBridgingAngle,0
;   applyBridgingToPerimeters,0
;   filamentDiameters,1.75|1.75|1.75|1.75|1.75|1.75
;   filamentPricesPerKg,46|46|46|46|46|46
;   filamentDensities,1.25|1.25|1.25|1.25|1.25|1.25
;   useMinPrintHeight,0
;   minPrintHeight,0
;   useMaxPrintHeight,0
;   maxPrintHeight,0
;   useDiaphragm,0
;   diaphragmLayerInterval,20
;   robustSlicing,1
;   mergeAllIntoSolid,0
;   onlyRetractWhenCrossingOutline,1
;   retractBetweenLayers,0
;   useRetractionMinTravel,1
;   retractionMinTravel,3
;   retractWhileWiping,1
;   onlyWipeOutlines,1
;   avoidCrossingOutline,1
;   maxMovementDetourFactor,50
;   toolChangeRetractionDistance,12
;   toolChangeExtraRestartDistance,-0.5
;   toolChangeRetractionSpeed,600
;   externalThinWallType,0
;   internalThinWallType,2
;   thinWallAllowedOverlapPercentage,10
;   singleExtrusionMinLength,1
;   singleExtrusionMinPrintingWidthPercentage,50
;   singleExtrusionMaxPrintingWidthPercentage,200
;   singleExtrusionEndpointExtension,0.2
;   horizontalSizeCompensation,-0.1
G90
M82
M106 S255
G4 P500
M106 S89
M140 S75
M190 S75
M104 S230 T0
M109 S230 T0
G28 ; home all axes
G32 ; run bed.g -- probe bed and enable compensation
; process Process1
; layer 1, Z = 0.100
T0
G92 E0.0000
G1 E-3.0000 F3600
; feature skirt
; tool H0.100 W0.720
G1 Z0.100 F1200
G1 X106.036 Y81.686 F18000
G1 E-0.1000 F3600
G92 E0.0000
G1 X105.764 Y82.705 E0.0310 F1783
G1 X105.753 Y82.734 E0.0319
G1 X105.310 Y83.689 E0.0627
G1 X105.298 Y83.712 E0.0635
G1 X104.908 Y84.308 E0.0844
G1 X104.892 Y84.329 E0.0852
G1 X104.196 Y85.116 E0.1160
G1 X104.173 Y85.137 E0.1169
G1 X103.335 Y85.808 E0.1484
G1 X103.219 Y85.848 E0.1520
G1 X96.529 Y85.848 E0.3482
G1 X96.418 Y85.811 E0.3517
G1 X95.830 Y85.367 E0.3733
G1 X95.814 Y85.354 E0.3739
G1 X95.297 Y84.860 E0.3949
G1 X95.286 Y84.848 E0.3954
G1 X95.046 Y84.574 E0.4060
G1 X95.036 Y84.562 E0.4065
G1 X94.614 Y83.984 E0.4275
G1 X94.603 Y83.966 E0.4281
G1 X94.251 Y83.341 E0.4492
G1 X94.241 Y83.322 E0.4498
G1 X93.966 Y82.662 E0.4708
G1 X93.961 Y82.647 E0.4712
G1 X93.851 Y82.299 E0.4819
G1 X93.847 Y82.283 E0.4824
G1 X93.693 Y81.588 E0.5033
G1 X93.691 Y81.572 E0.5038
G1 X93.643 Y81.206 E0.5146
G1 X93.642 Y81.190 E0.5151
G1 X93.614 Y80.482 E0.5358
G1 X93.614 Y80.466 E0.5363
G1 X93.632 Y80.099 E0.5471
G1 X93.633 Y80.083 E0.5476
G1 X93.732 Y79.374 E0.5686
G1 X93.736 Y79.354 E0.5692
G1 X93.917 Y78.659 E0.5902
G1 X93.924 Y78.639 E0.5909
G1 X94.184 Y77.977 E0.6117
G1 X94.190 Y77.963 E0.6122
G1 X94.354 Y77.633 E0.6230
G1 X94.362 Y77.619 E0.6235
G1 X94.737 Y77.010 E0.6444
G1 X94.749 Y76.992 E0.6451
G1 X95.194 Y76.429 E0.6661
G1 X95.208 Y76.413 E0.6667
G1 X95.717 Y75.906 E0.6878
G1 X95.733 Y75.892 E0.6884
G1 X96.298 Y75.449 E0.7095
G1 X96.315 Y75.437 E0.7101
G1 X96.942 Y75.055 E0.7316
G1 X97.037 Y75.028 E0.7346
G1 X105.577 Y75.028 E0.9851
G1 X105.756 Y75.144 E0.9913
G1 X106.055 Y75.815 E1.0129
G1 X106.068 Y75.858 E1.0142
G1 X106.130 Y76.221 E1.0250
G1 X106.133 Y76.252 E1.0259
G1 X106.133 Y80.594 E1.1533
G1 X106.132 Y80.610 E1.1538
G1 X106.041 Y81.655 E1.1845
G1 X106.036 Y81.686 E1.1854
G92 E0.0000
G1 E-3.0000 F3600
G1 X111.300 Y96.812 F18000
G1 E-0.1000 F3600
G92 E0.0000
G1 X111.238 Y97.387 E0.0169 F1783
G1 X110.999 Y98.488 E0.0500
G1 X110.768 Y99.139 E0.0703
G1 X109.721 Y101.203 E0.1382
G1 X107.121 Y102.800 E0.2277
G1 X96.469 Y102.800 E0.5402
G1 X95.036 Y102.397 E0.5838
G1 X93.725 Y101.597 E0.6289
G1 X93.529 Y101.465 E0.6358
G1 X93.056 Y101.116 E0.6531
G1 X92.870 Y100.966 E0.6601
G1 X92.169 Y100.346 E0.6875
G1 X91.997 Y100.179 E0.6946
G1 X91.593 Y99.752 E0.7118
G1 X91.436 Y99.572 E0.7188
G1 X90.831 Y98.806 E0.7475
G1 X90.648 Y98.544 E0.7568
G1 X90.116 Y97.680 E0.7866
G1 X89.965 Y97.399 E0.7959
G1 X89.556 Y96.512 E0.8246
G1 X89.465 Y96.291 E0.8316
G1 X89.266 Y95.737 E0.8489
G1 X89.196 Y95.509 E0.8559
G1 X88.949 Y94.566 E0.8845
G1 X88.887 Y94.254 E0.8938
G1 X88.753 Y93.288 E0.9224
G1 X88.731 Y93.050 E0.9294
G1 X88.704 Y92.500 E0.9456
G1 X88.701 Y92.341 E0.9503
G1 X88.706 Y91.794 E0.9663
G1 X88.719 Y91.554 E0.9733
G1 X88.816 Y90.578 E1.0021
G1 X88.866 Y90.262 E1.0115
G1 X89.076 Y89.310 E1.0401
G1 X89.138 Y89.079 E1.0471
G1 X89.315 Y88.518 E1.0644
G1 X89.397 Y88.293 E1.0714
G1 X89.773 Y87.392 E1.1000
G1 X89.912 Y87.105 E1.1094
G1 X90.249 Y86.507 E1.1295
G1 X89.786 Y85.683 E1.1573
G1 X89.646 Y85.397 E1.1666
G1 X89.270 Y84.494 E1.1953
G1 X89.188 Y84.269 E1.2023
G1 X89.011 Y83.710 E1.2195
G1 X88.949 Y83.478 E1.2265
G1 X88.748 Y82.564 E1.2540
G1 X88.706 Y82.328 E1.2610
G1 X88.631 Y81.741 E1.2784
G1 X88.610 Y81.502 E1.2854
G1 X88.574 Y80.571 E1.3128
G1 X88.575 Y80.332 E1.3198
G1 X88.603 Y79.741 E1.3372
G1 X88.626 Y79.502 E1.3442
G1 X88.760 Y78.535 E1.3728
G1 X88.822 Y78.222 E1.3822
G1 X89.079 Y77.241 E1.4119
G1 X89.178 Y76.938 E1.4213
G1 X89.532 Y76.033 E1.4498
G1 X89.629 Y75.816 E1.4568
G1 X89.893 Y75.285 E1.4742
G1 X90.010 Y75.075 E1.4812
G1 X90.521 Y74.244 E1.5098
G1 X90.703 Y73.982 E1.5192
G1 X91.334 Y73.186 E1.5490
G1 X91.546 Y72.948 E1.5583
G1 X92.266 Y72.230 E1.5882
G1 X92.506 Y72.019 E1.5975
G1 X93.304 Y71.392 E1.6273
G1 X93.564 Y71.212 E1.6366
G1 X94.909 Y70.391 E1.6828
G1 X96.342 Y69.988 E1.7265
G1 X107.070 Y69.988 E2.0412
G1 X109.752 Y71.729 E2.1350
G1 X110.787 Y74.051 E2.2096
G1 X110.983 Y74.698 E2.2294
G1 X111.134 Y75.583 E2.2558
G1 X111.173 Y76.039 E2.2692
G1 X111.173 Y80.704 E2.4060
G1 X111.163 Y80.938 E2.4129
G1 X111.043 Y82.310 E2.4533
G1 X110.962 Y82.773 E2.4671
G1 X110.578 Y84.215 E2.5108
G1 X110.418 Y84.656 E2.5246
G1 X109.806 Y85.976 E2.5673
G1 X109.629 Y86.293 E2.5780
G1 X109.658 Y86.334 E2.5794
G1 X109.858 Y86.671 E2.5909
G1 X110.340 Y87.634 E2.6225
G1 X110.489 Y87.997 E2.6340
G1 X110.932 Y89.339 E2.6755
G1 X111.027 Y89.719 E2.6869
G1 X111.206 Y90.739 E2.7173
G1 X111.242 Y91.050 E2.7265
G1 X111.295 Y91.968 E2.7535
G1 X111.300 Y92.124 E2.7581
G1 X111.300 Y96.812 E2.8956
G1 X110.580 Y96.774 F18000
G92 E0.0000
G1 X110.526 Y97.271 E0.0147 F1783
G1 X110.305 Y98.290 E0.0453
G1 X110.105 Y98.855 E0.0628
G1 X109.171 Y100.696 E0.1234
G1 X106.917 Y102.080 E0.2010
G1 X96.569 Y102.080 E0.5046
G1 X95.326 Y101.731 E0.5424
G1 X94.113 Y100.990 E0.5841
G1 X93.943 Y100.876 E0.5901
G1 X93.496 Y100.546 E0.6064
G1 X93.335 Y100.416 E0.6125
G1 X92.658 Y99.817 E0.6390
G1 X92.509 Y99.673 E0.6451
G1 X92.127 Y99.269 E0.6614
G1 X91.991 Y99.112 E0.6675
G1 X91.408 Y98.376 E0.6950
G1 X91.250 Y98.149 E0.7032
G1 X90.741 Y97.321 E0.7317
G1 X90.610 Y97.077 E0.7398
G1 X90.216 Y96.225 E0.7673
G1 X90.137 Y96.033 E0.7734
G1 X89.950 Y95.509 E0.7897
G1 X89.888 Y95.311 E0.7958
G1 X89.651 Y94.405 E0.8233
G1 X89.597 Y94.134 E0.8314
G1 X89.468 Y93.204 E0.8589
G1 X89.449 Y92.998 E0.8650
G1 X89.423 Y92.476 E0.8804
G1 X89.421 Y92.337 E0.8844
G1 X89.426 Y91.817 E0.8997
G1 X89.437 Y91.609 E0.9058
G1 X89.530 Y90.671 E0.9335
G1 X89.574 Y90.397 E0.9416
G1 X89.776 Y89.480 E0.9691
G1 X89.830 Y89.280 E0.9752
G1 X89.997 Y88.750 E0.9915
G1 X90.068 Y88.555 E0.9976
G1 X90.429 Y87.688 E1.0252
G1 X90.550 Y87.440 E1.0333
G1 X91.028 Y86.591 E1.0618
G1 X91.094 Y86.489 E1.0654
G1 X91.051 Y86.430 E1.0676
G1 X90.901 Y86.197 E1.0757
G1 X90.423 Y85.349 E1.1042
G1 X90.302 Y85.100 E1.1123
G1 X89.941 Y84.233 E1.1399
G1 X89.870 Y84.038 E1.1460
G1 X89.703 Y83.508 E1.1623
G1 X89.649 Y83.308 E1.1684
G1 X89.454 Y82.425 E1.1949
G1 X89.418 Y82.220 E1.2010
G1 X89.347 Y81.664 E1.2174
G1 X89.329 Y81.458 E1.2235
G1 X89.294 Y80.559 E1.2499
G1 X89.294 Y80.351 E1.2560
G1 X89.322 Y79.792 E1.2724
G1 X89.341 Y79.585 E1.2785
G1 X89.470 Y78.655 E1.3061
G1 X89.524 Y78.384 E1.3142
G1 X89.770 Y77.443 E1.3427
G1 X89.856 Y77.181 E1.3508
G1 X90.197 Y76.311 E1.3782
G1 X90.280 Y76.122 E1.3842
G1 X90.530 Y75.621 E1.4007
G1 X90.632 Y75.438 E1.4068
G1 X91.123 Y74.639 E1.4343
G1 X91.281 Y74.412 E1.4424
G1 X91.885 Y73.649 E1.4710
G1 X92.069 Y73.443 E1.4791
G1 X92.759 Y72.755 E1.5077
G1 X92.967 Y72.572 E1.5158
G1 X93.732 Y71.972 E1.5443
G1 X93.957 Y71.815 E1.5524
G1 X95.199 Y71.057 E1.5951
G1 X96.442 Y70.708 E1.6329
G1 X106.857 Y70.708 E1.9384
G1 X109.182 Y72.217 E2.0198
G1 X110.111 Y74.303 E2.0867
G1 X110.281 Y74.864 E2.1039
G1 X110.419 Y75.675 E2.1281
G1 X110.453 Y76.069 E2.1397
G1 X110.453 Y80.688 E2.2752
G1 X110.444 Y80.891 E2.2811
G1 X110.329 Y82.216 E2.3202
G1 X110.258 Y82.617 E2.3321
G1 X109.890 Y83.999 E2.3741
G1 X109.751 Y84.382 E2.3860
G1 X109.164 Y85.649 E2.4270
G1 X108.999 Y85.946 E2.4369
G1 X108.762 Y86.308 E2.4496
G1 X109.052 Y86.724 E2.4645
G1 X109.226 Y87.016 E2.4745
G1 X109.684 Y87.933 E2.5045
G1 X109.813 Y88.247 E2.5145
G1 X110.240 Y89.540 E2.5545
G1 X110.322 Y89.869 E2.5644
G1 X110.493 Y90.843 E2.5934
G1 X110.525 Y91.112 E2.6014
G1 X110.576 Y91.999 E2.6274
G1 X110.580 Y92.134 E2.6314
G1 X110.580 Y96.774 E2.7675
G1 X109.860 Y96.735 F18000
G92 E0.0000
G1 X109.815 Y97.156 E0.0124 F1783
G1 X109.611 Y98.093 E0.0405
G1 X109.442 Y98.570 E0.0554
G1 X108.621 Y100.189 E0.1086
G1 X106.714 Y101.360 E0.1743
G1 X96.668 Y101.360 E0.4690
G1 X95.617 Y101.065 E0.5010
G1 X94.502 Y100.384 E0.5393
G1 X94.358 Y100.287 E0.5444
G1 X93.937 Y99.977 E0.5598
G1 X93.800 Y99.866 E0.5649
G1 X93.147 Y99.288 E0.5905
G1 X93.021 Y99.166 E0.5957
G1 X92.661 Y98.786 E0.6110
G1 X92.546 Y98.653 E0.6162
G1 X91.986 Y97.946 E0.6426
G1 X91.852 Y97.754 E0.6495
G1 X91.365 Y96.962 E0.6768
G1 X91.255 Y96.756 E0.6837
G1 X90.876 Y95.937 E0.7101
G1 X90.810 Y95.775 E0.7152
G1 X90.633 Y95.281 E0.7306
G1 X90.581 Y95.114 E0.7358
G1 X90.353 Y94.243 E0.7622
G1 X90.307 Y94.014 E0.7690
G1 X90.184 Y93.121 E0.7955
G1 X90.167 Y92.947 E0.8006
G1 X90.143 Y92.451 E0.8152
G1 X90.141 Y92.334 E0.8186
G1 X90.146 Y91.840 E0.8331
G1 X90.155 Y91.665 E0.8383
G1 X90.244 Y90.763 E0.8648
G1 X90.281 Y90.531 E0.8717
G1 X90.476 Y89.651 E0.8982
G1 X90.521 Y89.482 E0.9033
G1 X90.679 Y88.982 E0.9187
G1 X90.739 Y88.817 E0.9238
G1 X91.086 Y87.985 E0.9503
G1 X91.188 Y87.774 E0.9571
G1 X91.645 Y86.963 E0.9844
G1 X91.771 Y86.766 E0.9913
G1 X91.980 Y86.481 E1.0017
G1 X91.645 Y86.022 E1.0183
G1 X91.518 Y85.825 E1.0252
G1 X91.061 Y85.014 E1.0525
G1 X90.959 Y84.804 E1.0594
G1 X90.612 Y83.971 E1.0859
G1 X90.552 Y83.806 E1.0910
G1 X90.394 Y83.307 E1.1064
G1 X90.349 Y83.137 E1.1115
G1 X90.161 Y82.285 E1.1371
G1 X90.130 Y82.112 E1.1423
G1 X90.063 Y81.588 E1.1578
G1 X90.048 Y81.413 E1.1629
G1 X90.014 Y80.546 E1.1884
G1 X90.014 Y80.371 E1.1935
G1 X90.040 Y79.843 E1.2090
G1 X90.057 Y79.668 E1.2142
G1 X90.180 Y78.775 E1.2406
G1 X90.226 Y78.546 E1.2475
G1 X90.461 Y77.646 E1.2748
G1 X90.534 Y77.424 E1.2816
G1 X90.861 Y76.589 E1.3079
G1 X90.932 Y76.429 E1.3130
G1 X91.168 Y75.956 E1.3285
G1 X91.253 Y75.802 E1.3337
G1 X91.725 Y75.034 E1.3602
G1 X91.859 Y74.842 E1.3670
G1 X92.437 Y74.112 E1.3943
G1 X92.592 Y73.938 E1.4012
G1 X93.252 Y73.280 E1.4285
G1 X93.428 Y73.125 E1.4354
G1 X94.160 Y72.551 E1.4627
G1 X94.350 Y72.419 E1.4695
G1 X95.490 Y71.724 E1.5086
G1 X96.541 Y71.428 E1.5407
G1 X106.643 Y71.428 E1.8370
G1 X108.611 Y72.705 E1.9058
G1 X109.435 Y74.555 E1.9652
G1 X109.579 Y75.029 E1.9798
G1 X109.705 Y75.766 E2.0017
G1 X109.733 Y76.100 E2.0115
G1 X109.733 Y80.673 E2.1457
G1 X109.725 Y80.844 E2.1507
G1 X109.614 Y82.123 E2.1884
G1 X109.555 Y82.462 E2.1985
G1 X109.202 Y83.783 E2.2386
G1 X109.085 Y84.107 E2.2487
G1 X108.521 Y85.322 E2.2880
G1 X108.382 Y85.573 E2.2964
G1 X107.893 Y86.320 E2.3226
G1 X108.447 Y87.115 E2.3510
G1 X108.593 Y87.361 E2.3594
G1 X109.028 Y88.231 E2.3879
G1 X109.138 Y88.497 E2.3964
G1 X109.548 Y89.741 E2.4348
G1 X109.618 Y90.019 E2.4432
G1 X109.780 Y90.947 E2.4708
G1 X109.807 Y91.175 E2.4776
G1 X109.857 Y92.030 E2.5027
G1 X109.860 Y92.144 E2.5061
G1 X109.860 Y96.735 E2.6407
G1 X109.140 Y96.697 F18000
G92 E0.0000
G1 X109.103 Y97.041 E0.0102 F1783
G1 X108.918 Y97.895 E0.0358
G1 X108.779 Y98.286 E0.0480
G1 X108.071 Y99.682 E0.0939
