; G-Code generated by Simplify3D(R) Version 4.1.2
; Jul 12, 2022 at 6:17:41 PM
; Settings Summary
;   processName,Process1
;   applyToModels,bed-support-connector
;   profileName,HSBot
;   profileVersion,2019-11-09 11:59:44
;   baseProfile,Default
;   printMaterial,PETG - Eryone
;   printQuality,Medium
;   printExtruders,
;   extruderName,Extruder - v6,Extruder - lgx ace
;   extruderToolheadNumber,0,1
;   extruderDiameter,0.4,0.4
;   extruderAutoWidth,1,1
;   extruderWidth,0.48,0.48
;   extrusionMultiplier,1.03,1.03
;   extruderUseRetract,0,1
;   extruderRetractionDistance,4,1
;   extruderExtraRestartDistance,0,0
;   extruderRetractionZLift,0,0
;   extruderRetractionSpeed,3600,3600
;   extruderUseCoasting,0,0
;   extruderCoastingDistance,0.2,0.2
;   extruderUseWipe,0,1
;   extruderWipeDistance,1,1
;   primaryExtruder,1
;   layerHeight,0.2
;   topSolidLayers,4
;   bottomSolidLayers,4
;   perimeterOutlines,3
;   printPerimetersInsideOut,1
;   startPointOption,2
;   startPointOriginX,0
;   startPointOriginY,0
;   sequentialIslands,0
;   spiralVaseMode,0
;   firstLayerHeightPercentage,100
;   firstLayerWidthPercentage,150
;   firstLayerUnderspeed,0.25
;   useRaft,0
;   raftExtruder,0
;   raftTopLayers,3
;   raftBaseLayers,2
;   raftOffset,3
;   raftSeparationDistance,0.18
;   raftTopInfill,100
;   aboveRaftSpeedMultiplier,0.3
;   useSkirt,1
;   skirtExtruder,1
;   skirtLayers,1
;   skirtOutlines,15
;   skirtOffset,0
;   usePrimePillar,0
;   primePillarExtruder,999
;   primePillarWidth,12
;   primePillarLocation,7
;   primePillarSpeedMultiplier,1
;   useOozeShield,0
;   oozeShieldExtruder,999
;   oozeShieldOffset,2
;   oozeShieldOutlines,1
;   oozeShieldSidewallShape,1
;   oozeShieldSidewallAngle,30
;   oozeShieldSpeedMultiplier,1
;   infillExtruder,1
;   internalInfillPattern,Rectilinear
;   externalInfillPattern,Rectilinear
;   infillPercentage,15
;   outlineOverlapPercentage,20
;   infillExtrusionWidthPercentage,100
;   minInfillLength,3
;   infillLayerInterval,1
;   internalInfillAngles,45,-45
;   overlapInternalInfillAngles,0
;   externalInfillAngles,45,-45
;   generateSupport,0
;   supportExtruder,1
;   supportInfillPercentage,30
;   supportExtraInflation,0
;   supportBaseLayers,1
;   denseSupportExtruder,0
;   denseSupportLayers,0
;   denseSupportInfillPercentage,70
;   supportLayerInterval,1
;   supportHorizontalPartOffset,0.3
;   supportUpperSeparationLayers,1
;   supportLowerSeparationLayers,1
;   supportType,0
;   supportGridSpacing,2
;   maxOverhangAngle,45
;   supportAngles,0
;   temperatureName,v6,Bed,lgx-ace
;   temperatureNumber,0,0,1
;   temperatureSetpointCount,1,1,1
;   temperatureSetpointLayers,1,1,1
;   temperatureSetpointTemperatures,0,85,220
;   temperatureStabilizeAtStartup,1,1,1
;   temperatureHeatedBed,0,1,0
;   fanLayers,1,2,3
;   fanSpeeds,0,15,15
;   blipFanToFullPower,0
;   adjustSpeedForCooling,0
;   minSpeedLayerTime,15
;   minCoolingSpeedSlowdown,50
;   increaseFanForCooling,0
;   minFanLayerTime,45
;   maxCoolingFanSpeed,70
;   increaseFanForBridging,0
;   bridgingFanSpeed,80
;   use5D,1
;   relativeEdistances,0
;   allowEaxisZeroing,1
;   independentExtruderAxes,0
;   includeM10123,0
;   stickySupport,1
;   applyToolheadOffsets,0
;   gcodeXoffset,0
;   gcodeYoffset,0
;   gcodeZoffset,0
;   overrideMachineDefinition,1
;   machineTypeOverride,0
;   strokeXoverride,220
;   strokeYoverride,220
;   strokeZoverride,175
;   originOffsetXoverride,0
;   originOffsetYoverride,0
;   originOffsetZoverride,0
;   homeXdirOverride,-1
;   homeYdirOverride,-1
;   homeZdirOverride,-1
;   flipXoverride,1
;   flipYoverride,-1
;   flipZoverride,1
;   toolheadOffsets,0,0|0,0|0,0|0,0|0,0|0,0
;   overrideFirmwareConfiguration,0
;   firmwareTypeOverride,RepRap (Marlin/Repetier/Sprinter)
;   GPXconfigOverride,r2
;   baudRateOverride,115200
;   overridePrinterModels,0
;   printerModelsOverride
;   startingGcode,G28 ; home all axes,G32 ; run bed.g -- probe bed and enable compensation
;   layerChangeGcode,
;   retractionGcode,
;   toolChangeGcode,
;   endingGcode,M0 ; call stop.g
;   exportFileFormat,gcode
;   celebration,0
;   celebrationSong,Random Song
;   postProcessing,|; 0.2mm layer, 8 bands 5mm each, total height 40mm|{REPLACE "; layer 25" "M572 D0 S0.69\n; layer 10"}|{REPLACE "; layer 50" "M572 D0 S0.70\n; layer 50"}|{REPLACE "; layer 75" "M572 D0 S0.71\n; layer 75"}|{REPLACE "; layer 100" "M572 D0 S0.72\n; layer 100"}|{REPLACE "; layer 125" "M572 D0 S0.73\n; layer 125"}|{REPLACE "; layer 150" "M572 D0 S0.74\n; layer 150"}|{REPLACE "; layer 175" "M572 D0 S0.75\n; layer 175"}|{REPLACE "; layer 200" "M572 D0 S0.76\n; layer 200"}
;   defaultSpeed,5400
;   outlineUnderspeed,0.8
;   solidInfillUnderspeed,0.75
;   supportUnderspeed,0.8
;   rapidXYspeed,18000
;   rapidZspeed,1200
;   minBridgingArea,60
;   bridgingExtraInflation,0
;   bridgingExtrusionMultiplier,0.96
;   bridgingSpeedMultiplier,1
;   useFixedBridgingAngle,0
;   fixedBridgingAngle,0
;   applyBridgingToPerimeters,0
;   filamentDiameters,1.75|1.75|1.75|1.75|1.75|1.75
;   filamentPricesPerKg,25|46|46|46|46|46
;   filamentDensities,1.29|1.25|1.25|1.25|1.25|1.25
;   useMinPrintHeight,0
;   minPrintHeight,0.3
;   useMaxPrintHeight,0
;   maxPrintHeight,110
;   useDiaphragm,0
;   diaphragmLayerInterval,20
;   robustSlicing,1
;   mergeAllIntoSolid,0
;   onlyRetractWhenCrossingOutline,1
;   retractBetweenLayers,0
;   useRetractionMinTravel,1
;   retractionMinTravel,5
;   retractWhileWiping,1
;   onlyWipeOutlines,1
;   avoidCrossingOutline,1
;   maxMovementDetourFactor,2
;   toolChangeRetractionDistance,12
;   toolChangeExtraRestartDistance,0
;   toolChangeRetractionSpeed,600
;   externalThinWallType,0
;   internalThinWallType,0
;   thinWallAllowedOverlapPercentage,10
;   singleExtrusionMinLength,0.1
;   singleExtrusionMinPrintingWidthPercentage,50
;   singleExtrusionMaxPrintingWidthPercentage,200
;   singleExtrusionEndpointExtension,0.2
;   horizontalSizeCompensation,-0.1
G90
M82
M106 S0
M140 S85
M190 S85
G10 S0 R{0-50} P0
G10 S220 R{220-50} P1
M116 P1
G28 ; home all axes
G32 ; run bed.g -- probe bed and enable compensation
; process Process1
; layer 1, Z = 0.200
T1
G92 E0.0000
G1 E-1.0000 F3600
; feature skirt
; tool H0.200 W0.720
G1 Z0.200 F1200
G1 X59.248 Y31.742 F18000
G1 E0.0000 F3600
G92 E0.0000
G1 X65.364 Y25.626 E0.5333 F1350
G1 X84.198 Y25.626 E1.6947
G1 X84.198 Y6.742 E2.8592
G1 X90.314 Y0.626 E3.3925
G1 X123.863 Y0.626 E5.4613
G1 X129.978 Y6.742 E5.9946
G1 X129.978 Y25.626 E7.1591
G1 X148.813 Y25.626 E8.3205
G1 X154.928 Y31.742 E8.8538
G1 X154.928 Y65.291 E10.9226
G1 X148.813 Y71.406 E11.4559
G1 X65.364 Y71.406 E16.6017
G1 X59.248 Y65.290 E17.1351
G1 X59.248 Y31.742 E19.2038
G1 X59.968 Y32.040 F18000
G92 E0.0000
G1 X65.662 Y26.346 E0.4965 F1350
G1 X84.918 Y26.346 E1.6840
G1 X84.918 Y7.040 E2.8745
G1 X90.612 Y1.346 E3.3710
G1 X123.564 Y1.346 E5.4030
G1 X129.258 Y7.040 E5.8995
G1 X129.258 Y26.346 E7.0900
G1 X148.514 Y26.346 E8.2774
G1 X154.208 Y32.040 E8.7740
G1 X154.208 Y64.992 E10.8060
G1 X148.514 Y70.686 E11.3025
G1 X65.662 Y70.686 E16.4115
G1 X59.968 Y64.992 E16.9081
G1 X59.968 Y32.040 E18.9401
G1 X60.688 Y32.338 F18000
G92 E0.0000
G1 X65.960 Y27.066 E0.4598 F1350
G1 X85.638 Y27.066 E1.6732
G1 X85.638 Y7.338 E2.8897
G1 X90.910 Y2.066 E3.3494
G1 X123.266 Y2.066 E5.3447
G1 X128.538 Y7.338 E5.8044
G1 X128.538 Y27.066 E7.0209
G1 X148.216 Y27.066 E8.2343
G1 X153.488 Y32.338 E8.6941
G1 X153.488 Y64.694 E10.6893
G1 X148.216 Y69.966 E11.1491
G1 X65.960 Y69.966 E16.2213
G1 X60.688 Y64.694 E16.6811
G1 X60.688 Y32.338 E18.6763
G1 X61.408 Y32.636 F18000
G92 E0.0000
G1 X66.259 Y27.786 E0.4230 F1350
G1 X86.358 Y27.786 E1.6624
G1 X86.358 Y7.636 E2.9049
G1 X91.209 Y2.786 E3.3279
G1 X122.968 Y2.786 E5.2863
G1 X127.818 Y7.636 E5.7093
G1 X127.818 Y27.786 E6.9518
G1 X147.918 Y27.786 E8.1912
G1 X152.768 Y32.636 E8.6142
G1 X152.768 Y64.396 E10.5727
G1 X147.918 Y69.246 E10.9956
G1 X66.259 Y69.246 E16.0311
G1 X61.408 Y64.396 E16.4541
G1 X61.408 Y32.636 E18.4125
G1 X62.128 Y32.935 F18000
G92 E0.0000
G1 X66.557 Y28.506 E0.3862 F1350
G1 X87.078 Y28.506 E1.6516
G1 X87.078 Y7.935 E2.9202
G1 X91.507 Y3.506 E3.3064
G1 X122.670 Y3.506 E5.2280
G1 X127.098 Y7.935 E5.6142
G1 X127.098 Y28.506 E6.8827
G1 X147.620 Y28.506 E8.1482
G1 X152.048 Y32.935 E8.5344
G1 X152.048 Y64.098 E10.4560
G1 X147.620 Y68.526 E10.8422
G1 X66.557 Y68.526 E15.8409
G1 X62.128 Y64.098 E16.2271
G1 X62.128 Y32.935 E18.1487
G1 X62.848 Y33.233 F18000
G92 E0.0000
G1 X66.855 Y29.226 E0.3494 F1350
G1 X87.798 Y29.226 E1.6409
G1 X87.798 Y8.233 E2.9354
G1 X91.805 Y4.226 E3.2848
G1 X122.372 Y4.226 E5.1697
G1 X126.378 Y8.233 E5.5191
G1 X126.378 Y29.226 E6.8136
G1 X147.321 Y29.226 E8.1051
G1 X151.328 Y33.233 E8.4545
G1 X151.328 Y63.799 E10.3393
G1 X147.321 Y67.806 E10.6888
G1 X66.855 Y67.806 E15.6507
G1 X62.848 Y63.799 E16.0001
G1 X62.848 Y33.233 E17.8849
G1 X63.568 Y33.531 F18000
G92 E0.0000
G1 X67.153 Y29.946 E0.3126 F1350
G1 X88.518 Y29.946 E1.6301
G1 X88.518 Y8.531 E2.9506
G1 X92.103 Y4.946 E3.2633
G1 X122.073 Y4.946 E5.1113
G1 X125.658 Y8.531 E5.4240
G1 X125.658 Y29.946 E6.7445
G1 X147.023 Y29.946 E8.0620
G1 X150.608 Y33.531 E8.3746
G1 X150.608 Y63.501 E10.2227
G1 X147.023 Y67.086 E10.5353
G1 X67.153 Y67.086 E15.4605
G1 X63.568 Y63.501 E15.7731
G1 X63.568 Y33.531 E17.6212
G1 X64.288 Y33.829 F18000
G92 E0.0000
G1 X67.452 Y30.666 E0.2759 F1350
G1 X89.238 Y30.666 E1.6193
G1 X89.238 Y8.829 E2.9659
G1 X92.401 Y5.666 E3.2417
G1 X121.775 Y5.666 E5.0530
G1 X124.938 Y8.829 E5.3289
G1 X124.938 Y30.666 E6.6754
G1 X146.725 Y30.666 E8.0189
G1 X149.888 Y33.829 E8.2947
G1 X149.888 Y63.203 E10.1060
G1 X146.725 Y66.366 E10.3819
G1 X67.452 Y66.366 E15.2702
G1 X64.288 Y63.203 E15.5461
G1 X64.288 Y33.829 E17.3574
G1 X65.008 Y34.128 F18000
G92 E0.0000
G1 X67.750 Y31.386 E0.2391 F1350
G1 X89.958 Y31.386 E1.6085
G1 X89.958 Y9.128 E2.9811
G1 X92.700 Y6.386 E3.2202
G1 X121.477 Y6.386 E4.9947
G1 X124.218 Y9.128 E5.2338
G1 X124.218 Y31.386 E6.6063
G1 X146.427 Y31.386 E7.9758
G1 X149.168 Y34.128 E8.2149
G1 X149.168 Y62.905 E9.9894
G1 X146.427 Y65.646 E10.2285
G1 X67.750 Y65.646 E15.0800
G1 X65.008 Y62.905 E15.3191
G1 X65.008 Y34.128 E17.0936
G1 X65.728 Y34.426 F18000
G92 E0.0000
G1 X68.048 Y32.106 E0.2023 F1350
G1 X90.678 Y32.106 E1.5978
G1 X90.678 Y9.426 E2.9963
G1 X92.998 Y7.106 E3.1986
G1 X121.179 Y7.106 E4.9364
G1 X123.498 Y9.426 E5.1387
G1 X123.498 Y32.106 E6.5372
G1 X146.129 Y32.106 E7.9327
G1 X148.448 Y34.426 E8.1350
G1 X148.448 Y62.606 E9.8727
G1 X146.129 Y64.926 E10.0750
G1 X68.048 Y64.926 E14.8898
G1 X65.728 Y62.606 E15.0921
G1 X65.728 Y34.426 E16.8298
G1 X66.448 Y34.724 F18000
G92 E0.0000
G1 X68.346 Y32.826 E0.1655 F1350
G1 X91.398 Y32.826 E1.5870
G1 X91.398 Y9.724 E3.0116
G1 X93.296 Y7.826 E3.1771
G1 X120.880 Y7.826 E4.8780
G1 X122.778 Y9.724 E5.0436
G1 X122.778 Y32.826 E6.4681
G1 X145.830 Y32.826 E7.8896
G1 X147.728 Y34.724 E8.0551
G1 X147.728 Y62.308 E9.7561
G1 X145.830 Y64.206 E9.9216
G1 X68.346 Y64.206 E14.6996
G1 X66.448 Y62.308 E14.8651
G1 X66.448 Y34.724 E16.5661
G1 X67.168 Y35.022 F18000
G92 E0.0000
G1 X68.644 Y33.546 E0.1287 F1350
G1 X92.118 Y33.546 E1.5762
G1 X92.118 Y10.022 E3.0268
G1 X93.594 Y8.546 E3.1555
G1 X120.582 Y8.546 E4.8197
G1 X122.058 Y10.022 E4.9484
G1 X122.058 Y33.546 E6.3990
G1 X145.532 Y33.546 E7.8465
G1 X147.008 Y35.022 E7.9753
G1 X147.008 Y62.010 E9.6394
G1 X145.532 Y63.486 E9.7682
G1 X68.644 Y63.486 E14.5094
G1 X67.168 Y62.010 E14.6381
G1 X67.168 Y35.022 E16.3023
G1 X67.888 Y35.321 F18000
G92 E0.0000
G1 X68.943 Y34.266 E0.0920 F1350
G1 X92.838 Y34.266 E1.5655
G1 X92.838 Y10.321 E3.0420
G1 X93.893 Y9.266 E3.1340
G1 X120.284 Y9.266 E4.7614
G1 X121.338 Y10.321 E4.8533
G1 X121.338 Y34.266 E6.3299
G1 X145.234 Y34.266 E7.8034
G1 X146.288 Y35.321 E7.8954
G1 X146.288 Y61.712 E9.5228
G1 X145.234 Y62.766 E9.6147
G1 X68.943 Y62.766 E14.3192
G1 X67.888 Y61.712 E14.4111
G1 X67.888 Y35.321 E16.0385
G1 X68.608 Y35.619 F18000
G92 E0.0000
G1 X69.241 Y34.986 E0.0552 F1350
G1 X93.558 Y34.986 E1.5547
G1 X93.558 Y10.619 E3.0573
G1 X94.191 Y9.986 E3.1124
G1 X119.986 Y9.986 E4.7031
G1 X120.618 Y10.619 E4.7582
G1 X120.618 Y34.986 E6.2608
G1 X144.936 Y34.986 E7.7603
G1 X145.568 Y35.619 E7.8155
G1 X145.568 Y61.413 E9.4061
G1 X144.936 Y62.046 E9.4613
G1 X69.241 Y62.046 E14.1290
G1 X68.608 Y61.413 E14.1841
G1 X68.608 Y35.619 E15.7747
G1 X69.328 Y35.917 F18000
G92 E0.0000
G1 X69.539 Y35.706 E0.0184 F1350
G1 X94.278 Y35.706 E1.5439
G1 X94.278 Y10.917 E3.0725
G1 X94.489 Y10.706 E3.0909
G1 X119.687 Y10.706 E4.6447
G1 X119.898 Y10.917 E4.6631
G1 X119.898 Y35.706 E6.1917
G1 X144.637 Y35.706 E7.7172
G1 X144.848 Y35.917 E7.7356
G1 X144.848 Y61.115 E9.2895
G1 X144.637 Y61.326 E9.3079
G1 X69.539 Y61.326 E13.9387
G1 X69.328 Y61.115 E13.9571
G1 X69.328 Y35.917 E15.5110
; feature inner perimeter
G1 X70.048 Y36.426 F18000
G1 X70.048 Y36.567
G1 X71.488 Y37.866
G92 E0.0000
G1 X96.438 Y37.866 E1.5385 F1215
G1 X96.438 Y12.866 E3.0801
G1 X117.738 Y12.866 E4.3936
G1 X117.738 Y37.866 E5.9352
G1 X142.688 Y37.866 E7.4737
G1 X142.688 Y59.166 E8.7872
G1 X71.488 Y59.166 E13.1777
G1 X71.488 Y37.866 E14.4911
G1 X70.768 Y37.146 F18000
G92 E0.0000
G1 X95.718 Y37.146 E1.5385 F1215
G1 X95.718 Y12.146 E3.0801
G1 X118.458 Y12.146 E4.4824
G1 X118.458 Y37.146 E6.0240
G1 X143.408 Y37.146 E7.5625
G1 X143.408 Y59.886 E8.9648
G1 X70.768 Y59.886 E13.4441
G1 X70.768 Y37.146 E14.8463
; feature outer perimeter
G1 X70.048 Y36.426 F18000
G92 E0.0000
G1 X94.998 Y36.426 E1.5385 F1080
G1 X94.998 Y11.426 E3.0801
G1 X119.178 Y11.426 E4.5712
G1 X119.178 Y36.426 E6.1128
G1 X144.128 Y36.426 E7.6513
G1 X144.128 Y60.606 E9.1423
G1 X70.048 Y60.606 E13.7104
G1 X70.048 Y36.426 E15.2015
G1 X71.048 Y36.426 F1080
; feature solid layer
G1 X72.641 Y58.590 F18000
G92 E0.0000
G1 X72.064 Y58.013 E0.0503 F1013
G1 X72.064 Y56.995 E0.1131
G1 X73.659 Y58.590 E0.2522
G1 X74.678 Y58.590 E0.3150
G1 X72.064 Y55.977 E0.5429
G1 X72.064 Y54.959 E0.6057
G1 X75.696 Y58.590 E0.9224
G1 X76.714 Y58.590 E0.9852
G1 X72.064 Y53.940 E1.3907
G1 X72.064 Y52.922 E1.4535
G1 X77.732 Y58.590 E1.9478
G1 X78.751 Y58.590 E2.0106
G1 X72.064 Y51.904 E2.5936
G1 X72.064 Y50.886 E2.6564
G1 X79.769 Y58.590 E3.3283
G1 X80.787 Y58.590 E3.3911
G1 X72.064 Y49.867 E4.1518
G1 X72.064 Y48.849 E4.2146
G1 X81.805 Y58.590 E5.0641
G1 X82.824 Y58.590 E5.1269
G1 X72.064 Y47.831 E6.0651
G1 X72.064 Y46.813 E6.1279
G1 X83.842 Y58.590 E7.1550
G1 X84.860 Y58.590 E7.2178
G1 X72.064 Y45.794 E8.3337
G1 X72.064 Y44.776 E8.3964
G1 X85.878 Y58.590 E9.6011
G1 X86.896 Y58.590 E9.6639
G1 X72.064 Y43.758 E10.9574
G1 X72.064 Y42.740 E11.0202
G1 X87.915 Y58.590 E12.4024
G1 X88.933 Y58.590 E12.4652
G1 X72.064 Y41.721 E13.9363
G1 X72.064 Y40.703 E13.9991
G1 X89.951 Y58.590 E15.5589
G1 X90.969 Y58.590 E15.6217
G1 X72.064 Y39.685 E17.2703
G1 X72.064 Y38.667 E17.3331
G1 X91.988 Y58.590 E19.0706
G1 X93.006 Y58.590 E19.1334
G1 X72.858 Y38.442 E20.8904
G1 X73.876 Y38.442 E20.9532
G1 X94.024 Y58.590 E22.7102
G1 X95.042 Y58.590 E22.7730
G1 X74.894 Y38.442 E24.5301
G1 X75.913 Y38.442 E24.5928
G1 X96.061 Y58.590 E26.3499
G1 X97.079 Y58.590 E26.4127
G1 X76.931 Y38.442 E28.1697
G1 X77.949 Y38.442 E28.2325
G1 X98.097 Y58.590 E29.9895
G1 X99.115 Y58.590 E30.0523
G1 X78.967 Y38.442 E31.8094
G1 X79.985 Y38.442 E31.8721
G1 X100.134 Y58.590 E33.6292
G1 X101.152 Y58.590 E33.6920
G1 X81.004 Y38.442 E35.4490
G1 X82.022 Y38.442 E35.5118
G1 X102.170 Y58.590 E37.2688
G1 X103.188 Y58.590 E37.3316
G1 X83.040 Y38.442 E39.0887
G1 X84.058 Y38.442 E39.1515
G1 X104.206 Y58.590 E40.9085
G1 X105.225 Y58.590 E40.9713
G1 X85.077 Y38.442 E42.7283
G1 X86.095 Y38.442 E42.7911
G1 X106.243 Y58.590 E44.5481
G1 X107.261 Y58.590 E44.6109
G1 X87.113 Y38.442 E46.3680
G1 X88.131 Y38.442 E46.4308
G1 X108.279 Y58.590 E48.1878
G1 X109.298 Y58.590 E48.2506
G1 X89.150 Y38.442 E50.0076
G1 X90.168 Y38.442 E50.0704
G1 X110.316 Y58.590 E51.8274
G1 X111.334 Y58.590 E51.8902
G1 X91.186 Y38.442 E53.6473
G1 X92.204 Y38.442 E53.7101
G1 X112.352 Y58.590 E55.4671
G1 X113.371 Y58.590 E55.5299
G1 X93.223 Y38.442 E57.2869
G1 X94.241 Y38.442 E57.3497
G1 X114.389 Y58.590 E59.1067
