; G-Code generated by Simplify3D(R) Version 4.1.2
; Jul 11, 2022 at 9:50:11 PM
; Settings Summary
;   processName,Process1
;   applyToModels,bed-mount-front
;   profileName,HSBot
;   profileVersion,2019-11-09 11:59:44
;   baseProfile,Default
;   printMaterial,PETG - Eryone
;   printQuality,Medium
;   printExtruders,
;   extruderName,Extruder - v6,Extruder - lgx ace
;   extruderToolheadNumber,0,1
;   extruderDiameter,0.4,0.4
;   extruderAutoWidth,1,1
;   extruderWidth,0.48,0.48
;   extrusionMultiplier,1.03,1.03
;   extruderUseRetract,0,1
;   extruderRetractionDistance,4,1
;   extruderExtraRestartDistance,0,0
;   extruderRetractionZLift,0,0
;   extruderRetractionSpeed,3600,3600
;   extruderUseCoasting,0,0
;   extruderCoastingDistance,0.2,0.2
;   extruderUseWipe,0,1
;   extruderWipeDistance,1,1
;   primaryExtruder,1
;   layerHeight,0.2
;   topSolidLayers,4
;   bottomSolidLayers,4
;   perimeterOutlines,3
;   printPerimetersInsideOut,1
;   startPointOption,2
;   startPointOriginX,0
;   startPointOriginY,0
;   sequentialIslands,0
;   spiralVaseMode,0
;   firstLayerHeightPercentage,100
;   firstLayerWidthPercentage,150
;   firstLayerUnderspeed,0.25
;   useRaft,0
;   raftExtruder,0
;   raftTopLayers,3
;   raftBaseLayers,2
;   raftOffset,3
;   raftSeparationDistance,0.18
;   raftTopInfill,100
;   aboveRaftSpeedMultiplier,0.3
;   useSkirt,1
;   skirtExtruder,1
;   skirtLayers,1
;   skirtOutlines,15
;   skirtOffset,0
;   usePrimePillar,0
;   primePillarExtruder,999
;   primePillarWidth,12
;   primePillarLocation,7
;   primePillarSpeedMultiplier,1
;   useOozeShield,0
;   oozeShieldExtruder,999
;   oozeShieldOffset,2
;   oozeShieldOutlines,1
;   oozeShieldSidewallShape,1
;   oozeShieldSidewallAngle,30
;   oozeShieldSpeedMultiplier,1
;   infillExtruder,1
;   internalInfillPattern,Rectilinear
;   externalInfillPattern,Rectilinear
;   infillPercentage,15
;   outlineOverlapPercentage,20
;   infillExtrusionWidthPercentage,100
;   minInfillLength,3
;   infillLayerInterval,1
;   internalInfillAngles,45,-45
;   overlapInternalInfillAngles,0
;   externalInfillAngles,45,-45
;   generateSupport,0
;   supportExtruder,1
;   supportInfillPercentage,30
;   supportExtraInflation,0
;   supportBaseLayers,1
;   denseSupportExtruder,0
;   denseSupportLayers,0
;   denseSupportInfillPercentage,70
;   supportLayerInterval,1
;   supportHorizontalPartOffset,0.3
;   supportUpperSeparationLayers,1
;   supportLowerSeparationLayers,1
;   supportType,0
;   supportGridSpacing,2
;   maxOverhangAngle,45
;   supportAngles,0
;   temperatureName,v6,Bed,lgx-ace
;   temperatureNumber,0,0,1
;   temperatureSetpointCount,1,1,1
;   temperatureSetpointLayers,1,1,1
;   temperatureSetpointTemperatures,0,85,220
;   temperatureStabilizeAtStartup,1,1,1
;   temperatureHeatedBed,0,1,0
;   fanLayers,1,2,3
;   fanSpeeds,0,15,15
;   blipFanToFullPower,0
;   adjustSpeedForCooling,0
;   minSpeedLayerTime,15
;   minCoolingSpeedSlowdown,50
;   increaseFanForCooling,0
;   minFanLayerTime,45
;   maxCoolingFanSpeed,70
;   increaseFanForBridging,0
;   bridgingFanSpeed,80
;   use5D,1
;   relativeEdistances,0
;   allowEaxisZeroing,1
;   independentExtruderAxes,0
;   includeM10123,0
;   stickySupport,1
;   applyToolheadOffsets,0
;   gcodeXoffset,0
;   gcodeYoffset,0
;   gcodeZoffset,0
;   overrideMachineDefinition,1
;   machineTypeOverride,0
;   strokeXoverride,220
;   strokeYoverride,220
;   strokeZoverride,175
;   originOffsetXoverride,0
;   originOffsetYoverride,0
;   originOffsetZoverride,0
;   homeXdirOverride,-1
;   homeYdirOverride,-1
;   homeZdirOverride,-1
;   flipXoverride,1
;   flipYoverride,-1
;   flipZoverride,1
;   toolheadOffsets,0,0|0,0|0,0|0,0|0,0|0,0
;   overrideFirmwareConfiguration,0
;   firmwareTypeOverride,RepRap (Marlin/Repetier/Sprinter)
;   GPXconfigOverride,r2
;   baudRateOverride,115200
;   overridePrinterModels,0
;   printerModelsOverride
;   startingGcode,G28 ; home all axes,G32 ; run bed.g -- probe bed and enable compensation
;   layerChangeGcode,
;   retractionGcode,
;   toolChangeGcode,
;   endingGcode,M0 ; call stop.g
;   exportFileFormat,gcode
;   celebration,0
;   celebrationSong,Random Song
;   postProcessing,|; 0.2mm layer, 8 bands 5mm each, total height 40mm|{REPLACE "; layer 25" "M572 D0 S0.69\n; layer 10"}|{REPLACE "; layer 50" "M572 D0 S0.70\n; layer 50"}|{REPLACE "; layer 75" "M572 D0 S0.71\n; layer 75"}|{REPLACE "; layer 100" "M572 D0 S0.72\n; layer 100"}|{REPLACE "; layer 125" "M572 D0 S0.73\n; layer 125"}|{REPLACE "; layer 150" "M572 D0 S0.74\n; layer 150"}|{REPLACE "; layer 175" "M572 D0 S0.75\n; layer 175"}|{REPLACE "; layer 200" "M572 D0 S0.76\n; layer 200"}
;   defaultSpeed,5400
;   outlineUnderspeed,0.8
;   solidInfillUnderspeed,0.75
;   supportUnderspeed,0.8
;   rapidXYspeed,18000
;   rapidZspeed,1200
;   minBridgingArea,60
;   bridgingExtraInflation,0
;   bridgingExtrusionMultiplier,0.96
;   bridgingSpeedMultiplier,1
;   useFixedBridgingAngle,0
;   fixedBridgingAngle,0
;   applyBridgingToPerimeters,0
;   filamentDiameters,1.75|1.75|1.75|1.75|1.75|1.75
;   filamentPricesPerKg,25|46|46|46|46|46
;   filamentDensities,1.29|1.25|1.25|1.25|1.25|1.25
;   useMinPrintHeight,0
;   minPrintHeight,0.3
;   useMaxPrintHeight,0
;   maxPrintHeight,110
;   useDiaphragm,0
;   diaphragmLayerInterval,20
;   robustSlicing,1
;   mergeAllIntoSolid,0
;   onlyRetractWhenCrossingOutline,1
;   retractBetweenLayers,0
;   useRetractionMinTravel,1
;   retractionMinTravel,5
;   retractWhileWiping,1
;   onlyWipeOutlines,1
;   avoidCrossingOutline,1
;   maxMovementDetourFactor,2
;   toolChangeRetractionDistance,12
;   toolChangeExtraRestartDistance,0
;   toolChangeRetractionSpeed,600
;   externalThinWallType,0
;   internalThinWallType,0
;   thinWallAllowedOverlapPercentage,10
;   singleExtrusionMinLength,0.1
;   singleExtrusionMinPrintingWidthPercentage,50
;   singleExtrusionMaxPrintingWidthPercentage,200
;   singleExtrusionEndpointExtension,0.2
;   horizontalSizeCompensation,-0.1
G90
M82
M106 S0
M140 S85
M190 S85
G10 S0 R{0-50} P0
G10 S220 R{220-50} P1
M116 P1
G28 ; home all axes
G32 ; run bed.g -- probe bed and enable compensation
; process Process1
; layer 1, Z = 0.200
T1
G92 E0.0000
G1 E-1.0000 F3600
; feature skirt
; tool H0.200 W0.720
G1 Z0.200 F1200
G1 X87.241 Y7.053 F18000
G1 E0.0000 F3600
G92 E0.0000
G1 X93.357 Y0.937 E0.5333 F1350
G1 X127.112 Y0.937 E2.6148
G1 X133.227 Y7.053 E3.1481
G1 X133.227 Y31.412 E4.6502
G1 X131.638 Y35.249 E4.9064
G1 X126.766 Y40.121 E5.3312
G1 X122.937 Y41.711 E5.5869
G1 X116.363 Y41.720 E5.9922
G1 X112.517 Y40.130 E6.2488
G1 X110.337 Y37.950 E6.4390
G1 X108.160 Y40.127 E6.6289
G1 X104.323 Y41.717 E6.8850
G1 X93.563 Y41.717 E7.5485
G1 X87.447 Y35.601 E8.0818
G1 X87.447 Y23.604 E8.8216
G1 X87.241 Y23.106 E8.8548
G1 X87.241 Y7.053 E9.8448
G1 X87.961 Y7.351 F18000
G92 E0.0000
G1 X93.655 Y1.657 E0.4965 F1350
G1 X126.813 Y1.657 E2.5412
G1 X132.507 Y7.351 E3.0378
G1 X132.507 Y31.269 E4.5127
G1 X131.027 Y34.842 E4.7511
G1 X126.358 Y39.511 E5.1584
G1 X122.793 Y40.991 E5.3964
G1 X116.505 Y41.000 E5.7841
G1 X112.925 Y39.520 E6.0230
G1 X110.337 Y36.932 E6.2486
G1 X107.752 Y39.517 E6.4741
G1 X104.179 Y40.997 E6.7126
G1 X93.861 Y40.997 E7.3488
G1 X88.167 Y35.303 E7.8454
G1 X88.167 Y23.461 E8.5756
G1 X87.961 Y22.963 E8.6089
G1 X87.961 Y7.351 E9.5716
G1 X88.681 Y7.649 F18000
G92 E0.0000
G1 X93.953 Y2.377 E0.4598 F1350
G1 X126.515 Y2.377 E2.4677
G1 X131.787 Y7.649 E2.9274
G1 X131.787 Y31.126 E4.3751
G1 X130.417 Y34.434 E4.5959
G1 X125.950 Y38.901 E4.9855
G1 X122.649 Y40.271 E5.2059
G1 X116.648 Y40.279 E5.5759
G1 X113.333 Y38.909 E5.7971
G1 X110.757 Y36.334 E6.0217
G1 X110.337 Y35.319 E6.0894
G1 X109.917 Y36.334 E6.1571
G1 X107.344 Y38.907 E6.3815
G1 X104.036 Y40.277 E6.6023
G1 X94.159 Y40.277 E7.2113
G1 X88.887 Y35.005 E7.6711
G1 X88.887 Y23.318 E8.3918
G1 X88.681 Y22.820 E8.4250
G1 X88.681 Y7.649 E9.3605
G1 X89.401 Y7.947 F18000
G92 E0.0000
G1 X94.251 Y3.097 E0.4230 F1350
G1 X126.217 Y3.097 E2.3941
G1 X131.067 Y7.947 E2.8171
G1 X131.067 Y30.983 E4.2376
G1 X129.807 Y34.026 E4.4407
G1 X125.542 Y38.291 E4.8126
G1 X122.505 Y39.551 E5.0154
G1 X116.790 Y39.559 E5.3677
G1 X113.740 Y38.298 E5.5713
G1 X111.368 Y35.926 E5.7782
G1 X110.337 Y33.438 E5.9442
G1 X109.307 Y35.926 E6.1103
G1 X106.936 Y38.296 E6.3170
G1 X103.893 Y39.557 E6.5201
G1 X94.458 Y39.557 E7.1019
G1 X89.607 Y34.707 E7.5249
G1 X89.607 Y23.174 E8.2360
G1 X89.401 Y22.676 E8.2693
G1 X89.401 Y7.947 E9.1775
G1 X90.121 Y8.245 F18000
G92 E0.0000
G1 X94.549 Y3.817 E0.3862 F1350
G1 X125.919 Y3.817 E2.3206
G1 X130.347 Y8.246 E2.7068
G1 X130.347 Y30.839 E4.1000
G1 X129.196 Y33.618 E4.2855
G1 X125.134 Y37.681 E4.6397
G1 X122.361 Y38.831 E4.8249
G1 X116.933 Y38.839 E5.1596
G1 X114.148 Y37.688 E5.3454
G1 X111.978 Y35.518 E5.5346
G1 X110.827 Y32.740 E5.7201
G1 X110.827 Y23.337 E6.2999
G1 X109.847 Y23.337 E6.3603
G1 X109.847 Y32.739 E6.9401
G1 X108.696 Y35.518 E7.1256
G1 X106.528 Y37.686 E7.3146
G1 X103.750 Y38.837 E7.5001
G1 X94.756 Y38.837 E8.0547
G1 X90.327 Y34.408 E8.4409
G1 X90.327 Y23.031 E9.1424
G1 X90.121 Y22.533 E9.1757
G1 X90.121 Y8.245 E10.0567
G1 X90.841 Y8.544 F18000
G92 E0.0000
G1 X94.848 Y4.537 E0.3494 F1350
G1 X125.620 Y4.537 E2.2470
G1 X129.627 Y8.544 E2.5964
G1 X129.627 Y30.696 E3.9624
G1 X128.586 Y33.210 E4.1302
G1 X124.726 Y37.070 E4.4669
G1 X122.217 Y38.112 E4.6344
G1 X117.075 Y38.119 E4.9514
G1 X114.556 Y37.077 E5.1195
G1 X112.589 Y35.110 E5.2911
G1 X111.547 Y32.596 E5.4589
G1 X111.547 Y22.617 E6.0742
G1 X109.127 Y22.617 E6.2235
G1 X109.127 Y32.596 E6.8388
G1 X108.086 Y35.110 E7.0066
G1 X106.120 Y37.076 E7.1780
G1 X103.606 Y38.117 E7.3458
G1 X95.054 Y38.117 E7.8732
G1 X91.047 Y34.110 E8.2226
G1 X91.047 Y22.888 E8.9146
G1 X90.841 Y22.390 E8.9479
G1 X90.841 Y8.544 E9.8017
G1 X91.561 Y8.842 F18000
G92 E0.0000
G1 X95.146 Y5.257 E0.3126 F1350
G1 X125.322 Y5.257 E2.1734
G1 X128.907 Y8.842 E2.4861
G1 X128.907 Y30.553 E3.8249
G1 X127.975 Y32.802 E3.9750
G1 X124.317 Y36.460 E4.2940
G1 X122.073 Y37.392 E4.4438
G1 X117.218 Y37.399 E4.7432
G1 X114.963 Y36.467 E4.8937
G1 X113.199 Y34.702 E5.0475
G1 X112.267 Y32.453 E5.1977
G1 X112.267 Y21.897 E5.8486
G1 X108.407 Y21.897 E6.0866
G1 X108.407 Y32.453 E6.7375
G1 X107.475 Y34.702 E6.8877
G1 X105.713 Y36.465 E7.0414
G1 X103.463 Y37.397 E7.1915
G1 X95.352 Y37.397 E7.6917
G1 X91.767 Y33.812 E8.0043
G1 X91.767 Y22.745 E8.6868
G1 X91.561 Y22.247 E8.7200
G1 X91.561 Y8.842 E9.5466
G1 X92.281 Y9.140 F18000
G92 E0.0000
G1 X95.444 Y5.977 E0.2759 F1350
G1 X125.024 Y5.977 E2.0999
G1 X128.187 Y9.140 E2.3757
G1 X128.187 Y30.410 E3.6873
G1 X127.365 Y32.394 E3.8198
G1 X123.909 Y35.850 E4.1211
G1 X121.929 Y36.672 E4.2533
G1 X117.360 Y36.678 E4.5351
G1 X115.371 Y35.856 E4.6678
G1 X113.809 Y34.294 E4.8040
G1 X112.987 Y32.310 E4.9365
G1 X112.987 Y21.177 E5.6230
G1 X107.687 Y21.177 E5.9498
G1 X107.687 Y32.310 E6.6363
G1 X106.865 Y34.294 E6.7687
G1 X105.305 Y35.855 E6.9048
G1 X103.320 Y36.677 E7.0373
G1 X95.650 Y36.677 E7.5102
G1 X92.487 Y33.514 E7.7861
G1 X92.487 Y22.602 E8.4590
G1 X92.281 Y22.103 E8.4922
G1 X92.281 Y9.140 E9.2916
G1 X93.001 Y9.438 F18000
G92 E0.0000
G1 X95.742 Y6.697 E0.2391 F1350
G1 X124.726 Y6.697 E2.0263
G1 X127.467 Y9.438 E2.2654
G1 X127.467 Y30.267 E3.5497
G1 X126.755 Y31.987 E3.6645
G1 X123.501 Y35.240 E3.9482
G1 X121.785 Y35.952 E4.0628
G1 X117.503 Y35.958 E4.3269
G1 X115.779 Y35.246 E4.4419
G1 X114.420 Y33.886 E4.5605
G1 X113.707 Y32.167 E4.6753
G1 X113.707 Y20.457 E5.3973
G1 X106.967 Y20.457 E5.8129
G1 X106.967 Y32.167 E6.5350
G1 X106.255 Y33.887 E6.6498
G1 X104.897 Y35.244 E6.7682
G1 X103.177 Y35.957 E6.8830
G1 X95.949 Y35.957 E7.3287
G1 X93.207 Y33.215 E7.5678
G1 X93.207 Y22.458 E8.2312
G1 X93.001 Y21.960 E8.2644
G1 X93.001 Y9.438 E9.0365
G1 X93.721 Y9.737 F18000
G92 E0.0000
G1 X96.041 Y7.417 E0.2023 F1350
G1 X124.427 Y7.417 E1.9528
G1 X126.747 Y9.737 E2.1550
G1 X126.747 Y30.123 E3.4122
G1 X126.144 Y31.579 E3.5093
G1 X123.093 Y34.630 E3.7754
G1 X121.641 Y35.232 E3.8723
G1 X117.645 Y35.238 E4.1188
G1 X116.186 Y34.635 E4.2161
G1 X115.030 Y33.479 E4.3169
G1 X114.427 Y32.023 E4.4141
G1 X114.427 Y19.737 E5.1717
G1 X106.247 Y19.737 E5.6761
G1 X106.247 Y32.023 E6.4337
G1 X105.644 Y33.479 E6.5309
G1 X104.489 Y34.634 E6.6316
G1 X103.034 Y35.237 E6.7288
G1 X96.247 Y35.237 E7.1473
G1 X93.927 Y32.917 E7.3496
G1 X93.927 Y22.315 E8.0033
G1 X93.721 Y21.817 E8.0366
G1 X93.721 Y9.737 E8.7815
G1 X94.441 Y10.035 F18000
G92 E0.0000
G1 X96.339 Y8.137 E0.1655 F1350
G1 X124.129 Y8.137 E1.8792
G1 X126.027 Y10.035 E2.0447
G1 X126.027 Y29.980 E3.2746
G1 X125.534 Y31.171 E3.3541
G1 X122.685 Y34.019 E3.6025
G1 X121.497 Y34.513 E3.6818
G1 X117.787 Y34.518 E3.9106
G1 X116.594 Y34.024 E3.9902
G1 X115.640 Y33.071 E4.0734
G1 X115.147 Y31.880 E4.1529
G1 X115.147 Y19.017 E4.9461
G1 X105.527 Y19.017 E5.5393
G1 X105.527 Y31.880 E6.3325
G1 X105.034 Y33.071 E6.4119
G1 X104.081 Y34.024 E6.4950
G1 X102.890 Y34.517 E6.5745
G1 X96.545 Y34.517 E6.9658
G1 X94.647 Y32.619 E7.1313
G1 X94.647 Y22.172 E7.7755
G1 X94.441 Y21.674 E7.8088
G1 X94.441 Y10.035 E8.5265
G1 X95.161 Y10.333 F18000
G92 E0.0000
G1 X96.637 Y8.857 E0.1287 F1350
G1 X123.831 Y8.857 E1.8056
G1 X125.307 Y10.333 E1.9344
G1 X125.307 Y29.837 E3.1370
G1 X124.924 Y30.763 E3.1989
G1 X122.277 Y33.409 E3.4296
G1 X121.353 Y33.793 E3.4913
G1 X117.930 Y33.798 E3.7024
G1 X117.002 Y33.414 E3.7644
G1 X116.251 Y32.663 E3.8298
G1 X115.867 Y31.737 E3.8917
G1 X115.867 Y18.297 E4.7204
G1 X104.807 Y18.297 E5.4024
G1 X104.807 Y31.737 E6.2312
G1 X104.424 Y32.663 E6.2930
G1 X103.673 Y33.413 E6.3584
G1 X102.747 Y33.797 E6.4202
G1 X96.843 Y33.797 E6.7843
G1 X95.367 Y32.321 E6.9130
G1 X95.367 Y22.029 E7.5477
G1 X95.161 Y21.531 E7.5809
G1 X95.161 Y10.333 E8.2714
G1 X95.881 Y10.631 F18000
G92 E0.0000
G1 X96.935 Y9.577 E0.0920 F1350
G1 X123.533 Y9.577 E1.7321
G1 X124.587 Y10.631 E1.8240
G1 X124.587 Y29.694 E2.9995
G1 X124.313 Y30.355 E3.0436
G1 X121.869 Y32.799 E3.2568
G1 X121.209 Y33.073 E3.3008
G1 X118.072 Y33.077 E3.4943
G1 X117.409 Y32.803 E3.5385
G1 X116.861 Y32.255 E3.5863
G1 X116.587 Y31.594 E3.6305
G1 X116.587 Y17.577 E4.4948
G1 X104.087 Y17.577 E5.2656
G1 X104.087 Y31.594 E6.1299
G1 X103.813 Y32.255 E6.1741
G1 X103.265 Y32.803 E6.2218
G1 X102.604 Y33.077 E6.2660
G1 X97.142 Y33.077 E6.6028
G1 X96.087 Y32.023 E6.6948
G1 X96.087 Y21.885 E7.3199
G1 X95.881 Y21.387 E7.3531
G1 X95.881 Y10.631 E8.0164
G1 X96.601 Y10.930 F18000
G92 E0.0000
G1 X97.234 Y10.297 E0.0552 F1350
G1 X123.235 Y10.297 E1.6585
G1 X123.867 Y10.930 E1.7137
G1 X123.867 Y29.550 E2.8619
G1 X123.703 Y29.947 E2.8884
G1 X121.461 Y32.189 E3.0839
G1 X121.065 Y32.353 E3.1103
G1 X118.215 Y32.357 E3.2861
G1 X117.817 Y32.193 E3.3126
G1 X117.472 Y31.847 E3.3428
G1 X117.307 Y31.450 E3.3693
G1 X117.307 Y16.857 E4.2691
G1 X103.367 Y16.857 E5.1287
G1 X103.367 Y31.450 E6.0286
G1 X103.203 Y31.847 E6.0551
G1 X102.858 Y32.193 E6.0852
G1 X102.461 Y32.357 E6.1117
G1 X97.440 Y32.357 E6.4213
G1 X96.807 Y31.724 E6.4765
G1 X96.807 Y21.683 E7.0957
G1 X96.765 Y21.641 E7.0994
G1 X96.601 Y21.244 E7.1258
G1 X96.601 Y10.930 E7.7619
G1 X97.321 Y11.228 F18000
G92 E0.0000
G1 X97.532 Y11.017 E0.0184 F1350
G1 X122.936 Y11.017 E1.5849
G1 X123.147 Y11.228 E1.6033
G1 X123.147 Y29.407 E2.7243
G1 X123.092 Y29.539 E2.7332
G1 X121.053 Y31.579 E2.9110
G1 X120.921 Y31.633 E2.9198
G1 X118.357 Y31.637 E3.0779
G1 X118.225 Y31.582 E3.0868
G1 X118.082 Y31.439 E3.0992
G1 X118.027 Y31.307 E3.1080
G1 X118.027 Y16.137 E4.0435
G1 X102.647 Y16.137 E4.9919
G1 X102.647 Y31.307 E5.9274
G1 X102.592 Y31.439 E5.9362
G1 X102.450 Y31.582 E5.9486
G1 X102.317 Y31.637 E5.9575
G1 X97.738 Y31.637 E6.2398
G1 X97.527 Y31.426 E6.2582
G1 X97.527 Y21.385 E6.8774
G1 X97.376 Y21.233 E6.8906
G1 X97.321 Y21.101 E6.8995
G1 X97.321 Y11.228 E7.5083
; feature inner perimeter
G1 X98.041 Y11.737 F18000
G1 X98.041 Y11.878
G1 X99.481 Y13.177
G92 E0.0000
G1 X120.987 Y13.177 E1.3262 F1215
G1 X120.987 Y28.590 E2.2766
G1 X120.187 Y29.390 E2.3464
G1 X120.187 Y13.977 E3.2968
G1 X100.487 Y13.977 E4.5116
G1 X100.487 Y29.477 E5.4674
G1 X99.687 Y29.477 E5.5167
G1 X99.687 Y20.490 E6.0709
G1 X99.481 Y20.284 E6.0889
G1 X99.481 Y13.177 E6.5271
