; G-Code generated by Simplify3D(R) Version 4.1.2
; Jul 8, 2022 at 8:29:14 PM
; Settings Summary
;   processName,Process1
;   applyToModels,z-axes-leadscrew-mount-front-right
;   profileName,HSBot (modified)
;   profileVersion,2019-11-09 11:59:44
;   baseProfile,Default
;   printMaterial,PETG - Eryone
;   printQuality,Medium
;   printExtruders,
;   extruderName,Extruder - v6,Extruder - lgx ace
;   extruderToolheadNumber,0,1
;   extruderDiameter,0.4,0.4
;   extruderAutoWidth,1,1
;   extruderWidth,0.48,0.48
;   extrusionMultiplier,1.03,1.03
;   extruderUseRetract,0,1
;   extruderRetractionDistance,4,1
;   extruderExtraRestartDistance,0,0
;   extruderRetractionZLift,0,0
;   extruderRetractionSpeed,3600,3600
;   extruderUseCoasting,0,0
;   extruderCoastingDistance,0.2,0.2
;   extruderUseWipe,0,1
;   extruderWipeDistance,1,1
;   primaryExtruder,1
;   layerHeight,0.2
;   topSolidLayers,4
;   bottomSolidLayers,4
;   perimeterOutlines,4
;   printPerimetersInsideOut,1
;   startPointOption,2
;   startPointOriginX,0
;   startPointOriginY,0
;   sequentialIslands,0
;   spiralVaseMode,0
;   firstLayerHeightPercentage,100
;   firstLayerWidthPercentage,150
;   firstLayerUnderspeed,0.25
;   useRaft,0
;   raftExtruder,0
;   raftTopLayers,3
;   raftBaseLayers,2
;   raftOffset,3
;   raftSeparationDistance,0.18
;   raftTopInfill,100
;   aboveRaftSpeedMultiplier,0.3
;   useSkirt,1
;   skirtExtruder,1
;   skirtLayers,1
;   skirtOutlines,15
;   skirtOffset,0
;   usePrimePillar,0
;   primePillarExtruder,999
;   primePillarWidth,12
;   primePillarLocation,7
;   primePillarSpeedMultiplier,1
;   useOozeShield,0
;   oozeShieldExtruder,999
;   oozeShieldOffset,2
;   oozeShieldOutlines,1
;   oozeShieldSidewallShape,1
;   oozeShieldSidewallAngle,30
;   oozeShieldSpeedMultiplier,1
;   infillExtruder,1
;   internalInfillPattern,Full Honeycomb
;   externalInfillPattern,Rectilinear
;   infillPercentage,15
;   outlineOverlapPercentage,20
;   infillExtrusionWidthPercentage,100
;   minInfillLength,3
;   infillLayerInterval,1
;   internalInfillAngles,0,120,-120
;   overlapInternalInfillAngles,0
;   externalInfillAngles,45,-45
;   generateSupport,1
;   supportExtruder,1
;   supportInfillPercentage,30
;   supportExtraInflation,0
;   supportBaseLayers,1
;   denseSupportExtruder,0
;   denseSupportLayers,0
;   denseSupportInfillPercentage,70
;   supportLayerInterval,1
;   supportHorizontalPartOffset,0.3
;   supportUpperSeparationLayers,1
;   supportLowerSeparationLayers,1
;   supportType,0
;   supportGridSpacing,2
;   maxOverhangAngle,45
;   supportAngles,0
;   temperatureName,v6,Bed,lgx-ace
;   temperatureNumber,0,0,1
;   temperatureSetpointCount,1,1,1
;   temperatureSetpointLayers,1,1,1
;   temperatureSetpointTemperatures,0,85,230
;   temperatureStabilizeAtStartup,1,1,1
;   temperatureHeatedBed,0,1,0
;   fanLayers,1,2,3
;   fanSpeeds,0,15,15
;   blipFanToFullPower,0
;   adjustSpeedForCooling,0
;   minSpeedLayerTime,15
;   minCoolingSpeedSlowdown,50
;   increaseFanForCooling,0
;   minFanLayerTime,45
;   maxCoolingFanSpeed,70
;   increaseFanForBridging,0
;   bridgingFanSpeed,80
;   use5D,1
;   relativeEdistances,0
;   allowEaxisZeroing,1
;   independentExtruderAxes,0
;   includeM10123,0
;   stickySupport,1
;   applyToolheadOffsets,0
;   gcodeXoffset,0
;   gcodeYoffset,0
;   gcodeZoffset,0
;   overrideMachineDefinition,1
;   machineTypeOverride,0
;   strokeXoverride,220
;   strokeYoverride,220
;   strokeZoverride,175
;   originOffsetXoverride,0
;   originOffsetYoverride,0
;   originOffsetZoverride,0
;   homeXdirOverride,-1
;   homeYdirOverride,-1
;   homeZdirOverride,-1
;   flipXoverride,1
;   flipYoverride,-1
;   flipZoverride,1
;   toolheadOffsets,0,0|0,0|0,0|0,0|0,0|0,0
;   overrideFirmwareConfiguration,0
;   firmwareTypeOverride,RepRap (Marlin/Repetier/Sprinter)
;   GPXconfigOverride,r2
;   baudRateOverride,115200
;   overridePrinterModels,0
;   printerModelsOverride
;   startingGcode,G28 ; home all axes,G32 ; run bed.g -- probe bed and enable compensation
;   layerChangeGcode,
;   retractionGcode,
;   toolChangeGcode,
;   endingGcode,M0 ; call stop.g
;   exportFileFormat,gcode
;   celebration,0
;   celebrationSong,Random Song
;   postProcessing,|; 0.2mm layer, 8 bands 5mm each, total height 40mm|{REPLACE "; layer 25" "M572 D0 S0.69\n; layer 10"}|{REPLACE "; layer 50" "M572 D0 S0.70\n; layer 50"}|{REPLACE "; layer 75" "M572 D0 S0.71\n; layer 75"}|{REPLACE "; layer 100" "M572 D0 S0.72\n; layer 100"}|{REPLACE "; layer 125" "M572 D0 S0.73\n; layer 125"}|{REPLACE "; layer 150" "M572 D0 S0.74\n; layer 150"}|{REPLACE "; layer 175" "M572 D0 S0.75\n; layer 175"}|{REPLACE "; layer 200" "M572 D0 S0.76\n; layer 200"}
;   defaultSpeed,5400
;   outlineUnderspeed,0.8
;   solidInfillUnderspeed,0.75
;   supportUnderspeed,0.8
;   rapidXYspeed,18000
;   rapidZspeed,1200
;   minBridgingArea,60
;   bridgingExtraInflation,0
;   bridgingExtrusionMultiplier,0.96
;   bridgingSpeedMultiplier,1
;   useFixedBridgingAngle,0
;   fixedBridgingAngle,0
;   applyBridgingToPerimeters,0
;   filamentDiameters,1.75|1.75|1.75|1.75|1.75|1.75
;   filamentPricesPerKg,25|46|46|46|46|46
;   filamentDensities,1.29|1.25|1.25|1.25|1.25|1.25
;   useMinPrintHeight,0
;   minPrintHeight,0.3
;   useMaxPrintHeight,0
;   maxPrintHeight,110
;   useDiaphragm,1
;   diaphragmLayerInterval,20
;   robustSlicing,1
;   mergeAllIntoSolid,0
;   onlyRetractWhenCrossingOutline,1
;   retractBetweenLayers,0
;   useRetractionMinTravel,1
;   retractionMinTravel,5
;   retractWhileWiping,1
;   onlyWipeOutlines,1
;   avoidCrossingOutline,1
;   maxMovementDetourFactor,2
;   toolChangeRetractionDistance,12
;   toolChangeExtraRestartDistance,0
;   toolChangeRetractionSpeed,600
;   externalThinWallType,0
;   internalThinWallType,2
;   thinWallAllowedOverlapPercentage,10
;   singleExtrusionMinLength,0.1
;   singleExtrusionMinPrintingWidthPercentage,50
;   singleExtrusionMaxPrintingWidthPercentage,200
;   singleExtrusionEndpointExtension,0.2
;   horizontalSizeCompensation,-0.1
G90
M82
M106 S0
M140 S85
M190 S85
G10 S0 R{0-50} P0
G10 S230 R{230-50} P1
M116 P1
G28 ; home all axes
G32 ; run bed.g -- probe bed and enable compensation
; process Process1
; layer 1, Z = 0.200
T1
G92 E0.0000
G1 E-1.0000 F3600
; feature skirt
; tool H0.200 W0.720
G1 Z0.200 F1200
G1 X84.469 Y7.116 F18000
G1 E0.0000 F3600
G92 E0.0000
G1 X90.584 Y1.001 E0.5333 F1350
G1 X129.233 Y1.001 E2.9166
G1 X135.349 Y7.116 E3.4499
G1 X135.349 Y64.090 E6.9631
G1 X129.233 Y70.206 E7.4965
G1 X90.584 Y70.206 E9.8797
G1 X84.469 Y64.090 E10.4130
G1 X84.469 Y7.116 E13.9263
G1 X85.189 Y7.415 F18000
G92 E0.0000
G1 X90.882 Y1.721 E0.4965 F1350
G1 X128.935 Y1.721 E2.8430
G1 X134.629 Y7.415 E3.3396
G1 X134.629 Y63.792 E6.8160
G1 X128.935 Y69.486 E7.3126
G1 X90.882 Y69.486 E9.6590
G1 X85.189 Y63.792 E10.1556
G1 X85.189 Y7.415 E13.6320
G1 X85.909 Y7.713 F18000
G92 E0.0000
G1 X91.181 Y2.441 E0.4598 F1350
G1 X128.637 Y2.441 E2.7695
G1 X133.909 Y7.713 E3.2292
G1 X133.909 Y63.494 E6.6689
G1 X128.636 Y68.766 E7.1287
G1 X91.181 Y68.766 E9.4383
G1 X85.909 Y63.494 E9.8981
G1 X85.909 Y7.713 E13.3378
G1 X86.629 Y8.011 F18000
G92 E0.0000
G1 X91.479 Y3.161 E0.4230 F1350
G1 X128.338 Y3.161 E2.6959
G1 X133.189 Y8.011 E3.1189
G1 X133.189 Y63.195 E6.5218
G1 X128.338 Y68.046 E6.9448
G1 X91.479 Y68.046 E9.2177
G1 X86.629 Y63.195 E9.6406
G1 X86.629 Y8.011 E13.0435
G1 X87.349 Y8.309 F18000
G92 E0.0000
G1 X91.777 Y3.881 E0.3862 F1350
G1 X128.040 Y3.881 E2.6223
G1 X132.469 Y8.309 E3.0085
G1 X132.469 Y62.897 E6.3746
G1 X128.040 Y67.326 E6.7608
G1 X91.777 Y67.326 E8.9970
G1 X87.349 Y62.897 E9.3832
G1 X87.349 Y8.309 E12.7493
G1 X88.069 Y8.608 F18000
G92 E0.0000
G1 X92.075 Y4.601 E0.3494 F1350
G1 X127.742 Y4.601 E2.5488
G1 X131.749 Y8.608 E2.8982
G1 X131.749 Y62.599 E6.2275
G1 X127.742 Y66.606 E6.5769
G1 X92.075 Y66.606 E8.7763
G1 X88.069 Y62.599 E9.1257
G1 X88.069 Y8.608 E12.4550
G1 X88.789 Y8.906 F18000
G92 E0.0000
G1 X92.374 Y5.321 E0.3126 F1350
G1 X127.444 Y5.321 E2.4752
G1 X131.029 Y8.906 E2.7878
G1 X131.029 Y62.301 E6.0804
G1 X127.444 Y65.886 E6.3930
G1 X92.374 Y65.886 E8.5556
G1 X88.789 Y62.301 E8.8682
G1 X88.789 Y8.906 E12.1608
G1 X89.509 Y9.204 F18000
G92 E0.0000
G1 X92.672 Y6.041 E0.2759 F1350
G1 X127.145 Y6.041 E2.4016
G1 X130.309 Y9.204 E2.6775
G1 X130.309 Y62.002 E5.9333
G1 X127.145 Y65.166 E6.2091
G1 X92.672 Y65.166 E8.3349
G1 X89.509 Y62.002 E8.6108
G1 X89.509 Y9.204 E11.8666
G1 X90.229 Y9.502 F18000
G92 E0.0000
G1 X92.970 Y6.761 E0.2391 F1350
G1 X126.847 Y6.761 E2.3281
G1 X129.589 Y9.502 E2.5672
G1 X129.589 Y61.704 E5.7862
G1 X126.847 Y64.446 E6.0252
G1 X92.970 Y64.446 E8.1142
G1 X90.229 Y61.704 E8.3533
G1 X90.229 Y9.502 E11.5723
G1 X90.949 Y9.800 F18000
G92 E0.0000
G1 X93.268 Y7.481 E0.2023 F1350
G1 X126.549 Y7.481 E2.2545
G1 X128.869 Y9.800 E2.4568
G1 X128.869 Y61.406 E5.6390
G1 X126.549 Y63.726 E5.8413
G1 X93.268 Y63.726 E7.8935
G1 X90.949 Y61.406 E8.0958
G1 X90.949 Y9.800 E11.2781
G1 X91.669 Y10.099 F18000
G92 E0.0000
G1 X93.567 Y8.201 E0.1655 F1350
G1 X126.251 Y8.201 E2.1810
G1 X128.149 Y10.099 E2.3465
G1 X128.149 Y61.108 E5.4919
G1 X126.251 Y63.006 E5.6574
G1 X93.567 Y63.006 E7.6729
G1 X91.669 Y61.108 E7.8384
G1 X91.669 Y10.099 E10.9838
G1 X92.389 Y10.397 F18000
G92 E0.0000
G1 X93.865 Y8.921 E0.1287 F1350
G1 X125.952 Y8.921 E2.1074
G1 X127.429 Y10.397 E2.2361
G1 X127.429 Y60.810 E5.3448
G1 X125.952 Y62.286 E5.4735
G1 X93.865 Y62.286 E7.4522
G1 X92.389 Y60.810 E7.5809
G1 X92.389 Y10.397 E10.6896
G1 X93.109 Y10.695 F18000
G92 E0.0000
G1 X94.163 Y9.641 E0.0920 F1350
G1 X125.654 Y9.641 E2.0338
G1 X126.709 Y10.695 E2.1258
G1 X126.709 Y60.511 E5.1977
G1 X125.654 Y61.566 E5.2896
G1 X94.163 Y61.566 E7.2315
G1 X93.109 Y60.511 E7.3234
G1 X93.109 Y10.695 E10.3953
G1 X93.829 Y10.993 F18000
G92 E0.0000
G1 X94.461 Y10.361 E0.0552 F1350
G1 X125.356 Y10.361 E1.9603
G1 X125.989 Y10.993 E2.0154
G1 X125.989 Y60.213 E5.0505
G1 X125.356 Y60.846 E5.1057
G1 X94.461 Y60.846 E7.0108
G1 X93.829 Y60.213 E7.0660
G1 X93.829 Y10.993 E10.1011
G1 X94.549 Y11.292 F18000
G92 E0.0000
G1 X94.759 Y11.081 E0.0184 F1350
G1 X125.058 Y11.081 E1.8867
G1 X125.269 Y11.292 E1.9051
G1 X125.269 Y59.915 E4.9034
G1 X125.058 Y60.126 E4.9218
G1 X94.759 Y60.126 E6.7901
G1 X94.549 Y59.915 E6.8085
G1 X94.549 Y11.292 E9.8068
; feature inner perimeter
G1 X95.269 Y11.801 F18000
G1 X95.269 Y11.959
G1 X97.429 Y13.961
G92 E0.0000
G1 X122.389 Y13.961 E1.5391 F1215
G1 X122.389 Y45.858 E3.5061
G1 X109.406 Y32.875 E4.6382
G1 X110.645 Y32.830 E4.7147
G1 X111.449 Y32.724 E4.7647
G1 X112.272 Y32.528 E4.8169
G1 X112.738 Y32.378 E4.8471
G1 X113.237 Y32.183 E4.8801
G1 X113.940 Y31.851 E4.9280
G1 X114.664 Y31.412 E4.9803
G1 X115.063 Y31.126 E5.0105
G1 X115.477 Y30.788 E5.0435
G1 X116.043 Y30.258 E5.0913
G1 X116.600 Y29.617 E5.1436
G1 X116.903 Y29.208 E5.1751
G1 X117.336 Y28.518 E5.2253
G1 X117.565 Y28.080 E5.2557
G1 X117.781 Y27.593 E5.2886
G1 X118.048 Y26.868 E5.3362
G1 X118.257 Y26.044 E5.3887
G1 X118.342 Y25.557 E5.4192
G1 X118.396 Y25.038 E5.4513
G1 X118.432 Y24.340 E5.4944
G1 X118.387 Y23.463 E5.5486
G1 X118.268 Y22.691 E5.5967
G1 X118.140 Y22.134 E5.6320
G1 X117.877 Y21.316 E5.6850
G1 X117.521 Y20.507 E5.7394
G1 X117.084 Y19.740 E5.7939
G1 X116.569 Y19.023 E5.8484
G1 X115.983 Y18.362 E5.9028
G1 X115.337 Y17.770 E5.9568
G1 X114.709 Y17.300 E6.0052
G1 X114.223 Y16.992 E6.0407
G1 X113.466 Y16.596 E6.0934
G1 X112.645 Y16.269 E6.1479
G1 X111.804 Y16.032 E6.2018
G1 X110.997 Y15.887 E6.2523
G1 X110.049 Y15.819 E6.3110
G1 X109.172 Y15.851 E6.3651
G1 X108.368 Y15.958 E6.4151
G1 X107.545 Y16.153 E6.4672
G1 X107.060 Y16.309 E6.4987
G1 X106.305 Y16.618 E6.5489
G1 X105.868 Y16.839 E6.5791
G1 X105.406 Y17.109 E6.6121
G1 X104.764 Y17.545 E6.6600
G1 X104.115 Y18.091 E6.7123
G1 X103.765 Y18.436 E6.7426
G1 X103.409 Y18.834 E6.7755
G1 X102.932 Y19.445 E6.8233
G1 X102.481 Y20.164 E6.8756
G1 X102.245 Y20.615 E6.9071
G1 X101.924 Y21.365 E6.9573
G1 X101.761 Y21.847 E6.9887
G1 X101.560 Y22.637 E7.0390
G1 X101.475 Y23.125 E7.0695
G1 X101.421 Y23.643 E7.1017
G1 X101.385 Y24.341 E7.1448
G1 X101.431 Y25.218 E7.1989
G1 X101.549 Y25.990 E7.2471
G1 X101.677 Y26.548 E7.2824
G1 X101.940 Y27.366 E7.3353
G1 X102.296 Y28.174 E7.3898
G1 X102.733 Y28.941 E7.4442
G1 X103.248 Y29.659 E7.4987
G1 X103.834 Y30.319 E7.5532
G1 X104.480 Y30.911 E7.6072
G1 X105.108 Y31.382 E7.6556
G1 X105.594 Y31.690 E7.6911
G1 X106.351 Y32.086 E7.7438
G1 X107.172 Y32.412 E7.7982
G1 X108.019 Y32.651 E7.8525
G1 X97.429 Y43.242 E8.7761
G1 X97.429 Y13.961 E10.5816
G1 X97.429 Y48.249 F18000
G92 E0.0000
G1 X106.425 Y57.246 E0.7846 F1215
G1 X97.429 Y57.246 E1.3394
G1 X97.429 Y48.249 E1.8942
G1 X103.351 Y51.117 F18000
G1 X111.217 Y58.982
G1 X113.950 Y56.249
G1 X116.008 Y57.246
G92 E0.0000
G1 X122.389 Y50.865 E0.5564 F1215
G1 X122.389 Y57.246 E0.9499
G1 X116.008 Y57.246 E1.3433
G1 X114.270 Y57.966 F18000
G92 E0.0000
G1 X123.109 Y49.127 E0.7708 F1215
G1 X123.109 Y57.966 E1.3158
G1 X114.270 Y57.966 E1.8609
G1 X112.233 Y57.966 F18000
G1 X111.217 Y58.982
G1 X110.200 Y57.966
G1 X108.164 Y57.966
G92 E0.0000
G1 X96.709 Y57.966 E0.7064 F1215
G1 X96.709 Y46.511 E1.4127
G1 X108.164 Y57.966 E2.4117
G1 X96.709 Y44.980 F18000
G92 E0.0000
G1 X96.709 Y13.241 E1.9572 F1215
G1 X123.109 Y13.241 E3.5851
G1 X123.109 Y47.596 E5.7036
G1 X108.600 Y33.088 E6.9688
G1 X96.709 Y44.980 E8.0059
G1 X96.961 Y45.745 F18000
G92 E0.0000
G1 X109.902 Y58.686 E1.1285 F1215
G1 X95.989 Y58.686 E1.9865
G1 X95.989 Y12.521 E4.8332
G1 X123.829 Y12.521 E6.5499
G1 X123.829 Y58.686 E9.3967
G1 X112.532 Y58.686 E10.0933
G1 X122.856 Y48.362 E10.9936
G1 X108.600 Y34.106 E12.2368
G1 X96.961 Y45.745 E13.2518
; feature outer perimeter
G1 X95.269 Y59.406 F18000
G92 E0.0000
G1 X95.269 Y11.801 E2.9355 F1080
G1 X124.549 Y11.801 E4.7411
G1 X124.549 Y59.406 E7.6766
G1 X95.269 Y59.406 E9.4821
G1 X95.269 Y58.406 F1080
G1 X97.980 Y45.745 F18000
G92 E0.0000
G1 X111.217 Y58.982 E1.1544 F1080
G1 X121.837 Y48.362 E2.0806
G1 X108.600 Y35.124 E3.2349
G1 X97.980 Y45.745 E4.1611
G1 X98.687 Y46.452 F1080
; feature inner perimeter
G1 X97.980 Y45.745 F18000
G1 X100.283 Y43.442
G1 X106.652 Y31.431
G92 E0.0000
G1 X107.403 Y31.729 E0.0498 F1215
G1 X108.175 Y31.947 E0.0993
G1 X108.910 Y32.079 E0.1453
G1 X109.781 Y32.141 E0.1992
G1 X110.585 Y32.112 E0.2488
G1 X111.319 Y32.015 E0.2944
G1 X112.079 Y31.834 E0.3426
G1 X112.496 Y31.700 E0.3696
G1 X112.951 Y31.522 E0.3998
G1 X113.598 Y31.216 E0.4439
G1 X114.268 Y30.810 E0.4922
G1 X114.625 Y30.554 E0.5193
G1 X115.003 Y30.245 E0.5494
G1 X115.524 Y29.757 E0.5934
G1 X116.038 Y29.166 E0.6417
G1 X116.308 Y28.802 E0.6697
G1 X116.711 Y28.159 E0.7165
G1 X116.916 Y27.767 E0.7437
G1 X117.113 Y27.322 E0.7737
G1 X117.359 Y26.654 E0.8176
G1 X117.553 Y25.894 E0.8660
G1 X117.628 Y25.457 E0.8933
G1 X117.678 Y24.982 E0.9228
G1 X117.711 Y24.340 E0.9624
G1 X117.669 Y23.536 E1.0121
G1 X117.561 Y22.827 E1.0563
G1 X117.445 Y22.325 E1.0881
G1 X117.203 Y21.572 E1.1369
G1 X116.877 Y20.832 E1.1867
G1 X116.477 Y20.130 E1.2366
G1 X116.006 Y19.472 E1.2864
G1 X115.469 Y18.868 E1.3363
G1 X114.877 Y18.325 E1.3858
G1 X114.300 Y17.893 E1.4303
G1 X113.863 Y17.616 E1.4622
G1 X113.165 Y17.251 E1.5107
G1 X112.414 Y16.952 E1.5606
G1 X111.642 Y16.734 E1.6100
G1 X110.907 Y16.602 E1.6561
G1 X110.036 Y16.540 E1.7099
G1 X109.232 Y16.569 E1.7595
G1 X108.499 Y16.667 E1.8052
G1 X107.738 Y16.847 E1.8534
G1 X107.307 Y16.986 E1.8813
G1 X106.604 Y17.274 E1.9281
G1 X106.212 Y17.472 E1.9552
G1 X105.790 Y17.718 E1.9853
G1 X105.199 Y18.120 E2.0294
G1 X104.600 Y18.624 E2.0777
G1 X104.287 Y18.933 E2.1048
G1 X103.962 Y19.296 E2.1349
G1 X103.522 Y19.859 E2.1789
G1 X103.106 Y20.523 E2.2272
G1 X102.896 Y20.924 E2.2552
G1 X102.597 Y21.622 E2.3020
G1 X102.451 Y22.052 E2.3300
G1 X102.264 Y22.787 E2.3768
G1 X102.189 Y23.224 E2.4041
G1 X102.139 Y23.699 E2.4335
G1 X102.106 Y24.341 E2.4732
G1 X102.148 Y25.145 E2.5228
G1 X102.257 Y25.855 E2.5671
G1 X102.372 Y26.357 E2.5989
G1 X102.614 Y27.110 E2.6476
G1 X102.940 Y27.850 E2.6975
G1 X103.340 Y28.552 E2.7473
G1 X103.811 Y29.209 E2.7972
G1 X104.348 Y29.814 E2.8470
G1 X104.940 Y30.356 E2.8966
G1 X105.517 Y30.789 E2.9410
G1 X105.954 Y31.065 E2.9729
