; G-Code generated by Simplify3D(R) Version 4.1.2
; Feb 13, 2020 at 12:33:15 PM
; Settings Summary
;   processName,Process1
;   applyToModels,encoder-disk,encoder-disk(2)
;   profileName,HBot (modified)
;   profileVersion,2019-10-26 23:38:43
;   baseProfile,Default
;   printMaterial,PLA
;   printQuality,Medium
;   printExtruders,
;   extruderName,Extruder 1
;   extruderToolheadNumber,0
;   extruderDiameter,0.4
;   extruderAutoWidth,1
;   extruderWidth,0.48
;   extrusionMultiplier,0.94
;   extruderUseRetract,1
;   extruderRetractionDistance,3
;   extruderExtraRestartDistance,0
;   extruderRetractionZLift,0
;   extruderRetractionSpeed,3600
;   extruderUseCoasting,1
;   extruderCoastingDistance,0.2
;   extruderUseWipe,1
;   extruderWipeDistance,5
;   primaryExtruder,0
;   layerHeight,0.2
;   topSolidLayers,3
;   bottomSolidLayers,3
;   perimeterOutlines,3
;   printPerimetersInsideOut,1
;   startPointOption,2
;   startPointOriginX,0
;   startPointOriginY,0
;   sequentialIslands,0
;   spiralVaseMode,0
;   firstLayerHeightPercentage,100
;   firstLayerWidthPercentage,150
;   firstLayerUnderspeed,0.5
;   useRaft,0
;   raftExtruder,0
;   raftTopLayers,3
;   raftBaseLayers,2
;   raftOffset,3
;   raftSeparationDistance,0.18
;   raftTopInfill,100
;   aboveRaftSpeedMultiplier,0.3
;   useSkirt,1
;   skirtExtruder,0
;   skirtLayers,1
;   skirtOutlines,3
;   skirtOffset,4
;   usePrimePillar,0
;   primePillarExtruder,999
;   primePillarWidth,12
;   primePillarLocation,7
;   primePillarSpeedMultiplier,1
;   useOozeShield,0
;   oozeShieldExtruder,999
;   oozeShieldOffset,2
;   oozeShieldOutlines,1
;   oozeShieldSidewallShape,1
;   oozeShieldSidewallAngle,30
;   oozeShieldSpeedMultiplier,1
;   infillExtruder,0
;   internalInfillPattern,Rectilinear
;   externalInfillPattern,Rectilinear
;   infillPercentage,20
;   outlineOverlapPercentage,25
;   infillExtrusionWidthPercentage,150
;   minInfillLength,5
;   infillLayerInterval,1
;   internalInfillAngles,45,-45
;   overlapInternalInfillAngles,0
;   externalInfillAngles,45,-45
;   generateSupport,0
;   supportExtruder,0
;   supportInfillPercentage,30
;   supportExtraInflation,0
;   supportBaseLayers,1
;   denseSupportExtruder,0
;   denseSupportLayers,0
;   denseSupportInfillPercentage,70
;   supportLayerInterval,1
;   supportHorizontalPartOffset,0.3
;   supportUpperSeparationLayers,1
;   supportLowerSeparationLayers,1
;   supportType,0
;   supportGridSpacing,4
;   maxOverhangAngle,25
;   supportAngles,0
;   temperatureName,Extruder 1,Heated Bed
;   temperatureNumber,0,1
;   temperatureSetpointCount,2,1
;   temperatureSetpointLayers,1,2,1
;   temperatureSetpointTemperatures,217,208,55
;   temperatureStabilizeAtStartup,1,1
;   temperatureHeatedBed,0,1
;   fanLayers,1,2,4
;   fanSpeeds,0,20,30
;   blipFanToFullPower,1
;   adjustSpeedForCooling,1
;   minSpeedLayerTime,15
;   minCoolingSpeedSlowdown,20
;   increaseFanForCooling,0
;   minFanLayerTime,45
;   maxCoolingFanSpeed,40
;   increaseFanForBridging,0
;   bridgingFanSpeed,80
;   use5D,1
;   relativeEdistances,0
;   allowEaxisZeroing,1
;   independentExtruderAxes,0
;   includeM10123,0
;   stickySupport,1
;   applyToolheadOffsets,0
;   gcodeXoffset,0
;   gcodeYoffset,0
;   gcodeZoffset,0
;   overrideMachineDefinition,1
;   machineTypeOverride,0
;   strokeXoverride,200
;   strokeYoverride,200
;   strokeZoverride,150
;   originOffsetXoverride,0
;   originOffsetYoverride,0
;   originOffsetZoverride,0
;   homeXdirOverride,-1
;   homeYdirOverride,-1
;   homeZdirOverride,-1
;   flipXoverride,1
;   flipYoverride,-1
;   flipZoverride,1
;   toolheadOffsets,0,0|0,0|0,0|0,0|0,0|0,0
;   overrideFirmwareConfiguration,1
;   firmwareTypeOverride,RepRap (Marlin/Repetier/Sprinter)
;   GPXconfigOverride,r2
;   baudRateOverride,115200
;   overridePrinterModels,0
;   printerModelsOverride
;   startingGcode,G28 ; home all axes,G32 ; run bed.g -- probe bed and enable compensation
;   layerChangeGcode,
;   retractionGcode,
;   toolChangeGcode,
;   endingGcode,M0 ; call stop.g
;   exportFileFormat,gcode
;   celebration,0
;   celebrationSong,Random Song
;   postProcessing,
;   defaultSpeed,3600
;   outlineUnderspeed,0.5
;   solidInfillUnderspeed,0.8
;   supportUnderspeed,0.8
;   rapidXYspeed,18000
;   rapidZspeed,1200
;   minBridgingArea,50
;   bridgingExtraInflation,0
;   bridgingExtrusionMultiplier,0.96
;   bridgingSpeedMultiplier,1
;   useFixedBridgingAngle,0
;   fixedBridgingAngle,0
;   applyBridgingToPerimeters,0
;   filamentDiameters,1.75|1.75|1.75|1.75|1.75|1.75
;   filamentPricesPerKg,46|46|46|46|46|46
;   filamentDensities,1.25|1.25|1.25|1.25|1.25|1.25
;   useMinPrintHeight,0
;   minPrintHeight,0
;   useMaxPrintHeight,0
;   maxPrintHeight,0
;   useDiaphragm,0
;   diaphragmLayerInterval,20
;   robustSlicing,1
;   mergeAllIntoSolid,0
;   onlyRetractWhenCrossingOutline,1
;   retractBetweenLayers,0
;   useRetractionMinTravel,1
;   retractionMinTravel,3
;   retractWhileWiping,1
;   onlyWipeOutlines,1
;   avoidCrossingOutline,1
;   maxMovementDetourFactor,3
;   toolChangeRetractionDistance,12
;   toolChangeExtraRestartDistance,-0.5
;   toolChangeRetractionSpeed,600
;   externalThinWallType,1
;   internalThinWallType,1
;   thinWallAllowedOverlapPercentage,10
;   singleExtrusionMinLength,1
;   singleExtrusionMinPrintingWidthPercentage,50
;   singleExtrusionMaxPrintingWidthPercentage,200
;   singleExtrusionEndpointExtension,0.2
;   horizontalSizeCompensation,-0.1
G90
M82
M106 S0
M140 S55
M190 S55
M104 S217 T0
M109 S217 T0
G28 ; home all axes
G32 ; run bed.g -- probe bed and enable compensation
; process Process1
; layer 1, Z = 0.200
T0
G92 E0.0000
G1 E-3.0000 F3600
; feature skirt
; tool H0.200 W0.720
G1 Z0.200 F1200
G1 X61.637 Y38.572 F18000
G1 E0.0000 F3600
G92 E0.0000
G1 X61.687 Y38.481 E0.0058 F1800
G1 X62.650 Y36.814 E0.1141
G1 X62.721 Y36.696 E0.1219
G1 X63.771 Y35.063 E0.2312
G1 X63.849 Y34.948 E0.2390
G1 X64.975 Y33.367 E0.3482
G1 X65.058 Y33.256 E0.3560
G1 X66.258 Y31.730 E0.4653
G1 X66.346 Y31.623 E0.4731
G1 X67.618 Y30.156 E0.5824
G1 X67.711 Y30.054 E0.5901
G1 X69.051 Y28.648 E0.6994
G1 X69.148 Y28.551 E0.7072
G1 X70.554 Y27.211 E0.8165
G1 X70.656 Y27.118 E0.8242
G1 X72.123 Y25.846 E0.9335
G1 X72.230 Y25.758 E0.9413
G1 X73.756 Y24.558 E1.0506
G1 X73.867 Y24.475 E1.0583
G1 X75.448 Y23.349 E1.1676
G1 X75.563 Y23.271 E1.1754
G1 X77.196 Y22.221 E1.2847
G1 X77.314 Y22.149 E1.2924
G1 X78.981 Y21.187 E1.4007
G1 X79.072 Y21.137 E1.4066
G1 X79.960 Y20.666 E1.4632
G1 X80.052 Y20.619 E1.4690
G1 X81.784 Y19.778 E1.5773
G1 X81.909 Y19.720 E1.5851
G1 X83.695 Y18.956 E1.6944
G1 X83.823 Y18.905 E1.7021
G1 X85.642 Y18.226 E1.8114
G1 X85.772 Y18.181 E1.8192
G1 X87.622 Y17.590 E1.9285
G1 X87.755 Y17.551 E1.9362
G1 X89.630 Y17.048 E2.0455
G1 X89.764 Y17.016 E2.0533
G1 X91.662 Y16.603 E2.1626
G1 X91.797 Y16.577 E2.1703
G1 X93.713 Y16.255 E2.2796
G1 X93.850 Y16.235 E2.2874
G1 X95.778 Y16.004 E2.3967
G1 X95.915 Y15.991 E2.4044
G1 X97.851 Y15.853 E2.5137
G1 X97.989 Y15.846 E2.5215
G1 X99.914 Y15.800 E2.6298
G1 X100.017 Y15.800 E2.6356
G1 X101.022 Y15.812 E2.6922
G1 X101.126 Y15.815 E2.6980
G1 X103.049 Y15.906 E2.8063
G1 X103.186 Y15.916 E2.8141
G1 X105.120 Y16.101 E2.9234
G1 X105.257 Y16.117 E2.9312
G1 X107.179 Y16.394 E3.0405
G1 X107.315 Y16.417 E3.0482
G1 X109.222 Y16.784 E3.1575
G1 X109.357 Y16.813 E3.1653
G1 X111.227 Y17.267 E3.2736
G1 X111.327 Y17.293 E3.2794
G1 X112.295 Y17.565 E3.3360
G1 X112.394 Y17.595 E3.3418
G1 X114.228 Y18.181 E3.4501
G1 X114.358 Y18.226 E3.4579
G1 X116.177 Y18.905 E3.5672
G1 X116.305 Y18.956 E3.5749
G1 X118.091 Y19.720 E3.6842
G1 X118.216 Y19.778 E3.6920
G1 X119.963 Y20.626 E3.8013
G1 X120.086 Y20.689 E3.8091
G1 X121.790 Y21.620 E3.9183
G1 X121.910 Y21.689 E3.9261
G1 X123.568 Y22.700 E4.0354
G1 X123.684 Y22.774 E4.0431
G1 X125.292 Y23.863 E4.1524
G1 X125.405 Y23.943 E4.1602
G1 X126.959 Y25.107 E4.2695
G1 X127.068 Y25.192 E4.2773
G1 X128.565 Y26.429 E4.3865
G1 X128.670 Y26.519 E4.3943
G1 X130.106 Y27.825 E4.5036
G1 X130.206 Y27.920 E4.5114
G1 X131.580 Y29.294 E4.6207
G1 X131.675 Y29.394 E4.6284
G1 X132.981 Y30.830 E4.7377
G1 X133.071 Y30.935 E4.7455
G1 X134.308 Y32.432 E4.8547
G1 X134.393 Y32.540 E4.8625
G1 X135.557 Y34.095 E4.9718
G1 X135.637 Y34.208 E4.9796
G1 X136.716 Y35.802 E5.0879
G1 X136.772 Y35.889 E5.0937
G1 X137.306 Y36.741 E5.1503
G1 X137.359 Y36.829 E5.1561
G1 X138.321 Y38.496 E5.2644
G1 X138.388 Y38.617 E5.2722
G1 X139.278 Y40.343 E5.3815
G1 X139.338 Y40.468 E5.3893
G1 X140.144 Y42.234 E5.4985
G1 X140.199 Y42.361 E5.5063
G1 X140.921 Y44.164 E5.6156
G1 X140.969 Y44.293 E5.6234
G1 X141.604 Y46.128 E5.7326
G1 X141.646 Y46.260 E5.7404
G1 X142.193 Y48.123 E5.8497
G1 X142.229 Y48.257 E5.8575
G1 X142.687 Y50.143 E5.9667
G1 X142.716 Y50.278 E5.9745
G1 X143.083 Y52.185 E6.0838
G1 X143.106 Y52.321 E6.0916
G1 X143.383 Y54.243 E6.2008
G1 X143.399 Y54.380 E6.2086
G1 X143.584 Y56.314 E6.3179
G1 X143.594 Y56.451 E6.3257
G1 X143.686 Y58.391 E6.4350
G1 X143.689 Y58.529 E6.4427
G1 X143.689 Y60.471 E6.5520
G1 X143.686 Y60.609 E6.5598
G1 X143.594 Y62.549 E6.6691
G1 X143.584 Y62.686 E6.6768
G1 X143.401 Y64.603 E6.7852
G1 X143.389 Y64.706 E6.7910
G1 X143.258 Y65.702 E6.8475
G1 X143.243 Y65.804 E6.8534
G1 X142.923 Y67.703 E6.9617
G1 X142.897 Y67.838 E6.9695
G1 X142.484 Y69.736 E7.0788
G1 X142.452 Y69.870 E7.0865
G1 X141.949 Y71.746 E7.1958
G1 X141.910 Y71.878 E7.2036
G1 X141.319 Y73.728 E7.3129
G1 X141.274 Y73.858 E7.3206
G1 X140.595 Y75.677 E7.4299
G1 X140.544 Y75.806 E7.4377
G1 X139.780 Y77.591 E7.5470
G1 X139.722 Y77.716 E7.5547
G1 X138.874 Y79.463 E7.6640
G1 X138.811 Y79.586 E7.6718
G1 X137.880 Y81.290 E7.7811
G1 X137.811 Y81.410 E7.7888
G1 X136.800 Y83.068 E7.8981
G1 X136.726 Y83.184 E7.9059
G1 X135.637 Y84.792 E8.0152
G1 X135.557 Y84.905 E8.0229
G1 X134.393 Y86.460 E8.1322
G1 X134.308 Y86.568 E8.1400
G1 X133.071 Y88.065 E8.2493
G1 X132.981 Y88.170 E8.2570
G1 X131.675 Y89.606 E8.3663
G1 X131.580 Y89.706 E8.3741
G1 X130.206 Y91.080 E8.4834
G1 X130.106 Y91.175 E8.4911
G1 X128.670 Y92.481 E8.6004
G1 X128.565 Y92.571 E8.6082
G1 X127.068 Y93.808 E8.7175
G1 X126.960 Y93.893 E8.7252
G1 X125.405 Y95.057 E8.8345
G1 X125.292 Y95.137 E8.8423
G1 X123.698 Y96.216 E8.9506
G1 X123.611 Y96.272 E8.9564
G1 X122.759 Y96.806 E9.0130
G1 X122.671 Y96.859 E9.0188
G1 X121.004 Y97.822 E9.1272
G1 X120.882 Y97.888 E9.1349
G1 X119.157 Y98.777 E9.2442
G1 X119.032 Y98.838 E9.2520
G1 X117.266 Y99.644 E9.3613
G1 X117.139 Y99.699 E9.3690
G1 X116.398 Y99.996 E9.4140
G1 X118.091 Y100.720 E9.5176
G1 X118.216 Y100.778 E9.5254
G1 X119.963 Y101.626 E9.6346
G1 X120.086 Y101.689 E9.6424
G1 X121.790 Y102.620 E9.7517
G1 X121.910 Y102.689 E9.7595
G1 X123.568 Y103.700 E9.8687
G1 X123.684 Y103.774 E9.8765
G1 X125.292 Y104.863 E9.9858
G1 X125.405 Y104.943 E9.9936
G1 X126.959 Y106.107 E10.1028
G1 X127.068 Y106.192 E10.1106
G1 X128.565 Y107.429 E10.2199
G1 X128.670 Y107.519 E10.2277
G1 X130.107 Y108.825 E10.3370
G1 X130.206 Y108.920 E10.3447
G1 X131.580 Y110.294 E10.4540
G1 X131.675 Y110.394 E10.4618
G1 X132.981 Y111.830 E10.5711
G1 X133.071 Y111.935 E10.5788
G1 X134.308 Y113.432 E10.6881
G1 X134.393 Y113.540 E10.6959
G1 X135.557 Y115.095 E10.8052
G1 X135.637 Y115.208 E10.8129
G1 X136.726 Y116.816 E10.9222
G1 X136.800 Y116.932 E10.9300
G1 X137.811 Y118.590 E11.0393
G1 X137.880 Y118.710 E11.0470
G1 X138.810 Y120.414 E11.1563
G1 X138.874 Y120.537 E11.1641
G1 X139.722 Y122.284 E11.2734
G1 X139.780 Y122.409 E11.2811
G1 X140.544 Y124.194 E11.3904
G1 X140.595 Y124.323 E11.3982
G1 X141.274 Y126.142 E11.5075
G1 X141.319 Y126.272 E11.5152
G1 X141.910 Y128.122 E11.6245
G1 X141.949 Y128.254 E11.6323
G1 X142.452 Y130.130 E11.7416
G1 X142.484 Y130.264 E11.7493
G1 X142.897 Y132.162 E11.8586
G1 X142.923 Y132.298 E11.8664
G1 X143.245 Y134.213 E11.9757
G1 X143.265 Y134.350 E11.9835
G1 X143.496 Y136.278 E12.0928
G1 X143.509 Y136.415 E12.1005
G1 X143.647 Y138.351 E12.2098
G1 X143.654 Y138.489 E12.2175
G1 X143.700 Y140.431 E12.3268
G1 X143.700 Y140.569 E12.3346
G1 X143.654 Y142.511 E12.4439
G1 X143.647 Y142.649 E12.4517
G1 X143.509 Y144.585 E12.5609
G1 X143.496 Y144.722 E12.5687
G1 X143.265 Y146.650 E12.6780
G1 X143.245 Y146.787 E12.6857
G1 X142.923 Y148.702 E12.7950
G1 X142.897 Y148.838 E12.8028
G1 X142.484 Y150.736 E12.9121
G1 X142.452 Y150.870 E12.9199
G1 X141.949 Y152.746 E13.0292
G1 X141.910 Y152.878 E13.0369
G1 X141.319 Y154.728 E13.1462
G1 X141.274 Y154.858 E13.1540
G1 X140.595 Y156.677 E13.2632
G1 X140.544 Y156.806 E13.2710
G1 X139.780 Y158.591 E13.3803
G1 X139.722 Y158.716 E13.3881
G1 X138.874 Y160.463 E13.4973
G1 X138.811 Y160.586 E13.5051
G1 X137.880 Y162.290 E13.6144
G1 X137.811 Y162.410 E13.6222
G1 X136.800 Y164.068 E13.7315
G1 X136.726 Y164.184 E13.7392
G1 X135.637 Y165.792 E13.8485
G1 X135.557 Y165.905 E13.8563
G1 X134.403 Y167.446 E13.9646
G1 X134.340 Y167.528 E13.9704
G1 X133.709 Y168.310 E14.0270
G1 X133.643 Y168.390 E14.0328
G1 X132.382 Y169.844 E14.1411
G1 X132.289 Y169.946 E14.1489
G1 X130.949 Y171.352 E14.2582
G1 X130.852 Y171.449 E14.2660
G1 X129.446 Y172.789 E14.3753
G1 X129.344 Y172.882 E14.3830
G1 X127.890 Y174.143 E14.4913
G1 X127.810 Y174.209 E14.4972
G1 X127.028 Y174.840 E14.5537
G1 X126.946 Y174.903 E14.5596
G1 X125.405 Y176.057 E14.6679
G1 X125.292 Y176.137 E14.6757
G1 X123.684 Y177.226 E14.7849
G1 X123.568 Y177.300 E14.7927
G1 X121.910 Y178.311 E14.9020
G1 X121.790 Y178.380 E14.9098
G1 X120.086 Y179.311 E15.0190
G1 X119.963 Y179.374 E15.0268
G1 X118.216 Y180.222 E15.1361
G1 X118.091 Y180.280 E15.1439
G1 X116.305 Y181.044 E15.2532
G1 X116.177 Y181.095 E15.2609
G1 X114.358 Y181.774 E15.3702
G1 X114.228 Y181.819 E15.3780
G1 X112.378 Y182.410 E15.4872
G1 X112.245 Y182.449 E15.4950
G1 X110.370 Y182.952 E15.6043
G1 X110.236 Y182.984 E15.6121
G1 X108.338 Y183.397 E15.7213
G1 X108.203 Y183.423 E15.7291
G1 X106.287 Y183.745 E15.8384
G1 X106.150 Y183.765 E15.8462
G1 X104.222 Y183.996 E15.9555
G1 X104.085 Y184.009 E15.9632
G1 X102.149 Y184.147 E16.0725
G1 X102.011 Y184.154 E16.0803
G1 X100.069 Y184.200 E16.1896
G1 X99.931 Y184.200 E16.1973
G1 X97.989 Y184.154 E16.3066
G1 X97.851 Y184.147 E16.3144
G1 X95.915 Y184.009 E16.4236
G1 X95.778 Y183.996 E16.4314
G1 X93.850 Y183.765 E16.5407
G1 X93.713 Y183.745 E16.5485
G1 X91.797 Y183.423 E16.6578
G1 X91.662 Y183.397 E16.6655
G1 X89.764 Y182.984 E16.7748
G1 X89.630 Y182.952 E16.7826
G1 X87.754 Y182.449 E16.8919
G1 X87.622 Y182.410 E16.8996
G1 X85.772 Y181.819 E17.0089
G1 X85.642 Y181.774 E17.0167
G1 X83.823 Y181.095 E17.1260
G1 X83.694 Y181.044 E17.1337
G1 X81.909 Y180.280 E17.2430
G1 X81.784 Y180.222 E17.2508
G1 X80.037 Y179.374 E17.3601
G1 X79.914 Y179.311 E17.3678
G1 X78.210 Y178.380 E17.4771
G1 X78.090 Y178.311 E17.4849
G1 X76.432 Y177.300 E17.5942
G1 X76.316 Y177.226 E17.6019
G1 X74.708 Y176.137 E17.7112
G1 X74.595 Y176.057 E17.7190
G1 X73.054 Y174.903 E17.8273
G1 X72.972 Y174.840 E17.8332
G1 X72.190 Y174.209 E17.8897
G1 X72.110 Y174.143 E17.8956
G1 X70.656 Y172.882 E18.0039
G1 X70.554 Y172.789 E18.0116
G1 X69.148 Y171.449 E18.1209
G1 X69.051 Y171.352 E18.1287
G1 X67.711 Y169.946 E18.2380
G1 X67.618 Y169.844 E18.2457
G1 X66.346 Y168.377 E18.3550
G1 X66.258 Y168.270 E18.3628
G1 X65.058 Y166.743 E18.4721
G1 X64.975 Y166.633 E18.4799
G1 X63.849 Y165.051 E18.5891
G1 X63.771 Y164.937 E18.5969
G1 X62.721 Y163.304 E18.7062
G1 X62.649 Y163.186 E18.7139
G1 X61.687 Y161.519 E18.8223
G1 X61.637 Y161.428 E18.8281
G1 X61.166 Y160.540 E18.8847
G1 X61.119 Y160.448 E18.8905
G1 X60.278 Y158.716 E18.9988
G1 X60.220 Y158.591 E19.0066
G1 X59.456 Y156.805 E19.1159
G1 X59.405 Y156.677 E19.1236
G1 X58.726 Y154.858 E19.2329
G1 X58.681 Y154.728 E19.2407
G1 X58.090 Y152.878 E19.3500
G1 X58.051 Y152.745 E19.3577
G1 X57.548 Y150.870 E19.4670
G1 X57.516 Y150.736 E19.4748
G1 X57.103 Y148.838 E19.5841
G1 X57.077 Y148.703 E19.5918
G1 X56.755 Y146.787 E19.7012
G1 X56.735 Y146.650 E19.7089
G1 X56.504 Y144.722 E19.8182
G1 X56.491 Y144.585 E19.8260
G1 X56.353 Y142.649 E19.9352
G1 X56.346 Y142.511 E19.9430
G1 X56.300 Y140.569 E20.0523
G1 X56.300 Y140.431 E20.0601
G1 X56.346 Y138.489 E20.1694
G1 X56.353 Y138.351 E20.1771
G1 X56.491 Y136.415 E20.2864
