; G-Code generated by Simplify3D(R) Version 4.1.2
; May 20, 2020 at 7:50:10 PM
; Settings Summary
;   processName,Process1
;   applyToModels,stempel
;   profileName,HBot (modified)
;   profileVersion,2019-10-26 23:38:43
;   baseProfile,Default
;   printMaterial,PETG - SUNLU
;   printQuality,Medium
;   printExtruders,
;   extruderName,Extruder 1
;   extruderToolheadNumber,0
;   extruderDiameter,0.4
;   extruderAutoWidth,1
;   extruderWidth,0.48
;   extrusionMultiplier,0.98
;   extruderUseRetract,1
;   extruderRetractionDistance,4
;   extruderExtraRestartDistance,0
;   extruderRetractionZLift,0
;   extruderRetractionSpeed,3600
;   extruderUseCoasting,1
;   extruderCoastingDistance,0.2
;   extruderUseWipe,1
;   extruderWipeDistance,5
;   primaryExtruder,0
;   layerHeight,0.2
;   topSolidLayers,5
;   bottomSolidLayers,5
;   perimeterOutlines,6
;   printPerimetersInsideOut,1
;   startPointOption,3
;   startPointOriginX,200
;   startPointOriginY,100
;   sequentialIslands,0
;   spiralVaseMode,0
;   firstLayerHeightPercentage,100
;   firstLayerWidthPercentage,100
;   firstLayerUnderspeed,0.5
;   useRaft,0
;   raftExtruder,0
;   raftTopLayers,3
;   raftBaseLayers,2
;   raftOffset,3
;   raftSeparationDistance,0.18
;   raftTopInfill,100
;   aboveRaftSpeedMultiplier,0.3
;   useSkirt,1
;   skirtExtruder,0
;   skirtLayers,1
;   skirtOutlines,5
;   skirtOffset,5
;   usePrimePillar,0
;   primePillarExtruder,999
;   primePillarWidth,12
;   primePillarLocation,7
;   primePillarSpeedMultiplier,1
;   useOozeShield,0
;   oozeShieldExtruder,999
;   oozeShieldOffset,2
;   oozeShieldOutlines,1
;   oozeShieldSidewallShape,1
;   oozeShieldSidewallAngle,30
;   oozeShieldSpeedMultiplier,1
;   infillExtruder,0
;   internalInfillPattern,Rectilinear
;   externalInfillPattern,Rectilinear
;   infillPercentage,30
;   outlineOverlapPercentage,25
;   infillExtrusionWidthPercentage,100
;   minInfillLength,5
;   infillLayerInterval,1
;   internalInfillAngles,45,-45
;   overlapInternalInfillAngles,0
;   externalInfillAngles,45,-45
;   generateSupport,0
;   supportExtruder,0
;   supportInfillPercentage,30
;   supportExtraInflation,0
;   supportBaseLayers,1
;   denseSupportExtruder,0
;   denseSupportLayers,0
;   denseSupportInfillPercentage,70
;   supportLayerInterval,1
;   supportHorizontalPartOffset,0.3
;   supportUpperSeparationLayers,1
;   supportLowerSeparationLayers,1
;   supportType,0
;   supportGridSpacing,4
;   maxOverhangAngle,25
;   supportAngles,0
;   temperatureName,Extruder 1,Heated Bed
;   temperatureNumber,0,1
;   temperatureSetpointCount,2,1
;   temperatureSetpointLayers,1,2,1
;   temperatureSetpointTemperatures,235,225,75
;   temperatureStabilizeAtStartup,1,1
;   temperatureHeatedBed,0,1
;   fanLayers,1,5,10
;   fanSpeeds,0,5,20
;   blipFanToFullPower,1
;   adjustSpeedForCooling,1
;   minSpeedLayerTime,15
;   minCoolingSpeedSlowdown,20
;   increaseFanForCooling,0
;   minFanLayerTime,45
;   maxCoolingFanSpeed,35
;   increaseFanForBridging,1
;   bridgingFanSpeed,85
;   use5D,1
;   relativeEdistances,0
;   allowEaxisZeroing,1
;   independentExtruderAxes,0
;   includeM10123,0
;   stickySupport,1
;   applyToolheadOffsets,0
;   gcodeXoffset,0
;   gcodeYoffset,0
;   gcodeZoffset,0
;   overrideMachineDefinition,1
;   machineTypeOverride,0
;   strokeXoverride,200
;   strokeYoverride,200
;   strokeZoverride,150
;   originOffsetXoverride,0
;   originOffsetYoverride,0
;   originOffsetZoverride,0
;   homeXdirOverride,-1
;   homeYdirOverride,-1
;   homeZdirOverride,-1
;   flipXoverride,1
;   flipYoverride,-1
;   flipZoverride,1
;   toolheadOffsets,0,0|0,0|0,0|0,0|0,0|0,0
;   overrideFirmwareConfiguration,1
;   firmwareTypeOverride,RepRap (Marlin/Repetier/Sprinter)
;   GPXconfigOverride,r2
;   baudRateOverride,115200
;   overridePrinterModels,0
;   printerModelsOverride
;   startingGcode,G28 ; home all axes,G32 ; run bed.g -- probe bed and enable compensation
;   layerChangeGcode,
;   retractionGcode,
;   toolChangeGcode,
;   endingGcode,M0 ; call stop.g
;   exportFileFormat,gcode
;   celebration,0
;   celebrationSong,Random Song
;   postProcessing,
;   defaultSpeed,3600
;   outlineUnderspeed,0.5
;   solidInfillUnderspeed,0.8
;   supportUnderspeed,0.8
;   rapidXYspeed,18000
;   rapidZspeed,1200
;   minBridgingArea,50
;   bridgingExtraInflation,0
;   bridgingExtrusionMultiplier,0.96
;   bridgingSpeedMultiplier,1
;   useFixedBridgingAngle,0
;   fixedBridgingAngle,0
;   applyBridgingToPerimeters,0
;   filamentDiameters,1.75|1.75|1.75|1.75|1.75|1.75
;   filamentPricesPerKg,46|46|46|46|46|46
;   filamentDensities,1.25|1.25|1.25|1.25|1.25|1.25
;   useMinPrintHeight,0
;   minPrintHeight,0.2
;   useMaxPrintHeight,0
;   maxPrintHeight,15
;   useDiaphragm,0
;   diaphragmLayerInterval,20
;   robustSlicing,1
;   mergeAllIntoSolid,0
;   onlyRetractWhenCrossingOutline,1
;   retractBetweenLayers,0
;   useRetractionMinTravel,1
;   retractionMinTravel,3
;   retractWhileWiping,1
;   onlyWipeOutlines,1
;   avoidCrossingOutline,1
;   maxMovementDetourFactor,5
;   toolChangeRetractionDistance,12
;   toolChangeExtraRestartDistance,-0.5
;   toolChangeRetractionSpeed,600
;   externalThinWallType,0
;   internalThinWallType,2
;   thinWallAllowedOverlapPercentage,10
;   singleExtrusionMinLength,1
;   singleExtrusionMinPrintingWidthPercentage,50
;   singleExtrusionMaxPrintingWidthPercentage,150
;   singleExtrusionEndpointExtension,0.2
;   horizontalSizeCompensation,-0.1
G90
M82
M106 S0
M140 S75
M190 S75
M104 S235 T0
M109 S235 T0
G28 ; home all axes
G32 ; run bed.g -- probe bed and enable compensation
; process Process1
; layer 1, Z = 0.200
T0
G92 E0.0000
G1 E-4.0000 F3600
; feature skirt
; tool H0.200 W0.480
G1 Z0.200 F1200
G1 X127.060 Y85.750 F18000
G1 E0.0000 F3600
G92 E0.0000
G1 X127.060 Y117.866 E1.2562 F1800
G1 X122.866 Y122.060 E1.4882
G1 X77.134 Y122.060 E3.2769
G1 X72.940 Y117.866 E3.5089
G1 X72.940 Y85.993 E4.7556
G1 X72.944 Y85.825 E4.7622
G1 X72.978 Y85.107 E4.7903
G1 X73.120 Y84.262 E4.8238
G1 X73.493 Y82.992 E4.8756
G1 X74.066 Y81.848 E4.9256
G1 X75.140 Y80.413 E4.9957
G1 X76.304 Y79.405 E5.0560
G1 X77.879 Y78.545 E5.1262
G1 X79.099 Y78.139 E5.1764
G1 X80.244 Y77.976 E5.2217
G1 X80.751 Y77.940 E5.2416
G1 X119.770 Y77.950 E6.7678
G1 X121.031 Y78.177 E6.8179
G1 X122.589 Y78.759 E6.8829
G1 X123.691 Y79.412 E6.9330
G1 X124.853 Y80.419 E6.9932
G1 X125.657 Y81.417 E7.0433
G1 X126.455 Y82.879 E7.1085
G1 X126.861 Y84.099 E7.1587
G1 X127.024 Y85.243 E7.2039
G1 X127.060 Y85.750 E7.2238
G1 X126.580 Y85.767 F18000
G92 E0.0000
G1 X126.580 Y117.667 E1.2477 F1800
G1 X122.667 Y121.580 E1.4642
G1 X77.333 Y121.580 E3.2374
G1 X73.420 Y117.667 E3.4538
G1 X73.420 Y85.998 E4.6925
G1 X73.424 Y85.842 E4.6986
G1 X73.456 Y85.158 E4.7254
G1 X73.588 Y84.370 E4.7567
G1 X73.941 Y83.169 E4.8056
G1 X74.476 Y82.101 E4.8523
G1 X75.493 Y80.742 E4.9188
G1 X76.579 Y79.801 E4.9749
G1 X78.071 Y78.986 E5.0414
G1 X79.209 Y78.608 E5.0883
G1 X80.295 Y78.454 E5.1312
G1 X80.768 Y78.420 E5.1498
G1 X119.727 Y78.430 E6.6736
G1 X120.903 Y78.642 E6.7204
G1 X122.381 Y79.193 E6.7821
G1 X123.409 Y79.803 E6.8288
G1 X124.506 Y80.754 E6.8856
G1 X125.256 Y81.685 E6.9324
G1 X126.013 Y83.071 E6.9942
G1 X126.391 Y84.209 E7.0411
G1 X126.546 Y85.294 E7.0839
G1 X126.580 Y85.767 E7.1025
G1 X126.100 Y85.784 F18000
G92 E0.0000
G1 X126.100 Y117.468 E1.2393 F1800
G1 X122.468 Y121.100 E1.4402
G1 X77.532 Y121.100 E3.1978
G1 X73.900 Y117.468 E3.3987
G1 X73.900 Y86.004 E4.6294
G1 X73.903 Y85.859 E4.6351
G1 X73.934 Y85.209 E4.6605
G1 X74.057 Y84.478 E4.6896
G1 X74.390 Y83.345 E4.7357
G1 X74.886 Y82.355 E4.7791
G1 X75.847 Y81.071 E4.8418
G1 X76.854 Y80.198 E4.8939
G1 X78.264 Y79.428 E4.9567
G1 X79.320 Y79.078 E5.0002
G1 X80.346 Y78.931 E5.0408
G1 X80.785 Y78.900 E5.0580
G1 X119.684 Y78.910 E6.5795
G1 X120.776 Y79.107 E6.6229
G1 X122.173 Y79.628 E6.6812
G1 X123.127 Y80.194 E6.7246
G1 X124.159 Y81.088 E6.7780
G1 X124.856 Y81.952 E6.8215
G1 X125.572 Y83.264 E6.8799
G1 X125.922 Y84.319 E6.9234
G1 X126.069 Y85.345 E6.9639
G1 X126.100 Y85.784 E6.9811
G1 X125.620 Y85.801 F18000
G92 E0.0000
G1 X125.620 Y117.269 E1.2309 F1800
G1 X122.269 Y120.620 E1.4162
G1 X77.731 Y120.620 E3.1583
G1 X74.380 Y117.269 E3.3436
G1 X74.380 Y86.010 E4.5663
G1 X74.383 Y85.876 E4.5716
G1 X74.412 Y85.261 E4.5956
G1 X74.525 Y84.585 E4.6224
G1 X74.838 Y83.522 E4.6658
G1 X75.296 Y82.608 E4.7058
G1 X76.200 Y81.400 E4.7648
G1 X77.130 Y80.594 E4.8129
G1 X78.456 Y79.870 E4.8720
G1 X79.430 Y79.547 E4.9121
G1 X80.397 Y79.409 E4.9503
G1 X80.802 Y79.380 E4.9662
G1 X119.641 Y79.390 E6.4854
G1 X120.648 Y79.571 E6.5254
G1 X121.965 Y80.063 E6.5804
G1 X122.845 Y80.585 E6.6204
G1 X123.813 Y81.423 E6.6705
G1 X124.455 Y82.220 E6.7105
G1 X125.130 Y83.456 E6.7656
G1 X125.453 Y84.430 E6.8057
G1 X125.591 Y85.396 E6.8439
G1 X125.620 Y85.801 E6.8598
G1 X125.140 Y85.818 F18000
G92 E0.0000
G1 X125.140 Y117.070 E1.2224 F1800
G1 X122.070 Y120.140 E1.3922
G1 X77.930 Y120.140 E3.1187
G1 X74.860 Y117.070 E3.2885
G1 X74.860 Y86.015 E4.5032
G1 X74.863 Y85.892 E4.5080
G1 X74.890 Y85.312 E4.5308
G1 X74.994 Y84.693 E4.5553
G1 X75.287 Y83.699 E4.5958
G1 X75.706 Y82.861 E4.6325
G1 X76.553 Y81.729 E4.6878
G1 X77.405 Y80.991 E4.7319
G1 X78.648 Y80.312 E4.7873
G1 X79.541 Y80.016 E4.8241
G1 X80.447 Y79.886 E4.8599
G1 X80.819 Y79.860 E4.8744
G1 X119.598 Y79.870 E6.3913
G1 X120.520 Y80.036 E6.4279
G1 X121.757 Y80.497 E6.4795
G1 X122.563 Y80.976 E6.5162
G1 X123.466 Y81.758 E6.5629
G1 X124.054 Y82.488 E6.5996
G1 X124.688 Y83.648 E6.6513
G1 X124.984 Y84.540 E6.6881
G1 X125.114 Y85.447 E6.7239
G1 X125.140 Y85.818 E6.7384
G92 E0.0000
G1 E-4.0000 F3600
; feature inner perimeter
G1 X119.660 Y86.012 F18000
G1 X119.660 Y104.207
G1 X117.260 Y112.260
G1 E0.0000 F3600
G92 E0.0000
G1 X82.740 Y112.260 E1.3502 F1350
G1 X82.740 Y87.740 E2.3093
G1 X117.260 Y87.740 E3.6595
G1 X117.260 Y112.060 E4.6107
G1 X117.260 Y112.260 F1350
G1 X117.740 Y112.740 F18000
G92 E0.0000
G1 X82.260 Y112.740 E1.3878 F1350
G1 X82.260 Y87.260 E2.3844
G1 X117.740 Y87.260 E3.7721
G1 X117.740 Y112.540 E4.7609
G1 X117.740 Y112.740 F1350
G1 X118.220 Y113.220 F18000
G92 E0.0000
G1 X81.780 Y113.220 E1.4253 F1350
G1 X81.780 Y86.780 E2.4595
G1 X118.220 Y86.780 E3.8848
G1 X118.220 Y113.020 E4.9111
G1 X118.220 Y113.220 F1350
G1 X118.700 Y113.700 F18000
G92 E0.0000
G1 X81.300 Y113.700 E1.4629 F1350
G1 X81.300 Y86.300 E2.5346
G1 X118.700 Y86.300 E3.9974
G1 X118.700 Y113.500 E5.0613
G1 X118.700 Y113.700 F1350
G1 X119.180 Y114.180 F18000
G92 E0.0000
G1 X80.820 Y114.180 E1.5004 F1350
G1 X80.820 Y86.094 E2.5990
G1 X80.833 Y85.820 E2.6097
G1 X118.971 Y85.820 E4.1014
G1 X119.167 Y85.835 E4.1091
G1 X119.180 Y86.030 E4.1167
G1 X119.180 Y113.980 E5.2100
G1 X119.180 Y114.180 F1350
; feature outer perimeter
G1 X119.660 Y114.660 F18000
G92 E0.0000
G1 X80.340 Y114.660 E1.5380 F900
G1 X80.340 Y86.082 E2.6557
G1 X80.348 Y85.902 E2.6628
G1 X80.368 Y85.814 E2.6663
G1 X80.400 Y85.726 E2.6700
G1 X80.446 Y85.644 E2.6737
G1 X80.502 Y85.568 E2.6774
G1 X80.568 Y85.502 E2.6810
G1 X80.644 Y85.446 E2.6847
G1 X80.726 Y85.400 E2.6884
G1 X80.814 Y85.368 E2.6921
G1 X80.906 Y85.348 E2.6957
G1 X81.012 Y85.340 E2.6999
G1 X118.988 Y85.340 E4.1853
G1 X119.094 Y85.348 E4.1894
G1 X119.186 Y85.368 E4.1931
G1 X119.274 Y85.400 E4.1968
G1 X119.356 Y85.446 E4.2005
G1 X119.432 Y85.502 E4.2041
G1 X119.498 Y85.568 E4.2078
G1 X119.554 Y85.644 E4.2115
G1 X119.600 Y85.726 E4.2152
G1 X119.632 Y85.814 E4.2189
G1 X119.652 Y85.906 E4.2225
G1 X119.660 Y86.012 E4.2267
G1 X119.660 Y114.460 E5.3394
G1 X119.660 Y114.660 F900
G1 X114.660 Y114.660 F900
; feature solid layer
G1 X116.611 Y88.100 F18000
G92 E0.0000
G1 X116.900 Y88.389 E0.0160 F1440
G1 X116.900 Y89.068 E0.0426
G1 X115.932 Y88.100 E0.0961
G1 X115.253 Y88.100 E0.1227
G1 X116.900 Y89.747 E0.2138
G1 X116.900 Y90.426 E0.2403
G1 X114.574 Y88.100 E0.3690
G1 X113.895 Y88.100 E0.3955
G1 X116.900 Y91.105 E0.5618
G1 X116.900 Y91.784 E0.5883
G1 X113.216 Y88.100 E0.7921
G1 X112.538 Y88.100 E0.8186
G1 X116.900 Y92.462 E1.0599
G1 X116.900 Y93.141 E1.0865
G1 X111.859 Y88.100 E1.3653
G1 X111.180 Y88.100 E1.3919
G1 X116.900 Y93.820 E1.7083
G1 X116.900 Y94.499 E1.7348
G1 X110.501 Y88.100 E2.0888
G1 X109.822 Y88.100 E2.1153
G1 X116.900 Y95.178 E2.5068
G1 X116.900 Y95.856 E2.5334
G1 X109.144 Y88.100 E2.9625
G1 X108.465 Y88.100 E2.9890
G1 X116.900 Y96.535 E3.4556
G1 X116.900 Y97.214 E3.4822
G1 X107.786 Y88.100 E3.9863
G1 X107.107 Y88.100 E4.0129
G1 X116.900 Y97.893 E4.5546
G1 X116.900 Y98.572 E4.5811
G1 X106.428 Y88.100 E5.1604
G1 X105.749 Y88.100 E5.1869
G1 X116.900 Y99.251 E5.8037
G1 X116.900 Y99.929 E5.8303
G1 X105.071 Y88.100 E6.4846
G1 X104.392 Y88.100 E6.5112
G1 X116.900 Y100.608 E7.2031
G1 X116.900 Y101.287 E7.2296
G1 X103.713 Y88.100 E7.9591
G1 X103.034 Y88.100 E7.9856
G1 X116.900 Y101.966 E8.7526
G1 X116.900 Y102.645 E8.7792
G1 X102.355 Y88.100 E9.5837
G1 X101.676 Y88.100 E9.6103
G1 X116.900 Y103.324 E10.4524
G1 X116.900 Y104.002 E10.4789
G1 X100.998 Y88.100 E11.3586
G1 X100.319 Y88.100 E11.3851
G1 X116.900 Y104.681 E12.3023
G1 X116.900 Y105.360 E12.3289
G1 X99.640 Y88.100 E13.2836
G1 X98.961 Y88.100 E13.3102
G1 X116.900 Y106.039 E14.3024
G1 X116.900 Y106.718 E14.3290
G1 X98.282 Y88.100 E15.3588
G1 X97.604 Y88.100 E15.3854
G1 X116.900 Y107.396 E16.4528
G1 X116.900 Y108.075 E16.4793
G1 X96.925 Y88.100 E17.5843
G1 X96.246 Y88.100 E17.6108
G1 X116.900 Y108.754 E18.7533
G1 X116.900 Y109.433 E18.7799
G1 X95.567 Y88.100 E19.9599
G1 X94.888 Y88.100 E19.9865
G1 X116.900 Y110.112 E21.2041
G1 X116.900 Y110.791 E21.2306
G1 X94.209 Y88.100 E22.4857
G1 X93.531 Y88.100 E22.5123
G1 X116.900 Y111.469 E23.8050
G1 X116.900 Y111.900 E23.8218
G1 X116.652 Y111.900 E23.8315
G1 X92.852 Y88.100 E25.1480
G1 X92.173 Y88.100 E25.1746
G1 X115.973 Y111.900 E26.4911
G1 X115.294 Y111.900 E26.5177
G1 X91.494 Y88.100 E27.8342
G1 X90.815 Y88.100 E27.8607
G1 X114.615 Y111.900 E29.1772
G1 X113.936 Y111.900 E29.2038
G1 X90.136 Y88.100 E30.5203
G1 X89.458 Y88.100 E30.5468
G1 X113.258 Y111.900 E31.8633
G1 X112.579 Y111.900 E31.8899
G1 X88.779 Y88.100 E33.2064
G1 X88.100 Y88.100 E33.2330
G1 X111.900 Y111.900 E34.5495
G1 X111.221 Y111.900 E34.5760
G1 X87.421 Y88.100 E35.8925
G1 X86.742 Y88.100 E35.9191
G1 X110.542 Y111.900 E37.2356
G1 X109.864 Y111.900 E37.2621
G1 X86.064 Y88.100 E38.5786
G1 X85.385 Y88.100 E38.6052
G1 X109.185 Y111.900 E39.9217
G1 X108.506 Y111.900 E39.9482
G1 X84.706 Y88.100 E41.2648
G1 X84.027 Y88.100 E41.2913
G1 X107.827 Y111.900 E42.6078
G1 X107.148 Y111.900 E42.6344
G1 X83.348 Y88.100 E43.9509
G1 X83.100 Y88.100 E43.9606
G1 X83.100 Y88.531 E43.9774
G1 X106.469 Y111.900 E45.2701
G1 X105.791 Y111.900 E45.2967
G1 X83.100 Y89.209 E46.5518
G1 X83.100 Y89.888 E46.5784
G1 X105.112 Y111.900 E47.7959
G1 X104.433 Y111.900 E47.8225
G1 X83.100 Y90.567 E49.0025
G1 X83.100 Y91.246 E49.0291
G1 X103.754 Y111.900 E50.1716
G1 X103.075 Y111.900 E50.1981
G1 X83.100 Y91.925 E51.3031
G1 X83.100 Y92.604 E51.3296
G1 X102.396 Y111.900 E52.3970
G1 X101.718 Y111.900 E52.4236
G1 X83.100 Y93.282 E53.4534
G1 X83.100 Y93.961 E53.4800
G1 X101.039 Y111.900 E54.4723
G1 X100.360 Y111.900 E54.4988
G1 X83.100 Y94.640 E55.4536
G1 X83.100 Y95.319 E55.4801
G1 X99.681 Y111.900 E56.3973
G1 X99.002 Y111.900 E56.4239
G1 X83.100 Y95.998 E57.3035
G1 X83.100 Y96.676 E57.3301
G1 X98.324 Y111.900 E58.1722
G1 X97.645 Y111.900 E58.1987
G1 X83.100 Y97.355 E59.0033
G1 X83.100 Y98.034 E59.0298
G1 X96.966 Y111.900 E59.7968
G1 X96.287 Y111.900 E59.8234
G1 X83.100 Y98.713 E60.5528
G1 X83.100 Y99.392 E60.5794
G1 X95.608 Y111.900 E61.2713
G1 X94.929 Y111.900 E61.2978
G1 X83.100 Y100.071 E61.9522
G1 X83.100 Y100.749 E61.9787
G1 X94.251 Y111.900 E62.5955
G1 X93.572 Y111.900 E62.6221
G1 X83.100 Y101.428 E63.2013
G1 X83.100 Y102.107 E63.2279
G1 X92.893 Y111.900 E63.7696
G1 X92.214 Y111.900 E63.7961
G1 X83.100 Y102.786 E64.3003
G1 X83.100 Y103.465 E64.3268
G1 X91.535 Y111.900 E64.7934
G1 X90.857 Y111.900 E64.8200
G1 X83.100 Y104.143 E65.2490
G1 X83.100 Y104.822 E65.2756
G1 X90.178 Y111.900 E65.6671
G1 X89.499 Y111.900 E65.6937
G1 X83.100 Y105.501 E66.0476
G1 X83.100 Y106.180 E66.0742
G1 X88.820 Y111.900 E66.3906
