; G-Code generated by Simplify3D(R) Version 4.1.2
; Nov 9, 2019 at 9:36:46 PM
; Settings Summary
;   processName,Process1
;   applyToModels,huelle-innen(2)
;   profileName,HBot
;   profileVersion,2019-10-26 23:38:43
;   baseProfile,Default
;   printMaterial,PLA
;   printQuality,Fast
;   printExtruders,
;   extruderName,Extruder 1
;   extruderToolheadNumber,0
;   extruderDiameter,0.4
;   extruderAutoWidth,1
;   extruderWidth,0.48
;   extrusionMultiplier,0.94
;   extruderUseRetract,1
;   extruderRetractionDistance,3
;   extruderExtraRestartDistance,0
;   extruderRetractionZLift,0
;   extruderRetractionSpeed,3600
;   extruderUseCoasting,1
;   extruderCoastingDistance,0.2
;   extruderUseWipe,1
;   extruderWipeDistance,5
;   primaryExtruder,0
;   layerHeight,0.3
;   topSolidLayers,3
;   bottomSolidLayers,3
;   perimeterOutlines,3
;   printPerimetersInsideOut,0
;   startPointOption,2
;   startPointOriginX,0
;   startPointOriginY,0
;   sequentialIslands,0
;   spiralVaseMode,0
;   firstLayerHeightPercentage,100
;   firstLayerWidthPercentage,100
;   firstLayerUnderspeed,0.5
;   useRaft,0
;   raftExtruder,0
;   raftTopLayers,3
;   raftBaseLayers,2
;   raftOffset,3
;   raftSeparationDistance,0.18
;   raftTopInfill,100
;   aboveRaftSpeedMultiplier,0.3
;   useSkirt,1
;   skirtExtruder,0
;   skirtLayers,1
;   skirtOutlines,3
;   skirtOffset,4
;   usePrimePillar,0
;   primePillarExtruder,999
;   primePillarWidth,12
;   primePillarLocation,7
;   primePillarSpeedMultiplier,1
;   useOozeShield,0
;   oozeShieldExtruder,999
;   oozeShieldOffset,2
;   oozeShieldOutlines,1
;   oozeShieldSidewallShape,1
;   oozeShieldSidewallAngle,30
;   oozeShieldSpeedMultiplier,1
;   infillExtruder,0
;   internalInfillPattern,Fast Honeycomb
;   externalInfillPattern,Rectilinear
;   infillPercentage,15
;   outlineOverlapPercentage,15
;   infillExtrusionWidthPercentage,150
;   minInfillLength,5
;   infillLayerInterval,1
;   internalInfillAngles,0
;   overlapInternalInfillAngles,0
;   externalInfillAngles,45,-45
;   generateSupport,0
;   supportExtruder,0
;   supportInfillPercentage,25
;   supportExtraInflation,0
;   supportBaseLayers,1
;   denseSupportExtruder,0
;   denseSupportLayers,0
;   denseSupportInfillPercentage,70
;   supportLayerInterval,1
;   supportHorizontalPartOffset,0.3
;   supportUpperSeparationLayers,1
;   supportLowerSeparationLayers,1
;   supportType,0
;   supportGridSpacing,4
;   maxOverhangAngle,45
;   supportAngles,0
;   temperatureName,Extruder 1
;   temperatureNumber,0
;   temperatureSetpointCount,2
;   temperatureSetpointLayers,1,2
;   temperatureSetpointTemperatures,220,215
;   temperatureStabilizeAtStartup,1
;   temperatureHeatedBed,0
;   fanLayers,1,2,3
;   fanSpeeds,0,15,25
;   blipFanToFullPower,1
;   adjustSpeedForCooling,1
;   minSpeedLayerTime,15
;   minCoolingSpeedSlowdown,20
;   increaseFanForCooling,0
;   minFanLayerTime,45
;   maxCoolingFanSpeed,40
;   increaseFanForBridging,0
;   bridgingFanSpeed,80
;   use5D,1
;   relativeEdistances,0
;   allowEaxisZeroing,1
;   independentExtruderAxes,0
;   includeM10123,0
;   stickySupport,1
;   applyToolheadOffsets,0
;   gcodeXoffset,0
;   gcodeYoffset,0
;   gcodeZoffset,0
;   overrideMachineDefinition,1
;   machineTypeOverride,0
;   strokeXoverride,200
;   strokeYoverride,200
;   strokeZoverride,150
;   originOffsetXoverride,0
;   originOffsetYoverride,0
;   originOffsetZoverride,0
;   homeXdirOverride,-1
;   homeYdirOverride,-1
;   homeZdirOverride,-1
;   flipXoverride,1
;   flipYoverride,-1
;   flipZoverride,1
;   toolheadOffsets,0,0|0,0|0,0|0,0|0,0|0,0
;   overrideFirmwareConfiguration,1
;   firmwareTypeOverride,RepRap (Marlin/Repetier/Sprinter)
;   GPXconfigOverride,r2
;   baudRateOverride,115200
;   overridePrinterModels,0
;   printerModelsOverride
;   startingGcode,G28 ; home all axes,G32 ; run bed.g -- probe bed and enable compensation
;   layerChangeGcode,
;   retractionGcode,
;   toolChangeGcode,
;   endingGcode,M0 ; call stop.g
;   exportFileFormat,gcode
;   celebration,0
;   celebrationSong,Random Song
;   postProcessing,
;   defaultSpeed,3600
;   outlineUnderspeed,0.5
;   solidInfillUnderspeed,0.8
;   supportUnderspeed,0.8
;   rapidXYspeed,18000
;   rapidZspeed,1200
;   minBridgingArea,50
;   bridgingExtraInflation,0
;   bridgingExtrusionMultiplier,0.96
;   bridgingSpeedMultiplier,1
;   useFixedBridgingAngle,0
;   fixedBridgingAngle,0
;   applyBridgingToPerimeters,0
;   filamentDiameters,1.75|1.75|1.75|1.75|1.75|1.75
;   filamentPricesPerKg,46|46|46|46|46|46
;   filamentDensities,1.25|1.25|1.25|1.25|1.25|1.25
;   useMinPrintHeight,0
;   minPrintHeight,0
;   useMaxPrintHeight,0
;   maxPrintHeight,0
;   useDiaphragm,1
;   diaphragmLayerInterval,20
;   robustSlicing,1
;   mergeAllIntoSolid,0
;   onlyRetractWhenCrossingOutline,1
;   retractBetweenLayers,0
;   useRetractionMinTravel,1
;   retractionMinTravel,3
;   retractWhileWiping,1
;   onlyWipeOutlines,0
;   avoidCrossingOutline,1
;   maxMovementDetourFactor,3
;   toolChangeRetractionDistance,12
;   toolChangeExtraRestartDistance,-0.5
;   toolChangeRetractionSpeed,600
;   externalThinWallType,1
;   internalThinWallType,1
;   thinWallAllowedOverlapPercentage,10
;   singleExtrusionMinLength,1
;   singleExtrusionMinPrintingWidthPercentage,50
;   singleExtrusionMaxPrintingWidthPercentage,200
;   singleExtrusionEndpointExtension,0.2
;   horizontalSizeCompensation,-0.1
G90
M82
M106 S0
M104 S220 T0
M109 S220 T0
G28 ; home all axes
G32 ; run bed.g -- probe bed and enable compensation
; process Process1
; layer 1, Z = 0.300
T0
G92 E0.0000
G1 E-3.0000 F3600
; feature skirt
; tool H0.300 W0.480
G1 Z0.300 F1200
G1 X43.900 Y12.946 F18000
G1 E0.0000 F3600
G92 E0.0000
G1 X46.946 Y9.900 E0.2424 F1800
G1 X153.054 Y9.900 E6.2138
G1 X156.100 Y12.946 E6.4562
G1 X156.100 Y84.554 E10.4860
G1 X153.054 Y87.600 E10.7284
G1 X132.850 Y87.600 E11.8654
G1 X132.850 Y112.400 E13.2611
G1 X153.054 Y112.400 E14.3981
G1 X156.100 Y115.446 E14.6405
G1 X156.100 Y187.054 E18.6703
G1 X153.054 Y190.100 E18.9127
G1 X46.946 Y190.100 E24.8841
G1 X43.900 Y187.054 E25.1265
G1 X43.900 Y115.446 E29.1563
G1 X46.946 Y112.400 E29.3987
G1 X67.150 Y112.400 E30.5357
G1 X67.150 Y87.600 E31.9314
G1 X46.946 Y87.600 E33.0684
G1 X43.900 Y84.554 E33.3108
G1 X43.900 Y12.946 E37.3406
G1 X44.380 Y13.145 F18000
G92 E0.0000
G1 X47.145 Y10.380 E0.2200 F1800
G1 X152.855 Y10.380 E6.1690
G1 X155.620 Y13.145 E6.3891
G1 X155.620 Y84.355 E10.3965
G1 X152.855 Y87.120 E10.6165
G1 X132.370 Y87.120 E11.7694
G1 X132.370 Y112.880 E13.2190
G1 X152.855 Y112.880 E14.3719
G1 X155.620 Y115.645 E14.5919
G1 X155.620 Y186.855 E18.5993
G1 X152.855 Y189.620 E18.8194
G1 X47.145 Y189.620 E24.7683
G1 X44.380 Y186.855 E24.9884
G1 X44.380 Y115.645 E28.9958
G1 X47.145 Y112.880 E29.2159
G1 X67.630 Y112.880 E30.3687
G1 X67.630 Y87.120 E31.8184
G1 X47.145 Y87.120 E32.9712
G1 X44.380 Y84.355 E33.1912
G1 X44.380 Y13.145 E37.1987
G1 X44.860 Y13.344 F18000
G92 E0.0000
G1 X47.344 Y10.860 E0.1977 F1800
G1 X152.656 Y10.860 E6.1243
G1 X155.140 Y13.344 E6.3219
G1 X155.140 Y84.156 E10.3070
G1 X152.656 Y86.640 E10.5047
G1 X131.890 Y86.640 E11.6733
G1 X131.890 Y113.360 E13.1770
G1 X152.656 Y113.360 E14.3456
G1 X155.140 Y115.844 E14.5433
G1 X155.140 Y186.656 E18.5284
G1 X152.656 Y189.140 E18.7260
G1 X47.344 Y189.140 E24.6526
G1 X44.860 Y186.656 E24.8503
G1 X44.860 Y115.844 E28.8353
G1 X47.344 Y113.360 E29.0330
G1 X68.110 Y113.360 E30.2017
G1 X68.110 Y86.640 E31.7054
G1 X47.344 Y86.640 E32.8740
G1 X44.860 Y84.156 E33.0717
G1 X44.860 Y13.344 E37.0567
G92 E0.0000
G1 E-3.0000 F3600
; feature outer perimeter
G1 X49.340 Y15.340 F18000
G1 E0.0000 F3600
G92 E0.0000
G1 X150.660 Y15.340 E5.7019 F900
G1 X150.660 Y82.160 E9.4623
G1 X127.410 Y82.160 E10.7707
G1 X127.410 Y117.840 E12.7786
G1 X150.660 Y117.840 E14.0870
G1 X150.660 Y184.660 E17.8474
G1 X49.340 Y184.660 E23.5493
G1 X49.340 Y117.840 E27.3097
G1 X72.590 Y117.840 E28.6181
G1 X72.590 Y82.160 E30.6260
G1 X49.340 Y82.160 E31.9344
G1 X49.340 Y15.540 E35.6836
G1 X49.340 Y15.340 F900
G1 X54.340 Y15.340 F900
; feature inner perimeter
G1 X49.820 Y15.820 F18000
G92 E0.0000
G1 X150.180 Y15.820 E5.6479 F1350
G1 X150.180 Y54.011 E7.7971
G1 X149.643 Y53.357 E7.8447
G1 X149.291 Y53.068 E7.8704
G1 X148.889 Y52.853 E7.8960
G1 X148.453 Y52.721 E7.9216
G1 X148.000 Y52.676 E7.9473
G1 X147.547 Y52.721 E7.9729
G1 X147.111 Y52.853 E7.9985
G1 X146.709 Y53.068 E8.0242
G1 X146.357 Y53.357 E8.0498
G1 X146.068 Y53.709 E8.0755
G1 X145.853 Y54.111 E8.1011
G1 X145.721 Y54.547 E8.1267
G1 X145.676 Y55.000 E8.1524
G1 X145.721 Y55.453 E8.1780
G1 X145.853 Y55.889 E8.2036
G1 X146.068 Y56.291 E8.2293
G1 X146.357 Y56.643 E8.2549
G1 X146.709 Y56.932 E8.2806
G1 X147.111 Y57.147 E8.3062
G1 X147.547 Y57.279 E8.3318
G1 X148.000 Y57.324 E8.3575
G1 X148.453 Y57.279 E8.3831
G1 X148.889 Y57.147 E8.4088
G1 X149.291 Y56.932 E8.4344
G1 X149.643 Y56.643 E8.4600
G1 X150.180 Y55.989 E8.5076
G1 X150.180 Y65.261 E9.0294
G1 X149.643 Y64.607 E9.0770
G1 X149.291 Y64.318 E9.1027
G1 X148.889 Y64.103 E9.1283
G1 X148.453 Y63.971 E9.1539
G1 X148.000 Y63.926 E9.1796
G1 X147.547 Y63.971 E9.2052
G1 X147.111 Y64.103 E9.2309
G1 X146.709 Y64.318 E9.2565
G1 X146.357 Y64.607 E9.2821
G1 X146.068 Y64.959 E9.3078
G1 X145.853 Y65.361 E9.3334
G1 X145.721 Y65.797 E9.3591
G1 X145.676 Y66.250 E9.3847
G1 X145.721 Y66.703 E9.4103
G1 X145.853 Y67.139 E9.4360
G1 X146.068 Y67.541 E9.4616
G1 X146.357 Y67.893 E9.4872
G1 X146.709 Y68.182 E9.5129
G1 X147.111 Y68.397 E9.5385
G1 X147.547 Y68.529 E9.5642
G1 X148.000 Y68.574 E9.5898
G1 X148.453 Y68.529 E9.6154
G1 X148.889 Y68.397 E9.6411
G1 X149.291 Y68.182 E9.6667
G1 X149.643 Y67.893 E9.6923
G1 X150.180 Y67.239 E9.7400
G1 X150.180 Y76.511 E10.2617
G1 X149.643 Y75.857 E10.3093
G1 X149.291 Y75.568 E10.3350
G1 X148.889 Y75.353 E10.3606
G1 X148.453 Y75.221 E10.3863
G1 X148.000 Y75.176 E10.4119
G1 X147.547 Y75.221 E10.4375
G1 X147.111 Y75.353 E10.4632
G1 X146.709 Y75.568 E10.4888
G1 X146.357 Y75.857 E10.5145
G1 X146.068 Y76.209 E10.5401
G1 X145.853 Y76.611 E10.5657
G1 X145.721 Y77.047 E10.5914
G1 X145.676 Y77.500 E10.6170
G1 X145.721 Y77.953 E10.6426
G1 X145.853 Y78.389 E10.6683
G1 X146.068 Y78.791 E10.6939
G1 X146.357 Y79.143 E10.7196
G1 X146.709 Y79.432 E10.7452
G1 X147.111 Y79.647 E10.7708
G1 X147.547 Y79.779 E10.7965
G1 X148.000 Y79.824 E10.8221
G1 X148.453 Y79.779 E10.8477
G1 X148.889 Y79.647 E10.8734
G1 X149.291 Y79.432 E10.8990
G1 X149.643 Y79.143 E10.9247
G1 X150.180 Y78.489 E10.9723
G1 X150.180 Y81.680 E11.1518
G1 X126.930 Y81.680 E12.4603
G1 X126.930 Y118.320 E14.5222
G1 X150.180 Y118.320 E15.8306
G1 X150.180 Y184.180 E19.5370
G1 X49.820 Y184.180 E25.1849
G1 X49.820 Y118.320 E28.8912
G1 X73.070 Y118.320 E30.1996
G1 X73.070 Y81.680 E32.2616
G1 X49.820 Y81.680 E33.5700
G1 X49.820 Y78.489 E33.7496
G1 X50.357 Y79.143 E33.7972
G1 X50.709 Y79.432 E33.8228
G1 X51.111 Y79.647 E33.8484
G1 X51.547 Y79.779 E33.8741
G1 X52.000 Y79.824 E33.8997
G1 X52.453 Y79.779 E33.9254
G1 X52.889 Y79.647 E33.9510
G1 X53.291 Y79.432 E33.9766
G1 X53.643 Y79.143 E34.0023
G1 X53.932 Y78.791 E34.0279
G1 X54.147 Y78.389 E34.0535
G1 X54.279 Y77.953 E34.0792
G1 X54.324 Y77.500 E34.1048
G1 X54.279 Y77.047 E34.1305
G1 X54.147 Y76.611 E34.1561
G1 X53.932 Y76.209 E34.1817
G1 X53.643 Y75.857 E34.2074
G1 X53.291 Y75.568 E34.2330
G1 X52.889 Y75.353 E34.2587
G1 X52.453 Y75.221 E34.2843
G1 X52.000 Y75.176 E34.3099
G1 X51.547 Y75.221 E34.3356
G1 X51.111 Y75.353 E34.3612
G1 X50.709 Y75.568 E34.3868
G1 X50.357 Y75.857 E34.4125
G1 X49.820 Y76.511 E34.4601
G1 X49.820 Y67.239 E34.9819
G1 X50.357 Y67.893 E35.0295
G1 X50.709 Y68.182 E35.0551
G1 X51.111 Y68.397 E35.0807
G1 X51.547 Y68.529 E35.1064
G1 X52.000 Y68.574 E35.1320
G1 X52.453 Y68.529 E35.1577
G1 X52.889 Y68.397 E35.1833
G1 X53.291 Y68.182 E35.2089
G1 X53.643 Y67.893 E35.2346
G1 X53.932 Y67.541 E35.2602
G1 X54.147 Y67.139 E35.2858
G1 X54.279 Y66.703 E35.3115
G1 X54.324 Y66.250 E35.3371
G1 X54.279 Y65.797 E35.3628
G1 X54.147 Y65.361 E35.3884
G1 X53.932 Y64.959 E35.4140
G1 X53.643 Y64.607 E35.4397
G1 X53.291 Y64.318 E35.4653
G1 X52.889 Y64.103 E35.4910
G1 X52.453 Y63.971 E35.5166
G1 X52.000 Y63.926 E35.5422
G1 X51.547 Y63.971 E35.5679
G1 X51.111 Y64.103 E35.5935
G1 X50.709 Y64.318 E35.6191
G1 X50.357 Y64.607 E35.6448
G1 X49.820 Y65.261 E35.6924
G1 X49.820 Y55.989 E36.2142
G1 X50.357 Y56.643 E36.2618
G1 X50.709 Y56.932 E36.2874
G1 X51.111 Y57.147 E36.3130
G1 X51.547 Y57.279 E36.3387
G1 X52.000 Y57.324 E36.3643
G1 X52.453 Y57.279 E36.3900
G1 X52.889 Y57.147 E36.4156
G1 X53.291 Y56.932 E36.4412
G1 X53.643 Y56.643 E36.4669
G1 X53.932 Y56.291 E36.4925
G1 X54.147 Y55.889 E36.5181
G1 X54.279 Y55.453 E36.5438
G1 X54.324 Y55.000 E36.5694
G1 X54.279 Y54.547 E36.5951
G1 X54.147 Y54.111 E36.6207
G1 X53.932 Y53.709 E36.6463
G1 X53.643 Y53.357 E36.6720
G1 X53.291 Y53.068 E36.6976
G1 X52.889 Y52.853 E36.7233
G1 X52.453 Y52.721 E36.7489
G1 X52.000 Y52.676 E36.7745
G1 X51.547 Y52.721 E36.8002
G1 X51.111 Y52.853 E36.8258
G1 X50.709 Y53.068 E36.8514
G1 X50.357 Y53.357 E36.8771
G1 X49.820 Y54.011 E36.9247
G1 X49.820 Y16.020 E39.0627
G1 X49.820 Y15.820 F1350
G1 X54.820 Y15.820 F1350
G1 X50.300 Y16.300 F18000
G92 E0.0000
G1 X149.700 Y16.300 E5.5938 F1350
G1 X149.700 Y52.742 E7.6447
G1 X149.074 Y52.407 E7.6846
G1 X148.547 Y52.248 E7.7156
G1 X148.000 Y52.194 E7.7465
G1 X147.453 Y52.248 E7.7775
G1 X146.926 Y52.407 E7.8084
G1 X146.441 Y52.667 E7.8394
G1 X146.016 Y53.016 E7.8704
G1 X145.667 Y53.441 E7.9013
G1 X145.407 Y53.926 E7.9323
G1 X145.248 Y54.453 E7.9632
G1 X145.194 Y55.000 E7.9942
G1 X145.248 Y55.547 E8.0252
G1 X145.407 Y56.074 E8.0561
G1 X145.667 Y56.559 E8.0871
G1 X146.016 Y56.984 E8.1180
G1 X146.441 Y57.333 E8.1490
G1 X146.926 Y57.593 E8.1800
G1 X147.452 Y57.752 E8.2109
G1 X148.000 Y57.806 E8.2419
G1 X148.548 Y57.752 E8.2728
G1 X149.074 Y57.593 E8.3038
G1 X149.700 Y57.258 E8.3437
G1 X149.700 Y63.992 E8.7227
G1 X149.074 Y63.657 E8.7627
G1 X148.547 Y63.498 E8.7936
G1 X148.000 Y63.444 E8.8246
G1 X147.453 Y63.498 E8.8555
G1 X146.926 Y63.657 E8.8865
G1 X146.441 Y63.917 E8.9174
G1 X146.016 Y64.266 E8.9484
G1 X145.667 Y64.691 E8.9794
G1 X145.407 Y65.176 E9.0103
G1 X145.248 Y65.703 E9.0413
G1 X145.194 Y66.250 E9.0722
G1 X145.248 Y66.797 E9.1032
G1 X145.407 Y67.324 E9.1342
G1 X145.667 Y67.809 E9.1651
G1 X146.016 Y68.234 E9.1961
G1 X146.441 Y68.583 E9.2270
G1 X146.926 Y68.843 E9.2580
G1 X147.452 Y69.002 E9.2890
G1 X148.000 Y69.056 E9.3199
G1 X148.548 Y69.002 E9.3509
G1 X149.074 Y68.843 E9.3818
G1 X149.700 Y68.508 E9.4218
G1 X149.700 Y75.242 E9.8008
G1 X149.074 Y74.907 E9.8407
G1 X148.547 Y74.748 E9.8717
G1 X148.000 Y74.694 E9.9026
G1 X147.453 Y74.748 E9.9336
G1 X146.926 Y74.907 E9.9645
G1 X146.441 Y75.167 E9.9955
G1 X146.016 Y75.516 E10.0265
G1 X145.667 Y75.941 E10.0574
G1 X145.407 Y76.426 E10.0884
G1 X145.248 Y76.953 E10.1193
G1 X145.194 Y77.500 E10.1503
G1 X145.248 Y78.047 E10.1813
G1 X145.407 Y78.574 E10.2122
G1 X145.667 Y79.059 E10.2432
G1 X146.016 Y79.484 E10.2741
G1 X146.441 Y79.833 E10.3051
G1 X146.926 Y80.093 E10.3361
G1 X147.452 Y80.252 E10.3670
G1 X148.000 Y80.306 E10.3980
G1 X148.548 Y80.252 E10.4289
G1 X149.074 Y80.093 E10.4599
G1 X149.700 Y79.758 E10.4998
G1 X149.700 Y81.200 E10.5810
G1 X126.450 Y81.200 E11.8894
G1 X126.450 Y118.800 E14.0054
G1 X149.700 Y118.800 E15.3138
G1 X149.700 Y183.700 E18.9661
G1 X50.300 Y183.700 E24.5600
G1 X50.300 Y118.800 E28.2123
G1 X73.550 Y118.800 E29.5207
G1 X73.550 Y81.200 E31.6367
G1 X50.300 Y81.200 E32.9451
G1 X50.300 Y79.758 E33.0263
G1 X50.926 Y80.093 E33.0662
G1 X51.453 Y80.252 E33.0972
G1 X52.000 Y80.306 E33.1281
G1 X52.548 Y80.252 E33.1591
G1 X53.074 Y80.093 E33.1901
G1 X53.559 Y79.833 E33.2210
G1 X53.984 Y79.484 E33.2520
G1 X54.333 Y79.059 E33.2829
G1 X54.593 Y78.574 E33.3139
G1 X54.752 Y78.048 E33.3448
G1 X54.806 Y77.500 E33.3758
G1 X54.752 Y76.952 E33.4068
G1 X54.593 Y76.426 E33.4377
G1 X54.333 Y75.941 E33.4687
G1 X53.984 Y75.516 E33.4996
G1 X53.559 Y75.167 E33.5306
G1 X53.074 Y74.907 E33.5616
G1 X52.547 Y74.748 E33.5925
G1 X52.000 Y74.694 E33.6235
G1 X51.453 Y74.748 E33.6544
G1 X50.926 Y74.907 E33.6854
G1 X50.300 Y75.242 E33.7253
