; G-Code generated by Simplify3D(R) Version 4.1.2
; Nov 9, 2019 at 9:31:25 PM
; Settings Summary
;   processName,Process1
;   applyToModels,huelle-innen
;   profileName,HBot
;   profileVersion,2019-10-26 23:38:43
;   baseProfile,Default
;   printMaterial,PLA
;   printQuality,Fast
;   printExtruders,
;   extruderName,Extruder 1
;   extruderToolheadNumber,0
;   extruderDiameter,0.4
;   extruderAutoWidth,1
;   extruderWidth,0.48
;   extrusionMultiplier,0.94
;   extruderUseRetract,1
;   extruderRetractionDistance,3
;   extruderExtraRestartDistance,0
;   extruderRetractionZLift,0
;   extruderRetractionSpeed,3600
;   extruderUseCoasting,1
;   extruderCoastingDistance,0.2
;   extruderUseWipe,1
;   extruderWipeDistance,5
;   primaryExtruder,0
;   layerHeight,0.3
;   topSolidLayers,3
;   bottomSolidLayers,3
;   perimeterOutlines,3
;   printPerimetersInsideOut,0
;   startPointOption,2
;   startPointOriginX,0
;   startPointOriginY,0
;   sequentialIslands,0
;   spiralVaseMode,0
;   firstLayerHeightPercentage,100
;   firstLayerWidthPercentage,100
;   firstLayerUnderspeed,0.5
;   useRaft,0
;   raftExtruder,0
;   raftTopLayers,3
;   raftBaseLayers,2
;   raftOffset,3
;   raftSeparationDistance,0.18
;   raftTopInfill,100
;   aboveRaftSpeedMultiplier,0.3
;   useSkirt,1
;   skirtExtruder,0
;   skirtLayers,1
;   skirtOutlines,3
;   skirtOffset,4
;   usePrimePillar,0
;   primePillarExtruder,999
;   primePillarWidth,12
;   primePillarLocation,7
;   primePillarSpeedMultiplier,1
;   useOozeShield,0
;   oozeShieldExtruder,999
;   oozeShieldOffset,2
;   oozeShieldOutlines,1
;   oozeShieldSidewallShape,1
;   oozeShieldSidewallAngle,30
;   oozeShieldSpeedMultiplier,1
;   infillExtruder,0
;   internalInfillPattern,Fast Honeycomb
;   externalInfillPattern,Rectilinear
;   infillPercentage,15
;   outlineOverlapPercentage,15
;   infillExtrusionWidthPercentage,150
;   minInfillLength,5
;   infillLayerInterval,1
;   internalInfillAngles,0
;   overlapInternalInfillAngles,0
;   externalInfillAngles,45,-45
;   generateSupport,0
;   supportExtruder,0
;   supportInfillPercentage,25
;   supportExtraInflation,0
;   supportBaseLayers,1
;   denseSupportExtruder,0
;   denseSupportLayers,0
;   denseSupportInfillPercentage,70
;   supportLayerInterval,1
;   supportHorizontalPartOffset,0.3
;   supportUpperSeparationLayers,1
;   supportLowerSeparationLayers,1
;   supportType,0
;   supportGridSpacing,4
;   maxOverhangAngle,45
;   supportAngles,0
;   temperatureName,Extruder 1
;   temperatureNumber,0
;   temperatureSetpointCount,2
;   temperatureSetpointLayers,1,2
;   temperatureSetpointTemperatures,220,215
;   temperatureStabilizeAtStartup,1
;   temperatureHeatedBed,0
;   fanLayers,1,2,3
;   fanSpeeds,0,15,25
;   blipFanToFullPower,1
;   adjustSpeedForCooling,1
;   minSpeedLayerTime,15
;   minCoolingSpeedSlowdown,20
;   increaseFanForCooling,0
;   minFanLayerTime,45
;   maxCoolingFanSpeed,40
;   increaseFanForBridging,0
;   bridgingFanSpeed,80
;   use5D,1
;   relativeEdistances,0
;   allowEaxisZeroing,1
;   independentExtruderAxes,0
;   includeM10123,0
;   stickySupport,1
;   applyToolheadOffsets,0
;   gcodeXoffset,0
;   gcodeYoffset,0
;   gcodeZoffset,0
;   overrideMachineDefinition,1
;   machineTypeOverride,0
;   strokeXoverride,200
;   strokeYoverride,200
;   strokeZoverride,150
;   originOffsetXoverride,0
;   originOffsetYoverride,0
;   originOffsetZoverride,0
;   homeXdirOverride,-1
;   homeYdirOverride,-1
;   homeZdirOverride,-1
;   flipXoverride,1
;   flipYoverride,-1
;   flipZoverride,1
;   toolheadOffsets,0,0|0,0|0,0|0,0|0,0|0,0
;   overrideFirmwareConfiguration,1
;   firmwareTypeOverride,RepRap (Marlin/Repetier/Sprinter)
;   GPXconfigOverride,r2
;   baudRateOverride,115200
;   overridePrinterModels,0
;   printerModelsOverride
;   startingGcode,G28 ; home all axes,G32 ; run bed.g -- probe bed and enable compensation
;   layerChangeGcode,
;   retractionGcode,
;   toolChangeGcode,
;   endingGcode,M0 ; call stop.g
;   exportFileFormat,gcode
;   celebration,0
;   celebrationSong,Random Song
;   postProcessing,
;   defaultSpeed,3600
;   outlineUnderspeed,0.5
;   solidInfillUnderspeed,0.8
;   supportUnderspeed,0.8
;   rapidXYspeed,18000
;   rapidZspeed,1200
;   minBridgingArea,50
;   bridgingExtraInflation,0
;   bridgingExtrusionMultiplier,0.96
;   bridgingSpeedMultiplier,1
;   useFixedBridgingAngle,0
;   fixedBridgingAngle,0
;   applyBridgingToPerimeters,0
;   filamentDiameters,1.75|1.75|1.75|1.75|1.75|1.75
;   filamentPricesPerKg,46|46|46|46|46|46
;   filamentDensities,1.25|1.25|1.25|1.25|1.25|1.25
;   useMinPrintHeight,0
;   minPrintHeight,0
;   useMaxPrintHeight,0
;   maxPrintHeight,0
;   useDiaphragm,1
;   diaphragmLayerInterval,20
;   robustSlicing,1
;   mergeAllIntoSolid,0
;   onlyRetractWhenCrossingOutline,1
;   retractBetweenLayers,0
;   useRetractionMinTravel,1
;   retractionMinTravel,3
;   retractWhileWiping,1
;   onlyWipeOutlines,0
;   avoidCrossingOutline,1
;   maxMovementDetourFactor,3
;   toolChangeRetractionDistance,12
;   toolChangeExtraRestartDistance,-0.5
;   toolChangeRetractionSpeed,600
;   externalThinWallType,1
;   internalThinWallType,1
;   thinWallAllowedOverlapPercentage,10
;   singleExtrusionMinLength,1
;   singleExtrusionMinPrintingWidthPercentage,50
;   singleExtrusionMaxPrintingWidthPercentage,200
;   singleExtrusionEndpointExtension,0.2
;   horizontalSizeCompensation,-0.1
G90
M82
M106 S0
M104 S220 T0
M109 S220 T0
G28 ; home all axes
G32 ; run bed.g -- probe bed and enable compensation
; process Process1
; layer 1, Z = 0.300
T0
G92 E0.0000
G1 E-3.0000 F3600
; feature skirt
; tool H0.300 W0.480
G1 Z0.300 F1200
G1 X43.900 Y12.946 F18000
G1 E0.0000 F3600
G92 E0.0000
G1 X46.946 Y9.900 E0.2424 F1800
G1 X153.054 Y9.900 E6.2138
G1 X156.100 Y12.946 E6.4562
G1 X156.100 Y84.554 E10.4860
G1 X153.054 Y87.600 E10.7284
G1 X132.850 Y87.600 E11.8654
G1 X132.850 Y112.400 E13.2611
G1 X153.054 Y112.400 E14.3981
G1 X156.100 Y115.446 E14.6405
G1 X156.100 Y187.054 E18.6703
G1 X153.054 Y190.100 E18.9127
G1 X46.946 Y190.100 E24.8841
G1 X43.900 Y187.054 E25.1265
G1 X43.900 Y115.446 E29.1563
G1 X46.946 Y112.400 E29.3987
G1 X67.150 Y112.400 E30.5357
G1 X67.150 Y87.600 E31.9314
G1 X46.946 Y87.600 E33.0684
G1 X43.900 Y84.554 E33.3108
G1 X43.900 Y12.946 E37.3406
G1 X44.380 Y13.145 F18000
G92 E0.0000
G1 X47.145 Y10.380 E0.2200 F1800
G1 X152.855 Y10.380 E6.1690
G1 X155.620 Y13.145 E6.3891
G1 X155.620 Y84.355 E10.3965
G1 X152.855 Y87.120 E10.6165
G1 X132.370 Y87.120 E11.7694
G1 X132.370 Y112.880 E13.2190
G1 X152.855 Y112.880 E14.3719
G1 X155.620 Y115.645 E14.5919
G1 X155.620 Y186.855 E18.5993
G1 X152.855 Y189.620 E18.8194
G1 X47.145 Y189.620 E24.7683
G1 X44.380 Y186.855 E24.9884
G1 X44.380 Y115.645 E28.9958
G1 X47.145 Y112.880 E29.2159
G1 X67.630 Y112.880 E30.3687
G1 X67.630 Y87.120 E31.8184
G1 X47.145 Y87.120 E32.9712
G1 X44.380 Y84.355 E33.1912
G1 X44.380 Y13.145 E37.1987
G1 X44.860 Y13.344 F18000
G92 E0.0000
G1 X47.344 Y10.860 E0.1977 F1800
G1 X152.656 Y10.860 E6.1243
G1 X155.140 Y13.344 E6.3219
G1 X155.140 Y84.156 E10.3070
G1 X152.656 Y86.640 E10.5047
G1 X131.890 Y86.640 E11.6733
G1 X131.890 Y113.360 E13.1770
G1 X152.656 Y113.360 E14.3456
G1 X155.140 Y115.844 E14.5433
G1 X155.140 Y186.656 E18.5284
G1 X152.656 Y189.140 E18.7260
G1 X47.344 Y189.140 E24.6526
G1 X44.860 Y186.656 E24.8503
G1 X44.860 Y115.844 E28.8353
G1 X47.344 Y113.360 E29.0330
G1 X68.110 Y113.360 E30.2017
G1 X68.110 Y86.640 E31.7054
G1 X47.344 Y86.640 E32.8740
G1 X44.860 Y84.156 E33.0717
G1 X44.860 Y13.344 E37.0567
G92 E0.0000
G1 E-3.0000 F3600
; feature outer perimeter
G1 X49.340 Y15.340 F18000
G1 E0.0000 F3600
G92 E0.0000
G1 X150.660 Y15.340 E5.7019 F900
G1 X150.660 Y82.160 E9.4623
G1 X127.410 Y82.160 E10.7707
G1 X127.410 Y117.840 E12.7786
G1 X150.660 Y117.840 E14.0870
G1 X150.660 Y184.660 E17.8474
G1 X49.340 Y184.660 E23.5493
G1 X49.340 Y117.840 E27.3097
G1 X72.590 Y117.840 E28.6181
G1 X72.590 Y82.160 E30.6260
G1 X49.340 Y82.160 E31.9344
G1 X49.340 Y15.540 E35.6836
G1 X49.340 Y15.340 F900
G1 X54.340 Y15.340 F900
; feature inner perimeter
G1 X49.820 Y15.820 F18000
G92 E0.0000
G1 X150.180 Y15.820 E5.6479 F1350
G1 X150.180 Y53.909 E7.7914
G1 X149.474 Y53.204 E7.8475
G1 X149.096 Y52.950 E7.8732
G1 X148.675 Y52.776 E7.8988
G1 X148.228 Y52.687 E7.9245
G1 X147.772 Y52.687 E7.9501
G1 X147.325 Y52.776 E7.9757
G1 X146.904 Y52.950 E8.0014
G1 X146.526 Y53.204 E8.0270
G1 X146.204 Y53.526 E8.0527
G1 X145.950 Y53.904 E8.0783
G1 X145.776 Y54.325 E8.1039
G1 X145.687 Y54.772 E8.1296
G1 X145.687 Y55.228 E8.1552
G1 X145.776 Y55.675 E8.1808
G1 X145.950 Y56.096 E8.2065
G1 X146.204 Y56.474 E8.2321
G1 X146.526 Y56.796 E8.2578
G1 X146.904 Y57.050 E8.2834
G1 X147.325 Y57.224 E8.3090
G1 X147.772 Y57.313 E8.3347
G1 X148.228 Y57.313 E8.3603
G1 X148.675 Y57.224 E8.3859
G1 X149.096 Y57.050 E8.4116
G1 X149.474 Y56.796 E8.4372
G1 X150.180 Y56.091 E8.4934
G1 X150.180 Y65.159 E9.0037
G1 X149.474 Y64.454 E9.0599
G1 X149.096 Y64.200 E9.0855
G1 X148.675 Y64.026 E9.1112
G1 X148.228 Y63.937 E9.1368
G1 X147.772 Y63.937 E9.1624
G1 X147.325 Y64.026 E9.1881
G1 X146.904 Y64.200 E9.2137
G1 X146.526 Y64.454 E9.2394
G1 X146.204 Y64.776 E9.2650
G1 X145.950 Y65.154 E9.2906
G1 X145.776 Y65.575 E9.3163
G1 X145.687 Y66.022 E9.3419
G1 X145.687 Y66.478 E9.3675
G1 X145.776 Y66.925 E9.3932
G1 X145.950 Y67.346 E9.4188
G1 X146.204 Y67.724 E9.4445
G1 X146.526 Y68.046 E9.4701
G1 X146.905 Y68.300 E9.4957
G1 X147.325 Y68.474 E9.5214
G1 X147.772 Y68.563 E9.5470
G1 X148.228 Y68.563 E9.5727
G1 X148.675 Y68.474 E9.5983
G1 X149.095 Y68.300 E9.6239
G1 X149.474 Y68.046 E9.6496
G1 X150.180 Y67.341 E9.7057
G1 X150.180 Y76.511 E10.2218
G1 X149.643 Y75.857 E10.2694
G1 X149.291 Y75.568 E10.2950
G1 X148.889 Y75.353 E10.3207
G1 X148.453 Y75.221 E10.3463
G1 X148.000 Y75.176 E10.3719
G1 X147.547 Y75.221 E10.3976
G1 X147.111 Y75.353 E10.4232
G1 X146.709 Y75.568 E10.4489
G1 X146.357 Y75.857 E10.4745
G1 X146.068 Y76.209 E10.5001
G1 X145.853 Y76.611 E10.5258
G1 X145.721 Y77.047 E10.5514
G1 X145.676 Y77.500 E10.5771
G1 X145.721 Y77.953 E10.6027
G1 X145.853 Y78.389 E10.6283
G1 X146.068 Y78.791 E10.6540
G1 X146.357 Y79.143 E10.6796
G1 X146.709 Y79.432 E10.7052
G1 X147.111 Y79.647 E10.7309
G1 X147.547 Y79.779 E10.7565
G1 X148.000 Y79.824 E10.7822
G1 X148.453 Y79.779 E10.8078
G1 X148.889 Y79.647 E10.8334
G1 X149.291 Y79.432 E10.8591
G1 X149.643 Y79.143 E10.8847
G1 X150.180 Y78.489 E10.9323
G1 X150.180 Y81.680 E11.1119
G1 X126.930 Y81.680 E12.4203
G1 X126.930 Y118.320 E14.4823
G1 X150.180 Y118.320 E15.7907
G1 X150.180 Y184.180 E19.4970
G1 X49.820 Y184.180 E25.1449
G1 X49.820 Y118.320 E28.8512
G1 X73.070 Y118.320 E30.1597
G1 X73.070 Y81.680 E32.2216
G1 X49.820 Y81.680 E33.5300
G1 X49.820 Y78.489 E33.7096
G1 X50.357 Y79.143 E33.7572
G1 X50.709 Y79.432 E33.7829
G1 X51.111 Y79.647 E33.8085
G1 X51.547 Y79.779 E33.8341
G1 X52.000 Y79.824 E33.8598
G1 X52.453 Y79.779 E33.8854
G1 X52.889 Y79.647 E33.9110
G1 X53.291 Y79.432 E33.9367
G1 X53.643 Y79.143 E33.9623
G1 X53.932 Y78.791 E33.9880
G1 X54.147 Y78.389 E34.0136
G1 X54.279 Y77.953 E34.0392
G1 X54.324 Y77.500 E34.0649
G1 X54.279 Y77.047 E34.0905
G1 X54.147 Y76.611 E34.1162
G1 X53.932 Y76.209 E34.1418
G1 X53.643 Y75.857 E34.1674
G1 X53.291 Y75.568 E34.1931
G1 X52.889 Y75.353 E34.2187
G1 X52.453 Y75.221 E34.2443
G1 X52.000 Y75.176 E34.2700
G1 X51.547 Y75.221 E34.2956
G1 X51.111 Y75.353 E34.3213
G1 X50.709 Y75.568 E34.3469
G1 X50.357 Y75.857 E34.3725
G1 X49.820 Y76.511 E34.4201
G1 X49.820 Y67.341 E34.9362
G1 X50.526 Y68.046 E34.9924
G1 X50.905 Y68.300 E35.0180
G1 X51.325 Y68.474 E35.0436
G1 X51.772 Y68.563 E35.0693
G1 X52.228 Y68.563 E35.0949
G1 X52.675 Y68.474 E35.1206
G1 X53.095 Y68.300 E35.1462
G1 X53.474 Y68.046 E35.1718
G1 X53.796 Y67.724 E35.1975
G1 X54.050 Y67.346 E35.2231
G1 X54.224 Y66.925 E35.2487
G1 X54.313 Y66.478 E35.2744
G1 X54.313 Y66.022 E35.3000
G1 X54.224 Y65.575 E35.3257
G1 X54.050 Y65.154 E35.3513
G1 X53.796 Y64.776 E35.3769
G1 X53.474 Y64.454 E35.4026
G1 X53.096 Y64.200 E35.4282
G1 X52.675 Y64.026 E35.4538
G1 X52.228 Y63.937 E35.4795
G1 X51.772 Y63.937 E35.5051
G1 X51.325 Y64.026 E35.5308
G1 X50.904 Y64.200 E35.5564
G1 X50.526 Y64.454 E35.5820
G1 X49.820 Y65.159 E35.6382
G1 X49.820 Y56.091 E36.1485
G1 X50.526 Y56.796 E36.2047
G1 X50.904 Y57.050 E36.2303
G1 X51.325 Y57.224 E36.2560
G1 X51.772 Y57.313 E36.2816
G1 X52.228 Y57.313 E36.3073
G1 X52.675 Y57.224 E36.3329
G1 X53.096 Y57.050 E36.3585
G1 X53.474 Y56.796 E36.3842
G1 X53.796 Y56.474 E36.4098
G1 X54.050 Y56.096 E36.4354
G1 X54.224 Y55.675 E36.4611
G1 X54.313 Y55.228 E36.4867
G1 X54.313 Y54.772 E36.5124
G1 X54.224 Y54.325 E36.5380
G1 X54.050 Y53.904 E36.5636
G1 X53.796 Y53.526 E36.5893
G1 X53.474 Y53.204 E36.6149
G1 X53.096 Y52.950 E36.6405
G1 X52.675 Y52.776 E36.6662
G1 X52.228 Y52.687 E36.6918
G1 X51.772 Y52.687 E36.7175
G1 X51.325 Y52.776 E36.7431
G1 X50.904 Y52.950 E36.7687
G1 X50.526 Y53.204 E36.7944
G1 X49.820 Y53.909 E36.8505
G1 X49.820 Y16.020 E38.9828
G1 X49.820 Y15.820 F1350
G1 X54.820 Y15.820 F1350
G1 X50.300 Y16.300 F18000
G92 E0.0000
G1 X149.700 Y16.300 E5.5938 F1350
G1 X149.700 Y52.777 E7.6466
G1 X149.323 Y52.525 E7.6722
G1 X148.815 Y52.315 E7.7031
G1 X148.275 Y52.207 E7.7341
G1 X147.725 Y52.207 E7.7650
G1 X147.185 Y52.315 E7.7960
G1 X146.677 Y52.525 E7.8270
G1 X146.220 Y52.831 E7.8579
G1 X145.831 Y53.220 E7.8889
G1 X145.525 Y53.677 E7.9198
G1 X145.315 Y54.185 E7.9508
G1 X145.207 Y54.725 E7.9817
G1 X145.207 Y55.275 E8.0127
G1 X145.315 Y55.815 E8.0437
G1 X145.525 Y56.323 E8.0746
G1 X145.831 Y56.780 E8.1056
G1 X146.220 Y57.169 E8.1365
G1 X146.677 Y57.475 E8.1675
G1 X147.185 Y57.685 E8.1985
G1 X147.725 Y57.793 E8.2294
G1 X148.275 Y57.793 E8.2604
G1 X148.815 Y57.685 E8.2913
G1 X149.323 Y57.475 E8.3223
G1 X149.700 Y57.223 E8.3478
G1 X149.700 Y64.027 E8.7307
G1 X149.323 Y63.775 E8.7563
G1 X148.815 Y63.565 E8.7872
G1 X148.275 Y63.457 E8.8182
G1 X147.725 Y63.457 E8.8491
G1 X147.185 Y63.565 E8.8801
G1 X146.677 Y63.775 E8.9111
G1 X146.220 Y64.081 E8.9420
G1 X145.831 Y64.470 E8.9730
G1 X145.525 Y64.927 E9.0039
G1 X145.315 Y65.435 E9.0349
G1 X145.207 Y65.975 E9.0659
G1 X145.207 Y66.525 E9.0968
G1 X145.315 Y67.065 E9.1278
G1 X145.525 Y67.573 E9.1587
G1 X145.831 Y68.030 E9.1897
G1 X146.220 Y68.419 E9.2207
G1 X146.677 Y68.725 E9.2516
G1 X147.185 Y68.935 E9.2826
G1 X147.725 Y69.043 E9.3135
G1 X148.275 Y69.043 E9.3445
G1 X148.815 Y68.935 E9.3755
G1 X149.323 Y68.725 E9.4064
G1 X149.700 Y68.473 E9.4319
G1 X149.700 Y75.242 E9.8129
G1 X149.074 Y74.907 E9.8528
G1 X148.547 Y74.748 E9.8838
G1 X148.000 Y74.694 E9.9147
G1 X147.453 Y74.748 E9.9457
G1 X146.926 Y74.907 E9.9767
G1 X146.441 Y75.167 E10.0076
G1 X146.016 Y75.516 E10.0386
G1 X145.667 Y75.941 E10.0695
G1 X145.407 Y76.426 E10.1005
G1 X145.248 Y76.953 E10.1315
G1 X145.194 Y77.500 E10.1624
G1 X145.248 Y78.047 E10.1934
G1 X145.407 Y78.574 E10.2243
G1 X145.667 Y79.059 E10.2553
G1 X146.016 Y79.484 E10.2862
G1 X146.441 Y79.833 E10.3172
G1 X146.926 Y80.093 E10.3482
G1 X147.452 Y80.252 E10.3791
G1 X148.000 Y80.306 E10.4101
G1 X148.548 Y80.252 E10.4410
G1 X149.074 Y80.093 E10.4720
G1 X149.700 Y79.758 E10.5120
G1 X149.700 Y81.200 E10.5931
G1 X126.450 Y81.200 E11.9015
G1 X126.450 Y118.800 E14.0175
G1 X149.700 Y118.800 E15.3259
G1 X149.700 Y183.700 E18.9782
G1 X50.300 Y183.700 E24.5721
G1 X50.300 Y118.800 E28.2244
G1 X73.550 Y118.800 E29.5328
G1 X73.550 Y81.200 E31.6488
G1 X50.300 Y81.200 E32.9572
G1 X50.300 Y79.758 E33.0384
G1 X50.926 Y80.093 E33.0783
G1 X51.453 Y80.252 E33.1093
G1 X52.000 Y80.306 E33.1403
G1 X52.548 Y80.252 E33.1712
G1 X53.074 Y80.093 E33.2022
G1 X53.559 Y79.833 E33.2331
G1 X53.984 Y79.484 E33.2641
G1 X54.333 Y79.059 E33.2950
G1 X54.593 Y78.574 E33.3260
G1 X54.752 Y78.048 E33.3570
G1 X54.806 Y77.500 E33.3879
G1 X54.752 Y76.952 E33.4189
G1 X54.593 Y76.426 E33.4498
G1 X54.333 Y75.941 E33.4808
G1 X53.984 Y75.516 E33.5118
G1 X53.559 Y75.167 E33.5427
G1 X53.074 Y74.907 E33.5737
G1 X52.547 Y74.748 E33.6046
G1 X52.000 Y74.694 E33.6356
G1 X51.453 Y74.748 E33.6666
G1 X50.926 Y74.907 E33.6975
G1 X50.300 Y75.242 E33.7375
G1 X50.300 Y68.473 E34.1184
G1 X50.677 Y68.725 E34.1439
G1 X51.185 Y68.935 E34.1749
