; G-Code generated by Simplify3D(R) Version 4.1.2
; Nov 9, 2019 at 12:14:36 AM
; Settings Summary
;   processName,Process1
;   applyToModels,huelle-seite,huelle-seite(2)
;   profileName,HBot
;   profileVersion,2019-10-26 23:38:43
;   baseProfile,Default
;   printMaterial,PLA
;   printQuality,Medium
;   printExtruders,
;   extruderName,Extruder 1
;   extruderToolheadNumber,0
;   extruderDiameter,0.4
;   extruderAutoWidth,1
;   extruderWidth,0.48
;   extrusionMultiplier,0.94
;   extruderUseRetract,1
;   extruderRetractionDistance,3
;   extruderExtraRestartDistance,0
;   extruderRetractionZLift,0
;   extruderRetractionSpeed,3600
;   extruderUseCoasting,1
;   extruderCoastingDistance,0.2
;   extruderUseWipe,1
;   extruderWipeDistance,5
;   primaryExtruder,0
;   layerHeight,0.2
;   topSolidLayers,3
;   bottomSolidLayers,3
;   perimeterOutlines,3
;   printPerimetersInsideOut,0
;   startPointOption,2
;   startPointOriginX,0
;   startPointOriginY,0
;   sequentialIslands,0
;   spiralVaseMode,0
;   firstLayerHeightPercentage,150
;   firstLayerWidthPercentage,150
;   firstLayerUnderspeed,0.5
;   useRaft,0
;   raftExtruder,0
;   raftTopLayers,3
;   raftBaseLayers,2
;   raftOffset,3
;   raftSeparationDistance,0.18
;   raftTopInfill,100
;   aboveRaftSpeedMultiplier,0.3
;   useSkirt,1
;   skirtExtruder,0
;   skirtLayers,1
;   skirtOutlines,3
;   skirtOffset,4
;   usePrimePillar,0
;   primePillarExtruder,999
;   primePillarWidth,12
;   primePillarLocation,7
;   primePillarSpeedMultiplier,1
;   useOozeShield,0
;   oozeShieldExtruder,999
;   oozeShieldOffset,2
;   oozeShieldOutlines,1
;   oozeShieldSidewallShape,1
;   oozeShieldSidewallAngle,30
;   oozeShieldSpeedMultiplier,1
;   infillExtruder,0
;   internalInfillPattern,Fast Honeycomb
;   externalInfillPattern,Rectilinear
;   infillPercentage,20
;   outlineOverlapPercentage,15
;   infillExtrusionWidthPercentage,150
;   minInfillLength,5
;   infillLayerInterval,1
;   internalInfillAngles,0
;   overlapInternalInfillAngles,0
;   externalInfillAngles,45,-45
;   generateSupport,0
;   supportExtruder,0
;   supportInfillPercentage,30
;   supportExtraInflation,0
;   supportBaseLayers,1
;   denseSupportExtruder,0
;   denseSupportLayers,0
;   denseSupportInfillPercentage,70
;   supportLayerInterval,1
;   supportHorizontalPartOffset,0.3
;   supportUpperSeparationLayers,1
;   supportLowerSeparationLayers,1
;   supportType,0
;   supportGridSpacing,4
;   maxOverhangAngle,45
;   supportAngles,0
;   temperatureName,Extruder 1
;   temperatureNumber,0
;   temperatureSetpointCount,2
;   temperatureSetpointLayers,1,2
;   temperatureSetpointTemperatures,220,210
;   temperatureStabilizeAtStartup,1
;   temperatureHeatedBed,0
;   fanLayers,1,2,3
;   fanSpeeds,0,15,25
;   blipFanToFullPower,1
;   adjustSpeedForCooling,1
;   minSpeedLayerTime,15
;   minCoolingSpeedSlowdown,20
;   increaseFanForCooling,0
;   minFanLayerTime,45
;   maxCoolingFanSpeed,40
;   increaseFanForBridging,0
;   bridgingFanSpeed,80
;   use5D,1
;   relativeEdistances,0
;   allowEaxisZeroing,1
;   independentExtruderAxes,0
;   includeM10123,0
;   stickySupport,1
;   applyToolheadOffsets,0
;   gcodeXoffset,0
;   gcodeYoffset,0
;   gcodeZoffset,0
;   overrideMachineDefinition,1
;   machineTypeOverride,0
;   strokeXoverride,200
;   strokeYoverride,200
;   strokeZoverride,150
;   originOffsetXoverride,0
;   originOffsetYoverride,0
;   originOffsetZoverride,0
;   homeXdirOverride,-1
;   homeYdirOverride,-1
;   homeZdirOverride,-1
;   flipXoverride,1
;   flipYoverride,-1
;   flipZoverride,1
;   toolheadOffsets,0,0|0,0|0,0|0,0|0,0|0,0
;   overrideFirmwareConfiguration,1
;   firmwareTypeOverride,RepRap (Marlin/Repetier/Sprinter)
;   GPXconfigOverride,r2
;   baudRateOverride,115200
;   overridePrinterModels,0
;   printerModelsOverride
;   startingGcode,G28 ; home all axes,G32 ; run bed.g -- probe bed and enable compensation
;   layerChangeGcode,
;   retractionGcode,
;   toolChangeGcode,
;   endingGcode,M0 ; call stop.g
;   exportFileFormat,gcode
;   celebration,0
;   celebrationSong,Random Song
;   postProcessing,
;   defaultSpeed,3600
;   outlineUnderspeed,0.5
;   solidInfillUnderspeed,0.8
;   supportUnderspeed,0.8
;   rapidXYspeed,18000
;   rapidZspeed,1200
;   minBridgingArea,50
;   bridgingExtraInflation,0
;   bridgingExtrusionMultiplier,0.96
;   bridgingSpeedMultiplier,1
;   useFixedBridgingAngle,0
;   fixedBridgingAngle,0
;   applyBridgingToPerimeters,0
;   filamentDiameters,1.75|1.75|1.75|1.75|1.75|1.75
;   filamentPricesPerKg,46|46|46|46|46|46
;   filamentDensities,1.25|1.25|1.25|1.25|1.25|1.25
;   useMinPrintHeight,0
;   minPrintHeight,0
;   useMaxPrintHeight,0
;   maxPrintHeight,0
;   useDiaphragm,1
;   diaphragmLayerInterval,20
;   robustSlicing,1
;   mergeAllIntoSolid,0
;   onlyRetractWhenCrossingOutline,1
;   retractBetweenLayers,0
;   useRetractionMinTravel,1
;   retractionMinTravel,3
;   retractWhileWiping,1
;   onlyWipeOutlines,0
;   avoidCrossingOutline,1
;   maxMovementDetourFactor,3
;   toolChangeRetractionDistance,12
;   toolChangeExtraRestartDistance,-0.5
;   toolChangeRetractionSpeed,600
;   externalThinWallType,1
;   internalThinWallType,1
;   thinWallAllowedOverlapPercentage,10
;   singleExtrusionMinLength,1
;   singleExtrusionMinPrintingWidthPercentage,50
;   singleExtrusionMaxPrintingWidthPercentage,200
;   singleExtrusionEndpointExtension,0.2
;   horizontalSizeCompensation,-0.1
G90
M82
M106 S0
M104 S220 T0
M109 S220 T0
G28 ; home all axes
G32 ; run bed.g -- probe bed and enable compensation
; process Process1
; layer 1, Z = 0.300
T0
G92 E0.0000
G1 E-3.0000 F3600
; feature skirt
; tool H0.300 W0.720
G1 Z0.300 F1200
G1 X21.756 Y36.683 F18000
G1 E0.0000 F3600
G92 E0.0000
G1 X23.888 Y35.800 E0.1948 F1800
G1 X176.112 Y35.800 E13.0447
G1 X178.244 Y36.683 E13.2395
G1 X189.817 Y48.256 E14.6210
G1 X190.700 Y50.388 E14.8158
G1 X190.700 Y99.802 E18.9871
G1 X187.302 Y103.200 E19.3927
G1 X183.761 Y103.200 E19.6917
G1 X189.817 Y109.256 E20.4146
G1 X190.700 Y111.388 E20.6094
G1 X190.700 Y160.802 E24.7807
G1 X187.302 Y164.200 E25.1863
G1 X176.710 Y164.200 E26.0804
G1 X173.274 Y158.971 E26.6086
G1 X174.868 Y155.283 E26.9478
G1 X175.005 Y154.880 E26.9837
G1 X175.123 Y154.435 E27.0226
G1 X175.212 Y153.982 E27.0615
G1 X175.269 Y153.525 E27.1004
G1 X175.295 Y153.065 E27.1393
G1 X175.290 Y152.654 E27.1740
G1 X175.215 Y151.867 E27.2407
G1 X175.141 Y151.463 E27.2754
G1 X175.028 Y151.016 E27.3143
G1 X174.884 Y150.578 E27.3532
G1 X174.712 Y150.151 E27.3921
G1 X174.532 Y149.782 E27.4268
G1 X174.128 Y149.102 E27.4935
G1 X173.889 Y148.768 E27.5282
G1 X173.627 Y148.450 E27.5629
G1 X173.109 Y147.921 E27.6255
G1 X172.579 Y147.479 E27.6837
G1 X172.007 Y147.093 E27.7420
G1 X171.398 Y146.766 E27.8004
G1 X170.759 Y146.504 E27.8587
G1 X170.049 Y146.294 E27.9211
G1 X169.646 Y146.210 E27.9559
G1 X169.240 Y146.155 E27.9905
G1 X168.451 Y146.115 E28.0572
G1 X168.039 Y146.129 E28.0920
G1 X167.581 Y146.176 E28.1308
G1 X167.127 Y146.253 E28.1697
G1 X166.679 Y146.362 E28.2087
G1 X166.239 Y146.500 E28.2475
G1 X165.857 Y146.650 E28.2822
G1 X165.148 Y146.999 E28.3489
G1 X164.795 Y147.211 E28.3837
G1 X164.418 Y147.475 E28.4226
G1 X164.059 Y147.765 E28.4615
G1 X163.757 Y148.044 E28.4962
G1 X163.224 Y148.627 E28.5629
G1 X162.974 Y148.953 E28.5976
G1 X162.718 Y149.337 E28.6365
G1 X162.489 Y149.737 E28.6754
G1 X162.310 Y150.107 E28.7101
G1 X162.026 Y150.844 E28.7768
G1 X161.912 Y151.239 E28.8115
G1 X161.814 Y151.689 E28.8504
G1 X161.746 Y152.145 E28.8893
G1 X161.710 Y152.604 E28.9282
G1 X161.705 Y153.065 E28.9671
G1 X161.731 Y153.525 E29.0060
G1 X161.788 Y153.982 E29.0449
G1 X161.877 Y154.435 E29.0838
G1 X161.995 Y154.880 E29.1227
G1 X162.132 Y155.283 E29.1586
G1 X163.726 Y158.971 E29.4977
G1 X160.290 Y164.200 E30.0259
G1 X12.698 Y164.200 E42.4848
G1 X9.300 Y160.802 E42.8904
G1 X9.300 Y111.388 E47.0617
G1 X10.183 Y109.256 E47.2565
G1 X16.239 Y103.200 E47.9795
G1 X12.698 Y103.200 E48.2784
G1 X9.300 Y99.802 E48.6840
G1 X9.300 Y50.388 E52.8553
G1 X10.183 Y48.256 E53.0501
G1 X21.756 Y36.683 E54.4317
G1 X22.164 Y37.293 F18000
G92 E0.0000
G1 X24.031 Y36.520 E0.1706 F1800
G1 X175.969 Y36.520 E12.9963
G1 X177.836 Y37.293 E13.1669
G1 X189.207 Y48.664 E14.5243
G1 X189.980 Y50.531 E14.6949
G1 X189.980 Y99.504 E18.8290
G1 X187.004 Y102.480 E19.1842
G1 X182.023 Y102.480 E19.6047
G1 X189.207 Y109.664 E20.4623
G1 X189.980 Y111.531 E20.6329
G1 X189.980 Y160.504 E24.7670
G1 X187.004 Y163.480 E25.1222
G1 X177.099 Y163.480 E25.9584
G1 X174.089 Y158.900 E26.4210
G1 X175.540 Y155.542 E26.7298
G1 X175.694 Y155.089 E26.7702
G1 X175.825 Y154.596 E26.8132
G1 X175.923 Y154.096 E26.8562
G1 X175.986 Y153.590 E26.8993
G1 X176.015 Y153.082 E26.9423
G1 X176.010 Y152.615 E26.9817
G1 X175.929 Y151.768 E27.0535
G1 X175.845 Y151.310 E27.0929
G1 X175.720 Y150.816 E27.1359
G1 X175.561 Y150.331 E27.1789
G1 X175.370 Y149.859 E27.2219
G1 X175.167 Y149.440 E27.2612
G1 X174.732 Y148.708 E27.3331
G1 X174.460 Y148.329 E27.3725
G1 X174.164 Y147.969 E27.4118
G1 X173.599 Y147.391 E27.4800
G1 X173.012 Y146.902 E27.5445
G1 X172.379 Y146.475 E27.6089
G1 X171.705 Y146.114 E27.6735
G1 X170.999 Y145.824 E27.7380
G1 X170.225 Y145.595 E27.8061
G1 X169.768 Y145.500 E27.8455
G1 X169.307 Y145.437 E27.8848
G1 X168.457 Y145.394 E27.9566
G1 X167.991 Y145.410 E27.9960
G1 X167.484 Y145.462 E28.0390
G1 X166.981 Y145.548 E28.0820
G1 X166.486 Y145.668 E28.1251
G1 X166.000 Y145.821 E28.1681
G1 X165.566 Y145.990 E28.2074
G1 X164.802 Y146.367 E28.2792
G1 X164.403 Y146.607 E28.3186
G1 X163.985 Y146.899 E28.3616
G1 X163.588 Y147.219 E28.4047
G1 X163.246 Y147.536 E28.4440
G1 X162.672 Y148.164 E28.5159
G1 X162.388 Y148.534 E28.5552
G1 X162.106 Y148.958 E28.5982
G1 X161.852 Y149.400 E28.6413
G1 X161.649 Y149.820 E28.6806
G1 X161.343 Y150.614 E28.7525
G1 X161.214 Y151.062 E28.7918
G1 X161.105 Y151.560 E28.8348
G1 X161.031 Y152.064 E28.8778
G1 X160.990 Y152.572 E28.9209
G1 X160.985 Y153.082 E28.9639
G1 X161.014 Y153.590 E29.0069
G1 X161.077 Y154.096 E29.0499
G1 X161.174 Y154.596 E29.0930
G1 X161.306 Y155.089 E29.1360
G1 X161.460 Y155.542 E29.1764
G1 X162.911 Y158.900 E29.4852
G1 X159.901 Y163.480 E29.9478
G1 X12.996 Y163.480 E42.3487
G1 X10.020 Y160.504 E42.7040
G1 X10.020 Y111.531 E46.8380
G1 X10.793 Y109.664 E47.0086
G1 X17.977 Y102.480 E47.8662
G1 X12.996 Y102.480 E48.2867
G1 X10.020 Y99.504 E48.6420
G1 X10.020 Y50.531 E52.7760
G1 X10.793 Y48.664 E52.9466
G1 X22.164 Y37.293 E54.3040
G1 X22.572 Y37.904 F18000
G92 E0.0000
G1 X24.174 Y37.240 E0.1464 F1800
G1 X175.826 Y37.240 E12.9480
G1 X177.428 Y37.904 E13.0944
G1 X188.596 Y49.072 E14.4276
G1 X189.260 Y50.674 E14.5740
G1 X189.260 Y99.206 E18.6708
G1 X186.706 Y101.760 E18.9757
G1 X180.285 Y101.760 E19.5178
G1 X188.596 Y110.072 E20.5100
G1 X189.260 Y111.674 E20.6564
G1 X189.260 Y160.206 E24.7532
G1 X186.706 Y162.760 E25.0581
G1 X177.487 Y162.760 E25.8363
G1 X174.904 Y158.829 E26.2334
G1 X176.212 Y155.801 E26.5118
G1 X176.384 Y155.298 E26.5567
G1 X176.528 Y154.758 E26.6039
G1 X176.634 Y154.210 E26.6510
G1 X176.704 Y153.656 E26.6982
G1 X176.735 Y153.098 E26.7453
G1 X176.730 Y152.577 E26.7893
G1 X176.642 Y151.669 E26.8663
G1 X176.549 Y151.156 E26.9103
G1 X176.411 Y150.615 E26.9574
G1 X176.238 Y150.084 E27.0046
G1 X176.029 Y149.566 E27.0517
G1 X175.801 Y149.098 E27.0957
G1 X175.335 Y148.314 E27.1727
G1 X175.031 Y147.890 E27.2167
G1 X174.700 Y147.488 E27.2607
G1 X174.088 Y146.862 E27.3346
G1 X173.445 Y146.326 E27.4052
G1 X172.751 Y145.858 E27.4759
G1 X172.013 Y145.462 E27.5466
G1 X171.238 Y145.144 E27.6173
G1 X170.400 Y144.896 E27.6911
G1 X169.890 Y144.790 E27.7351
G1 X169.374 Y144.720 E27.7790
G1 X168.463 Y144.674 E27.8560
G1 X167.942 Y144.691 E27.9000
G1 X167.386 Y144.748 E27.9472
G1 X166.836 Y144.842 E27.9943
G1 X166.293 Y144.974 E28.0415
G1 X165.760 Y145.141 E28.0886
G1 X165.275 Y145.331 E28.1326
G1 X164.457 Y145.734 E28.2096
G1 X164.010 Y146.003 E28.2536
G1 X163.553 Y146.323 E28.3007
G1 X163.118 Y146.674 E28.3479
G1 X162.735 Y147.028 E28.3919
G1 X162.120 Y147.701 E28.4689
G1 X161.802 Y148.114 E28.5128
G1 X161.493 Y148.579 E28.5600
G1 X161.215 Y149.064 E28.6072
G1 X160.988 Y149.533 E28.6512
G1 X160.660 Y150.384 E28.7282
G1 X160.515 Y150.884 E28.7721
G1 X160.396 Y151.430 E28.8193
G1 X160.315 Y151.983 E28.8664
G1 X160.271 Y152.540 E28.9136
G1 X160.265 Y153.098 E28.9607
G1 X160.296 Y153.656 E29.0078
G1 X160.366 Y154.210 E29.0550
G1 X160.472 Y154.758 E29.1021
G1 X160.616 Y155.298 E29.1493
G1 X160.788 Y155.801 E29.1942
G1 X162.096 Y158.829 E29.4726
G1 X159.513 Y162.760 E29.8697
G1 X13.294 Y162.760 E42.2126
G1 X10.740 Y160.206 E42.5175
G1 X10.740 Y111.674 E46.6143
G1 X11.404 Y110.072 E46.7607
G1 X19.715 Y101.760 E47.7530
G1 X13.294 Y101.760 E48.2950
G1 X10.740 Y99.206 E48.5999
G1 X10.740 Y50.674 E52.6967
G1 X11.404 Y49.072 E52.8431
G1 X22.572 Y37.904 E54.1764
G92 E0.0000
G1 E-3.0000 F3600
; feature outer perimeter
G1 X25.191 Y41.960 F18000
G1 E0.0000 F3600
G92 E0.0000
G1 X174.809 Y41.960 E12.6300 F900
G1 X184.540 Y51.691 E13.7916
G1 X184.540 Y97.040 E17.6197
G1 X180.394 Y97.040 E17.9697
G1 X180.621 Y96.499 E18.0192
G1 X180.904 Y95.667 E18.0934
G1 X181.130 Y94.818 E18.1676
G1 X181.298 Y93.955 E18.2417
G1 X181.407 Y93.083 E18.3159
G1 X181.457 Y92.206 E18.3901
G1 X181.447 Y91.327 E18.4643
G1 X181.378 Y90.451 E18.5384
G1 X181.250 Y89.586 E18.6123
G1 X181.162 Y89.147 E18.6500
G1 X180.947 Y88.299 E18.7239
G1 X180.674 Y87.464 E18.7981
G1 X180.345 Y86.649 E18.8722
G1 X179.963 Y85.862 E18.9461
G1 X179.747 Y85.471 E18.9838
G1 X179.287 Y84.726 E19.0577
G1 X178.776 Y84.012 E19.1319
G1 X178.220 Y83.337 E19.2057
G1 X177.918 Y83.006 E19.2435
G1 X177.296 Y82.391 E19.3173
G1 X176.634 Y81.820 E19.3912
G1 X176.281 Y81.545 E19.4289
G1 X175.564 Y81.044 E19.5028
G1 X174.814 Y80.592 E19.5766
G1 X174.420 Y80.381 E19.6144
G1 X173.629 Y80.008 E19.6882
G1 X172.814 Y79.689 E19.7621
G1 X172.394 Y79.549 E19.7995
G1 X171.969 Y79.423 E19.8369
G1 X171.122 Y79.218 E19.9104
G1 X170.683 Y79.135 E19.9482
G1 X169.820 Y79.017 E20.0217
G1 X169.374 Y78.979 E20.0595
G1 X168.500 Y78.950 E20.1333
G1 X167.622 Y78.979 E20.2075
G1 X166.747 Y79.069 E20.2817
G1 X165.882 Y79.217 E20.3558
G1 X165.027 Y79.423 E20.4300
G1 X164.189 Y79.688 E20.5042
G1 X163.371 Y80.008 E20.5783
G1 X162.580 Y80.381 E20.6522
G1 X162.185 Y80.592 E20.6900
G1 X161.440 Y81.042 E20.7635
G1 X161.069 Y81.292 E20.8012
G1 X160.369 Y81.817 E20.8751
G1 X159.704 Y82.391 E20.9492
G1 X159.079 Y83.009 E21.0234
G1 X158.498 Y83.668 E21.0976
G1 X157.962 Y84.365 E21.1718
G1 X157.475 Y85.096 E21.2460
G1 X157.041 Y85.856 E21.3198
G1 X156.839 Y86.255 E21.3576
G1 X156.484 Y87.054 E21.4314
G1 X156.182 Y87.879 E21.5056
G1 X155.938 Y88.723 E21.5798
G1 X155.750 Y89.582 E21.6539
G1 X155.622 Y90.451 E21.7281
G1 X155.553 Y91.327 E21.8023
G1 X155.543 Y92.206 E21.8765
G1 X155.593 Y93.083 E21.9506
G1 X155.702 Y93.955 E22.0248
G1 X155.870 Y94.818 E22.0990
G1 X156.096 Y95.667 E22.1732
G1 X156.379 Y96.499 E22.2474
G1 X156.606 Y97.040 E22.2969
G1 X15.460 Y97.040 E34.2116
G1 X15.460 Y51.691 E38.0397
G1 X25.049 Y42.101 E39.1845
G1 X25.191 Y41.960 F900
G1 X30.191 Y41.960 F900
; feature inner perimeter
G1 X25.489 Y42.680 F18000
G92 E0.0000
G1 X60.749 Y42.680 E2.9764 F1350
G1 X60.315 Y43.491 E3.0541
G1 X60.165 Y43.986 E3.0977
G1 X60.114 Y44.500 E3.1413
G1 X60.165 Y45.013 E3.1848
G1 X60.314 Y45.506 E3.2283
G1 X60.557 Y45.962 E3.2719
G1 X60.884 Y46.362 E3.3156
G1 X61.283 Y46.690 E3.3592
G1 X61.738 Y46.934 E3.4027
G1 X62.233 Y47.085 E3.4464
G1 X62.754 Y47.136 E3.4906
G1 X63.268 Y47.084 E3.5342
G1 X63.762 Y46.934 E3.5778
G1 X64.217 Y46.690 E3.6214
G1 X64.617 Y46.361 E3.6651
G1 X64.943 Y45.961 E3.7086
G1 X65.186 Y45.506 E3.7521
G1 X65.335 Y45.013 E3.7956
G1 X65.386 Y44.500 E3.8392
G1 X65.335 Y43.986 E3.8828
G1 X65.185 Y43.491 E3.9264
G1 X64.751 Y42.680 E4.0041
G1 X97.999 Y42.680 E6.8106
G1 X97.565 Y43.491 E6.8883
G1 X97.415 Y43.986 E6.9319
G1 X97.364 Y44.500 E6.9755
G1 X97.415 Y45.013 E7.0190
G1 X97.564 Y45.506 E7.0625
G1 X97.807 Y45.961 E7.1060
G1 X98.133 Y46.361 E7.1496
G1 X98.533 Y46.690 E7.1933
G1 X98.988 Y46.934 E7.2369
G1 X99.483 Y47.085 E7.2805
G1 X100.004 Y47.136 E7.3247
