; G-Code generated by Simplify3D(R) Version 4.1.2
; Nov 10, 2019 at 12:32:26 PM
; Settings Summary
;   processName,Process1
;   applyToModels,motor-halterung,motor-halterung(2)
;   profileName,HBot
;   profileVersion,2019-10-26 23:38:43
;   baseProfile,Default
;   printMaterial,PLA
;   printQuality,Medium
;   printExtruders,
;   extruderName,Extruder 1
;   extruderToolheadNumber,0
;   extruderDiameter,0.4
;   extruderAutoWidth,1
;   extruderWidth,0.48
;   extrusionMultiplier,0.94
;   extruderUseRetract,1
;   extruderRetractionDistance,3
;   extruderExtraRestartDistance,0
;   extruderRetractionZLift,0
;   extruderRetractionSpeed,3600
;   extruderUseCoasting,1
;   extruderCoastingDistance,0.2
;   extruderUseWipe,1
;   extruderWipeDistance,5
;   primaryExtruder,0
;   layerHeight,0.2
;   topSolidLayers,3
;   bottomSolidLayers,3
;   perimeterOutlines,3
;   printPerimetersInsideOut,1
;   startPointOption,2
;   startPointOriginX,0
;   startPointOriginY,0
;   sequentialIslands,0
;   spiralVaseMode,0
;   firstLayerHeightPercentage,150
;   firstLayerWidthPercentage,150
;   firstLayerUnderspeed,0.5
;   useRaft,0
;   raftExtruder,0
;   raftTopLayers,3
;   raftBaseLayers,2
;   raftOffset,3
;   raftSeparationDistance,0.18
;   raftTopInfill,100
;   aboveRaftSpeedMultiplier,0.3
;   useSkirt,1
;   skirtExtruder,0
;   skirtLayers,1
;   skirtOutlines,3
;   skirtOffset,4
;   usePrimePillar,0
;   primePillarExtruder,999
;   primePillarWidth,12
;   primePillarLocation,7
;   primePillarSpeedMultiplier,1
;   useOozeShield,0
;   oozeShieldExtruder,999
;   oozeShieldOffset,2
;   oozeShieldOutlines,1
;   oozeShieldSidewallShape,1
;   oozeShieldSidewallAngle,30
;   oozeShieldSpeedMultiplier,1
;   infillExtruder,0
;   internalInfillPattern,Fast Honeycomb
;   externalInfillPattern,Rectilinear
;   infillPercentage,20
;   outlineOverlapPercentage,15
;   infillExtrusionWidthPercentage,150
;   minInfillLength,5
;   infillLayerInterval,1
;   internalInfillAngles,0
;   overlapInternalInfillAngles,0
;   externalInfillAngles,45,-45
;   generateSupport,0
;   supportExtruder,0
;   supportInfillPercentage,30
;   supportExtraInflation,0
;   supportBaseLayers,1
;   denseSupportExtruder,0
;   denseSupportLayers,0
;   denseSupportInfillPercentage,70
;   supportLayerInterval,1
;   supportHorizontalPartOffset,0.3
;   supportUpperSeparationLayers,1
;   supportLowerSeparationLayers,1
;   supportType,0
;   supportGridSpacing,4
;   maxOverhangAngle,45
;   supportAngles,0
;   temperatureName,Extruder 1
;   temperatureNumber,0
;   temperatureSetpointCount,2
;   temperatureSetpointLayers,1,2
;   temperatureSetpointTemperatures,220,215
;   temperatureStabilizeAtStartup,1
;   temperatureHeatedBed,0
;   fanLayers,1,2,3
;   fanSpeeds,0,15,25
;   blipFanToFullPower,1
;   adjustSpeedForCooling,1
;   minSpeedLayerTime,15
;   minCoolingSpeedSlowdown,20
;   increaseFanForCooling,0
;   minFanLayerTime,45
;   maxCoolingFanSpeed,40
;   increaseFanForBridging,0
;   bridgingFanSpeed,80
;   use5D,1
;   relativeEdistances,0
;   allowEaxisZeroing,1
;   independentExtruderAxes,0
;   includeM10123,0
;   stickySupport,1
;   applyToolheadOffsets,0
;   gcodeXoffset,0
;   gcodeYoffset,0
;   gcodeZoffset,0
;   overrideMachineDefinition,1
;   machineTypeOverride,0
;   strokeXoverride,200
;   strokeYoverride,200
;   strokeZoverride,150
;   originOffsetXoverride,0
;   originOffsetYoverride,0
;   originOffsetZoverride,0
;   homeXdirOverride,-1
;   homeYdirOverride,-1
;   homeZdirOverride,-1
;   flipXoverride,1
;   flipYoverride,-1
;   flipZoverride,1
;   toolheadOffsets,0,0|0,0|0,0|0,0|0,0|0,0
;   overrideFirmwareConfiguration,1
;   firmwareTypeOverride,RepRap (Marlin/Repetier/Sprinter)
;   GPXconfigOverride,r2
;   baudRateOverride,115200
;   overridePrinterModels,0
;   printerModelsOverride
;   startingGcode,G28 ; home all axes,G32 ; run bed.g -- probe bed and enable compensation
;   layerChangeGcode,
;   retractionGcode,
;   toolChangeGcode,
;   endingGcode,M0 ; call stop.g
;   exportFileFormat,gcode
;   celebration,0
;   celebrationSong,Random Song
;   postProcessing,
;   defaultSpeed,3600
;   outlineUnderspeed,0.5
;   solidInfillUnderspeed,0.8
;   supportUnderspeed,0.8
;   rapidXYspeed,18000
;   rapidZspeed,1200
;   minBridgingArea,50
;   bridgingExtraInflation,0
;   bridgingExtrusionMultiplier,0.96
;   bridgingSpeedMultiplier,1
;   useFixedBridgingAngle,0
;   fixedBridgingAngle,0
;   applyBridgingToPerimeters,0
;   filamentDiameters,1.75|1.75|1.75|1.75|1.75|1.75
;   filamentPricesPerKg,46|46|46|46|46|46
;   filamentDensities,1.25|1.25|1.25|1.25|1.25|1.25
;   useMinPrintHeight,0
;   minPrintHeight,0
;   useMaxPrintHeight,0
;   maxPrintHeight,0
;   useDiaphragm,1
;   diaphragmLayerInterval,20
;   robustSlicing,1
;   mergeAllIntoSolid,0
;   onlyRetractWhenCrossingOutline,1
;   retractBetweenLayers,0
;   useRetractionMinTravel,1
;   retractionMinTravel,3
;   retractWhileWiping,1
;   onlyWipeOutlines,0
;   avoidCrossingOutline,1
;   maxMovementDetourFactor,3
;   toolChangeRetractionDistance,12
;   toolChangeExtraRestartDistance,-0.5
;   toolChangeRetractionSpeed,600
;   externalThinWallType,1
;   internalThinWallType,1
;   thinWallAllowedOverlapPercentage,10
;   singleExtrusionMinLength,1
;   singleExtrusionMinPrintingWidthPercentage,50
;   singleExtrusionMaxPrintingWidthPercentage,200
;   singleExtrusionEndpointExtension,0.2
;   horizontalSizeCompensation,-0.1
G90
M82
M106 S0
M104 S220 T0
M109 S220 T0
G28 ; home all axes
G32 ; run bed.g -- probe bed and enable compensation
; process Process1
; layer 1, Z = 0.300
T0
G92 E0.0000
G1 E-3.0000 F3600
; feature skirt
; tool H0.300 W0.720
G1 Z0.300 F1200
G1 X75.390 Y78.323 F18000
G1 E0.0000 F3600
G92 E0.0000
G1 X78.788 Y74.925 E0.4056 F1800
G1 X99.802 Y74.925 E2.1796
G1 X100.000 Y75.123 E2.2031
G1 X100.198 Y74.925 E2.2267
G1 X121.212 Y74.925 E4.0007
G1 X124.610 Y78.323 E4.4063
G1 X124.610 Y87.123 E5.1492
G1 X121.352 Y90.495 E5.5450
G1 X118.462 Y90.594 E5.7890
G1 X118.015 Y90.640 E5.8270
G1 X117.584 Y90.714 E5.8639
G1 X117.146 Y90.821 E5.9019
G1 X116.719 Y90.956 E5.9397
G1 X116.302 Y91.120 E5.9776
G1 X115.942 Y91.291 E6.0112
G1 X115.281 Y91.678 E6.0759
G1 X114.954 Y91.908 E6.1096
G1 X114.607 Y92.191 E6.1474
G1 X114.280 Y92.497 E6.1852
G1 X114.007 Y92.789 E6.2190
G1 X113.534 Y93.392 E6.2837
G1 X113.315 Y93.726 E6.3174
G1 X113.100 Y94.108 E6.3543
G1 X112.907 Y94.514 E6.3923
G1 X112.742 Y94.931 E6.4302
G1 X112.606 Y95.358 E6.4680
G1 X112.512 Y95.745 E6.5016
G1 X112.395 Y96.503 E6.5663
G1 X112.371 Y96.850 E6.5957
G1 X112.384 Y97.630 E6.6616
G1 X112.424 Y98.014 E6.6942
G1 X112.500 Y98.457 E6.7321
G1 X112.595 Y98.844 E6.7657
G1 X112.839 Y99.570 E6.8304
G1 X112.998 Y99.936 E6.8641
G1 X113.181 Y100.291 E6.8978
G1 X113.564 Y100.897 E6.9583
G1 X114.007 Y101.461 E7.0189
G1 X114.249 Y101.720 E7.0488
G1 X114.783 Y102.202 E7.1095
G1 X115.357 Y102.622 E7.1696
G1 X115.660 Y102.806 E7.1995
G1 X116.346 Y103.147 E7.2642
G1 X116.674 Y103.276 E7.2939
G1 X117.358 Y103.481 E7.3542
G1 X118.077 Y103.617 E7.4159
G1 X118.461 Y103.656 E7.4485
G1 X121.352 Y103.755 E7.6927
G1 X124.610 Y107.127 E8.0885
G1 X124.610 Y121.677 E9.3167
G1 X121.212 Y125.075 E9.7223
G1 X100.198 Y125.075 E11.4963
G1 X100.000 Y124.877 E11.5199
G1 X99.802 Y125.075 E11.5435
G1 X78.788 Y125.075 E13.3174
G1 X75.390 Y121.677 E13.7230
G1 X75.390 Y107.158 E14.9487
G1 X78.575 Y103.801 E15.3393
G1 X81.751 Y103.634 E15.6078
G1 X82.427 Y103.529 E15.6655
G1 X83.119 Y103.348 E15.7259
G1 X83.448 Y103.231 E15.7554
G1 X84.101 Y102.933 E15.8159
G1 X84.678 Y102.596 E15.8724
G1 X85.257 Y102.172 E15.9330
G1 X85.523 Y101.940 E15.9627
G1 X86.024 Y101.422 E16.0236
G1 X86.436 Y100.897 E16.0799
G1 X86.792 Y100.333 E16.1362
G1 X87.111 Y99.691 E16.1967
G1 X87.239 Y99.366 E16.2262
G1 X87.448 Y98.668 E16.2877
G1 X87.572 Y98.014 E16.3439
G1 X87.633 Y97.300 E16.4044
G1 X87.633 Y96.950 E16.4339
G1 X87.567 Y96.186 E16.4986
G1 X87.508 Y95.842 E16.5281
G1 X87.314 Y95.101 E16.5927
G1 X87.180 Y94.724 E16.6266
G1 X87.002 Y94.314 E16.6643
G1 X86.819 Y93.959 E16.6980
G1 X86.436 Y93.353 E16.7585
G1 X85.993 Y92.789 E16.8191
G1 X85.720 Y92.497 E16.8528
G1 X85.429 Y92.225 E16.8864
G1 X84.789 Y91.722 E16.9552
G1 X84.761 Y91.703 E16.9580
G1 X84.058 Y91.291 E17.0268
G1 X83.697 Y91.120 E17.0605
G1 X83.327 Y90.974 E17.0941
G1 X82.640 Y90.769 E17.1546
G1 X81.935 Y90.635 E17.2152
G1 X81.538 Y90.594 E17.2489
G1 X78.648 Y90.495 E17.4929
G1 X75.390 Y87.123 E17.8888
G1 X75.390 Y78.323 E18.6316
G1 X76.110 Y78.621 F18000
G92 E0.0000
G1 X79.086 Y75.645 E0.3553 F1800
G1 X99.504 Y75.645 E2.0789
G1 X100.000 Y76.141 E2.1380
G1 X100.496 Y75.645 E2.1972
G1 X120.914 Y75.645 E3.9208
G1 X123.890 Y78.621 E4.2761
G1 X123.890 Y86.832 E4.9692
G1 X121.036 Y89.785 E5.3159
G1 X118.413 Y89.875 E5.5375
G1 X117.917 Y89.926 E5.5796
G1 X117.438 Y90.009 E5.6206
G1 X116.952 Y90.127 E5.6628
G1 X116.478 Y90.277 E5.7047
G1 X116.015 Y90.459 E5.7467
G1 X115.605 Y90.654 E5.7851
G1 X114.891 Y91.072 E5.8549
G1 X114.519 Y91.334 E5.8933
G1 X114.133 Y91.648 E5.9353
G1 X113.770 Y91.988 E5.9773
G1 X113.460 Y92.320 E6.0157
G1 X112.948 Y92.972 E6.0856
G1 X112.699 Y93.352 E6.1240
G1 X112.461 Y93.776 E6.1650
G1 X112.246 Y94.227 E6.2072
G1 X112.063 Y94.690 E6.2492
G1 X111.913 Y95.164 E6.2912
G1 X111.805 Y95.605 E6.3295
G1 X111.678 Y96.423 E6.3994
G1 X111.650 Y96.831 E6.4340
G1 X111.665 Y97.673 E6.5050
G1 X111.710 Y98.112 E6.5423
G1 X111.795 Y98.603 E6.5843
G1 X111.902 Y99.044 E6.6227
G1 X112.166 Y99.829 E6.6926
G1 X112.347 Y100.246 E6.7309
G1 X112.556 Y100.649 E6.7693
G1 X112.975 Y101.312 E6.8355
G1 X113.460 Y101.930 E6.9017
G1 X113.744 Y102.234 E6.9368
G1 X114.328 Y102.761 E7.0033
G1 X114.957 Y103.221 E7.0690
G1 X115.312 Y103.437 E7.1041
G1 X116.054 Y103.806 E7.1740
G1 X116.438 Y103.957 E7.2090
G1 X117.188 Y104.181 E7.2750
G1 X117.973 Y104.330 E7.3425
G1 X118.412 Y104.375 E7.3797
G1 X121.036 Y104.465 E7.6013
G1 X123.890 Y107.418 E7.9480
G1 X123.890 Y121.379 E9.1265
G1 X120.914 Y124.355 E9.4818
G1 X100.496 Y124.355 E11.2054
G1 X100.000 Y123.859 E11.2646
G1 X99.504 Y124.355 E11.3238
G1 X79.086 Y124.355 E13.0474
G1 X76.110 Y121.379 E13.4026
G1 X76.110 Y107.445 E14.5788
G1 X78.899 Y104.505 E14.9209
G1 X81.825 Y104.351 E15.1683
G1 X82.574 Y104.235 E15.2322
G1 X83.331 Y104.036 E15.2983
G1 X83.718 Y103.899 E15.3330
G1 X84.433 Y103.573 E15.3993
G1 X85.074 Y103.198 E15.4620
G1 X85.707 Y102.735 E15.5282
G1 X86.019 Y102.463 E15.5632
G1 X86.567 Y101.895 E15.6298
G1 X87.025 Y101.313 E15.6923
G1 X87.421 Y100.686 E15.7549
G1 X87.770 Y99.984 E15.8211
G1 X87.920 Y99.602 E15.8557
G1 X88.148 Y98.839 E15.9229
G1 X88.286 Y98.112 E15.9854
G1 X88.353 Y97.331 E16.0516
G1 X88.353 Y96.919 E16.0863
G1 X88.282 Y96.094 E16.1562
G1 X88.213 Y95.690 E16.1909
G1 X88.003 Y94.889 E16.2607
G1 X87.850 Y94.459 E16.2992
G1 X87.653 Y94.004 E16.3411
G1 X87.444 Y93.601 E16.3794
G1 X87.025 Y92.938 E16.4456
G1 X86.540 Y92.320 E16.5119
G1 X86.230 Y91.988 E16.5503
G1 X85.898 Y91.678 E16.5886
G1 X85.214 Y91.140 E16.6621
G1 X85.146 Y91.094 E16.6691
G1 X84.395 Y90.654 E16.7425
G1 X83.984 Y90.459 E16.7809
G1 X83.562 Y90.293 E16.8192
G1 X82.811 Y90.068 E16.8854
G1 X82.039 Y89.922 E16.9516
G1 X81.587 Y89.875 E16.9900
G1 X78.964 Y89.785 E17.2116
G1 X76.110 Y86.832 E17.5583
G1 X76.110 Y78.621 E18.2514
G1 X76.830 Y78.919 F18000
G92 E0.0000
G1 X79.384 Y76.365 E0.3049 F1800
G1 X99.206 Y76.365 E1.9782
G1 X100.000 Y77.159 E2.0729
G1 X100.794 Y76.365 E2.1677
G1 X120.616 Y76.365 E3.8410
G1 X123.170 Y78.919 E4.1459
G1 X123.170 Y86.541 E4.7893
G1 X120.721 Y89.075 E5.0868
G1 X118.364 Y89.156 E5.2859
G1 X117.819 Y89.212 E5.3322
G1 X117.291 Y89.303 E5.3773
G1 X116.758 Y89.433 E5.4236
G1 X116.237 Y89.598 E5.4698
G1 X115.728 Y89.798 E5.5159
G1 X115.268 Y90.017 E5.5589
G1 X114.501 Y90.466 E5.6340
G1 X114.084 Y90.760 E5.6770
G1 X113.660 Y91.105 E5.7232
G1 X113.261 Y91.478 E5.7693
G1 X112.912 Y91.852 E5.8124
G1 X112.363 Y92.551 E5.8875
G1 X112.083 Y92.978 E5.9306
G1 X111.821 Y93.444 E5.9757
G1 X111.585 Y93.939 E6.0220
G1 X111.384 Y94.448 E6.0682
G1 X111.219 Y94.969 E6.1143
G1 X111.098 Y95.464 E6.1573
G1 X110.962 Y96.343 E6.2324
G1 X110.930 Y96.813 E6.2722
G1 X110.946 Y97.716 E6.3485
G1 X110.997 Y98.210 E6.3904
G1 X111.089 Y98.750 E6.4366
G1 X111.210 Y99.245 E6.4796
G1 X111.494 Y100.088 E6.5547
G1 X111.697 Y100.555 E6.5977
G1 X111.931 Y101.008 E6.6407
G1 X112.386 Y101.728 E6.7127
G1 X112.913 Y102.398 E6.7846
G1 X113.238 Y102.748 E6.8249
G1 X113.873 Y103.320 E6.8971
G1 X114.556 Y103.820 E6.9685
G1 X114.964 Y104.068 E7.0088
G1 X115.761 Y104.464 E7.0839
G1 X116.203 Y104.638 E7.1240
G1 X117.018 Y104.882 E7.1958
G1 X117.869 Y105.043 E7.2690
G1 X118.363 Y105.094 E7.3109
G1 X120.721 Y105.175 E7.5100
G1 X123.170 Y107.709 E7.8076
G1 X123.170 Y121.081 E8.9363
G1 X120.616 Y123.635 E9.2412
G1 X100.794 Y123.635 E10.9145
G1 X100.000 Y122.841 E11.0093
G1 X99.206 Y123.635 E11.1041
G1 X79.384 Y123.635 E12.7773
G1 X76.830 Y121.081 E13.0822
G1 X76.830 Y107.732 E14.2090
G1 X79.224 Y105.209 E14.5026
G1 X81.900 Y105.068 E14.7288
G1 X82.721 Y104.941 E14.7989
G1 X83.543 Y104.725 E14.8707
G1 X83.989 Y104.567 E14.9106
G1 X84.765 Y104.214 E14.9826
G1 X85.469 Y103.801 E15.0515
G1 X86.157 Y103.298 E15.1235
G1 X86.516 Y102.985 E15.1636
G1 X87.111 Y102.369 E15.2360
G1 X87.614 Y101.728 E15.3047
G1 X88.049 Y101.040 E15.3735
G1 X88.428 Y100.277 E15.4454
G1 X88.601 Y99.838 E15.4852
G1 X88.849 Y99.009 E15.5582
G1 X89.000 Y98.210 E15.6269
G1 X89.073 Y97.362 E15.6988
G1 X89.073 Y96.888 E15.7387
G1 X88.997 Y96.002 E15.8138
G1 X88.917 Y95.537 E15.8536
G1 X88.692 Y94.678 E15.9286
G1 X88.521 Y94.195 E15.9718
G1 X88.303 Y93.695 E16.0179
G1 X88.069 Y93.242 E16.0609
G1 X87.614 Y92.522 E16.1328
G1 X87.088 Y91.852 E16.2048
G1 X86.740 Y91.479 E16.2478
G1 X86.367 Y91.131 E16.2908
G1 X85.640 Y90.559 E16.3689
G1 X85.531 Y90.485 E16.3801
G1 X84.732 Y90.017 E16.4582
G1 X84.272 Y89.798 E16.5012
G1 X83.797 Y89.612 E16.5443
G1 X82.981 Y89.368 E16.6162
G1 X82.144 Y89.209 E16.6881
G1 X81.636 Y89.156 E16.7312
G1 X79.279 Y89.075 E16.9303
G1 X76.830 Y86.541 E17.2278
G1 X76.830 Y78.919 E17.8712
G92 E0.0000
G1 E-3.0000 F3600
; feature inner perimeter
G1 X81.550 Y81.085 F18000
G1 X81.550 Y81.617
G1 X83.138 Y82.525
G1 E0.0000 F3600
G92 E0.0000
G1 X95.600 Y82.525 E1.0520 F1350
G1 X95.600 Y94.555 E2.0675
G1 X95.007 Y94.606 E2.1177
G1 X94.948 Y94.262 E2.1472
G1 X94.832 Y93.751 E2.1915
G1 X94.584 Y92.864 E2.2691
G1 X94.422 Y92.383 E2.3120
G1 X94.249 Y91.921 E2.3537
G1 X93.870 Y91.048 E2.4340
G1 X93.431 Y90.202 E2.5144
G1 X93.174 Y89.762 E2.5574
G1 X92.661 Y88.979 E2.6365
G1 X92.351 Y88.556 E2.6807
G1 X91.760 Y87.830 E2.7598
G1 X91.099 Y87.122 E2.8415
G1 X90.403 Y86.471 E2.9220
G1 X90.002 Y86.133 E2.9663
G1 X89.268 Y85.577 E3.0440
G1 X88.848 Y85.291 E3.0868
G1 X88.432 Y85.028 E3.1285
G1 X87.601 Y84.561 E3.2089
G1 X86.726 Y84.145 E3.2907
G1 X85.840 Y83.796 E3.3710
G1 X85.358 Y83.633 E3.4140
G1 X84.456 Y83.381 E3.4931
G1 X83.945 Y83.266 E3.5373
G1 X83.087 Y83.118 E3.6108
G1 X83.121 Y82.724 E3.6441
G1 X83.138 Y82.525 F1350
G1 X88.138 Y82.525 F1350
G1 X90.641 Y88.741 F18000
G1 X90.674 Y88.776
G1 X91.211 Y89.437
G1 X91.477 Y89.800
G1 X91.950 Y90.521
G1 X92.170 Y90.897
G1 X92.568 Y91.666
G1 X92.913 Y92.461
G1 X93.065 Y92.865
G1 X93.207 Y93.288
G1 X93.436 Y94.104
G1 X93.535 Y94.543
G1 X93.682 Y95.393
G1 X93.734 Y95.826
G1 X93.783 Y96.544
G1 X95.018 Y99.612
G92 E0.0000
G1 X95.600 Y99.672 E0.0494 F1350
G1 X95.600 Y117.475 E1.5522
G1 X82.990 Y117.475 E2.6167
G1 X82.990 Y111.140 E3.1515
G1 X83.477 Y111.073 E3.1930
G1 X83.992 Y110.975 E3.2372
G1 X84.886 Y110.757 E3.3149
G1 X85.389 Y110.607 E3.3592
G1 X86.286 Y110.287 E3.4396
G1 X87.147 Y109.914 E3.5188
G1 X87.615 Y109.681 E3.5629
G1 X88.421 Y109.228 E3.6410
G1 X88.863 Y108.949 E3.6851
G1 X89.626 Y108.411 E3.7639
G1 X90.031 Y108.093 E3.8073
G1 X90.752 Y107.464 E3.8881
G1 X91.419 Y106.797 E3.9678
G1 X91.759 Y106.420 E4.0107
G1 X92.077 Y106.043 E4.0523
G1 X92.652 Y105.284 E4.1327
G1 X93.174 Y104.487 E4.2131
G1 X93.423 Y104.062 E4.2547
G1 X93.665 Y103.615 E4.2976
G1 X94.067 Y102.769 E4.3766
G1 X94.422 Y101.868 E4.4584
G1 X94.711 Y100.960 E4.5388
G1 X94.844 Y100.452 E4.5831
