; G-Code generated by Simplify3D(R) Version 4.1.2
; Jul 31, 2021 at 3:26:32 PM
; Settings Summary
;   processName,Process1
;   applyToModels,seite
;   profileName,HSBot (modified)
;   profileVersion,2019-11-09 11:59:44
;   baseProfile,Default
;   printMaterial,PETG
;   printQuality,Medium
;   printExtruders,
;   extruderName,Extruder 1
;   extruderToolheadNumber,0
;   extruderDiameter,0.4
;   extruderAutoWidth,1
;   extruderWidth,0.48
;   extrusionMultiplier,1.04
;   extruderUseRetract,1
;   extruderRetractionDistance,3
;   extruderExtraRestartDistance,0
;   extruderRetractionZLift,0
;   extruderRetractionSpeed,3600
;   extruderUseCoasting,1
;   extruderCoastingDistance,0.2
;   extruderUseWipe,0
;   extruderWipeDistance,5
;   primaryExtruder,0
;   layerHeight,0.24
;   topSolidLayers,3
;   bottomSolidLayers,3
;   perimeterOutlines,3
;   printPerimetersInsideOut,1
;   startPointOption,2
;   startPointOriginX,0
;   startPointOriginY,0
;   sequentialIslands,0
;   spiralVaseMode,0
;   firstLayerHeightPercentage,100
;   firstLayerWidthPercentage,120
;   firstLayerUnderspeed,0.5
;   useRaft,0
;   raftExtruder,0
;   raftTopLayers,3
;   raftBaseLayers,2
;   raftOffset,3
;   raftSeparationDistance,0.18
;   raftTopInfill,100
;   aboveRaftSpeedMultiplier,0.3
;   useSkirt,1
;   skirtExtruder,0
;   skirtLayers,1
;   skirtOutlines,10
;   skirtOffset,0
;   usePrimePillar,0
;   primePillarExtruder,999
;   primePillarWidth,12
;   primePillarLocation,7
;   primePillarSpeedMultiplier,1
;   useOozeShield,0
;   oozeShieldExtruder,999
;   oozeShieldOffset,2
;   oozeShieldOutlines,1
;   oozeShieldSidewallShape,1
;   oozeShieldSidewallAngle,30
;   oozeShieldSpeedMultiplier,1
;   infillExtruder,0
;   internalInfillPattern,Rectilinear
;   externalInfillPattern,Rectilinear
;   infillPercentage,20
;   outlineOverlapPercentage,15
;   infillExtrusionWidthPercentage,150
;   minInfillLength,5
;   infillLayerInterval,1
;   internalInfillAngles,45,-45
;   overlapInternalInfillAngles,0
;   externalInfillAngles,45,-45
;   generateSupport,1
;   supportExtruder,0
;   supportInfillPercentage,30
;   supportExtraInflation,0
;   supportBaseLayers,1
;   denseSupportExtruder,0
;   denseSupportLayers,0
;   denseSupportInfillPercentage,70
;   supportLayerInterval,1
;   supportHorizontalPartOffset,0.3
;   supportUpperSeparationLayers,1
;   supportLowerSeparationLayers,1
;   supportType,0
;   supportGridSpacing,4
;   maxOverhangAngle,45
;   supportAngles,0
;   temperatureName,Extruder 1,Bed
;   temperatureNumber,0,0
;   temperatureSetpointCount,2,1
;   temperatureSetpointLayers,1,2,1
;   temperatureSetpointTemperatures,235,235,75
;   temperatureStabilizeAtStartup,1,1
;   temperatureHeatedBed,0,1
;   fanLayers,1,4,6
;   fanSpeeds,0,15,25
;   blipFanToFullPower,1
;   adjustSpeedForCooling,1
;   minSpeedLayerTime,15
;   minCoolingSpeedSlowdown,20
;   increaseFanForCooling,1
;   minFanLayerTime,45
;   maxCoolingFanSpeed,40
;   increaseFanForBridging,1
;   bridgingFanSpeed,80
;   use5D,1
;   relativeEdistances,0
;   allowEaxisZeroing,1
;   independentExtruderAxes,0
;   includeM10123,0
;   stickySupport,1
;   applyToolheadOffsets,0
;   gcodeXoffset,0
;   gcodeYoffset,0
;   gcodeZoffset,0
;   overrideMachineDefinition,1
;   machineTypeOverride,0
;   strokeXoverride,200
;   strokeYoverride,200
;   strokeZoverride,150
;   originOffsetXoverride,0
;   originOffsetYoverride,0
;   originOffsetZoverride,0
;   homeXdirOverride,-1
;   homeYdirOverride,-1
;   homeZdirOverride,-1
;   flipXoverride,1
;   flipYoverride,-1
;   flipZoverride,1
;   toolheadOffsets,0,0|0,0|0,0|0,0|0,0|0,0
;   overrideFirmwareConfiguration,0
;   firmwareTypeOverride,RepRap (Marlin/Repetier/Sprinter)
;   GPXconfigOverride,r2
;   baudRateOverride,115200
;   overridePrinterModels,0
;   printerModelsOverride
;   startingGcode,G28 ; home all axes,G32 ; run bed.g -- probe bed and enable compensation
;   layerChangeGcode,
;   retractionGcode,
;   toolChangeGcode,
;   endingGcode,M0 ; call stop.g
;   exportFileFormat,gcode
;   celebration,0
;   celebrationSong,Random Song
;   postProcessing,
;   defaultSpeed,3600
;   outlineUnderspeed,0.5
;   solidInfillUnderspeed,0.8
;   supportUnderspeed,0.8
;   rapidXYspeed,18000
;   rapidZspeed,1200
;   minBridgingArea,50
;   bridgingExtraInflation,0
;   bridgingExtrusionMultiplier,0.96
;   bridgingSpeedMultiplier,1
;   useFixedBridgingAngle,0
;   fixedBridgingAngle,0
;   applyBridgingToPerimeters,0
;   filamentDiameters,1.75|1.75|1.75|1.75|1.75|1.75
;   filamentPricesPerKg,25|46|46|46|46|46
;   filamentDensities,1.25|1.25|1.25|1.25|1.25|1.25
;   useMinPrintHeight,0
;   minPrintHeight,0
;   useMaxPrintHeight,0
;   maxPrintHeight,0
;   useDiaphragm,1
;   diaphragmLayerInterval,20
;   robustSlicing,1
;   mergeAllIntoSolid,0
;   onlyRetractWhenCrossingOutline,1
;   retractBetweenLayers,0
;   useRetractionMinTravel,1
;   retractionMinTravel,3
;   retractWhileWiping,1
;   onlyWipeOutlines,0
;   avoidCrossingOutline,1
;   maxMovementDetourFactor,3
;   toolChangeRetractionDistance,12
;   toolChangeExtraRestartDistance,-0.5
;   toolChangeRetractionSpeed,600
;   externalThinWallType,0
;   internalThinWallType,2
;   thinWallAllowedOverlapPercentage,10
;   singleExtrusionMinLength,1
;   singleExtrusionMinPrintingWidthPercentage,50
;   singleExtrusionMaxPrintingWidthPercentage,200
;   singleExtrusionEndpointExtension,0.2
;   horizontalSizeCompensation,-0.1
G90
M82
M106 S0
M140 S75
M190 S75
G10 P0 S235 R{235-50}
M116 P0
G28 ; home all axes
G32 ; run bed.g -- probe bed and enable compensation
; process Process1
; layer 1, Z = 0.240
T0
G92 E0.0000
G1 E-3.0000 F3600
; feature skirt
; tool H0.240 W0.576
G1 Z0.240 F1200
G1 X96.596 Y63.978 F18000
G1 E0.0000 F3600
G92 E0.0000
G1 X97.102 Y63.472 E0.0428 F1800
G1 X102.258 Y63.472 E0.3510
G1 X102.764 Y63.978 E0.3937
G1 X102.764 Y67.134 E0.5824
G1 X102.258 Y67.640 E0.6251
G1 X97.102 Y67.640 E0.9333
G1 X96.596 Y67.134 E0.9761
G1 X96.596 Y63.978 E1.1647
G1 X97.172 Y64.216 F18000
G92 E0.0000
G1 X97.340 Y64.048 E0.0143 F1800
G1 X102.019 Y64.048 E0.2939
G1 X102.188 Y64.216 E0.3082
G1 X102.188 Y66.895 E0.4683
G1 X102.019 Y67.064 E0.4825
G1 X97.340 Y67.064 E0.7622
G1 X97.172 Y66.895 E0.7765
G1 X97.172 Y64.216 E0.9366
G92 E0.0000
G1 E-3.0000 F3600
G1 X91.988 Y64.864 F18000
G1 E0.0000 F3600
G92 E0.0000
G1 X91.988 Y62.069 E0.1670 F1800
G1 X95.193 Y58.864 E0.4380
G1 X104.166 Y58.864 E0.9744
G1 X107.372 Y62.069 E1.2453
G1 X107.372 Y64.864 E1.4123
G1 X110.166 Y64.864 E1.5794
G1 X113.372 Y68.069 E1.8503
G1 X113.372 Y93.042 E3.3430
G1 X112.858 Y93.556 E3.3864
G1 X113.372 Y94.069 E3.4298
G1 X113.372 Y155.042 E7.0744
G1 X112.858 Y155.556 E7.1178
G1 X113.372 Y156.069 E7.1612
G1 X113.372 Y181.042 E8.6539
G1 X110.166 Y184.248 E8.9248
G1 X107.372 Y184.248 E9.0919
G1 X107.372 Y187.042 E9.2589
G1 X104.166 Y190.248 E9.5299
G1 X95.193 Y190.248 E10.0662
G1 X91.988 Y187.042 E10.3372
G1 X91.988 Y184.248 E10.5042
G1 X91.193 Y184.248 E10.5517
G1 X87.988 Y181.042 E10.8227
G1 X87.988 Y168.069 E11.5981
G1 X91.193 Y164.864 E11.8691
G1 X92.058 Y164.864 E11.9207
G1 X92.058 Y84.248 E16.7393
G1 X91.193 Y84.248 E16.7910
G1 X87.988 Y81.042 E17.0620
G1 X87.988 Y68.069 E17.8374
G1 X91.193 Y64.864 E18.1084
G1 X91.988 Y64.864 E18.1559
G1 X91.432 Y65.440 F18000
G92 E0.0000
G1 X92.564 Y65.440 E0.0677 F1800
G1 X92.564 Y62.308 E0.2549
G1 X95.432 Y59.440 E0.4973
G1 X103.928 Y59.440 E1.0051
G1 X106.796 Y62.308 E1.2476
G1 X106.796 Y65.440 E1.4348
G1 X109.928 Y65.440 E1.6220
G1 X112.796 Y68.308 E1.8644
G1 X112.796 Y92.804 E3.3286
G1 X112.044 Y93.556 E3.3922
G1 X112.796 Y94.308 E3.4557
G1 X112.796 Y154.804 E7.0717
G1 X112.044 Y155.556 E7.1353
G1 X112.796 Y156.308 E7.1989
G1 X112.796 Y180.804 E8.6631
G1 X109.928 Y183.672 E8.9055
G1 X106.796 Y183.672 E9.0927
G1 X106.796 Y186.804 E9.2799
G1 X103.928 Y189.672 E9.5223
G1 X95.432 Y189.672 E10.0302
G1 X92.564 Y186.804 E10.2726
G1 X92.564 Y183.672 E10.4598
G1 X91.432 Y183.672 E10.5275
G1 X88.564 Y180.804 E10.7699
G1 X88.564 Y168.308 E11.5168
G1 X91.432 Y165.440 E11.7593
G1 X92.634 Y165.440 E11.8311
G1 X92.634 Y83.672 E16.7186
G1 X91.432 Y83.672 E16.7904
G1 X88.564 Y80.804 E17.0329
G1 X88.564 Y68.308 E17.7798
G1 X91.432 Y65.440 E18.0222
G1 X91.670 Y66.016 F18000
G92 E0.0000
G1 X93.140 Y66.016 E0.0878 F1800
G1 X93.140 Y62.546 E0.2952
G1 X95.670 Y60.016 E0.5091
G1 X103.689 Y60.016 E0.9884
G1 X106.220 Y62.546 E1.2023
G1 X106.220 Y66.016 E1.4097
G1 X109.689 Y66.016 E1.6171
G1 X112.220 Y68.546 E1.8310
G1 X112.220 Y92.565 E3.2667
G1 X111.229 Y93.556 E3.3504
G1 X112.220 Y94.546 E3.4341
G1 X112.220 Y154.565 E7.0216
G1 X111.229 Y155.556 E7.1053
G1 X112.220 Y156.546 E7.1891
G1 X112.220 Y180.565 E8.6247
G1 X109.689 Y183.096 E8.8387
G1 X106.220 Y183.096 E9.0460
G1 X106.220 Y186.565 E9.2534
G1 X103.689 Y189.096 E9.4673
G1 X95.670 Y189.096 E9.9466
G1 X93.140 Y186.565 E10.1605
G1 X93.140 Y183.096 E10.3679
G1 X91.670 Y183.096 E10.4557
G1 X89.140 Y180.565 E10.6697
G1 X89.140 Y168.546 E11.3881
G1 X91.670 Y166.016 E11.6020
G1 X93.210 Y166.016 E11.6940
G1 X93.210 Y83.096 E16.6503
G1 X91.670 Y83.096 E16.7423
G1 X89.140 Y80.565 E16.9562
G1 X89.140 Y68.546 E17.6746
G1 X91.670 Y66.016 E17.8885
G1 X91.909 Y66.592 F18000
G92 E0.0000
G1 X93.716 Y66.592 E0.1080 F1800
G1 X93.716 Y62.785 E0.3355
G1 X95.909 Y60.592 E0.5209
G1 X103.451 Y60.592 E0.9717
G1 X105.644 Y62.785 E1.1571
G1 X105.644 Y66.592 E1.3847
G1 X109.451 Y66.592 E1.6122
G1 X111.644 Y68.785 E1.7976
G1 X111.644 Y92.326 E3.2047
G1 X110.414 Y93.556 E3.3086
G1 X111.644 Y94.785 E3.4125
G1 X111.644 Y154.326 E6.9715
G1 X110.414 Y155.556 E7.0754
G1 X111.644 Y156.785 E7.1793
G1 X111.644 Y180.326 E8.5864
G1 X109.450 Y182.520 E8.7718
G1 X105.644 Y182.520 E8.9994
G1 X105.644 Y186.326 E9.2269
G1 X103.450 Y188.520 E9.4123
G1 X95.909 Y188.520 E9.8631
G1 X93.716 Y186.326 E10.0485
G1 X93.716 Y182.520 E10.2760
G1 X91.909 Y182.520 E10.3840
G1 X89.716 Y180.326 E10.5694
G1 X89.716 Y168.785 E11.2593
G1 X91.909 Y166.592 E11.4447
G1 X93.786 Y166.592 E11.5569
G1 X93.786 Y82.520 E16.5821
G1 X91.909 Y82.520 E16.6942
G1 X89.716 Y80.326 E16.8796
G1 X89.716 Y68.785 E17.5695
G1 X91.909 Y66.592 E17.7549
G1 X92.147 Y67.168 F18000
G92 E0.0000
G1 X94.292 Y67.168 E0.1282 F1800
G1 X94.292 Y63.023 E0.3759
G1 X96.147 Y61.168 E0.5327
G1 X103.212 Y61.168 E0.9550
G1 X105.068 Y63.023 E1.1119
G1 X105.068 Y67.002 E1.3497
G1 X105.233 Y67.168 E1.3637
G1 X109.212 Y67.168 E1.6015
G1 X111.068 Y69.023 E1.7584
G1 X111.068 Y92.088 E3.1370
G1 X109.600 Y93.556 E3.2611
G1 X111.068 Y95.023 E3.3851
G1 X111.068 Y154.088 E6.9156
G1 X109.600 Y155.556 E7.0396
G1 X111.068 Y157.023 E7.1637
G1 X111.068 Y180.088 E8.5423
G1 X109.212 Y181.944 E8.6992
G1 X105.233 Y181.944 E8.9370
G1 X105.068 Y182.109 E8.9510
G1 X105.068 Y186.088 E9.1888
G1 X103.212 Y187.944 E9.3457
G1 X96.147 Y187.944 E9.7679
G1 X94.292 Y186.088 E9.9248
G1 X94.292 Y181.944 E10.1725
G1 X92.147 Y181.944 E10.3007
G1 X90.292 Y180.088 E10.4576
G1 X90.292 Y169.023 E11.1189
G1 X92.147 Y167.168 E11.2758
G1 X94.362 Y167.168 E11.4081
G1 X94.362 Y81.944 E16.5022
G1 X92.147 Y81.944 E16.6345
G1 X90.292 Y80.088 E16.7914
G1 X90.292 Y69.023 E17.4527
G1 X92.147 Y67.168 E17.6096
G1 X92.386 Y67.744 F18000
G92 E0.0000
G1 X94.868 Y67.744 E0.1483 F1800
G1 X94.868 Y63.262 E0.4162
G1 X96.386 Y61.744 E0.5446
G1 X102.973 Y61.744 E0.9383
G1 X104.492 Y63.262 E1.0667
G1 X104.492 Y67.241 E1.3045
G1 X104.922 Y67.671 E1.3408
G1 X104.922 Y67.744 E1.3452
G1 X108.973 Y67.744 E1.5874
G1 X110.492 Y69.262 E1.7157
G1 X110.492 Y91.849 E3.0658
G1 X108.973 Y93.368 E3.1941
G1 X104.922 Y93.368 E3.4363
G1 X104.922 Y93.744 E3.4588
G1 X108.973 Y93.744 E3.7010
G1 X110.492 Y95.262 E3.8293
G1 X110.492 Y153.849 E7.3312
G1 X108.973 Y155.368 E7.4596
G1 X104.922 Y155.368 E7.7018
G1 X104.922 Y155.744 E7.7242
G1 X108.973 Y155.744 E7.9664
G1 X110.492 Y157.262 E8.0948
G1 X110.492 Y179.849 E9.4449
G1 X108.973 Y181.368 E9.5732
G1 X104.922 Y181.368 E9.8154
G1 X104.922 Y181.441 E9.8198
G1 X104.492 Y181.871 E9.8561
G1 X104.492 Y185.849 E10.0939
G1 X102.973 Y187.368 E10.2223
G1 X96.386 Y187.368 E10.6160
G1 X94.868 Y185.849 E10.7443
G1 X94.868 Y181.368 E11.0122
G1 X92.386 Y181.368 E11.1606
G1 X90.868 Y179.849 E11.2889
G1 X90.868 Y169.262 E11.9217
G1 X92.386 Y167.744 E12.0501
G1 X94.938 Y167.744 E12.2026
G1 X94.938 Y81.368 E17.3655
G1 X92.386 Y81.368 E17.5180
G1 X90.868 Y79.849 E17.6464
G1 X90.868 Y69.262 E18.2792
G1 X92.386 Y67.744 E18.4075
G1 X92.625 Y68.320 F18000
G92 E0.0000
G1 X95.514 Y68.320 E0.1727 F1800
G1 X95.514 Y67.909 E0.1972
G1 X95.628 Y67.795 E0.2069
G1 X95.444 Y67.611 E0.2225
G1 X95.444 Y63.501 E0.4681
G1 X96.625 Y62.320 E0.5679
G1 X102.735 Y62.320 E0.9332
G1 X103.916 Y63.501 E1.0330
G1 X103.916 Y67.479 E1.2708
G1 X104.346 Y67.909 E1.3071
G1 X104.346 Y68.320 E1.3317
G1 X108.735 Y68.320 E1.5940
G1 X109.916 Y69.501 E1.6939
G1 X109.916 Y91.611 E3.0154
G1 X108.735 Y92.792 E3.1153
G1 X104.346 Y92.792 E3.3776
G1 X104.346 Y94.320 E3.4689
G1 X108.735 Y94.320 E3.7313
G1 X109.916 Y95.501 E3.8311
G1 X109.916 Y153.611 E7.3045
G1 X108.735 Y154.792 E7.4043
G1 X104.346 Y154.792 E7.6667
G1 X104.346 Y156.320 E7.7580
G1 X108.735 Y156.320 E8.0203
G1 X109.916 Y157.501 E8.1202
G1 X109.916 Y179.611 E9.4417
G1 X108.735 Y180.792 E9.5416
G1 X104.346 Y180.792 E9.8039
G1 X104.346 Y181.202 E9.8285
G1 X103.916 Y181.632 E9.8648
G1 X103.916 Y185.611 E10.1026
G1 X102.735 Y186.792 E10.2024
G1 X96.625 Y186.792 E10.5677
G1 X95.444 Y185.611 E10.6675
G1 X95.444 Y181.501 E10.9132
G1 X95.628 Y181.316 E10.9287
G1 X95.514 Y181.202 E10.9384
G1 X95.514 Y180.792 E10.9629
G1 X92.625 Y180.792 E11.1356
G1 X91.444 Y179.611 E11.2354
G1 X91.444 Y169.501 E11.8397
G1 X92.625 Y168.320 E11.9396
G1 X95.514 Y168.320 E12.1122
G1 X95.514 Y80.792 E17.3440
G1 X92.625 Y80.792 E17.5167
G1 X91.444 Y79.611 E17.6165
G1 X91.444 Y69.501 E18.2208
G1 X92.625 Y68.320 E18.3206
G1 X92.863 Y68.896 F18000
G92 E0.0000
G1 X96.090 Y68.896 E0.1929 F1800
G1 X96.090 Y68.148 E0.2376
G1 X96.442 Y67.795 E0.2674
G1 X96.020 Y67.372 E0.3031
G1 X96.020 Y63.739 E0.5203
G1 X96.863 Y62.896 E0.5916
G1 X102.496 Y62.896 E0.9283
G1 X103.340 Y63.739 E0.9996
G1 X103.340 Y67.372 E1.2167
G1 X103.167 Y67.545 E1.2313
G1 X103.770 Y68.148 E1.2823
G1 X103.770 Y68.896 E1.3270
G1 X108.496 Y68.896 E1.6095
G1 X109.340 Y69.739 E1.6808
G1 X109.340 Y91.372 E2.9739
G1 X108.496 Y92.216 E3.0452
G1 X103.770 Y92.216 E3.3277
G1 X103.770 Y94.896 E3.4879
G1 X108.496 Y94.896 E3.7704
G1 X109.340 Y95.739 E3.8417
G1 X109.340 Y153.372 E7.2866
G1 X108.496 Y154.216 E7.3579
G1 X103.770 Y154.216 E7.6404
G1 X103.770 Y156.896 E7.8006
G1 X108.496 Y156.896 E8.0831
G1 X109.340 Y157.739 E8.1544
G1 X109.340 Y179.372 E9.4474
G1 X108.496 Y180.216 E9.5187
G1 X103.770 Y180.216 E9.8013
G1 X103.770 Y180.964 E9.8460
G1 X103.167 Y181.566 E9.8969
G1 X103.340 Y181.739 E9.9115
G1 X103.340 Y185.372 E10.1287
G1 X102.496 Y186.216 E10.2000
G1 X96.863 Y186.216 E10.5367
G1 X96.020 Y185.372 E10.6080
G1 X96.020 Y181.739 E10.8251
G1 X96.442 Y181.316 E10.8609
G1 X96.090 Y180.964 E10.8907
G1 X96.090 Y180.216 E10.9354
G1 X92.863 Y180.216 E11.1282
G1 X92.020 Y179.372 E11.1995
G1 X92.020 Y169.739 E11.7753
G1 X92.863 Y168.896 E11.8466
G1 X96.090 Y168.896 E12.0395
G1 X96.090 Y80.216 E17.3401
G1 X92.863 Y80.216 E17.5330
G1 X92.020 Y79.372 E17.6043
G1 X92.020 Y69.739 E18.1800
G1 X92.863 Y68.896 E18.2514
G1 X93.102 Y69.472 F18000
G92 E0.0000
G1 X96.666 Y69.472 E0.2130 F1800
G1 X96.666 Y68.386 E0.2779
G1 X97.172 Y67.880 E0.3207
G1 X102.688 Y67.880 E0.6504
G1 X103.194 Y68.386 E0.6932
G1 X103.194 Y69.472 E0.7580
G1 X108.258 Y69.472 E1.0607
G1 X108.764 Y69.978 E1.1035
G1 X108.764 Y91.134 E2.3680
G1 X108.258 Y91.640 E2.4108
G1 X103.194 Y91.640 E2.7135
G1 X103.194 Y95.472 E2.9425
G1 X108.258 Y95.472 E3.2452
G1 X108.764 Y95.978 E3.2880
G1 X108.764 Y153.134 E6.7043
G1 X108.258 Y153.640 E6.7471
G1 X103.194 Y153.640 E7.0498
G1 X103.194 Y157.472 E7.2789
G1 X108.258 Y157.472 E7.5815
G1 X108.764 Y157.978 E7.6243
G1 X108.764 Y179.134 E8.8888
G1 X108.258 Y179.640 E8.9316
G1 X103.194 Y179.640 E9.2343
G1 X103.194 Y180.725 E9.2992
G1 X102.688 Y181.231 E9.3420
G1 X97.172 Y181.231 E9.6717
G1 X96.666 Y180.725 E9.7144
