; G-Code generated by Simplify3D(R) Version 4.1.2
; May 21, 2020 at 8:04:18 PM
; Settings Summary
;   processName,Process1
;   applyToModels,bottom-side-v2
;   profileName,HBot (modified)
;   profileVersion,2019-10-26 23:38:43
;   baseProfile,Default
;   printMaterial,PETG - SUNLU
;   printQuality,High
;   printExtruders,
;   extruderName,Extruder 1
;   extruderToolheadNumber,0
;   extruderDiameter,0.4
;   extruderAutoWidth,1
;   extruderWidth,0.48
;   extrusionMultiplier,0.98
;   extruderUseRetract,1
;   extruderRetractionDistance,4
;   extruderExtraRestartDistance,0
;   extruderRetractionZLift,0
;   extruderRetractionSpeed,3600
;   extruderUseCoasting,1
;   extruderCoastingDistance,0.2
;   extruderUseWipe,1
;   extruderWipeDistance,5
;   primaryExtruder,0
;   layerHeight,0.1
;   topSolidLayers,3
;   bottomSolidLayers,3
;   perimeterOutlines,3
;   printPerimetersInsideOut,1
;   startPointOption,2
;   startPointOriginX,200
;   startPointOriginY,100
;   sequentialIslands,0
;   spiralVaseMode,0
;   firstLayerHeightPercentage,100
;   firstLayerWidthPercentage,100
;   firstLayerUnderspeed,0.5
;   useRaft,0
;   raftExtruder,0
;   raftTopLayers,3
;   raftBaseLayers,2
;   raftOffset,3
;   raftSeparationDistance,0.18
;   raftTopInfill,100
;   aboveRaftSpeedMultiplier,0.3
;   useSkirt,1
;   skirtExtruder,0
;   skirtLayers,1
;   skirtOutlines,5
;   skirtOffset,0
;   usePrimePillar,0
;   primePillarExtruder,999
;   primePillarWidth,12
;   primePillarLocation,7
;   primePillarSpeedMultiplier,1
;   useOozeShield,1
;   oozeShieldExtruder,999
;   oozeShieldOffset,0.5
;   oozeShieldOutlines,2
;   oozeShieldSidewallShape,1
;   oozeShieldSidewallAngle,30
;   oozeShieldSpeedMultiplier,1
;   infillExtruder,0
;   internalInfillPattern,Rectilinear
;   externalInfillPattern,Rectilinear
;   infillPercentage,30
;   outlineOverlapPercentage,25
;   infillExtrusionWidthPercentage,100
;   minInfillLength,5
;   infillLayerInterval,1
;   internalInfillAngles,45,-45
;   overlapInternalInfillAngles,0
;   externalInfillAngles,45,-45
;   generateSupport,0
;   supportExtruder,0
;   supportInfillPercentage,40
;   supportExtraInflation,0
;   supportBaseLayers,1
;   denseSupportExtruder,0
;   denseSupportLayers,0
;   denseSupportInfillPercentage,70
;   supportLayerInterval,1
;   supportHorizontalPartOffset,0.3
;   supportUpperSeparationLayers,1
;   supportLowerSeparationLayers,1
;   supportType,0
;   supportGridSpacing,4
;   maxOverhangAngle,25
;   supportAngles,0
;   temperatureName,Extruder 1,Heated Bed
;   temperatureNumber,0,1
;   temperatureSetpointCount,2,1
;   temperatureSetpointLayers,1,2,1
;   temperatureSetpointTemperatures,235,225,75
;   temperatureStabilizeAtStartup,1,1
;   temperatureHeatedBed,0,1
;   fanLayers,1,5,10
;   fanSpeeds,0,5,20
;   blipFanToFullPower,1
;   adjustSpeedForCooling,1
;   minSpeedLayerTime,15
;   minCoolingSpeedSlowdown,20
;   increaseFanForCooling,0
;   minFanLayerTime,45
;   maxCoolingFanSpeed,35
;   increaseFanForBridging,1
;   bridgingFanSpeed,85
;   use5D,1
;   relativeEdistances,0
;   allowEaxisZeroing,1
;   independentExtruderAxes,0
;   includeM10123,0
;   stickySupport,1
;   applyToolheadOffsets,0
;   gcodeXoffset,0
;   gcodeYoffset,0
;   gcodeZoffset,0
;   overrideMachineDefinition,1
;   machineTypeOverride,0
;   strokeXoverride,200
;   strokeYoverride,200
;   strokeZoverride,150
;   originOffsetXoverride,0
;   originOffsetYoverride,0
;   originOffsetZoverride,0
;   homeXdirOverride,-1
;   homeYdirOverride,-1
;   homeZdirOverride,-1
;   flipXoverride,1
;   flipYoverride,-1
;   flipZoverride,1
;   toolheadOffsets,0,0|0,0|0,0|0,0|0,0|0,0
;   overrideFirmwareConfiguration,1
;   firmwareTypeOverride,RepRap (Marlin/Repetier/Sprinter)
;   GPXconfigOverride,r2
;   baudRateOverride,115200
;   overridePrinterModels,0
;   printerModelsOverride
;   startingGcode,G28 ; home all axes,G32 ; run bed.g -- probe bed and enable compensation
;   layerChangeGcode,
;   retractionGcode,
;   toolChangeGcode,
;   endingGcode,M0 ; call stop.g
;   exportFileFormat,gcode
;   celebration,0
;   celebrationSong,Random Song
;   postProcessing,
;   defaultSpeed,3600
;   outlineUnderspeed,0.5
;   solidInfillUnderspeed,0.8
;   supportUnderspeed,0.8
;   rapidXYspeed,18000
;   rapidZspeed,1200
;   minBridgingArea,50
;   bridgingExtraInflation,0
;   bridgingExtrusionMultiplier,0.96
;   bridgingSpeedMultiplier,1
;   useFixedBridgingAngle,0
;   fixedBridgingAngle,0
;   applyBridgingToPerimeters,0
;   filamentDiameters,1.75|1.75|1.75|1.75|1.75|1.75
;   filamentPricesPerKg,46|46|46|46|46|46
;   filamentDensities,1.25|1.25|1.25|1.25|1.25|1.25
;   useMinPrintHeight,0
;   minPrintHeight,0.2
;   useMaxPrintHeight,0
;   maxPrintHeight,15
;   useDiaphragm,0
;   diaphragmLayerInterval,20
;   robustSlicing,1
;   mergeAllIntoSolid,0
;   onlyRetractWhenCrossingOutline,1
;   retractBetweenLayers,0
;   useRetractionMinTravel,1
;   retractionMinTravel,3
;   retractWhileWiping,1
;   onlyWipeOutlines,1
;   avoidCrossingOutline,1
;   maxMovementDetourFactor,50
;   toolChangeRetractionDistance,12
;   toolChangeExtraRestartDistance,-0.5
;   toolChangeRetractionSpeed,600
;   externalThinWallType,0
;   internalThinWallType,2
;   thinWallAllowedOverlapPercentage,10
;   singleExtrusionMinLength,1
;   singleExtrusionMinPrintingWidthPercentage,50
;   singleExtrusionMaxPrintingWidthPercentage,150
;   singleExtrusionEndpointExtension,0.2
;   horizontalSizeCompensation,-0.1
G90
M82
M106 S0
M140 S75
M190 S75
M104 S235 T0
M109 S235 T0
G28 ; home all axes
G32 ; run bed.g -- probe bed and enable compensation
; process Process1
; layer 1, Z = 0.100
T0
G92 E0.0000
G1 E-4.0000 F3600
; feature skirt
; tool H0.100 W0.480
G1 Z0.100 F1200
G1 X61.617 Y90.809 F18000
G1 E0.0000 F3600
G92 E0.0000
G1 X62.411 Y90.480 E0.0168 F1800
G1 X133.234 Y90.480 E1.4019
G1 X133.350 Y90.486 E1.4042
G1 X134.019 Y90.558 E1.4173
G1 X134.123 Y90.575 E1.4194
G1 X135.070 Y90.771 E1.4383
G1 X135.187 Y90.802 E1.4407
G1 X136.016 Y91.073 E1.4577
G1 X136.099 Y91.104 E1.4595
G1 X136.626 Y91.326 E1.4706
G1 X136.714 Y91.368 E1.4726
G1 X137.569 Y91.822 E1.4915
G1 X137.699 Y91.904 E1.4945
G1 X139.182 Y92.987 E1.5304
G1 X139.513 Y93.378 E1.5404
G1 X140.056 Y94.454 E1.5640
G1 X140.173 Y94.947 E1.5739
G1 X140.173 Y105.053 E1.7715
G1 X140.056 Y105.546 E1.7815
G1 X139.513 Y106.622 E1.8050
G1 X139.182 Y107.013 E1.8150
G1 X137.701 Y108.095 E1.8509
G1 X137.574 Y108.175 E1.8539
G1 X136.758 Y108.612 E1.8719
G1 X136.649 Y108.663 E1.8743
G1 X135.752 Y109.022 E1.8932
G1 X135.656 Y109.055 E1.8952
G1 X135.043 Y109.235 E1.9077
G1 X134.951 Y109.258 E1.9095
G1 X134.113 Y109.427 E1.9262
G1 X134.016 Y109.442 E1.9282
G1 X133.350 Y109.514 E1.9413
G1 X133.234 Y109.520 E1.9436
G1 X62.713 Y109.520 E3.3227
G1 X61.950 Y109.219 E3.3388
G1 X60.509 Y107.874 E3.3773
G1 X60.156 Y107.133 E3.3934
G1 X59.927 Y103.816 E3.4584
G1 X59.925 Y103.779 E3.4591
G1 X59.838 Y101.297 E3.5077
G1 X59.837 Y101.261 E3.5084
G1 X59.825 Y93.070 E3.6686
G1 X60.153 Y92.275 E3.6854
G1 X61.617 Y90.809 E3.7259
G1 X61.889 Y91.216 F18000
G92 E0.0000
G1 X62.507 Y90.960 E0.0131 F1800
G1 X133.221 Y90.960 E1.3960
G1 X133.311 Y90.965 E1.3978
G1 X133.956 Y91.034 E1.4105
G1 X134.036 Y91.047 E1.4121
G1 X134.960 Y91.239 E1.4305
G1 X135.050 Y91.263 E1.4324
G1 X135.858 Y91.527 E1.4490
G1 X135.923 Y91.551 E1.4503
G1 X136.430 Y91.764 E1.4611
G1 X136.498 Y91.797 E1.4626
G1 X137.329 Y92.238 E1.4810
G1 X137.430 Y92.302 E1.4833
G1 X138.852 Y93.341 E1.5178
G1 X139.110 Y93.645 E1.5256
G1 X139.602 Y94.620 E1.5469
G1 X139.693 Y95.003 E1.5546
G1 X139.693 Y104.997 E1.7500
G1 X139.602 Y105.380 E1.7578
G1 X139.110 Y106.355 E1.7791
G1 X138.852 Y106.659 E1.7869
G1 X137.431 Y107.698 E1.8213
G1 X137.332 Y107.760 E1.8236
G1 X136.543 Y108.182 E1.8411
G1 X136.459 Y108.222 E1.8430
G1 X135.584 Y108.572 E1.8614
G1 X135.510 Y108.598 E1.8629
G1 X134.918 Y108.772 E1.8750
G1 X134.846 Y108.790 E1.8764
G1 X134.029 Y108.954 E1.8927
G1 X133.954 Y108.966 E1.8942
G1 X133.311 Y109.035 E1.9069
G1 X133.221 Y109.040 E1.9086
G1 X62.805 Y109.040 E3.2857
G1 X62.211 Y108.806 E3.2982
G1 X60.903 Y107.585 E3.3332
G1 X60.628 Y107.009 E3.3457
G1 X60.406 Y103.787 E3.4089
G1 X60.404 Y103.758 E3.4094
G1 X60.318 Y101.284 E3.4578
G1 X60.317 Y101.256 E3.4584
G1 X60.305 Y93.165 E3.6166
G1 X60.560 Y92.546 E3.6297
G1 X61.889 Y91.216 E3.6665
G1 X62.161 Y91.623 F18000
G92 E0.0000
G1 X62.602 Y91.440 E0.0093 F1800
G1 X133.208 Y91.440 E1.3902
G1 X133.273 Y91.443 E1.3914
G1 X133.893 Y91.510 E1.4036
G1 X133.950 Y91.519 E1.4048
G1 X134.849 Y91.706 E1.4227
G1 X134.914 Y91.723 E1.4240
G1 X135.700 Y91.980 E1.4402
G1 X135.746 Y91.997 E1.4412
G1 X136.233 Y92.202 E1.4515
G1 X136.282 Y92.225 E1.4526
G1 X137.088 Y92.654 E1.4704
G1 X137.161 Y92.699 E1.4721
G1 X138.523 Y93.695 E1.5051
G1 X138.708 Y93.912 E1.5107
G1 X139.148 Y94.786 E1.5298
G1 X139.213 Y95.060 E1.5353
G1 X139.213 Y104.940 E1.7286
G1 X139.148 Y105.214 E1.7341
G1 X138.708 Y106.088 E1.7532
G1 X138.523 Y106.305 E1.7588
G1 X137.161 Y107.300 E1.7918
G1 X137.091 Y107.345 E1.7934
G1 X136.328 Y107.753 E1.8103
G1 X136.268 Y107.781 E1.8116
G1 X135.416 Y108.122 E1.8295
G1 X135.363 Y108.140 E1.8306
G1 X134.793 Y108.309 E1.8423
G1 X134.741 Y108.321 E1.8433
G1 X133.945 Y108.481 E1.8592
G1 X133.891 Y108.490 E1.8603
G1 X133.273 Y108.557 E1.8724
G1 X133.208 Y108.560 E1.8737
G1 X62.896 Y108.560 E3.2488
G1 X62.472 Y108.393 E3.2577
G1 X61.297 Y107.297 E3.2891
G1 X61.101 Y106.885 E3.2980
G1 X60.885 Y103.758 E3.3593
G1 X60.884 Y103.738 E3.3597
G1 X60.798 Y101.271 E3.4080
G1 X60.797 Y101.251 E3.4084
G1 X60.785 Y93.260 E3.5647
G1 X60.968 Y92.818 E3.5740
G1 X62.161 Y91.623 E3.6071
G1 X62.433 Y92.030 F18000
G92 E0.0000
G1 X62.698 Y91.920 E0.0056 F1800
G1 X133.195 Y91.920 E1.3843
G1 X133.234 Y91.922 E1.3851
G1 X133.830 Y91.986 E1.3968
G1 X133.864 Y91.992 E1.3975
G1 X134.738 Y92.173 E1.4149
G1 X134.777 Y92.183 E1.4157
G1 X135.541 Y92.433 E1.4314
G1 X135.569 Y92.444 E1.4320
G1 X136.037 Y92.640 E1.4420
G1 X136.066 Y92.654 E1.4426
G1 X136.848 Y93.070 E1.4599
G1 X136.891 Y93.097 E1.4609
G1 X138.194 Y94.049 E1.4925
G1 X138.305 Y94.179 E1.4958
G1 X138.694 Y94.952 E1.5127
G1 X138.733 Y95.116 E1.5160
G1 X138.733 Y104.884 E1.7071
G1 X138.694 Y105.048 E1.7104
G1 X138.305 Y105.821 E1.7273
G1 X138.194 Y105.951 E1.7306
G1 X136.892 Y106.903 E1.7622
G1 X136.849 Y106.929 E1.7631
G1 X136.113 Y107.324 E1.7795
G1 X136.077 Y107.341 E1.7803
G1 X135.249 Y107.672 E1.7977
G1 X135.217 Y107.683 E1.7984
G1 X134.667 Y107.845 E1.8096
G1 X134.636 Y107.853 E1.8102
G1 X133.861 Y108.009 E1.8257
G1 X133.829 Y108.014 E1.8263
G1 X133.234 Y108.078 E1.8380
G1 X133.195 Y108.080 E1.8388
G1 X62.987 Y108.080 E3.2118
G1 X62.733 Y107.980 E3.2172
G1 X61.691 Y107.008 E3.2450
G1 X61.574 Y106.761 E3.2504
G1 X61.364 Y103.729 E3.3098
G1 X61.363 Y103.717 E3.3100
G1 X61.278 Y101.258 E3.3582
G1 X61.277 Y101.246 E3.3584
G1 X61.265 Y93.355 E3.5127
G1 X61.375 Y93.089 E3.5183
G1 X62.433 Y92.030 E3.5476
G1 X62.705 Y92.437 F18000
G92 E0.0000
G1 X62.793 Y92.400 E0.0019 F1800
G1 X133.183 Y92.400 E1.3785
G1 X133.195 Y92.401 E1.3787
G1 X133.766 Y92.462 E1.3900
G1 X133.778 Y92.464 E1.3902
G1 X134.628 Y92.640 E1.4071
G1 X134.641 Y92.644 E1.4074
G1 X135.383 Y92.886 E1.4227
G1 X135.392 Y92.890 E1.4229
G1 X135.840 Y93.078 E1.4324
G1 X135.850 Y93.083 E1.4326
G1 X136.607 Y93.486 E1.4494
G1 X136.622 Y93.495 E1.4497
G1 X137.865 Y94.403 E1.4798
G1 X137.902 Y94.446 E1.4809
G1 X138.240 Y95.118 E1.4956
G1 X138.253 Y95.172 E1.4967
G1 X138.253 Y104.828 E1.6856
G1 X138.240 Y104.882 E1.6867
G1 X137.902 Y105.553 E1.7014
G1 X137.865 Y105.597 E1.7025
G1 X136.622 Y106.505 E1.7326
G1 X136.608 Y106.514 E1.7329
G1 X135.898 Y106.894 E1.7487
G1 X135.886 Y106.900 E1.7489
G1 X135.081 Y107.222 E1.7659
G1 X135.070 Y107.226 E1.7661
G1 X134.542 Y107.382 E1.7769
G1 X134.531 Y107.384 E1.7771
G1 X133.777 Y107.536 E1.7921
G1 X133.766 Y107.538 E1.7923
G1 X133.195 Y107.599 E1.8036
G1 X133.183 Y107.600 E1.8038
G1 X63.078 Y107.600 E3.1749
G1 X62.993 Y107.567 E3.1766
G1 X62.085 Y106.719 E3.2009
G1 X62.046 Y106.637 E3.2027
G1 X61.843 Y103.696 E3.2604
G1 X61.757 Y101.241 E3.3084
G1 X61.746 Y93.449 E3.4608
G1 X61.782 Y93.361 E3.4627
G1 X62.705 Y92.437 E3.4882
; feature ooze shield
G1 X62.941 Y92.880 F18000
G92 E0.0000
G1 X133.169 Y92.880 E1.3735 F1800
G1 X133.237 Y92.884 E1.3748
G1 X133.640 Y92.928 E1.3827
G1 X133.693 Y92.937 E1.3838
G1 X134.435 Y93.086 E1.3986
G1 X134.504 Y93.104 E1.4000
G1 X135.224 Y93.340 E1.4148
G1 X135.274 Y93.358 E1.4158
G1 X135.643 Y93.516 E1.4237
G1 X135.692 Y93.539 E1.4247
G1 X136.366 Y93.901 E1.4397
G1 X136.441 Y93.948 E1.4414
G1 X137.512 Y94.739 E1.4675
G1 X137.773 Y95.258 E1.4788
G1 X137.773 Y104.742 E1.6643
G1 X137.512 Y105.261 E1.6757
G1 X136.441 Y106.052 E1.7017
G1 X136.366 Y106.099 E1.7034
G1 X135.684 Y106.465 E1.7186
G1 X135.619 Y106.495 E1.7200
G1 X134.914 Y106.772 E1.7348
G1 X134.863 Y106.789 E1.7358
G1 X134.479 Y106.903 E1.7437
G1 X134.426 Y106.916 E1.7447
G1 X133.693 Y107.063 E1.7594
G1 X133.640 Y107.072 E1.7604
G1 X133.237 Y107.116 E1.7683
G1 X133.169 Y107.120 E1.7697
G1 X63.218 Y107.120 E3.1377
G1 X62.515 Y106.464 E3.1565
G1 X62.322 Y103.671 E3.2112
G1 X62.321 Y103.650 E3.2116
G1 X62.237 Y101.232 E3.2590
G1 X62.237 Y101.212 E3.2594
G1 X62.226 Y93.596 E3.4083
G1 X62.941 Y92.880 E3.4281
G1 X63.140 Y93.360 F18000
G92 E0.0000
G1 X133.156 Y93.360 E1.3693 F1800
G1 X133.197 Y93.362 E1.3701
G1 X133.576 Y93.404 E1.3776
G1 X133.608 Y93.409 E1.3782
G1 X134.327 Y93.554 E1.3925
G1 X134.369 Y93.565 E1.3934
G1 X135.065 Y93.792 E1.4077
G1 X135.095 Y93.804 E1.4083
G1 X135.445 Y93.953 E1.4158
G1 X135.474 Y93.967 E1.4164
G1 X136.124 Y94.316 E1.4308
G1 X136.169 Y94.344 E1.4319
G1 X137.135 Y95.057 E1.4554
G1 X137.293 Y95.372 E1.4622
G1 X137.293 Y104.628 E1.6433
G1 X137.135 Y104.943 E1.6502
G1 X136.169 Y105.656 E1.6736
G1 X136.124 Y105.684 E1.6747
G1 X135.469 Y106.035 E1.6892
G1 X135.430 Y106.053 E1.6901
G1 X134.748 Y106.321 E1.7044
G1 X134.717 Y106.332 E1.7050
G1 X134.353 Y106.439 E1.7124
G1 X134.321 Y106.447 E1.7131
G1 X133.608 Y106.591 E1.7273
G1 X133.576 Y106.596 E1.7279
G1 X133.197 Y106.638 E1.7354
G1 X133.156 Y106.640 E1.7362
G1 X63.408 Y106.640 E3.1003
G1 X62.981 Y106.242 E3.1117
G1 X62.801 Y103.642 E3.1626
G1 X62.801 Y103.630 E3.1629
G1 X62.717 Y101.219 E3.2101
G1 X62.717 Y101.207 E3.2103
G1 X62.706 Y93.794 E3.3553
G1 X63.140 Y93.360 E3.3673
; feature inner perimeter
G1 X63.687 Y94.340 F18000
G1 X63.902 Y94.340
G1 X64.648 Y95.300
G92 E0.0000
G1 X133.069 Y95.300 E1.3381 F1350
G1 X133.311 Y95.327 E1.3429
G1 X133.584 Y95.373 E1.3483
G1 X133.854 Y95.436 E1.3537
G1 X134.120 Y95.514 E1.3591
G1 X134.380 Y95.608 E1.3645
G1 X134.635 Y95.717 E1.3699
G1 X134.883 Y95.841 E1.3754
G1 X135.123 Y95.978 E1.3808
G1 X135.353 Y96.129 E1.3862
G1 X135.353 Y97.306 E1.4092
G1 X134.944 Y96.966 E1.4196
G1 X134.655 Y96.768 E1.4264
G1 X134.348 Y96.597 E1.4333
G1 X134.027 Y96.455 E1.4402
G1 X133.694 Y96.344 E1.4470
G1 X133.352 Y96.263 E1.4539
G1 X133.004 Y96.215 E1.4608
G1 X132.653 Y96.199 E1.4676
G1 X132.303 Y96.215 E1.4745
G1 X131.955 Y96.263 E1.4814
G1 X131.613 Y96.344 E1.4882
G1 X131.280 Y96.455 E1.4951
G1 X130.959 Y96.597 E1.5020
G1 X130.652 Y96.768 E1.5089
G1 X130.363 Y96.966 E1.5157
G1 X129.921 Y97.333 E1.5269
G1 X129.666 Y96.992 E1.5353
G1 X129.433 Y96.759 E1.5417
G1 X129.170 Y96.562 E1.5481
G1 X128.882 Y96.405 E1.5546
G1 X128.574 Y96.290 E1.5610
G1 X128.253 Y96.220 E1.5674
G1 X127.925 Y96.197 E1.5738
G1 X127.597 Y96.220 E1.5803
G1 X127.276 Y96.290 E1.5867
G1 X126.968 Y96.405 E1.5931
G1 X126.680 Y96.562 E1.5995
G1 X126.417 Y96.759 E1.6060
G1 X126.184 Y96.992 E1.6124
G1 X125.987 Y97.255 E1.6188
G1 X125.830 Y97.543 E1.6253
G1 X125.715 Y97.851 E1.6317
G1 X125.645 Y98.172 E1.6381
G1 X125.622 Y98.500 E1.6445
G1 X125.645 Y98.828 E1.6510
G1 X125.760 Y99.355 E1.6615
G1 X124.448 Y98.772 E1.6896
G1 X123.231 Y98.313 E1.7150
G1 X122.150 Y97.980 E1.7371
G1 X121.569 Y97.832 E1.7489
G1 X120.486 Y97.617 E1.7705
G1 X119.618 Y97.504 E1.7876
G1 X118.743 Y97.446 E1.8047
G1 X117.965 Y97.445 E1.8199
G1 X117.313 Y97.481 E1.8327
G1 X116.832 Y97.528 E1.8422
G1 X116.127 Y97.634 E1.8561
G1 X115.642 Y97.737 E1.8658
