; G-Code generated by Simplify3D(R) Version 4.1.2
; May 21, 2020 at 7:14:40 PM
; Settings Summary
;   processName,Process1
;   applyToModels,bottom-side-v2
;   profileName,HBot (modified)
;   profileVersion,2019-10-26 23:38:43
;   baseProfile,Default
;   printMaterial,PETG - SUNLU
;   printQuality,High
;   printExtruders,
;   extruderName,Extruder 1
;   extruderToolheadNumber,0
;   extruderDiameter,0.4
;   extruderAutoWidth,1
;   extruderWidth,0.48
;   extrusionMultiplier,0.98
;   extruderUseRetract,1
;   extruderRetractionDistance,4
;   extruderExtraRestartDistance,0
;   extruderRetractionZLift,0
;   extruderRetractionSpeed,3600
;   extruderUseCoasting,1
;   extruderCoastingDistance,0.2
;   extruderUseWipe,1
;   extruderWipeDistance,5
;   primaryExtruder,0
;   layerHeight,0.1
;   topSolidLayers,3
;   bottomSolidLayers,3
;   perimeterOutlines,3
;   printPerimetersInsideOut,1
;   startPointOption,3
;   startPointOriginX,200
;   startPointOriginY,100
;   sequentialIslands,0
;   spiralVaseMode,0
;   firstLayerHeightPercentage,100
;   firstLayerWidthPercentage,100
;   firstLayerUnderspeed,0.5
;   useRaft,0
;   raftExtruder,0
;   raftTopLayers,3
;   raftBaseLayers,2
;   raftOffset,3
;   raftSeparationDistance,0.18
;   raftTopInfill,100
;   aboveRaftSpeedMultiplier,0.3
;   useSkirt,1
;   skirtExtruder,0
;   skirtLayers,1
;   skirtOutlines,5
;   skirtOffset,0
;   usePrimePillar,0
;   primePillarExtruder,999
;   primePillarWidth,12
;   primePillarLocation,7
;   primePillarSpeedMultiplier,1
;   useOozeShield,1
;   oozeShieldExtruder,999
;   oozeShieldOffset,0.3
;   oozeShieldOutlines,2
;   oozeShieldSidewallShape,1
;   oozeShieldSidewallAngle,30
;   oozeShieldSpeedMultiplier,1
;   infillExtruder,0
;   internalInfillPattern,Rectilinear
;   externalInfillPattern,Rectilinear
;   infillPercentage,30
;   outlineOverlapPercentage,25
;   infillExtrusionWidthPercentage,100
;   minInfillLength,5
;   infillLayerInterval,1
;   internalInfillAngles,45,-45
;   overlapInternalInfillAngles,0
;   externalInfillAngles,45,-45
;   generateSupport,0
;   supportExtruder,0
;   supportInfillPercentage,40
;   supportExtraInflation,0
;   supportBaseLayers,1
;   denseSupportExtruder,0
;   denseSupportLayers,0
;   denseSupportInfillPercentage,70
;   supportLayerInterval,1
;   supportHorizontalPartOffset,0.3
;   supportUpperSeparationLayers,1
;   supportLowerSeparationLayers,1
;   supportType,0
;   supportGridSpacing,4
;   maxOverhangAngle,25
;   supportAngles,0
;   temperatureName,Extruder 1,Heated Bed
;   temperatureNumber,0,1
;   temperatureSetpointCount,2,1
;   temperatureSetpointLayers,1,2,1
;   temperatureSetpointTemperatures,235,225,75
;   temperatureStabilizeAtStartup,1,1
;   temperatureHeatedBed,0,1
;   fanLayers,1,5,10
;   fanSpeeds,0,5,20
;   blipFanToFullPower,1
;   adjustSpeedForCooling,1
;   minSpeedLayerTime,15
;   minCoolingSpeedSlowdown,20
;   increaseFanForCooling,0
;   minFanLayerTime,45
;   maxCoolingFanSpeed,35
;   increaseFanForBridging,1
;   bridgingFanSpeed,85
;   use5D,1
;   relativeEdistances,0
;   allowEaxisZeroing,1
;   independentExtruderAxes,0
;   includeM10123,0
;   stickySupport,1
;   applyToolheadOffsets,0
;   gcodeXoffset,0
;   gcodeYoffset,0
;   gcodeZoffset,0
;   overrideMachineDefinition,1
;   machineTypeOverride,0
;   strokeXoverride,200
;   strokeYoverride,200
;   strokeZoverride,150
;   originOffsetXoverride,0
;   originOffsetYoverride,0
;   originOffsetZoverride,0
;   homeXdirOverride,-1
;   homeYdirOverride,-1
;   homeZdirOverride,-1
;   flipXoverride,1
;   flipYoverride,-1
;   flipZoverride,1
;   toolheadOffsets,0,0|0,0|0,0|0,0|0,0|0,0
;   overrideFirmwareConfiguration,1
;   firmwareTypeOverride,RepRap (Marlin/Repetier/Sprinter)
;   GPXconfigOverride,r2
;   baudRateOverride,115200
;   overridePrinterModels,0
;   printerModelsOverride
;   startingGcode,G28 ; home all axes,G32 ; run bed.g -- probe bed and enable compensation
;   layerChangeGcode,
;   retractionGcode,
;   toolChangeGcode,
;   endingGcode,M0 ; call stop.g
;   exportFileFormat,gcode
;   celebration,0
;   celebrationSong,Random Song
;   postProcessing,
;   defaultSpeed,3600
;   outlineUnderspeed,0.5
;   solidInfillUnderspeed,0.8
;   supportUnderspeed,0.8
;   rapidXYspeed,18000
;   rapidZspeed,1200
;   minBridgingArea,50
;   bridgingExtraInflation,0
;   bridgingExtrusionMultiplier,0.96
;   bridgingSpeedMultiplier,1
;   useFixedBridgingAngle,0
;   fixedBridgingAngle,0
;   applyBridgingToPerimeters,0
;   filamentDiameters,1.75|1.75|1.75|1.75|1.75|1.75
;   filamentPricesPerKg,46|46|46|46|46|46
;   filamentDensities,1.25|1.25|1.25|1.25|1.25|1.25
;   useMinPrintHeight,0
;   minPrintHeight,0.2
;   useMaxPrintHeight,0
;   maxPrintHeight,15
;   useDiaphragm,0
;   diaphragmLayerInterval,20
;   robustSlicing,1
;   mergeAllIntoSolid,0
;   onlyRetractWhenCrossingOutline,1
;   retractBetweenLayers,0
;   useRetractionMinTravel,1
;   retractionMinTravel,3
;   retractWhileWiping,1
;   onlyWipeOutlines,1
;   avoidCrossingOutline,1
;   maxMovementDetourFactor,50
;   toolChangeRetractionDistance,12
;   toolChangeExtraRestartDistance,-0.5
;   toolChangeRetractionSpeed,600
;   externalThinWallType,0
;   internalThinWallType,2
;   thinWallAllowedOverlapPercentage,10
;   singleExtrusionMinLength,1
;   singleExtrusionMinPrintingWidthPercentage,50
;   singleExtrusionMaxPrintingWidthPercentage,150
;   singleExtrusionEndpointExtension,0.2
;   horizontalSizeCompensation,-0.1
G90
M82
M106 S0
M140 S75
M190 S75
M104 S235 T0
M109 S235 T0
G28 ; home all axes
G32 ; run bed.g -- probe bed and enable compensation
; process Process1
; layer 1, Z = 0.100
T0
G92 E0.0000
G1 E-4.0000 F3600
; feature skirt
; tool H0.100 W0.480
G1 Z0.100 F1200
G1 X139.973 Y105.005 F18000
G1 E0.0000 F3600
G92 E0.0000
G1 X139.856 Y105.499 E0.0099 F1800
G1 X139.356 Y106.489 E0.0316
G1 X139.025 Y106.879 E0.0416
G1 X137.601 Y107.922 E0.0761
G1 X137.473 Y108.002 E0.0791
G1 X136.688 Y108.423 E0.0965
G1 X136.602 Y108.464 E0.0984
G1 X136.043 Y108.703 E0.1103
G1 X135.954 Y108.737 E0.1121
G1 X135.129 Y109.006 E0.1291
G1 X135.012 Y109.037 E0.1315
G1 X134.087 Y109.228 E0.1499
G1 X133.984 Y109.245 E0.1520
G1 X133.345 Y109.314 E0.1645
G1 X133.229 Y109.320 E0.1668
G1 X62.494 Y109.320 E1.5502
G1 X61.700 Y108.991 E1.5670
G1 X60.354 Y107.643 E1.6043
G1 X60.025 Y106.848 E1.6211
G1 X60.037 Y98.744 E1.7796
G1 X60.038 Y98.708 E1.7803
G1 X60.124 Y96.233 E1.8287
G1 X60.126 Y96.196 E1.8294
G1 X60.350 Y92.959 E1.8929
G1 X60.703 Y92.218 E1.9089
G1 X62.029 Y90.981 E1.9444
G1 X62.792 Y90.680 E1.9604
G1 X133.229 Y90.680 E3.3380
G1 X133.345 Y90.686 E3.3402
G1 X133.978 Y90.755 E3.3527
G1 X134.080 Y90.771 E3.3547
G1 X135.012 Y90.963 E3.3733
G1 X135.129 Y90.994 E3.3757
G1 X135.954 Y91.263 E3.3927
G1 X136.043 Y91.297 E3.3945
G1 X136.606 Y91.538 E3.4065
G1 X136.699 Y91.583 E3.4085
G1 X137.563 Y92.054 E3.4278
G1 X137.687 Y92.134 E3.4307
G1 X139.030 Y93.126 E3.4633
G1 X139.357 Y93.513 E3.4732
G1 X139.856 Y94.501 E3.4949
G1 X139.973 Y94.995 E3.5048
G1 X139.973 Y105.005 E3.7006
G1 X139.493 Y104.949 F18000
G92 E0.0000
G1 X139.402 Y105.333 E0.0077 F1800
G1 X138.953 Y106.222 E0.0272
G1 X138.696 Y106.526 E0.0350
G1 X137.331 Y107.524 E0.0681
G1 X137.232 Y107.587 E0.0704
G1 X136.471 Y107.995 E0.0872
G1 X136.404 Y108.027 E0.0887
G1 X135.864 Y108.258 E0.1002
G1 X135.794 Y108.284 E0.1016
G1 X134.993 Y108.546 E0.1181
G1 X134.902 Y108.570 E0.1200
G1 X134.001 Y108.756 E0.1380
G1 X133.921 Y108.769 E0.1395
G1 X133.306 Y108.835 E0.1516
G1 X133.216 Y108.840 E0.1534
G1 X62.590 Y108.840 E1.5346
G1 X61.972 Y108.584 E1.5477
G1 X60.761 Y107.371 E1.5812
G1 X60.505 Y106.753 E1.5943
G1 X60.517 Y98.749 E1.7508
G1 X60.518 Y98.721 E1.7514
G1 X60.604 Y96.254 E1.7997
G1 X60.605 Y96.225 E1.8002
G1 X60.822 Y93.083 E1.8618
G1 X61.097 Y92.507 E1.8743
G1 X62.290 Y91.394 E1.9062
G1 X62.883 Y91.160 E1.9187
G1 X133.216 Y91.160 E3.2942
G1 X133.306 Y91.165 E3.2959
G1 X133.915 Y91.231 E3.3079
G1 X133.995 Y91.243 E3.3095
G1 X134.901 Y91.430 E3.3276
G1 X134.993 Y91.454 E3.3295
G1 X135.795 Y91.716 E3.3459
G1 X135.864 Y91.742 E3.3474
G1 X136.407 Y91.975 E3.3589
G1 X136.479 Y92.010 E3.3605
G1 X137.319 Y92.468 E3.3792
G1 X137.415 Y92.530 E3.3815
G1 X138.700 Y93.478 E3.4127
G1 X138.954 Y93.780 E3.4204
G1 X139.402 Y94.667 E3.4398
G1 X139.493 Y95.051 E3.4476
G1 X139.493 Y104.949 E3.6411
G1 X139.013 Y104.893 F18000
G92 E0.0000
G1 X138.948 Y105.167 E0.0055 F1800
G1 X138.551 Y105.955 E0.0228
G1 X138.367 Y106.172 E0.0283
G1 X137.061 Y107.127 E0.0600
G1 X136.990 Y107.172 E0.0616
G1 X136.253 Y107.566 E0.0780
G1 X136.206 Y107.589 E0.0790
G1 X135.685 Y107.812 E0.0901
G1 X135.635 Y107.831 E0.0911
G1 X134.857 Y108.085 E0.1071
G1 X134.792 Y108.102 E0.1084
G1 X133.915 Y108.284 E0.1260
G1 X133.858 Y108.293 E0.1271
G1 X133.268 Y108.356 E0.1387
G1 X133.203 Y108.360 E0.1400
G1 X62.685 Y108.360 E1.5191
G1 X62.244 Y108.177 E1.5284
G1 X61.168 Y107.099 E1.5582
G1 X60.986 Y106.658 E1.5675
G1 X60.997 Y98.754 E1.7221
G1 X60.998 Y98.734 E1.7225
G1 X61.083 Y96.275 E1.7706
G1 X61.085 Y96.254 E1.7710
G1 X61.295 Y93.207 E1.8308
G1 X61.491 Y92.796 E1.8397
G1 X62.551 Y91.807 E1.8680
G1 X62.975 Y91.640 E1.8769
G1 X133.203 Y91.640 E3.2504
G1 X133.268 Y91.644 E3.2516
G1 X133.852 Y91.707 E3.2632
G1 X133.909 Y91.716 E3.2643
G1 X134.791 Y91.897 E3.2819
G1 X134.857 Y91.915 E3.2832
G1 X135.635 Y92.169 E3.2992
G1 X135.685 Y92.188 E3.3003
G1 X136.208 Y92.412 E3.3114
G1 X136.259 Y92.437 E3.3125
G1 X137.074 Y92.881 E3.3307
G1 X137.143 Y92.925 E3.3323
G1 X138.369 Y93.831 E3.3621
G1 X138.551 Y94.046 E3.3676
G1 X138.948 Y94.833 E3.3848
G1 X139.013 Y95.107 E3.3903
G1 X139.013 Y104.893 E3.5817
G1 X138.533 Y104.836 F18000
G92 E0.0000
G1 X138.494 Y105.001 E0.0033 F1800
G1 X138.148 Y105.688 E0.0184
G1 X138.037 Y105.818 E0.0217
G1 X136.791 Y106.730 E0.0519
G1 X136.749 Y106.756 E0.0529
G1 X136.036 Y107.138 E0.0687
G1 X136.007 Y107.152 E0.0693
G1 X135.506 Y107.367 E0.0800
G1 X135.476 Y107.378 E0.0806
G1 X134.720 Y107.625 E0.0961
G1 X134.681 Y107.635 E0.0969
G1 X133.829 Y107.811 E0.1140
G1 X133.795 Y107.817 E0.1146
G1 X133.229 Y107.878 E0.1258
G1 X133.190 Y107.880 E0.1265
G1 X62.781 Y107.880 E1.5035
G1 X62.516 Y107.770 E1.5091
G1 X61.575 Y106.828 E1.5352
G1 X61.466 Y106.563 E1.5408
G1 X61.477 Y98.759 E1.6934
G1 X61.478 Y98.747 E1.6936
G1 X61.563 Y96.295 E1.7416
G1 X61.564 Y96.283 E1.7418
G1 X61.768 Y93.332 E1.7997
G1 X61.885 Y93.085 E1.8051
G1 X62.811 Y92.220 E1.8298
G1 X63.066 Y92.120 E1.8352
G1 X133.190 Y92.120 E3.2066
G1 X133.229 Y92.122 E3.2073
G1 X133.789 Y92.183 E3.2184
G1 X133.823 Y92.188 E3.2190
G1 X134.681 Y92.365 E3.2362
G1 X134.720 Y92.375 E3.2370
G1 X135.476 Y92.622 E3.2525
G1 X135.506 Y92.633 E3.2531
G1 X136.009 Y92.848 E3.2638
G1 X136.040 Y92.863 E3.2645
G1 X136.830 Y93.295 E3.2821
G1 X136.871 Y93.321 E3.2831
G1 X138.039 Y94.184 E3.3115
G1 X138.148 Y94.313 E3.3148
G1 X138.494 Y94.999 E3.3298
G1 X138.533 Y95.164 E3.3331
G1 X138.533 Y104.836 E3.5223
G1 X138.053 Y104.780 F18000
G92 E0.0000
G1 X138.040 Y104.835 E0.0011 F1800
G1 X137.745 Y105.421 E0.0139
G1 X137.708 Y105.464 E0.0151
G1 X136.521 Y106.332 E0.0438
G1 X136.507 Y106.341 E0.0441
G1 X135.818 Y106.710 E0.0594
G1 X135.809 Y106.715 E0.0596
G1 X135.327 Y106.921 E0.0699
G1 X135.317 Y106.925 E0.0701
G1 X134.584 Y107.164 E0.0852
G1 X134.571 Y107.168 E0.0854
G1 X133.743 Y107.339 E0.1020
G1 X133.731 Y107.341 E0.1022
G1 X133.190 Y107.399 E0.1128
G1 X133.177 Y107.400 E0.1131
G1 X62.876 Y107.400 E1.4880
G1 X62.788 Y107.363 E1.4898
G1 X61.982 Y106.556 E1.5121
G1 X61.946 Y106.468 E1.5140
G1 X61.957 Y98.760 E1.6647
G1 X62.043 Y96.312 E1.7127
G1 X62.240 Y93.456 E1.7686
G1 X62.279 Y93.373 E1.7704
G1 X63.072 Y92.633 E1.7916
G1 X63.157 Y92.600 E1.7934
G1 X133.177 Y92.600 E3.1628
G1 X133.190 Y92.601 E3.1631
G1 X133.726 Y92.659 E3.1736
G1 X133.738 Y92.661 E3.1738
G1 X134.571 Y92.832 E3.1905
G1 X134.584 Y92.836 E3.1907
G1 X135.317 Y93.075 E3.2058
G1 X135.327 Y93.079 E3.2060
G1 X135.809 Y93.285 E3.2163
G1 X135.820 Y93.290 E3.2165
G1 X136.585 Y93.708 E3.2336
G1 X136.599 Y93.717 E3.2339
G1 X137.708 Y94.536 E3.2609
G1 X137.745 Y94.579 E3.2620
G1 X138.040 Y95.165 E3.2748
G1 X138.053 Y95.220 E3.2759
G1 X138.053 Y104.780 E3.4629
; feature ooze shield
G1 X137.573 Y104.695 F18000
G92 E0.0000
G1 X137.355 Y105.128 E0.0095 F1800
G1 X136.327 Y105.887 E0.0345
G1 X136.265 Y105.926 E0.0359
G1 X135.601 Y106.282 E0.0506
G1 X135.561 Y106.302 E0.0515
G1 X135.200 Y106.456 E0.0592
G1 X135.158 Y106.472 E0.0601
G1 X134.448 Y106.704 E0.0747
G1 X134.390 Y106.719 E0.0759
G1 X133.658 Y106.866 E0.0905
G1 X133.613 Y106.873 E0.0913
G1 X133.220 Y106.917 E0.0991
G1 X133.164 Y106.920 E0.1002
G1 X63.024 Y106.920 E1.4719
G1 X62.426 Y106.321 E1.4884
G1 X62.437 Y98.790 E1.6357
G1 X62.437 Y98.773 E1.6361
G1 X62.521 Y96.358 E1.6833
G1 X62.522 Y96.341 E1.6837
G1 X62.709 Y93.629 E1.7368
G1 X63.297 Y93.080 E1.7526
G1 X133.164 Y93.080 E3.1189
G1 X133.220 Y93.083 E3.1200
G1 X133.609 Y93.126 E3.1277
G1 X133.653 Y93.133 E3.1286
G1 X134.390 Y93.281 E3.1433
G1 X134.448 Y93.296 E3.1444
G1 X135.158 Y93.528 E3.1590
G1 X135.200 Y93.544 E3.1599
G1 X135.561 Y93.698 E3.1676
G1 X135.601 Y93.718 E3.1685
G1 X136.265 Y94.074 E3.1832
G1 X136.327 Y94.113 E3.1847
G1 X137.355 Y94.872 E3.2096
G1 X137.573 Y95.305 E3.2191
G1 X137.573 Y104.695 E3.4028
G1 X137.093 Y104.581 F18000
G92 E0.0000
G1 X136.978 Y104.810 E0.0050 F1800
G1 X136.056 Y105.491 E0.0274
G1 X136.023 Y105.511 E0.0282
G1 X135.384 Y105.854 E0.0424
G1 X135.362 Y105.865 E0.0429
G1 X135.021 Y106.010 E0.0501
G1 X134.999 Y106.019 E0.0506
G1 X134.312 Y106.243 E0.0647
G1 X134.282 Y106.251 E0.0653
G1 X133.573 Y106.394 E0.0794
G1 X133.550 Y106.397 E0.0799
G1 X133.180 Y106.438 E0.0872
G1 X133.151 Y106.440 E0.0878
G1 X63.223 Y106.440 E1.4553
G1 X62.906 Y106.123 E1.4641
G1 X62.917 Y98.795 E1.6074
G1 X62.917 Y98.786 E1.6076
G1 X63.001 Y96.379 E1.6547
G1 X63.001 Y96.370 E1.6549
G1 X63.175 Y93.850 E1.7043
G1 X63.486 Y93.560 E1.7126
G1 X133.151 Y93.560 E3.0750
G1 X133.180 Y93.562 E3.0756
G1 X133.545 Y93.602 E3.0828
G1 X133.569 Y93.606 E3.0832
G1 X134.281 Y93.749 E3.0974
G1 X134.312 Y93.757 E3.0981
G1 X134.999 Y93.981 E3.1122
G1 X135.021 Y93.990 E3.1127
G1 X135.362 Y94.135 E3.1199
G1 X135.384 Y94.146 E3.1204
G1 X136.023 Y94.489 E3.1346
G1 X136.056 Y94.509 E3.1353
G1 X136.978 Y95.190 E3.1577
G1 X137.093 Y95.419 E3.1628
G1 X137.093 Y104.581 E3.3419
G92 E0.0000
G1 E-4.0000 F3600
; feature inner perimeter
G1 X136.313 Y104.340 F18000
G1 X136.172 Y104.458
G1 X136.165 Y104.464
G1 X113.316 Y101.598
G1 X113.302 Y101.605
G1 X112.603 Y101.878
G1 X112.133 Y102.021
G1 X111.317 Y102.211
G1 X110.630 Y102.320
G1 X109.880 Y102.394
G1 X109.071 Y102.426
G1 X107.977 Y102.399
G1 X106.838 Y102.289
G1 X105.680 Y102.099
G1 X105.077 Y101.969
G1 X104.092 Y101.712
G1 X102.919 Y101.336
G1 X102.333 Y101.120
G1 X101.210 Y100.649
G1 X100.033 Y100.079
G1 X99.681 Y99.888
G1 X96.842 Y99.531
G1 X96.002 Y99.744
G1 X94.956 Y99.988
G1 X93.906 Y100.212
G1 X92.851 Y100.417
G1 X91.793 Y100.601
G1 X90.732 Y100.765
G1 X89.668 Y100.909
G1 X88.601 Y101.032
G1 X87.532 Y101.136
G1 X86.462 Y101.219
G1 X85.390 Y101.281
G1 X84.317 Y101.324
G1 X83.243 Y101.346
G1 X82.169 Y101.348
G1 X81.095 Y101.329
G1 X80.022 Y101.290
G1 X78.950 Y101.230
G1 X77.879 Y101.151
G1 X76.810 Y101.051
G1 X75.743 Y100.930
G1 X74.678 Y100.790
G1 X73.616 Y100.629
G1 X72.558 Y100.448
G1 X71.503 Y100.248
G1 X70.452 Y100.027
G1 X69.405 Y99.786
G1 X68.362 Y99.525
G1 X66.287 Y98.943
G1 X66.112 Y98.876
G1 X65.937 Y98.779
G1 X65.779 Y98.659
G1 X65.639 Y98.518
G1 X65.521 Y98.358
G1 X65.427 Y98.183
G1 X65.359 Y97.997
G1 X65.319 Y97.803
G1 X65.306 Y97.605
G1 X65.321 Y97.407
G1 X65.365 Y97.213
G1 X65.435 Y97.028
G1 X65.532 Y96.854
G1 X65.652 Y96.696
G1 X65.793 Y96.557
G1 X65.953 Y96.439
G1 X66.127 Y96.345
G1 X66.314 Y96.277
G1 X66.508 Y96.236
G1 X66.706 Y96.224
G1 X66.912 Y96.240
G1 X69.165 Y96.861
G1 X70.206 Y97.119
G1 X71.252 Y97.356
G1 X72.303 Y97.572
G1 X73.358 Y97.767
G1 X74.417 Y97.941
G1 X75.479 Y98.094
G1 X76.544 Y98.226
G1 X77.612 Y98.336
G1 X78.681 Y98.425
G1 X79.752 Y98.493
G1 X80.825 Y98.539
G1 X81.896 Y98.564
G1 X82.970 Y98.568
G1 X84.043 Y98.550
G1 X85.115 Y98.511
