; G-Code generated by Simplify3D(R) Version 4.1.2
; May 21, 2020 at 11:18:50 PM
; Settings Summary
;   processName,Process1
;   applyToModels,front-mirrored-high-tolerance
;   profileName,HBot
;   profileVersion,2019-10-26 23:38:43
;   baseProfile,Default
;   printMaterial,PETG - SUNLU
;   printQuality,High
;   printExtruders,
;   extruderName,Extruder 1
;   extruderToolheadNumber,0
;   extruderDiameter,0.4
;   extruderAutoWidth,1
;   extruderWidth,0.48
;   extrusionMultiplier,0.98
;   extruderUseRetract,1
;   extruderRetractionDistance,4
;   extruderExtraRestartDistance,0
;   extruderRetractionZLift,0
;   extruderRetractionSpeed,3600
;   extruderUseCoasting,1
;   extruderCoastingDistance,0.2
;   extruderUseWipe,1
;   extruderWipeDistance,5
;   primaryExtruder,0
;   layerHeight,0.1
;   topSolidLayers,7
;   bottomSolidLayers,7
;   perimeterOutlines,3
;   printPerimetersInsideOut,1
;   startPointOption,2
;   startPointOriginX,200
;   startPointOriginY,100
;   sequentialIslands,0
;   spiralVaseMode,0
;   firstLayerHeightPercentage,100
;   firstLayerWidthPercentage,100
;   firstLayerUnderspeed,0.5
;   useRaft,0
;   raftExtruder,0
;   raftTopLayers,3
;   raftBaseLayers,2
;   raftOffset,3
;   raftSeparationDistance,0.18
;   raftTopInfill,100
;   aboveRaftSpeedMultiplier,0.3
;   useSkirt,1
;   skirtExtruder,0
;   skirtLayers,1
;   skirtOutlines,5
;   skirtOffset,0
;   usePrimePillar,0
;   primePillarExtruder,999
;   primePillarWidth,12
;   primePillarLocation,7
;   primePillarSpeedMultiplier,1
;   useOozeShield,1
;   oozeShieldExtruder,999
;   oozeShieldOffset,0.5
;   oozeShieldOutlines,2
;   oozeShieldSidewallShape,0
;   oozeShieldSidewallAngle,30
;   oozeShieldSpeedMultiplier,1
;   infillExtruder,0
;   internalInfillPattern,Rectilinear
;   externalInfillPattern,Rectilinear
;   infillPercentage,30
;   outlineOverlapPercentage,25
;   infillExtrusionWidthPercentage,100
;   minInfillLength,5
;   infillLayerInterval,1
;   internalInfillAngles,45,-45
;   overlapInternalInfillAngles,0
;   externalInfillAngles,45,-45
;   generateSupport,0
;   supportExtruder,0
;   supportInfillPercentage,40
;   supportExtraInflation,0
;   supportBaseLayers,1
;   denseSupportExtruder,0
;   denseSupportLayers,0
;   denseSupportInfillPercentage,70
;   supportLayerInterval,1
;   supportHorizontalPartOffset,0.3
;   supportUpperSeparationLayers,1
;   supportLowerSeparationLayers,1
;   supportType,0
;   supportGridSpacing,4
;   maxOverhangAngle,25
;   supportAngles,0
;   temperatureName,Extruder 1,Heated Bed
;   temperatureNumber,0,1
;   temperatureSetpointCount,2,1
;   temperatureSetpointLayers,1,2,1
;   temperatureSetpointTemperatures,235,225,75
;   temperatureStabilizeAtStartup,1,1
;   temperatureHeatedBed,0,1
;   fanLayers,1,5,10
;   fanSpeeds,0,5,20
;   blipFanToFullPower,1
;   adjustSpeedForCooling,1
;   minSpeedLayerTime,15
;   minCoolingSpeedSlowdown,20
;   increaseFanForCooling,0
;   minFanLayerTime,45
;   maxCoolingFanSpeed,35
;   increaseFanForBridging,1
;   bridgingFanSpeed,85
;   use5D,1
;   relativeEdistances,0
;   allowEaxisZeroing,1
;   independentExtruderAxes,0
;   includeM10123,0
;   stickySupport,1
;   applyToolheadOffsets,0
;   gcodeXoffset,0
;   gcodeYoffset,0
;   gcodeZoffset,0
;   overrideMachineDefinition,1
;   machineTypeOverride,0
;   strokeXoverride,200
;   strokeYoverride,200
;   strokeZoverride,150
;   originOffsetXoverride,0
;   originOffsetYoverride,0
;   originOffsetZoverride,0
;   homeXdirOverride,-1
;   homeYdirOverride,-1
;   homeZdirOverride,-1
;   flipXoverride,1
;   flipYoverride,-1
;   flipZoverride,1
;   toolheadOffsets,0,0|0,0|0,0|0,0|0,0|0,0
;   overrideFirmwareConfiguration,1
;   firmwareTypeOverride,RepRap (Marlin/Repetier/Sprinter)
;   GPXconfigOverride,r2
;   baudRateOverride,115200
;   overridePrinterModels,0
;   printerModelsOverride
;   startingGcode,G28 ; home all axes,G32 ; run bed.g -- probe bed and enable compensation
;   layerChangeGcode,
;   retractionGcode,
;   toolChangeGcode,
;   endingGcode,M0 ; call stop.g
;   exportFileFormat,gcode
;   celebration,0
;   celebrationSong,Random Song
;   postProcessing,
;   defaultSpeed,3600
;   outlineUnderspeed,0.5
;   solidInfillUnderspeed,0.8
;   supportUnderspeed,0.8
;   rapidXYspeed,18000
;   rapidZspeed,1200
;   minBridgingArea,50
;   bridgingExtraInflation,0
;   bridgingExtrusionMultiplier,0.96
;   bridgingSpeedMultiplier,1
;   useFixedBridgingAngle,0
;   fixedBridgingAngle,0
;   applyBridgingToPerimeters,0
;   filamentDiameters,1.75|1.75|1.75|1.75|1.75|1.75
;   filamentPricesPerKg,46|46|46|46|46|46
;   filamentDensities,1.25|1.25|1.25|1.25|1.25|1.25
;   useMinPrintHeight,0
;   minPrintHeight,0.2
;   useMaxPrintHeight,0
;   maxPrintHeight,15
;   useDiaphragm,0
;   diaphragmLayerInterval,20
;   robustSlicing,1
;   mergeAllIntoSolid,0
;   onlyRetractWhenCrossingOutline,1
;   retractBetweenLayers,0
;   useRetractionMinTravel,1
;   retractionMinTravel,3
;   retractWhileWiping,1
;   onlyWipeOutlines,1
;   avoidCrossingOutline,1
;   maxMovementDetourFactor,50
;   toolChangeRetractionDistance,12
;   toolChangeExtraRestartDistance,-0.5
;   toolChangeRetractionSpeed,600
;   externalThinWallType,0
;   internalThinWallType,2
;   thinWallAllowedOverlapPercentage,10
;   singleExtrusionMinLength,1
;   singleExtrusionMinPrintingWidthPercentage,50
;   singleExtrusionMaxPrintingWidthPercentage,150
;   singleExtrusionEndpointExtension,0.2
;   horizontalSizeCompensation,-0.1
G90
M82
M106 S0
M140 S75
M190 S75
M104 S235 T0
M109 S235 T0
G28 ; home all axes
G32 ; run bed.g -- probe bed and enable compensation
; process Process1
; layer 1, Z = 0.100
T0
G92 E0.0000
G1 E-4.0000 F3600
; feature skirt
; tool H0.100 W0.480
G1 Z0.100 F1200
G1 X57.130 Y91.959 F18000
G1 E0.0000 F3600
G92 E0.0000
G1 X58.020 Y91.458 E0.0200 F1800
G1 X58.167 Y91.389 E0.0231
G1 X59.560 Y90.861 E0.0523
G1 X59.728 Y90.813 E0.0557
G1 X60.909 Y90.572 E0.0793
G1 X61.051 Y90.553 E0.0821
G1 X62.096 Y90.482 E0.1026
G1 X62.170 Y90.480 E0.1040
G1 X137.217 Y90.490 E1.5717
G1 X137.335 Y90.496 E1.5740
G1 X138.303 Y90.603 E1.5931
G1 X138.428 Y90.624 E1.5955
G1 X139.381 Y90.844 E1.6147
G1 X139.501 Y90.879 E1.6171
G1 X140.426 Y91.208 E1.6363
G1 X140.547 Y91.260 E1.6389
G1 X141.500 Y91.736 E1.6597
G1 X141.613 Y91.802 E1.6623
G1 X142.432 Y92.344 E1.6815
G1 X142.533 Y92.419 E1.6839
G1 X143.276 Y93.046 E1.7030
G1 X143.363 Y93.128 E1.7053
G1 X143.975 Y93.772 E1.7227
G1 X144.052 Y93.863 E1.7250
G1 X144.810 Y94.861 E1.7495
G1 X144.976 Y95.174 E1.7564
G1 X145.237 Y95.958 E1.7726
G1 X145.293 Y96.303 E1.7794
G1 X145.293 Y103.697 E1.9240
G1 X145.237 Y104.041 E1.9309
G1 X144.976 Y104.825 E1.9470
G1 X144.810 Y105.138 E1.9539
G1 X144.050 Y106.140 E1.9785
G1 X143.968 Y106.235 E1.9810
G1 X143.292 Y106.939 E2.0001
G1 X143.200 Y107.024 E2.0025
G1 X142.444 Y107.647 E2.0217
G1 X142.340 Y107.723 E2.0242
G1 X141.481 Y108.275 E2.0442
G1 X141.352 Y108.346 E2.0471
G1 X140.190 Y108.885 E2.0721
G1 X140.046 Y108.940 E2.0751
G1 X138.982 Y109.260 E2.0969
G1 X138.851 Y109.291 E2.0995
G1 X137.886 Y109.455 E2.1186
G1 X137.766 Y109.468 E2.1210
G1 X136.884 Y109.518 E2.1382
G1 X136.823 Y109.520 E2.1394
G1 X62.176 Y109.520 E3.5993
G1 X62.111 Y109.518 E3.6006
G1 X61.170 Y109.461 E3.6190
G1 X61.048 Y109.447 E3.6214
G1 X60.113 Y109.283 E3.6400
G1 X59.992 Y109.254 E3.6424
G1 X59.041 Y108.971 E3.6618
G1 X58.908 Y108.922 E3.6646
G1 X57.776 Y108.415 E3.6889
G1 X57.645 Y108.345 E3.6918
G1 X56.738 Y107.778 E3.7127
G1 X56.638 Y107.708 E3.7151
G1 X55.622 Y106.900 E3.7405
G1 X55.317 Y106.519 E3.7500
G1 X54.815 Y105.479 E3.7726
G1 X54.706 Y105.003 E3.7821
G1 X54.706 Y94.978 E3.9782
G1 X54.822 Y94.488 E3.9880
G1 X55.356 Y93.420 E4.0114
G1 X55.679 Y93.034 E4.0212
G1 X57.013 Y92.036 E4.0538
G1 X57.130 Y91.959 E4.0566
G1 X57.380 Y92.370 F18000
G92 E0.0000
G1 X58.240 Y91.885 E0.0193 F1800
G1 X58.354 Y91.832 E0.0218
G1 X59.712 Y91.317 E0.0502
G1 X59.842 Y91.279 E0.0528
G1 X60.989 Y91.046 E0.0757
G1 X61.100 Y91.031 E0.0779
G1 X62.121 Y90.962 E0.0979
G1 X62.177 Y90.960 E0.0990
G1 X137.204 Y90.970 E1.5663
G1 X137.296 Y90.975 E1.5681
G1 X138.237 Y91.079 E1.5866
G1 X138.334 Y91.095 E1.5885
G1 X139.260 Y91.308 E1.6071
G1 X139.354 Y91.336 E1.6090
G1 X140.251 Y91.656 E1.6277
G1 X140.345 Y91.696 E1.6297
G1 X141.272 Y92.159 E1.6499
G1 X141.360 Y92.210 E1.6519
G1 X142.156 Y92.737 E1.6706
G1 X142.234 Y92.795 E1.6725
G1 X142.957 Y93.405 E1.6910
G1 X143.024 Y93.468 E1.6928
G1 X143.618 Y94.093 E1.7097
G1 X143.677 Y94.164 E1.7115
G1 X144.404 Y95.120 E1.7350
G1 X144.533 Y95.364 E1.7404
G1 X144.770 Y96.074 E1.7550
G1 X144.813 Y96.342 E1.7603
G1 X144.813 Y103.658 E1.9034
G1 X144.770 Y103.926 E1.9087
G1 X144.533 Y104.636 E1.9233
G1 X144.404 Y104.879 E1.9287
G1 X143.676 Y105.838 E1.9523
G1 X143.613 Y105.912 E1.9542
G1 X142.955 Y106.596 E1.9727
G1 X142.884 Y106.662 E1.9746
G1 X142.150 Y107.268 E1.9932
G1 X142.069 Y107.327 E1.9952
G1 X141.235 Y107.862 E2.0146
G1 X141.135 Y107.917 E2.0168
G1 X140.003 Y108.443 E2.0412
G1 X139.892 Y108.485 E2.0435
G1 X138.858 Y108.796 E2.0647
G1 X138.756 Y108.820 E2.0667
G1 X137.818 Y108.979 E2.0853
G1 X137.725 Y108.990 E2.0871
G1 X136.864 Y109.039 E2.1040
G1 X136.817 Y109.040 E2.1049
G1 X62.183 Y109.040 E3.5645
G1 X62.133 Y109.038 E3.5655
G1 X61.213 Y108.983 E3.5835
G1 X61.118 Y108.972 E3.5854
G1 X60.210 Y108.812 E3.6035
G1 X60.115 Y108.790 E3.6053
G1 X59.193 Y108.516 E3.6242
G1 X59.089 Y108.477 E3.6263
G1 X57.988 Y107.984 E3.6499
G1 X57.886 Y107.929 E3.6522
G1 X57.004 Y107.378 E3.6725
G1 X56.926 Y107.324 E3.6744
G1 X55.963 Y106.558 E3.6984
G1 X55.726 Y106.262 E3.7059
G1 X55.271 Y105.319 E3.7263
G1 X55.187 Y104.949 E3.7338
G1 X55.187 Y95.034 E3.9277
G1 X55.277 Y94.652 E3.9353
G1 X55.761 Y93.685 E3.9565
G1 X56.012 Y93.385 E3.9642
G1 X57.288 Y92.429 E3.9953
G1 X57.380 Y92.370 E3.9975
G1 X57.629 Y92.780 F18000
G92 E0.0000
G1 X58.459 Y92.312 E0.0186 F1800
G1 X58.541 Y92.274 E0.0204
G1 X59.864 Y91.773 E0.0481
G1 X59.957 Y91.746 E0.0500
G1 X61.069 Y91.520 E0.0722
G1 X61.148 Y91.509 E0.0737
G1 X62.145 Y91.441 E0.0933
G1 X62.185 Y91.440 E0.0941
G1 X137.190 Y91.450 E1.5609
G1 X137.256 Y91.453 E1.5622
G1 X138.170 Y91.554 E1.5802
G1 X138.240 Y91.566 E1.5816
G1 X139.139 Y91.773 E1.5996
G1 X139.206 Y91.793 E1.6010
G1 X140.077 Y92.103 E1.6191
G1 X140.144 Y92.131 E1.6205
G1 X141.044 Y92.582 E1.6402
G1 X141.107 Y92.618 E1.6416
G1 X141.880 Y93.129 E1.6597
G1 X141.935 Y93.171 E1.6611
G1 X142.637 Y93.763 E1.6790
G1 X142.685 Y93.808 E1.6803
G1 X143.260 Y94.414 E1.6967
G1 X143.303 Y94.465 E1.6980
G1 X143.998 Y95.379 E1.7204
G1 X144.090 Y95.553 E1.7243
G1 X144.302 Y96.189 E1.7374
G1 X144.333 Y96.380 E1.7412
G1 X144.333 Y103.619 E1.8827
G1 X144.302 Y103.811 E1.8865
G1 X144.090 Y104.446 E1.8996
G1 X143.998 Y104.620 E1.9035
G1 X143.302 Y105.537 E1.9260
G1 X143.257 Y105.589 E1.9274
G1 X142.619 Y106.254 E1.9454
G1 X142.568 Y106.301 E1.9467
G1 X141.856 Y106.888 E1.9648
G1 X141.798 Y106.930 E1.9662
G1 X140.989 Y107.449 E1.9850
G1 X140.918 Y107.489 E1.9866
G1 X139.817 Y108.000 E2.0103
G1 X139.737 Y108.030 E2.0120
G1 X138.733 Y108.333 E2.0325
G1 X138.661 Y108.350 E2.0339
G1 X137.751 Y108.504 E2.0520
G1 X137.685 Y108.511 E2.0533
G1 X136.844 Y108.559 E2.0698
G1 X136.810 Y108.560 E2.0704
G1 X62.191 Y108.560 E3.5297
G1 X62.154 Y108.559 E3.5305
G1 X61.255 Y108.505 E3.5481
G1 X61.187 Y108.497 E3.5494
G1 X60.306 Y108.342 E3.5669
G1 X60.239 Y108.326 E3.5683
G1 X59.345 Y108.060 E3.5865
G1 X59.271 Y108.033 E3.5880
G1 X58.199 Y107.553 E3.6110
G1 X58.126 Y107.514 E3.6126
G1 X57.269 Y106.978 E3.6324
G1 X57.214 Y106.939 E3.6337
G1 X56.304 Y106.216 E3.6564
G1 X56.135 Y106.005 E3.6617
G1 X55.727 Y105.159 E3.6801
G1 X55.666 Y104.895 E3.6854
G1 X55.666 Y95.090 E3.8772
G1 X55.731 Y94.817 E3.8826
G1 X56.165 Y93.950 E3.9016
G1 X56.344 Y93.735 E3.9071
G1 X57.563 Y92.823 E3.9369
G1 X57.629 Y92.780 E3.9384
G1 X57.878 Y93.191 F18000
G92 E0.0000
G1 X58.679 Y92.740 E0.0180 F1800
G1 X58.728 Y92.717 E0.0190
G1 X60.016 Y92.229 E0.0460
G1 X60.072 Y92.212 E0.0471
G1 X61.149 Y91.993 E0.0686
G1 X61.197 Y91.987 E0.0696
G1 X62.169 Y91.921 E0.0886
G1 X62.193 Y91.920 E0.0891
G1 X137.177 Y91.930 E1.5555
G1 X137.217 Y91.932 E1.5563
G1 X138.104 Y92.030 E1.5738
G1 X138.146 Y92.037 E1.5746
G1 X139.018 Y92.238 E1.5921
G1 X139.058 Y92.249 E1.5929
G1 X139.902 Y92.550 E1.6104
G1 X139.942 Y92.567 E1.6113
G1 X140.817 Y93.005 E1.6304
G1 X140.854 Y93.026 E1.6313
G1 X141.603 Y93.522 E1.6488
G1 X141.637 Y93.547 E1.6497
G1 X142.317 Y94.121 E1.6671
G1 X142.346 Y94.149 E1.6678
G1 X142.903 Y94.735 E1.6837
G1 X142.929 Y94.765 E1.6844
G1 X143.592 Y95.638 E1.7059
G1 X143.647 Y95.743 E1.7082
G1 X143.835 Y96.304 E1.7198
G1 X143.853 Y96.419 E1.7220
G1 X143.853 Y103.581 E1.8621
G1 X143.835 Y103.695 E1.8644
G1 X143.647 Y104.257 E1.8760
G1 X143.592 Y104.361 E1.8783
G1 X142.928 Y105.235 E1.8997
G1 X142.901 Y105.267 E1.9005
G1 X142.282 Y105.911 E1.9180
G1 X142.252 Y105.939 E1.9188
G1 X141.561 Y106.509 E1.9363
G1 X141.527 Y106.534 E1.9372
G1 X140.744 Y107.037 E1.9554
G1 X140.701 Y107.060 E1.9563
G1 X139.630 Y107.557 E1.9794
G1 X139.582 Y107.576 E1.9804
G1 X138.609 Y107.869 E2.0003
G1 X138.566 Y107.879 E2.0012
G1 X137.684 Y108.028 E2.0186
G1 X137.644 Y108.033 E2.0194
G1 X136.824 Y108.079 E2.0355
G1 X136.803 Y108.080 E2.0359
G1 X62.198 Y108.080 E3.4950
G1 X62.176 Y108.079 E3.4954
G1 X61.298 Y108.026 E3.5126
G1 X61.257 Y108.022 E3.5134
G1 X60.403 Y107.872 E3.5304
G1 X60.363 Y107.862 E3.5312
G1 X59.497 Y107.605 E3.5488
G1 X59.453 Y107.588 E3.5497
G1 X58.410 Y107.121 E3.5721
G1 X58.367 Y107.098 E3.5731
G1 X57.535 Y106.578 E3.5922
G1 X57.502 Y106.555 E3.5930
G1 X56.645 Y105.874 E3.6144
G1 X56.544 Y105.747 E3.6176
G1 X56.183 Y104.999 E3.6338
G1 X56.147 Y104.841 E3.6370
G1 X56.147 Y95.145 E3.8266
G1 X56.185 Y94.982 E3.8299
G1 X56.569 Y94.215 E3.8467
G1 X56.677 Y94.086 E3.8500
G1 X57.839 Y93.216 E3.8784
G1 X57.878 Y93.191 E3.8793
G1 X58.127 Y93.601 F18000
G92 E0.0000
G1 X58.899 Y93.167 E0.0173 F1800
G1 X58.915 Y93.159 E0.0177
G1 X60.168 Y92.684 E0.0439
G1 X60.186 Y92.679 E0.0443
G1 X61.229 Y92.467 E0.0651
G1 X61.245 Y92.465 E0.0654
G1 X62.193 Y92.400 E0.0840
G1 X62.201 Y92.400 E0.0841
G1 X137.164 Y92.410 E1.5502
G1 X137.177 Y92.411 E1.5504
G1 X138.038 Y92.505 E1.5674
G1 X138.052 Y92.508 E1.5676
G1 X138.897 Y92.702 E1.5846
G1 X138.910 Y92.706 E1.5849
G1 X139.727 Y92.997 E1.6018
G1 X139.740 Y93.003 E1.6021
G1 X140.589 Y93.427 E1.6207
G1 X140.601 Y93.435 E1.6209
G1 X141.327 Y93.915 E1.6379
G1 X141.338 Y93.923 E1.6382
G1 X141.998 Y94.480 E1.6551
G1 X142.007 Y94.489 E1.6554
G1 X142.546 Y95.056 E1.6707
G1 X142.555 Y95.066 E1.6709
G1 X143.186 Y95.897 E1.6913
G1 X143.204 Y95.932 E1.6921
G1 X143.367 Y96.420 E1.7022
G1 X143.373 Y96.458 E1.7029
G1 X143.373 Y103.542 E1.8415
G1 X143.367 Y103.580 E1.8422
G1 X143.204 Y104.067 E1.8523
G1 X143.186 Y104.102 E1.8530
G1 X142.554 Y104.934 E1.8735
G1 X142.545 Y104.944 E1.8737
G1 X141.946 Y105.569 E1.8907
G1 X141.935 Y105.578 E1.8909
G1 X141.267 Y106.130 E1.9079
G1 X141.255 Y106.138 E1.9082
G1 X140.498 Y106.624 E1.9258
G1 X140.484 Y106.632 E1.9261
G1 X139.444 Y107.115 E1.9485
G1 X139.428 Y107.121 E1.9488
G1 X138.485 Y107.405 E1.9681
G1 X138.471 Y107.408 E1.9684
G1 X137.617 Y107.553 E1.9853
G1 X137.604 Y107.555 E1.9856
G1 X136.803 Y107.600 E2.0013
G1 X136.797 Y107.600 E2.0014
G1 X62.205 Y107.600 E3.4602
G1 X62.198 Y107.600 E3.4603
G1 X61.340 Y107.548 E3.4771
G1 X61.327 Y107.546 E3.4774
G1 X60.500 Y107.401 E3.4938
G1 X60.486 Y107.398 E3.4941
G1 X59.649 Y107.149 E3.5111
G1 X59.634 Y107.144 E3.5115
G1 X58.622 Y106.690 E3.5332
G1 X58.607 Y106.682 E3.5335
G1 X57.801 Y106.178 E3.5521
G1 X57.790 Y106.171 E3.5523
G1 X56.986 Y105.532 E3.5724
G1 X56.952 Y105.490 E3.5735
G1 X56.639 Y104.840 E3.5876
G1 X56.627 Y104.787 E3.5887
G1 X56.627 Y95.201 E3.7761
G1 X56.639 Y95.147 E3.7772
G1 X56.973 Y94.480 E3.7918
G1 X57.009 Y94.437 E3.7929
G1 X58.114 Y93.610 E3.8199
G1 X58.127 Y93.601 E3.8202
; feature ooze shield
G1 X58.389 Y94.004 F18000
G92 E0.0000
G1 X58.459 Y93.958 E0.0016 F1800
G1 X59.117 Y93.594 E0.0163
G1 X59.195 Y93.558 E0.0180
G1 X60.205 Y93.173 E0.0392
G1 X60.301 Y93.145 E0.0411
G1 X61.309 Y92.940 E0.0612
