; G-Code generated by Simplify3D(R) Version 4.1.2
; May 22, 2020 at 11:01:32 PM
; Settings Summary
;   processName,Process1
;   applyToModels,sonja-schrift
;   profileName,HBot (modified)
;   profileVersion,2019-10-26 23:38:43
;   baseProfile,Default
;   printMaterial,PLA
;   printQuality,High
;   printExtruders,
;   extruderName,Extruder 1
;   extruderToolheadNumber,0
;   extruderDiameter,0.4
;   extruderAutoWidth,1
;   extruderWidth,0.48
;   extrusionMultiplier,0.93
;   extruderUseRetract,1
;   extruderRetractionDistance,4
;   extruderExtraRestartDistance,0
;   extruderRetractionZLift,0
;   extruderRetractionSpeed,3600
;   extruderUseCoasting,1
;   extruderCoastingDistance,0.2
;   extruderUseWipe,1
;   extruderWipeDistance,5
;   primaryExtruder,0
;   layerHeight,0.1
;   topSolidLayers,7
;   bottomSolidLayers,7
;   perimeterOutlines,3
;   printPerimetersInsideOut,1
;   startPointOption,3
;   startPointOriginX,200
;   startPointOriginY,100
;   sequentialIslands,0
;   spiralVaseMode,0
;   firstLayerHeightPercentage,100
;   firstLayerWidthPercentage,100
;   firstLayerUnderspeed,0.5
;   useRaft,0
;   raftExtruder,0
;   raftTopLayers,3
;   raftBaseLayers,2
;   raftOffset,3
;   raftSeparationDistance,0.18
;   raftTopInfill,100
;   aboveRaftSpeedMultiplier,0.3
;   useSkirt,1
;   skirtExtruder,0
;   skirtLayers,1
;   skirtOutlines,5
;   skirtOffset,0
;   usePrimePillar,0
;   primePillarExtruder,999
;   primePillarWidth,12
;   primePillarLocation,7
;   primePillarSpeedMultiplier,1
;   useOozeShield,0
;   oozeShieldExtruder,999
;   oozeShieldOffset,0.9
;   oozeShieldOutlines,2
;   oozeShieldSidewallShape,0
;   oozeShieldSidewallAngle,30
;   oozeShieldSpeedMultiplier,1.5
;   infillExtruder,0
;   internalInfillPattern,Rectilinear
;   externalInfillPattern,Rectilinear
;   infillPercentage,30
;   outlineOverlapPercentage,25
;   infillExtrusionWidthPercentage,100
;   minInfillLength,5
;   infillLayerInterval,1
;   internalInfillAngles,45,-45
;   overlapInternalInfillAngles,0
;   externalInfillAngles,45,-45
;   generateSupport,0
;   supportExtruder,0
;   supportInfillPercentage,40
;   supportExtraInflation,0
;   supportBaseLayers,1
;   denseSupportExtruder,0
;   denseSupportLayers,0
;   denseSupportInfillPercentage,70
;   supportLayerInterval,1
;   supportHorizontalPartOffset,0.3
;   supportUpperSeparationLayers,1
;   supportLowerSeparationLayers,1
;   supportType,0
;   supportGridSpacing,4
;   maxOverhangAngle,25
;   supportAngles,0
;   temperatureName,Extruder 1,Heated Bed
;   temperatureNumber,0,1
;   temperatureSetpointCount,2,1
;   temperatureSetpointLayers,1,2,1
;   temperatureSetpointTemperatures,217,208,65
;   temperatureStabilizeAtStartup,1,1
;   temperatureHeatedBed,0,1
;   fanLayers,1,4,10
;   fanSpeeds,0,6,20
;   blipFanToFullPower,1
;   adjustSpeedForCooling,1
;   minSpeedLayerTime,15
;   minCoolingSpeedSlowdown,20
;   increaseFanForCooling,0
;   minFanLayerTime,45
;   maxCoolingFanSpeed,35
;   increaseFanForBridging,1
;   bridgingFanSpeed,85
;   use5D,1
;   relativeEdistances,0
;   allowEaxisZeroing,1
;   independentExtruderAxes,0
;   includeM10123,0
;   stickySupport,1
;   applyToolheadOffsets,0
;   gcodeXoffset,0
;   gcodeYoffset,0
;   gcodeZoffset,0
;   overrideMachineDefinition,1
;   machineTypeOverride,0
;   strokeXoverride,200
;   strokeYoverride,200
;   strokeZoverride,150
;   originOffsetXoverride,0
;   originOffsetYoverride,0
;   originOffsetZoverride,0
;   homeXdirOverride,-1
;   homeYdirOverride,-1
;   homeZdirOverride,-1
;   flipXoverride,1
;   flipYoverride,-1
;   flipZoverride,1
;   toolheadOffsets,0,0|0,0|0,0|0,0|0,0|0,0
;   overrideFirmwareConfiguration,1
;   firmwareTypeOverride,RepRap (Marlin/Repetier/Sprinter)
;   GPXconfigOverride,r2
;   baudRateOverride,115200
;   overridePrinterModels,0
;   printerModelsOverride
;   startingGcode,G28 ; home all axes,G32 ; run bed.g -- probe bed and enable compensation
;   layerChangeGcode,
;   retractionGcode,
;   toolChangeGcode,
;   endingGcode,M0 ; call stop.g
;   exportFileFormat,gcode
;   celebration,0
;   celebrationSong,Random Song
;   postProcessing,
;   defaultSpeed,3600
;   outlineUnderspeed,0.5
;   solidInfillUnderspeed,0.8
;   supportUnderspeed,0.8
;   rapidXYspeed,18000
;   rapidZspeed,1200
;   minBridgingArea,50
;   bridgingExtraInflation,0
;   bridgingExtrusionMultiplier,0.96
;   bridgingSpeedMultiplier,1
;   useFixedBridgingAngle,0
;   fixedBridgingAngle,0
;   applyBridgingToPerimeters,0
;   filamentDiameters,1.75|1.75|1.75|1.75|1.75|1.75
;   filamentPricesPerKg,46|46|46|46|46|46
;   filamentDensities,1.25|1.25|1.25|1.25|1.25|1.25
;   useMinPrintHeight,0
;   minPrintHeight,20
;   useMaxPrintHeight,0
;   maxPrintHeight,15
;   useDiaphragm,0
;   diaphragmLayerInterval,20
;   robustSlicing,1
;   mergeAllIntoSolid,0
;   onlyRetractWhenCrossingOutline,1
;   retractBetweenLayers,0
;   useRetractionMinTravel,1
;   retractionMinTravel,3
;   retractWhileWiping,1
;   onlyWipeOutlines,1
;   avoidCrossingOutline,1
;   maxMovementDetourFactor,5
;   toolChangeRetractionDistance,12
;   toolChangeExtraRestartDistance,-0.5
;   toolChangeRetractionSpeed,600
;   externalThinWallType,0
;   internalThinWallType,2
;   thinWallAllowedOverlapPercentage,10
;   singleExtrusionMinLength,1
;   singleExtrusionMinPrintingWidthPercentage,50
;   singleExtrusionMaxPrintingWidthPercentage,150
;   singleExtrusionEndpointExtension,0.2
;   horizontalSizeCompensation,-0.1
G90
M82
M106 S0
M140 S65
M190 S65
M104 S217 T0
M109 S217 T0
G28 ; home all axes
G32 ; run bed.g -- probe bed and enable compensation
; process Process1
; layer 1, Z = 0.100
T0
G92 E0.0000
G1 E-4.0000 F3600
; feature skirt
; tool H0.100 W0.480
G1 Z0.100 F1200
G1 X68.784 Y101.654 F18000
G1 E0.0000 F3600
G92 E0.0000
G1 X68.770 Y102.396 E0.0138 F1800
G1 X68.762 Y102.463 E0.0150
G1 X68.659 Y102.962 E0.0245
G1 X68.603 Y103.094 E0.0271
G1 X68.366 Y103.438 E0.0349
G1 X68.193 Y103.574 E0.0390
G1 X67.806 Y103.721 E0.0467
G1 X67.634 Y103.742 E0.0499
G1 X67.274 Y103.700 E0.0566
G1 X67.140 Y103.657 E0.0592
G1 X66.831 Y103.484 E0.0658
G1 X66.739 Y103.412 E0.0680
G1 X66.524 Y103.175 E0.0739
G1 X66.448 Y103.047 E0.0767
G1 X66.352 Y102.762 E0.0822
G1 X66.333 Y102.626 E0.0848
G1 X66.405 Y101.260 E0.1102
G1 X66.372 Y100.690 E0.1208
G1 X66.144 Y99.033 E0.1518
G1 X65.721 Y97.205 E0.1866
G1 X65.714 Y97.089 E0.1888
G1 X65.743 Y96.787 E0.1944
G1 X65.759 Y96.708 E0.1959
G1 X65.845 Y96.447 E0.2010
G1 X65.887 Y96.361 E0.2028
G1 X66.057 Y96.105 E0.2085
G1 X66.191 Y95.984 E0.2118
G1 X66.528 Y95.806 E0.2189
G1 X66.691 Y95.764 E0.2220
G1 X66.979 Y95.757 E0.2274
G1 X67.162 Y95.801 E0.2309
G1 X67.624 Y96.052 E0.2407
G1 X67.711 Y96.118 E0.2427
G1 X67.972 Y96.387 E0.2496
G1 X68.065 Y96.552 E0.2531
G1 X68.166 Y96.951 E0.2608
G1 X68.174 Y96.989 E0.2615
G1 X68.574 Y99.765 E0.3136
G1 X68.575 Y99.776 E0.3138
G1 X68.782 Y101.607 E0.3480
G1 X68.784 Y101.654 E0.3488
G1 X68.304 Y101.661 F18000
G92 E0.0000
G1 X68.290 Y102.365 E0.0131 F1800
G1 X68.288 Y102.387 E0.0135
G1 X68.199 Y102.817 E0.0216
G1 X68.180 Y102.862 E0.0225
G1 X68.012 Y103.106 E0.0280
G1 X67.954 Y103.151 E0.0294
G1 X67.690 Y103.252 E0.0347
G1 X67.632 Y103.259 E0.0357
G1 X67.377 Y103.229 E0.0405
G1 X67.332 Y103.214 E0.0414
G1 X67.098 Y103.084 E0.0463
G1 X67.068 Y103.060 E0.0471
G1 X66.912 Y102.889 E0.0514
G1 X66.887 Y102.846 E0.0523
G1 X66.821 Y102.651 E0.0561
G1 X66.815 Y102.606 E0.0569
G1 X66.886 Y101.259 E0.0820
G1 X66.850 Y100.643 E0.0934
G1 X66.616 Y98.946 E0.1252
G1 X66.198 Y97.135 E0.1597
G1 X66.195 Y97.096 E0.1604
G1 X66.218 Y96.860 E0.1648
G1 X66.223 Y96.834 E0.1653
G1 X66.291 Y96.628 E0.1694
G1 X66.305 Y96.600 E0.1699
G1 X66.424 Y96.421 E0.1739
G1 X66.468 Y96.381 E0.1750
G1 X66.703 Y96.256 E0.1800
G1 X66.758 Y96.242 E0.1810
G1 X66.927 Y96.238 E0.1842
G1 X66.988 Y96.253 E0.1853
G1 X67.363 Y96.457 E0.1932
G1 X67.392 Y96.479 E0.1939
G1 X67.584 Y96.677 E0.1990
G1 X67.615 Y96.732 E0.2002
G1 X67.698 Y97.057 E0.2064
G1 X67.701 Y97.070 E0.2067
G1 X68.098 Y99.833 E0.2585
G1 X68.303 Y101.645 E0.2923
G1 X68.304 Y101.661 E0.2926
G92 E0.0000
G1 E-4.0000 F3600
G1 X70.048 Y100.468 F18000
G1 X70.212 Y100.671
G1 X70.400 Y100.872
G1 X70.610 Y101.067
G1 X71.087 Y101.442
G1 X71.599 Y101.763
G1 X71.849 Y101.887
G1 X72.541 Y101.931
G1 X72.716 Y101.993
G1 X73.330 Y102.176
G1 X73.904 Y102.323
G1 X74.490 Y102.405
G1 X74.533 Y102.058
G1 X75.011 Y102.088
G1 X75.019 Y102.188
G1 X75.048 Y102.343
G1 X75.217 Y102.758
G1 X76.613 Y102.173
G1 X76.621 Y102.191
G1 X81.117 Y102.478
G1 X81.140 Y102.584
G1 X82.101 Y102.541
G1 E0.0000 F3600
G92 E0.0000
G1 X82.097 Y102.738 E0.0037 F1800
G1 X82.074 Y102.856 E0.0059
G1 X81.954 Y103.180 E0.0123
G1 X81.898 Y103.279 E0.0144
G1 X81.687 Y103.543 E0.0207
G1 X81.583 Y103.633 E0.0232
G1 X81.359 Y103.761 E0.0280
G1 X81.226 Y103.806 E0.0306
G1 X80.901 Y103.848 E0.0367
G1 X80.791 Y103.845 E0.0388
G1 X80.437 Y103.782 E0.0454
G1 X80.406 Y103.774 E0.0460
G1 X79.378 Y103.494 E0.0658
G1 X78.721 Y103.383 E0.0782
G1 X78.058 Y103.333 E0.0905
G1 X77.080 Y103.378 E0.1087
G1 X77.023 Y103.376 E0.1097
G1 X76.709 Y103.341 E0.1156
G1 X76.612 Y103.316 E0.1175
G1 X76.317 Y103.195 E0.1234
G1 X76.211 Y103.128 E0.1257
G1 X76.139 Y103.062 E0.1275
G1 X76.094 Y103.207 E0.1303
G1 X76.044 Y103.310 E0.1324
G1 X75.876 Y103.548 E0.1379
G1 X75.806 Y103.622 E0.1397
G1 X75.509 Y103.859 E0.1468
G1 X75.371 Y103.928 E0.1497
G1 X75.131 Y103.989 E0.1543
G1 X75.002 Y103.998 E0.1567
G1 X74.626 Y103.956 E0.1637
G1 X74.503 Y103.919 E0.1661
G1 X73.677 Y103.501 E0.1832
G1 X72.467 Y103.178 E0.2065
G1 X72.433 Y103.167 E0.2071
G1 X71.786 Y102.924 E0.2200
G1 X71.753 Y102.910 E0.2206
G1 X71.147 Y102.611 E0.2332
G1 X71.115 Y102.593 E0.2339
G1 X70.545 Y102.235 E0.2464
G1 X70.507 Y102.207 E0.2472
G1 X69.749 Y101.578 E0.2655
G1 X69.708 Y101.537 E0.2666
G1 X69.294 Y101.064 E0.2782
G1 X69.261 Y101.019 E0.2793
G1 X68.948 Y100.521 E0.2902
G1 X68.919 Y100.463 E0.2914
G1 X68.709 Y99.937 E0.3019
G1 X68.689 Y99.871 E0.3032
G1 X68.584 Y99.325 E0.3135
G1 X68.578 Y99.260 E0.3147
G1 X68.573 Y98.727 E0.3246
G1 X68.577 Y98.672 E0.3256
G1 X68.646 Y98.194 E0.3346
G1 X68.664 Y98.122 E0.3360
G1 X68.894 Y97.492 E0.3484
G1 X68.939 Y97.406 E0.3502
G1 X69.325 Y96.862 E0.3626
G1 X69.378 Y96.803 E0.3641
G1 X69.738 Y96.478 E0.3731
G1 X69.784 Y96.443 E0.3742
G1 X70.160 Y96.201 E0.3824
G1 X70.211 Y96.174 E0.3835
G1 X70.637 Y95.988 E0.3922
G1 X70.689 Y95.970 E0.3932
G1 X71.154 Y95.847 E0.4021
G1 X71.202 Y95.837 E0.4030
G1 X71.703 Y95.777 E0.4124
G1 X71.747 Y95.774 E0.4132
G1 X72.367 Y95.776 E0.4247
G1 X72.389 Y95.776 E0.4251
G1 X73.998 Y95.877 E0.4550
G1 X74.857 Y95.863 E0.4710
G1 X74.974 Y95.880 E0.4732
G1 X75.255 Y95.971 E0.4786
G1 X75.354 Y96.020 E0.4807
G1 X75.545 Y96.156 E0.4851
G1 X75.618 Y96.225 E0.4869
G1 X75.851 Y96.516 E0.4938
G1 X75.912 Y96.629 E0.4962
G1 X75.991 Y96.866 E0.5009
G1 X76.006 Y97.027 E0.5039
G1 X75.955 Y97.421 E0.5112
G1 X75.829 Y97.654 E0.5161
G1 X75.531 Y97.912 E0.5235
G1 X75.509 Y97.925 E0.5239
G1 X75.764 Y99.760 E0.5583
G1 X75.766 Y99.778 E0.5587
G1 X75.908 Y101.354 E0.5880
G1 X75.926 Y101.329 E0.5886
G1 X76.178 Y101.130 E0.5946
G1 X76.290 Y101.069 E0.5969
G1 X76.484 Y101.005 E0.6007
G1 X76.572 Y100.988 E0.6024
G1 X76.800 Y100.971 E0.6066
G1 X76.882 Y100.975 E0.6082
G1 X77.642 Y101.096 E0.6224
G1 X78.818 Y101.179 E0.6443
G1 X78.842 Y101.182 E0.6448
G1 X79.510 Y101.274 E0.6573
G1 X79.407 Y100.358 E0.6744
G1 X78.950 Y96.885 E0.7394
G1 X78.959 Y96.743 E0.7420
G1 X79.023 Y96.504 E0.7466
G1 X79.072 Y96.397 E0.7488
G1 X79.206 Y96.196 E0.7533
G1 X79.269 Y96.124 E0.7551
G1 X79.473 Y95.947 E0.7601
G1 X79.596 Y95.877 E0.7627
G1 X79.928 Y95.766 E0.7692
G1 X80.090 Y95.751 E0.7722
G1 X80.540 Y95.810 E0.7806
G1 X80.700 Y95.872 E0.7838
G1 X81.015 Y96.090 E0.7909
G1 X81.107 Y96.182 E0.7934
G1 X81.242 Y96.378 E0.7978
G1 X81.294 Y96.492 E0.8001
G1 X81.368 Y96.775 E0.8055
G1 X81.378 Y96.827 E0.8065
G1 X81.862 Y101.241 E0.8889
G1 X82.095 Y102.464 E0.9120
G1 X82.101 Y102.541 E0.9135
G92 E0.0000
G1 E-4.0000 F3600
G1 X81.140 Y102.584 F18000
G1 X81.137 Y102.570
G1 X79.810 Y102.611
G1 X79.582 Y102.555
G1 X78.837 Y102.429
G1 X78.078 Y102.372
G1 X77.683 Y102.372
G1 X77.080 Y102.416
G1 X76.899 Y102.396
G1 X76.765 Y102.341
G1 X76.686 Y102.284
G1 X76.636 Y102.227
G1 X75.711 Y102.738
G1 E0.0000 F3600
G92 E0.0000
G1 X75.713 Y102.814 E0.0014 F1800
G1 X75.646 Y103.030 E0.0056
G1 X75.630 Y103.064 E0.0063
G1 X75.503 Y103.244 E0.0104
G1 X75.480 Y103.268 E0.0110
G1 X75.250 Y103.453 E0.0165
G1 X75.204 Y103.475 E0.0174
G1 X75.055 Y103.513 E0.0203
G1 X75.012 Y103.516 E0.0211
G1 X74.722 Y103.484 E0.0265
G1 X74.681 Y103.471 E0.0273
G1 X73.849 Y103.051 E0.0446
G1 X72.602 Y102.717 E0.0685
G1 X72.591 Y102.713 E0.0688
G1 X71.966 Y102.479 E0.0812
G1 X71.955 Y102.474 E0.0814
G1 X71.370 Y102.186 E0.0935
G1 X71.359 Y102.180 E0.0937
G1 X70.814 Y101.837 E0.1057
G1 X70.801 Y101.828 E0.1060
G1 X70.070 Y101.220 E0.1236
G1 X70.057 Y101.207 E0.1239
G1 X69.669 Y100.763 E0.1349
G1 X69.657 Y100.748 E0.1352
G1 X69.366 Y100.284 E0.1454
G1 X69.357 Y100.265 E0.1458
G1 X69.163 Y99.780 E0.1555
G1 X69.156 Y99.758 E0.1559
G1 X69.060 Y99.256 E0.1654
G1 X69.058 Y99.234 E0.1658
G1 X69.053 Y98.741 E0.1750
G1 X69.055 Y98.723 E0.1753
G1 X69.118 Y98.287 E0.1835
G1 X69.124 Y98.263 E0.1839
G1 X69.334 Y97.686 E0.1953
G1 X69.349 Y97.658 E0.1959
G1 X69.701 Y97.161 E0.2072
G1 X69.719 Y97.142 E0.2077
G1 X70.045 Y96.848 E0.2159
G1 X70.060 Y96.836 E0.2162
G1 X70.403 Y96.615 E0.2238
G1 X70.420 Y96.606 E0.2241
G1 X70.812 Y96.435 E0.2321
G1 X70.830 Y96.429 E0.2324
G1 X71.260 Y96.315 E0.2407
G1 X71.277 Y96.312 E0.2410
G1 X71.746 Y96.255 E0.2498
G1 X71.761 Y96.254 E0.2500
G1 X72.358 Y96.256 E0.2611
G1 X72.366 Y96.256 E0.2613
G1 X73.987 Y96.358 E0.2914
G1 X74.826 Y96.344 E0.3070
G1 X74.864 Y96.349 E0.3077
G1 X75.073 Y96.416 E0.3118
G1 X75.106 Y96.433 E0.3125
G1 X75.240 Y96.528 E0.3155
G1 X75.264 Y96.551 E0.3161
G1 X75.450 Y96.783 E0.3216
G1 X75.470 Y96.820 E0.3224
G1 X75.518 Y96.965 E0.3253
G1 X75.523 Y97.019 E0.3263
G1 X75.490 Y97.271 E0.3310
G1 X75.448 Y97.349 E0.3326
G1 X75.249 Y97.521 E0.3375
G1 X75.212 Y97.543 E0.3383
G1 X74.983 Y97.629 E0.3429
G1 X75.288 Y99.821 E0.3839
G1 X75.289 Y99.827 E0.3840
G1 X75.494 Y102.106 E0.4265
G1 X75.711 Y102.738 E0.4389
G92 E0.0000
G1 E-4.0000 F3600
G1 X76.636 Y102.227 F18000
G1 X76.686 Y102.284
G1 X76.765 Y102.341
G1 X76.899 Y102.396
G1 X77.080 Y102.416
G1 X77.683 Y102.372
G1 X78.078 Y102.372
G1 X78.837 Y102.429
G1 X79.582 Y102.555
G1 X79.809 Y102.611
G1 X81.137 Y102.570
G1 X81.140 Y102.584
G1 X81.621 Y102.555
G1 E0.0000 F3600
G92 E0.0000
G1 X81.618 Y102.687 E0.0025 F1800
G1 X81.610 Y102.726 E0.0032
G1 X81.517 Y102.977 E0.0082
G1 X81.498 Y103.010 E0.0089
G1 X81.340 Y103.209 E0.0136
G1 X81.305 Y103.239 E0.0144
G1 X81.162 Y103.321 E0.0175
G1 X81.117 Y103.336 E0.0184
G1 X80.876 Y103.367 E0.0229
G1 X80.839 Y103.366 E0.0236
G1 X80.532 Y103.311 E0.0294
G1 X80.522 Y103.309 E0.0296
G1 X79.482 Y103.024 E0.0496
G1 X78.779 Y102.906 E0.0628
G1 X78.066 Y102.852 E0.0761
G1 X77.077 Y102.897 E0.0944
G1 X77.058 Y102.897 E0.0948
G1 X76.796 Y102.867 E0.0997
G1 X76.763 Y102.859 E0.1003
G1 X76.538 Y102.767 E0.1048
G1 X76.502 Y102.744 E0.1056
G1 X76.251 Y102.516 E0.1119
G1 X76.221 Y102.475 E0.1129
G1 X76.150 Y102.313 E0.1161
G1 X76.141 Y102.276 E0.1168
G1 X76.119 Y102.049 E0.1211
G1 X76.127 Y101.992 E0.1221
G1 X76.237 Y101.717 E0.1277
G1 X76.274 Y101.666 E0.1288
G1 X76.443 Y101.532 E0.1328
G1 X76.481 Y101.512 E0.1336
G1 X76.606 Y101.470 E0.1361
G1 X76.635 Y101.464 E0.1366
G1 X76.806 Y101.452 E0.1398
G1 X76.834 Y101.453 E0.1403
G1 X77.587 Y101.574 E0.1545
G1 X78.776 Y101.657 E0.1766
G1 X78.784 Y101.658 E0.1767
G1 X79.931 Y101.816 E0.1982
G1 X80.051 Y101.826 E0.2005
G1 X80.047 Y101.746 E0.2020
G1 X79.883 Y100.300 E0.2290
G1 X79.432 Y96.869 E0.2932
G1 X79.435 Y96.822 E0.2941
G1 X79.476 Y96.666 E0.2971
G1 X79.493 Y96.631 E0.2978
G1 X79.587 Y96.489 E0.3009
G1 X79.608 Y96.465 E0.3015
G1 X79.752 Y96.341 E0.3051
G1 X79.793 Y96.317 E0.3059
G1 X80.028 Y96.239 E0.3105
G1 X80.082 Y96.234 E0.3115
G1 X80.420 Y96.278 E0.3179
G1 X80.474 Y96.299 E0.3189
G1 X80.706 Y96.460 E0.3242
