; G-Code generated by Simplify3D(R) Version 4.1.2
; May 22, 2020 at 11:00:41 PM
; Settings Summary
;   processName,Process1
;   applyToModels,sonja-schrift
;   profileName,HBot
;   profileVersion,2019-10-26 23:38:43
;   baseProfile,Default
;   printMaterial,PLA
;   printQuality,High
;   printExtruders,
;   extruderName,Extruder 1
;   extruderToolheadNumber,0
;   extruderDiameter,0.4
;   extruderAutoWidth,0
;   extruderWidth,0.4
;   extrusionMultiplier,0.93
;   extruderUseRetract,0
;   extruderRetractionDistance,4
;   extruderExtraRestartDistance,0
;   extruderRetractionZLift,0
;   extruderRetractionSpeed,3600
;   extruderUseCoasting,1
;   extruderCoastingDistance,0.2
;   extruderUseWipe,1
;   extruderWipeDistance,5
;   primaryExtruder,0
;   layerHeight,0.1
;   topSolidLayers,7
;   bottomSolidLayers,7
;   perimeterOutlines,3
;   printPerimetersInsideOut,1
;   startPointOption,3
;   startPointOriginX,200
;   startPointOriginY,100
;   sequentialIslands,0
;   spiralVaseMode,0
;   firstLayerHeightPercentage,100
;   firstLayerWidthPercentage,100
;   firstLayerUnderspeed,0.5
;   useRaft,0
;   raftExtruder,0
;   raftTopLayers,3
;   raftBaseLayers,2
;   raftOffset,3
;   raftSeparationDistance,0.18
;   raftTopInfill,100
;   aboveRaftSpeedMultiplier,0.3
;   useSkirt,1
;   skirtExtruder,0
;   skirtLayers,1
;   skirtOutlines,5
;   skirtOffset,0
;   usePrimePillar,0
;   primePillarExtruder,999
;   primePillarWidth,12
;   primePillarLocation,7
;   primePillarSpeedMultiplier,1
;   useOozeShield,0
;   oozeShieldExtruder,999
;   oozeShieldOffset,0.9
;   oozeShieldOutlines,2
;   oozeShieldSidewallShape,0
;   oozeShieldSidewallAngle,30
;   oozeShieldSpeedMultiplier,1.5
;   infillExtruder,0
;   internalInfillPattern,Rectilinear
;   externalInfillPattern,Rectilinear
;   infillPercentage,30
;   outlineOverlapPercentage,25
;   infillExtrusionWidthPercentage,100
;   minInfillLength,5
;   infillLayerInterval,1
;   internalInfillAngles,45,-45
;   overlapInternalInfillAngles,0
;   externalInfillAngles,45,-45
;   generateSupport,0
;   supportExtruder,0
;   supportInfillPercentage,40
;   supportExtraInflation,0
;   supportBaseLayers,1
;   denseSupportExtruder,0
;   denseSupportLayers,0
;   denseSupportInfillPercentage,70
;   supportLayerInterval,1
;   supportHorizontalPartOffset,0.3
;   supportUpperSeparationLayers,1
;   supportLowerSeparationLayers,1
;   supportType,0
;   supportGridSpacing,4
;   maxOverhangAngle,25
;   supportAngles,0
;   temperatureName,Extruder 1,Heated Bed
;   temperatureNumber,0,1
;   temperatureSetpointCount,2,1
;   temperatureSetpointLayers,1,2,1
;   temperatureSetpointTemperatures,217,208,65
;   temperatureStabilizeAtStartup,1,1
;   temperatureHeatedBed,0,1
;   fanLayers,1,4,10
;   fanSpeeds,0,6,20
;   blipFanToFullPower,1
;   adjustSpeedForCooling,1
;   minSpeedLayerTime,15
;   minCoolingSpeedSlowdown,20
;   increaseFanForCooling,0
;   minFanLayerTime,45
;   maxCoolingFanSpeed,35
;   increaseFanForBridging,1
;   bridgingFanSpeed,85
;   use5D,1
;   relativeEdistances,0
;   allowEaxisZeroing,1
;   independentExtruderAxes,0
;   includeM10123,0
;   stickySupport,1
;   applyToolheadOffsets,0
;   gcodeXoffset,0
;   gcodeYoffset,0
;   gcodeZoffset,0
;   overrideMachineDefinition,1
;   machineTypeOverride,0
;   strokeXoverride,200
;   strokeYoverride,200
;   strokeZoverride,150
;   originOffsetXoverride,0
;   originOffsetYoverride,0
;   originOffsetZoverride,0
;   homeXdirOverride,-1
;   homeYdirOverride,-1
;   homeZdirOverride,-1
;   flipXoverride,1
;   flipYoverride,-1
;   flipZoverride,1
;   toolheadOffsets,0,0|0,0|0,0|0,0|0,0|0,0
;   overrideFirmwareConfiguration,1
;   firmwareTypeOverride,RepRap (Marlin/Repetier/Sprinter)
;   GPXconfigOverride,r2
;   baudRateOverride,115200
;   overridePrinterModels,0
;   printerModelsOverride
;   startingGcode,G28 ; home all axes,G32 ; run bed.g -- probe bed and enable compensation
;   layerChangeGcode,
;   retractionGcode,
;   toolChangeGcode,
;   endingGcode,M0 ; call stop.g
;   exportFileFormat,gcode
;   celebration,0
;   celebrationSong,Random Song
;   postProcessing,
;   defaultSpeed,3600
;   outlineUnderspeed,0.5
;   solidInfillUnderspeed,0.8
;   supportUnderspeed,0.8
;   rapidXYspeed,18000
;   rapidZspeed,1200
;   minBridgingArea,50
;   bridgingExtraInflation,0
;   bridgingExtrusionMultiplier,0.96
;   bridgingSpeedMultiplier,1
;   useFixedBridgingAngle,0
;   fixedBridgingAngle,0
;   applyBridgingToPerimeters,0
;   filamentDiameters,1.75|1.75|1.75|1.75|1.75|1.75
;   filamentPricesPerKg,46|46|46|46|46|46
;   filamentDensities,1.25|1.25|1.25|1.25|1.25|1.25
;   useMinPrintHeight,0
;   minPrintHeight,20
;   useMaxPrintHeight,0
;   maxPrintHeight,15
;   useDiaphragm,0
;   diaphragmLayerInterval,20
;   robustSlicing,1
;   mergeAllIntoSolid,0
;   onlyRetractWhenCrossingOutline,1
;   retractBetweenLayers,0
;   useRetractionMinTravel,1
;   retractionMinTravel,3
;   retractWhileWiping,1
;   onlyWipeOutlines,1
;   avoidCrossingOutline,1
;   maxMovementDetourFactor,5
;   toolChangeRetractionDistance,12
;   toolChangeExtraRestartDistance,-0.5
;   toolChangeRetractionSpeed,600
;   externalThinWallType,1
;   internalThinWallType,2
;   thinWallAllowedOverlapPercentage,10
;   singleExtrusionMinLength,0.2
;   singleExtrusionMinPrintingWidthPercentage,50
;   singleExtrusionMaxPrintingWidthPercentage,150
;   singleExtrusionEndpointExtension,0.2
;   horizontalSizeCompensation,-0.1
G90
M82
M106 S0
M140 S65
M190 S65
M104 S217 T0
M109 S217 T0
G28 ; home all axes
G32 ; run bed.g -- probe bed and enable compensation
; process Process1
; layer 1, Z = 0.100
T0
; feature skirt
; tool H0.100 W0.400
G1 Z0.100 F1200
G1 X68.664 Y101.655 F18000
G92 E0.0000
G1 X68.650 Y102.388 E0.0113 F1800
G1 X68.644 Y102.444 E0.0122
G1 X68.544 Y102.926 E0.0198
G1 X68.497 Y103.036 E0.0217
G1 X68.277 Y103.355 E0.0277
G1 X68.133 Y103.468 E0.0305
G1 X67.777 Y103.604 E0.0364
G1 X67.633 Y103.622 E0.0386
G1 X67.300 Y103.582 E0.0438
G1 X67.188 Y103.546 E0.0456
G1 X66.898 Y103.384 E0.0508
G1 X66.821 Y103.324 E0.0523
G1 X66.621 Y103.104 E0.0569
G1 X66.558 Y102.997 E0.0588
G1 X66.469 Y102.734 E0.0631
G1 X66.453 Y102.621 E0.0649
G1 X66.526 Y101.260 E0.0859
G1 X66.492 Y100.678 E0.0950
G1 X66.262 Y99.011 E0.1210
G1 X65.840 Y97.188 E0.1499
G1 X65.834 Y97.091 E0.1514
G1 X65.861 Y96.805 E0.1559
G1 X65.875 Y96.740 E0.1569
G1 X65.957 Y96.493 E0.1609
G1 X65.992 Y96.421 E0.1622
G1 X66.149 Y96.184 E0.1666
G1 X66.260 Y96.084 E0.1689
G1 X66.572 Y95.918 E0.1743
G1 X66.707 Y95.883 E0.1765
G1 X66.966 Y95.877 E0.1805
G1 X67.119 Y95.914 E0.1829
G1 X67.559 Y96.153 E0.1907
G1 X67.631 Y96.208 E0.1921
G1 X67.875 Y96.460 E0.1975
G1 X67.952 Y96.597 E0.1999
G1 X68.049 Y96.977 E0.2060
G1 X68.055 Y97.009 E0.2065
G1 X68.455 Y99.781 E0.2498
G1 X68.456 Y99.790 E0.2500
G1 X68.662 Y101.616 E0.2784
G1 X68.664 Y101.655 E0.2790
G1 X68.264 Y101.661 F18000
G92 E0.0000
G1 X68.250 Y102.362 E0.0108 F1800
G1 X68.248 Y102.381 E0.0111
G1 X68.160 Y102.805 E0.0178
G1 X68.145 Y102.842 E0.0185
G1 X67.982 Y103.078 E0.0229
G1 X67.934 Y103.116 E0.0238
G1 X67.680 Y103.213 E0.0280
G1 X67.632 Y103.219 E0.0288
G1 X67.386 Y103.190 E0.0326
G1 X67.348 Y103.178 E0.0332
G1 X67.121 Y103.051 E0.0373
G1 X67.095 Y103.031 E0.0378
G1 X66.944 Y102.865 E0.0412
G1 X66.923 Y102.829 E0.0419
G1 X66.860 Y102.642 E0.0449
G1 X66.855 Y102.604 E0.0455
G1 X66.926 Y101.259 E0.0664
G1 X66.890 Y100.639 E0.0760
G1 X66.656 Y98.938 E0.1025
G1 X66.237 Y97.129 E0.1312
G1 X66.235 Y97.097 E0.1317
G1 X66.257 Y96.866 E0.1353
G1 X66.262 Y96.844 E0.1357
G1 X66.328 Y96.644 E0.1389
G1 X66.340 Y96.620 E0.1393
G1 X66.454 Y96.447 E0.1425
G1 X66.491 Y96.414 E0.1433
G1 X66.718 Y96.294 E0.1473
G1 X66.763 Y96.282 E0.1480
G1 X66.923 Y96.278 E0.1505
G1 X66.974 Y96.291 E0.1513
G1 X67.341 Y96.490 E0.1577
G1 X67.365 Y96.509 E0.1582
G1 X67.552 Y96.701 E0.1624
G1 X67.578 Y96.747 E0.1632
G1 X67.659 Y97.066 E0.1683
G1 X67.661 Y97.077 E0.1684
G1 X68.059 Y99.838 E0.2116
G1 X68.263 Y101.648 E0.2398
G1 X68.264 Y101.661 E0.2400
G1 X70.016 Y100.492 F18000
G1 X70.182 Y100.698
G1 X70.372 Y100.900
G1 X70.584 Y101.098
G1 X71.064 Y101.474
G1 X71.580 Y101.798
G1 X71.758 Y101.886
G1 X72.706 Y101.947
G1 X72.728 Y101.955
G1 X73.341 Y102.138
G1 X73.912 Y102.284
G1 X74.455 Y102.360
G1 X74.492 Y102.062
G1 X75.052 Y102.098
G1 X75.059 Y102.183
G1 X75.086 Y102.332
G1 X75.255 Y102.745
G1 X76.574 Y102.183
G1 X76.580 Y102.196
G1 X81.161 Y102.491
G1 X81.180 Y102.581
G1 X81.981 Y102.544
G92 E0.0000
G1 X81.977 Y102.725 E0.0028 F1800
G1 X81.958 Y102.824 E0.0044
G1 X81.844 Y103.129 E0.0094
G1 X81.798 Y103.212 E0.0109
G1 X81.600 Y103.460 E0.0158
G1 X81.514 Y103.534 E0.0175
G1 X81.310 Y103.651 E0.0212
G1 X81.199 Y103.688 E0.0230
G1 X80.895 Y103.727 E0.0277
G1 X80.803 Y103.725 E0.0291
G1 X80.461 Y103.664 E0.0345
G1 X80.435 Y103.658 E0.0349
G1 X79.404 Y103.376 E0.0514
G1 X78.735 Y103.264 E0.0619
G1 X78.060 Y103.213 E0.0724
G1 X77.079 Y103.258 E0.0876
G1 X77.032 Y103.256 E0.0883
G1 X76.731 Y103.222 E0.0930
G1 X76.650 Y103.202 E0.0943
G1 X76.372 Y103.088 E0.0989
G1 X76.284 Y103.032 E0.1006
G1 X76.073 Y102.841 E0.1050
G1 X76.073 Y102.865 E0.1053
G1 X75.982 Y103.163 E0.1102
G1 X75.940 Y103.248 E0.1116
G1 X75.783 Y103.472 E0.1159
G1 X75.725 Y103.534 E0.1172
G1 X75.444 Y103.758 E0.1227
G1 X75.329 Y103.815 E0.1247
G1 X75.112 Y103.870 E0.1282
G1 X75.004 Y103.877 E0.1298
G1 X74.650 Y103.838 E0.1354
G1 X74.547 Y103.807 E0.1370
G1 X73.720 Y103.389 E0.1514
G1 X72.501 Y103.062 E0.1709
G1 X72.473 Y103.053 E0.1713
G1 X71.831 Y102.813 E0.1819
G1 X71.804 Y102.801 E0.1824
G1 X71.203 Y102.504 E0.1928
G1 X71.176 Y102.489 E0.1932
G1 X70.612 Y102.135 E0.2035
G1 X70.580 Y102.112 E0.2041
G1 X69.829 Y101.488 E0.2192
G1 X69.795 Y101.455 E0.2200
G1 X69.388 Y100.989 E0.2295
G1 X69.360 Y100.951 E0.2303
G1 X69.053 Y100.461 E0.2392
G1 X69.029 Y100.413 E0.2400
G1 X68.822 Y99.898 E0.2486
G1 X68.806 Y99.843 E0.2495
G1 X68.703 Y99.308 E0.2579
G1 X68.698 Y99.254 E0.2588
G1 X68.693 Y98.731 E0.2669
G1 X68.696 Y98.685 E0.2676
G1 X68.764 Y98.217 E0.2749
G1 X68.779 Y98.157 E0.2759
G1 X69.004 Y97.540 E0.2860
G1 X69.042 Y97.469 E0.2873
G1 X69.419 Y96.937 E0.2973
G1 X69.463 Y96.888 E0.2984
G1 X69.815 Y96.571 E0.3057
G1 X69.853 Y96.541 E0.3064
G1 X70.220 Y96.305 E0.3132
G1 X70.263 Y96.282 E0.3139
G1 X70.681 Y96.100 E0.3210
G1 X70.724 Y96.085 E0.3217
G1 X71.180 Y95.964 E0.3290
G1 X71.221 Y95.956 E0.3296
G1 X71.713 Y95.896 E0.3373
G1 X71.750 Y95.894 E0.3379
G1 X72.365 Y95.896 E0.3474
G1 X72.382 Y95.896 E0.3477
G1 X73.995 Y95.997 E0.3726
G1 X74.849 Y95.983 E0.3859
G1 X74.946 Y95.998 E0.3874
G1 X75.210 Y96.082 E0.3916
G1 X75.292 Y96.123 E0.3931
G1 X75.469 Y96.249 E0.3964
G1 X75.530 Y96.306 E0.3977
G1 X75.751 Y96.583 E0.4032
G1 X75.802 Y96.677 E0.4049
G1 X75.872 Y96.891 E0.4083
G1 X75.885 Y97.025 E0.4104
G1 X75.839 Y97.383 E0.4160
G1 X75.734 Y97.578 E0.4194
G1 X75.460 Y97.814 E0.4250
G1 X75.379 Y97.863 E0.4265
G1 X75.645 Y99.776 E0.4564
G1 X75.647 Y99.790 E0.4566
G1 X75.825 Y101.776 E0.4874
G1 X75.920 Y101.540 E0.4914
G1 X76.013 Y101.414 E0.4938
G1 X76.244 Y101.230 E0.4983
G1 X76.337 Y101.180 E0.5000
G1 X76.514 Y101.121 E0.5029
G1 X76.587 Y101.107 E0.5040
G1 X76.801 Y101.092 E0.5073
G1 X76.870 Y101.095 E0.5084
G1 X77.629 Y101.216 E0.5203
G1 X78.808 Y101.299 E0.5386
G1 X78.828 Y101.301 E0.5389
G1 X79.647 Y101.414 E0.5517
G1 X79.526 Y100.344 E0.5683
G1 X79.070 Y96.881 E0.6223
G1 X79.078 Y96.763 E0.6242
G1 X79.136 Y96.545 E0.6277
G1 X79.177 Y96.456 E0.6292
G1 X79.301 Y96.269 E0.6326
G1 X79.354 Y96.209 E0.6339
G1 X79.543 Y96.045 E0.6377
G1 X79.645 Y95.987 E0.6396
G1 X79.953 Y95.885 E0.6446
G1 X80.088 Y95.872 E0.6467
G1 X80.510 Y95.927 E0.6533
G1 X80.644 Y95.979 E0.6555
G1 X80.937 Y96.182 E0.6610
G1 X81.014 Y96.259 E0.6627
G1 X81.137 Y96.437 E0.6660
G1 X81.181 Y96.532 E0.6676
G1 X81.251 Y96.801 E0.6719
G1 X81.259 Y96.845 E0.6726
G1 X81.743 Y101.258 E0.7413
G1 X81.976 Y102.481 E0.7605
G1 X81.981 Y102.544 E0.7615
G1 X81.180 Y102.581 F18000
G1 X81.178 Y102.570
G1 X79.671 Y102.618
G1 X79.574 Y102.594
G1 X78.832 Y102.469
G1 X78.077 Y102.412
G1 X77.684 Y102.412
G1 X77.079 Y102.456
G1 X76.889 Y102.435
G1 X76.745 Y102.376
G1 X76.658 Y102.314
G1 X76.602 Y102.248
G1 X75.671 Y102.745
G92 E0.0000
G1 X75.672 Y102.809 E0.0010 F1800
G1 X75.609 Y103.015 E0.0043
G1 X75.595 Y103.044 E0.0048
G1 X75.472 Y103.218 E0.0081
G1 X75.453 Y103.239 E0.0086
G1 X75.228 Y103.419 E0.0130
G1 X75.190 Y103.438 E0.0137
G1 X75.049 Y103.473 E0.0159
G1 X75.013 Y103.476 E0.0165
G1 X74.730 Y103.444 E0.0209
G1 X74.696 Y103.434 E0.0214
G1 X73.863 Y103.013 E0.0359
G1 X72.613 Y102.678 E0.0559
G1 X72.604 Y102.676 E0.0560
G1 X71.981 Y102.442 E0.0663
G1 X71.972 Y102.438 E0.0665
G1 X71.389 Y102.150 E0.0765
G1 X71.380 Y102.145 E0.0767
G1 X70.837 Y101.804 E0.0866
G1 X70.826 Y101.796 E0.0868
G1 X70.097 Y101.191 E0.1015
G1 X70.086 Y101.180 E0.1017
G1 X69.700 Y100.738 E0.1108
G1 X69.690 Y100.725 E0.1110
G1 X69.401 Y100.264 E0.1194
G1 X69.393 Y100.248 E0.1197
G1 X69.201 Y99.767 E0.1277
G1 X69.195 Y99.749 E0.1280
G1 X69.099 Y99.250 E0.1359
G1 X69.098 Y99.232 E0.1362
G1 X69.093 Y98.743 E0.1437
G1 X69.094 Y98.727 E0.1440
G1 X69.157 Y98.295 E0.1507
G1 X69.162 Y98.275 E0.1510
G1 X69.371 Y97.703 E0.1605
G1 X69.383 Y97.679 E0.1609
G1 X69.733 Y97.186 E0.1702
G1 X69.747 Y97.170 E0.1706
G1 X70.071 Y96.879 E0.1773
G1 X70.084 Y96.869 E0.1775
G1 X70.424 Y96.650 E0.1838
G1 X70.438 Y96.642 E0.1840
G1 X70.827 Y96.472 E0.1906
G1 X70.841 Y96.467 E0.1908
G1 X71.269 Y96.354 E0.1977
G1 X71.283 Y96.351 E0.1979
G1 X71.749 Y96.295 E0.2052
G1 X71.762 Y96.294 E0.2054
G1 X72.358 Y96.296 E0.2146
G1 X72.364 Y96.296 E0.2147
G1 X73.986 Y96.398 E0.2398
G1 X74.823 Y96.384 E0.2528
G1 X74.855 Y96.389 E0.2533
G1 X75.058 Y96.454 E0.2566
G1 X75.085 Y96.467 E0.2570
G1 X75.214 Y96.559 E0.2595
G1 X75.235 Y96.578 E0.2599
G1 X75.416 Y96.805 E0.2644
G1 X75.433 Y96.836 E0.2650
G1 X75.479 Y96.974 E0.2672
G1 X75.483 Y97.018 E0.2679
G1 X75.452 Y97.258 E0.2716
G1 X75.417 Y97.323 E0.2728
G1 X75.225 Y97.489 E0.2767
G1 X75.195 Y97.507 E0.2772
G1 X74.939 Y97.603 E0.2815
G1 X75.249 Y99.831 E0.3162
G1 X75.454 Y102.115 E0.3517
G1 X75.671 Y102.745 E0.3620
G1 X76.602 Y102.248 F18000
G1 X76.658 Y102.314
G1 X76.745 Y102.376
G1 X76.889 Y102.435
G1 X77.079 Y102.456
G1 X77.684 Y102.412
G1 X78.077 Y102.412
G1 X78.832 Y102.469
G1 X79.574 Y102.594
G1 X79.668 Y102.617
G1 X81.178 Y102.569
G1 X81.180 Y102.581
G1 X81.581 Y102.556
G92 E0.0000
G1 X81.578 Y102.683 E0.0020 F1800
G1 X81.572 Y102.715 E0.0025
G1 X81.481 Y102.960 E0.0065
G1 X81.465 Y102.987 E0.0070
G1 X81.311 Y103.181 E0.0108
G1 X81.282 Y103.206 E0.0114
G1 X81.145 Y103.284 E0.0139
G1 X81.108 Y103.296 E0.0145
G1 X80.874 Y103.327 E0.0181
G1 X80.843 Y103.326 E0.0186
G1 X80.540 Y103.272 E0.0234
G1 X80.531 Y103.270 E0.0235
G1 X79.490 Y102.985 E0.0402
G1 X78.784 Y102.866 E0.0513
G1 X78.066 Y102.812 E0.0624
G1 X77.076 Y102.857 E0.0777
G1 X77.061 Y102.857 E0.0780
G1 X76.803 Y102.828 E0.0820
G1 X76.776 Y102.821 E0.0824
G1 X76.556 Y102.731 E0.0861
G1 X76.527 Y102.712 E0.0866
G1 X76.281 Y102.489 E0.0918
G1 X76.256 Y102.455 E0.0924
G1 X76.188 Y102.299 E0.0950
G1 X76.180 Y102.269 E0.0955
G1 X76.159 Y102.050 E0.0989
G1 X76.166 Y102.003 E0.0997
G1 X76.272 Y101.736 E0.1041
G1 X76.303 Y101.694 E0.1049
G1 X76.465 Y101.565 E0.1081
G1 X76.496 Y101.548 E0.1087
G1 X76.616 Y101.509 E0.1106
G1 X76.641 Y101.504 E0.1110
G1 X76.807 Y101.492 E0.1136
G1 X76.830 Y101.493 E0.1139
G1 X77.583 Y101.613 E0.1257
G1 X78.773 Y101.697 E0.1442
G1 X78.780 Y101.698 E0.1443
G1 X79.927 Y101.856 E0.1622
G1 X80.091 Y101.870 E0.1647
G1 X80.093 Y101.860 E0.1649
G1 X80.086 Y101.743 E0.1667
G1 X79.923 Y100.295 E0.1892
G1 X79.472 Y96.868 E0.2427
G1 X79.474 Y96.828 E0.2433
G1 X79.514 Y96.680 E0.2457
G1 X79.528 Y96.650 E0.2462
G1 X79.619 Y96.514 E0.2487
G1 X79.637 Y96.493 E0.2491
G1 X79.775 Y96.374 E0.2520
G1 X79.809 Y96.354 E0.2526
G1 X80.036 Y96.278 E0.2563
G1 X80.081 Y96.274 E0.2570
G1 X80.410 Y96.317 E0.2621
G1 X80.455 Y96.335 E0.2629
G1 X80.680 Y96.490 E0.2671
G1 X80.705 Y96.516 E0.2677
G1 X80.788 Y96.636 E0.2699
G1 X80.803 Y96.668 E0.2704
G1 X80.861 Y96.889 E0.2740
G1 X80.863 Y96.903 E0.2742
G1 X81.347 Y101.318 E0.3429
