; G-Code generated by Simplify3D(R) Version 4.1.2
; Nov 19, 2019 at 7:50:26 PM
; Settings Summary
;   processName,Process1
;   applyToModels,handle_mirrored,handle_fixed
;   profileName,HBot
;   profileVersion,2019-10-26 23:38:43
;   baseProfile,Default
;   printMaterial,PLA
;   printQuality,Medium
;   printExtruders,
;   extruderName,Extruder 1
;   extruderToolheadNumber,0
;   extruderDiameter,0.4
;   extruderAutoWidth,1
;   extruderWidth,0.48
;   extrusionMultiplier,0.94
;   extruderUseRetract,1
;   extruderRetractionDistance,3
;   extruderExtraRestartDistance,0
;   extruderRetractionZLift,0
;   extruderRetractionSpeed,3600
;   extruderUseCoasting,1
;   extruderCoastingDistance,0.2
;   extruderUseWipe,1
;   extruderWipeDistance,5
;   primaryExtruder,0
;   layerHeight,0.2
;   topSolidLayers,3
;   bottomSolidLayers,3
;   perimeterOutlines,3
;   printPerimetersInsideOut,1
;   startPointOption,2
;   startPointOriginX,0
;   startPointOriginY,0
;   sequentialIslands,0
;   spiralVaseMode,0
;   firstLayerHeightPercentage,100
;   firstLayerWidthPercentage,150
;   firstLayerUnderspeed,0.5
;   useRaft,0
;   raftExtruder,0
;   raftTopLayers,3
;   raftBaseLayers,2
;   raftOffset,3
;   raftSeparationDistance,0.18
;   raftTopInfill,100
;   aboveRaftSpeedMultiplier,0.3
;   useSkirt,1
;   skirtExtruder,0
;   skirtLayers,1
;   skirtOutlines,3
;   skirtOffset,4
;   usePrimePillar,0
;   primePillarExtruder,999
;   primePillarWidth,12
;   primePillarLocation,7
;   primePillarSpeedMultiplier,1
;   useOozeShield,0
;   oozeShieldExtruder,999
;   oozeShieldOffset,2
;   oozeShieldOutlines,1
;   oozeShieldSidewallShape,1
;   oozeShieldSidewallAngle,30
;   oozeShieldSpeedMultiplier,1
;   infillExtruder,0
;   internalInfillPattern,Rectilinear
;   externalInfillPattern,Rectilinear
;   infillPercentage,20
;   outlineOverlapPercentage,25
;   infillExtrusionWidthPercentage,150
;   minInfillLength,5
;   infillLayerInterval,1
;   internalInfillAngles,45,-45
;   overlapInternalInfillAngles,0
;   externalInfillAngles,45,-45
;   generateSupport,0
;   supportExtruder,0
;   supportInfillPercentage,30
;   supportExtraInflation,0
;   supportBaseLayers,1
;   denseSupportExtruder,0
;   denseSupportLayers,0
;   denseSupportInfillPercentage,70
;   supportLayerInterval,1
;   supportHorizontalPartOffset,0.3
;   supportUpperSeparationLayers,1
;   supportLowerSeparationLayers,1
;   supportType,0
;   supportGridSpacing,4
;   maxOverhangAngle,45
;   supportAngles,0
;   temperatureName,Extruder 1
;   temperatureNumber,0
;   temperatureSetpointCount,2
;   temperatureSetpointLayers,1,2
;   temperatureSetpointTemperatures,217,210
;   temperatureStabilizeAtStartup,1
;   temperatureHeatedBed,0
;   fanLayers,1,3,5
;   fanSpeeds,0,15,20
;   blipFanToFullPower,1
;   adjustSpeedForCooling,1
;   minSpeedLayerTime,15
;   minCoolingSpeedSlowdown,20
;   increaseFanForCooling,0
;   minFanLayerTime,45
;   maxCoolingFanSpeed,40
;   increaseFanForBridging,0
;   bridgingFanSpeed,80
;   use5D,1
;   relativeEdistances,0
;   allowEaxisZeroing,1
;   independentExtruderAxes,0
;   includeM10123,0
;   stickySupport,1
;   applyToolheadOffsets,0
;   gcodeXoffset,0
;   gcodeYoffset,0
;   gcodeZoffset,0
;   overrideMachineDefinition,1
;   machineTypeOverride,0
;   strokeXoverride,200
;   strokeYoverride,200
;   strokeZoverride,150
;   originOffsetXoverride,0
;   originOffsetYoverride,0
;   originOffsetZoverride,0
;   homeXdirOverride,-1
;   homeYdirOverride,-1
;   homeZdirOverride,-1
;   flipXoverride,1
;   flipYoverride,-1
;   flipZoverride,1
;   toolheadOffsets,0,0|0,0|0,0|0,0|0,0|0,0
;   overrideFirmwareConfiguration,1
;   firmwareTypeOverride,RepRap (Marlin/Repetier/Sprinter)
;   GPXconfigOverride,r2
;   baudRateOverride,115200
;   overridePrinterModels,0
;   printerModelsOverride
;   startingGcode,G28 ; home all axes,G32 ; run bed.g -- probe bed and enable compensation
;   layerChangeGcode,
;   retractionGcode,
;   toolChangeGcode,
;   endingGcode,M0 ; call stop.g
;   exportFileFormat,gcode
;   celebration,0
;   celebrationSong,Random Song
;   postProcessing,
;   defaultSpeed,3600
;   outlineUnderspeed,0.5
;   solidInfillUnderspeed,0.8
;   supportUnderspeed,0.8
;   rapidXYspeed,18000
;   rapidZspeed,1200
;   minBridgingArea,50
;   bridgingExtraInflation,0
;   bridgingExtrusionMultiplier,0.96
;   bridgingSpeedMultiplier,1
;   useFixedBridgingAngle,0
;   fixedBridgingAngle,0
;   applyBridgingToPerimeters,0
;   filamentDiameters,1.75|1.75|1.75|1.75|1.75|1.75
;   filamentPricesPerKg,46|46|46|46|46|46
;   filamentDensities,1.25|1.25|1.25|1.25|1.25|1.25
;   useMinPrintHeight,0
;   minPrintHeight,0
;   useMaxPrintHeight,0
;   maxPrintHeight,0
;   useDiaphragm,1
;   diaphragmLayerInterval,20
;   robustSlicing,1
;   mergeAllIntoSolid,0
;   onlyRetractWhenCrossingOutline,1
;   retractBetweenLayers,0
;   useRetractionMinTravel,1
;   retractionMinTravel,3
;   retractWhileWiping,1
;   onlyWipeOutlines,1
;   avoidCrossingOutline,1
;   maxMovementDetourFactor,3
;   toolChangeRetractionDistance,12
;   toolChangeExtraRestartDistance,-0.5
;   toolChangeRetractionSpeed,600
;   externalThinWallType,1
;   internalThinWallType,1
;   thinWallAllowedOverlapPercentage,10
;   singleExtrusionMinLength,1
;   singleExtrusionMinPrintingWidthPercentage,50
;   singleExtrusionMaxPrintingWidthPercentage,200
;   singleExtrusionEndpointExtension,0.2
;   horizontalSizeCompensation,-0.1
G90
M82
M106 S0
M104 S217 T0
M109 S217 T0
G28 ; home all axes
G32 ; run bed.g -- probe bed and enable compensation
; process Process1
; layer 1, Z = 0.200
T0
G92 E0.0000
G1 E-3.0000 F3600
; feature skirt
; tool H0.200 W0.720
G1 Z0.200 F1200
G1 X50.270 Y16.358 F18000
G1 E0.0000 F3600
G92 E0.0000
G1 X50.758 Y15.143 E0.0737 F1800
G1 X50.977 Y14.708 E0.1011
G1 X51.661 Y13.592 E0.1748
G1 X51.950 Y13.199 E0.2022
G1 X52.812 Y12.213 E0.2759
G1 X53.162 Y11.874 E0.3033
G1 X54.176 Y11.046 E0.3770
G1 X54.578 Y10.771 E0.4044
G1 X55.716 Y10.124 E0.4781
G1 X56.159 Y9.919 E0.5055
G1 X57.389 Y9.472 E0.5792
G1 X57.859 Y9.344 E0.6066
G1 X59.147 Y9.109 E0.6803
G1 X59.632 Y9.062 E0.7077
G1 X60.824 Y9.046 E0.7748
G1 X61.067 Y9.053 E0.7885
G1 X82.073 Y10.548 E1.9736
G1 X82.305 Y10.574 E1.9867
G1 X83.433 Y10.746 E2.0510
G1 X83.887 Y10.853 E2.0773
G1 X85.081 Y11.239 E2.1478
G1 X85.512 Y11.417 E2.1741
G1 X86.629 Y11.989 E2.2447
G1 X87.026 Y12.234 E2.2710
G1 X88.036 Y12.977 E2.3415
G1 X88.389 Y13.283 E2.3678
G1 X89.267 Y14.179 E2.4384
G1 X89.566 Y14.537 E2.4647
G1 X90.290 Y15.562 E2.5353
G1 X90.528 Y15.963 E2.5615
G1 X91.028 Y16.989 E2.6258
G1 X91.122 Y17.203 E2.6389
G1 X110.632 Y66.975 E5.6474
G1 X174.239 Y94.767 E9.5537
G1 X174.455 Y94.872 E9.5672
G1 X175.488 Y95.429 E9.6333
G1 X175.891 Y95.692 E9.6603
G1 X176.910 Y96.483 E9.7330
G1 X177.264 Y96.808 E9.7600
G1 X178.139 Y97.757 E9.8326
G1 X178.434 Y98.136 E9.8597
G1 X179.141 Y99.216 E9.9323
G1 X179.370 Y99.638 E9.9593
G1 X179.889 Y100.820 E10.0320
G1 X180.045 Y101.274 E10.0590
G1 X180.362 Y102.525 E10.1316
G1 X180.441 Y102.999 E10.1587
G1 X180.539 Y104.169 E10.2248
G1 X180.548 Y104.409 E10.2383
G1 X180.548 Y124.376 E11.3619
G1 X180.537 Y124.629 E11.3762
G1 X180.429 Y125.862 E11.4458
G1 X180.342 Y126.361 E11.4743
G1 X179.989 Y127.675 E11.5509
G1 X179.816 Y128.151 E11.5794
G1 X179.241 Y129.384 E11.6560
G1 X178.988 Y129.822 E11.6845
G1 X178.208 Y130.937 E11.7610
G1 X177.882 Y131.325 E11.7895
G1 X176.920 Y132.287 E11.8661
G1 X176.532 Y132.612 E11.8946
G1 X175.418 Y133.393 E11.9712
G1 X174.979 Y133.646 E11.9997
G1 X173.746 Y134.221 E12.0762
G1 X173.270 Y134.394 E12.1047
G1 X171.956 Y134.746 E12.1813
G1 X171.457 Y134.834 E12.2098
G1 X170.223 Y134.942 E12.2795
G1 X169.971 Y134.953 E12.2937
G1 X142.668 Y134.953 E13.8302
G1 X146.516 Y136.199 E14.0578
G1 X146.735 Y136.280 E14.0710
G1 X147.789 Y136.717 E14.1352
G1 X148.205 Y136.930 E14.1615
G1 X149.271 Y137.591 E14.2321
G1 X149.647 Y137.868 E14.2583
G1 X150.594 Y138.690 E14.3289
G1 X150.921 Y139.024 E14.3552
G1 X151.723 Y139.987 E14.4258
G1 X151.993 Y140.369 E14.4521
G1 X152.631 Y141.449 E14.5226
G1 X152.835 Y141.868 E14.5489
G1 X153.292 Y143.036 E14.6195
G1 X153.427 Y143.483 E14.6458
G1 X153.667 Y144.599 E14.7100
G1 X153.707 Y144.829 E14.7231
G1 X156.469 Y165.706 E15.9082
G1 X156.491 Y165.948 E15.9219
G1 X156.547 Y167.138 E15.9890
G1 X156.530 Y167.626 E16.0164
G1 X156.372 Y168.925 E16.0901
G1 X156.273 Y169.403 E16.1175
G1 X155.901 Y170.658 E16.1912
G1 X155.724 Y171.112 E16.2186
G1 X155.147 Y172.287 E16.2923
G1 X154.896 Y172.705 E16.3197
G1 X154.131 Y173.767 E16.3934
G1 X153.814 Y174.137 E16.4208
G1 X152.882 Y175.057 E16.4945
G1 X152.508 Y175.369 E16.5219
G1 X151.435 Y176.120 E16.5956
G1 X151.014 Y176.365 E16.6230
G1 X149.831 Y176.926 E16.6967
G1 X149.374 Y177.097 E16.7242
G1 X148.114 Y177.452 E16.7978
G1 X147.636 Y177.544 E16.8253
G1 X146.334 Y177.684 E16.8989
G1 X145.846 Y177.695 E16.9264
G1 X144.540 Y177.615 E17.0001
G1 X144.058 Y177.545 E17.0275
G1 X142.897 Y177.274 E17.0945
G1 X142.662 Y177.209 E17.1082
G1 X43.003 Y144.949 E23.0032
G1 X42.789 Y144.870 E23.0160
G1 X41.755 Y144.443 E23.0790
G1 X41.348 Y144.236 E23.1047
G1 X40.300 Y143.594 E23.1738
G1 X39.930 Y143.325 E23.1996
G1 X38.996 Y142.527 E23.2687
G1 X38.673 Y142.204 E23.2944
G1 X37.876 Y141.269 E23.3636
G1 X37.608 Y140.899 E23.3893
G1 X36.967 Y139.851 E23.4584
G1 X36.760 Y139.443 E23.4842
G1 X36.334 Y138.409 E23.5471
G1 X36.255 Y138.195 E23.5599
G1 X27.307 Y110.477 E25.1991
G1 X27.257 Y110.302 E25.2093
G1 X27.036 Y109.436 E25.2596
G1 X26.969 Y109.077 E25.2802
G1 X26.859 Y108.191 E25.3304
G1 X26.842 Y108.009 E25.3407
G1 X24.213 Y64.616 E27.7872
G1 X24.208 Y64.363 E27.8014
G1 X24.241 Y63.126 E27.8711
G1 X24.299 Y62.622 E27.8996
G1 X24.571 Y61.289 E27.9761
G1 X24.715 Y60.804 E28.0046
G1 X25.215 Y59.538 E28.0812
G1 X25.441 Y59.085 E28.1097
G1 X26.152 Y57.925 E28.1863
G1 X26.454 Y57.518 E28.2148
G1 X27.356 Y56.500 E28.2913
G1 X27.723 Y56.151 E28.3198
G1 X28.789 Y55.305 E28.3964
G1 X29.211 Y55.026 E28.4249
G1 X30.407 Y54.377 E28.5015
G1 X30.872 Y54.176 E28.5300
G1 X32.162 Y53.745 E28.6065
G1 X32.655 Y53.627 E28.6350
G1 X33.880 Y53.444 E28.7047
G1 X34.131 Y53.418 E28.7190
G1 X54.061 Y52.211 E29.8426
G1 X54.301 Y52.206 E29.8561
G1 X55.476 Y52.232 E29.9222
G1 X55.953 Y52.282 E29.9493
G1 X57.221 Y52.523 E30.0219
G1 X57.684 Y52.652 E30.0489
G1 X58.895 Y53.098 E30.1215
G1 X59.330 Y53.301 E30.1486
G1 X60.451 Y53.941 E30.2212
G1 X60.847 Y54.213 E30.2482
G1 X61.847 Y55.029 E30.3209
G1 X62.193 Y55.363 E30.3479
G1 X63.044 Y56.333 E30.4205
G1 X63.330 Y56.718 E30.4476
G1 X63.600 Y57.152 E30.4763
G1 X50.420 Y23.530 E32.5086
G1 X50.341 Y23.300 E32.5223
G1 X50.001 Y22.158 E32.5894
G1 X49.901 Y21.681 E32.6168
G1 X49.742 Y20.381 E32.6905
G1 X49.724 Y19.894 E32.7179
G1 X49.785 Y18.586 E32.7916
G1 X49.848 Y18.103 E32.8190
G1 X50.126 Y16.824 E32.8927
G1 X50.270 Y16.358 E32.9201
G1 X50.949 Y16.598 F18000
G92 E0.0000
G1 X51.415 Y15.440 E0.0703 F1800
G1 X51.607 Y15.058 E0.0943
G1 X52.259 Y13.994 E0.1646
G1 X52.512 Y13.650 E0.1886
G1 X53.334 Y12.710 E0.2589
G1 X53.641 Y12.413 E0.2829
G1 X54.608 Y11.623 E0.3532
G1 X54.960 Y11.382 E0.3772
G1 X56.046 Y10.765 E0.4475
G1 X56.433 Y10.586 E0.4715
G1 X57.607 Y10.159 E0.5418
G1 X58.019 Y10.047 E0.5658
G1 X59.247 Y9.822 E0.6361
G1 X59.672 Y9.781 E0.6601
G1 X60.818 Y9.766 E0.7246
G1 X61.031 Y9.772 E0.7366
G1 X82.007 Y11.265 E1.9200
G1 X82.210 Y11.287 E1.9315
G1 X83.296 Y11.453 E1.9933
G1 X83.694 Y11.547 E2.0163
G1 X84.832 Y11.915 E2.0836
G1 X85.210 Y12.071 E2.1067
G1 X86.275 Y12.617 E2.1740
G1 X86.622 Y12.832 E2.1970
G1 X87.586 Y13.540 E2.2643
G1 X87.895 Y13.808 E2.2873
G1 X88.733 Y14.662 E2.3546
G1 X88.995 Y14.976 E2.3777
G1 X89.685 Y15.953 E2.4450
G1 X89.893 Y16.305 E2.4680
G1 X90.375 Y17.292 E2.5298
G1 X90.457 Y17.479 E2.5413
G1 X109.996 Y67.326 E5.5543
G1 X110.083 Y67.505 E5.5655
G1 X110.257 Y67.597 E5.5766
G1 X173.937 Y95.420 E9.4873
G1 X174.126 Y95.513 E9.4992
G1 X175.120 Y96.049 E9.5628
G1 X175.473 Y96.279 E9.5864
G1 X176.445 Y97.034 E9.6557
G1 X176.755 Y97.318 E9.6794
G1 X177.589 Y98.223 E9.7487
G1 X177.848 Y98.555 E9.7723
G1 X178.522 Y99.585 E9.8416
G1 X178.723 Y99.955 E9.8653
G1 X179.218 Y101.082 E9.9346
G1 X179.354 Y101.480 E9.9582
G1 X179.657 Y102.673 E10.0275
G1 X179.726 Y103.088 E10.0512
G1 X179.820 Y104.214 E10.1148
G1 X179.828 Y104.424 E10.1266
G1 X179.828 Y124.360 E11.2485
G1 X179.819 Y124.581 E11.2610
G1 X179.715 Y125.768 E11.3280
G1 X179.638 Y126.205 E11.3530
G1 X179.302 Y127.458 E11.4260
G1 X179.150 Y127.875 E11.4510
G1 X178.602 Y129.051 E11.5240
G1 X178.380 Y129.435 E11.5490
G1 X177.636 Y130.498 E11.6220
G1 X177.351 Y130.838 E11.6470
G1 X176.433 Y131.756 E11.7200
G1 X176.093 Y132.041 E11.7449
G1 X175.030 Y132.785 E11.8180
G1 X174.646 Y133.007 E11.8429
G1 X173.470 Y133.555 E11.9160
G1 X173.053 Y133.707 E11.9409
G1 X171.800 Y134.043 E12.0140
G1 X171.363 Y134.120 E12.0389
G1 X170.176 Y134.224 E12.1060
G1 X169.955 Y134.233 E12.1184
G1 X138.106 Y134.233 E13.9108
G1 X146.281 Y136.880 E14.3943
G1 X146.472 Y136.950 E14.4058
G1 X147.487 Y137.371 E14.4676
G1 X147.850 Y137.558 E14.4906
G1 X148.868 Y138.188 E14.5579
G1 X149.197 Y138.430 E14.5810
G1 X150.100 Y139.215 E14.6483
G1 X150.386 Y139.507 E14.6713
G1 X151.152 Y140.426 E14.7386
G1 X151.387 Y140.760 E14.7616
G1 X151.996 Y141.790 E14.8290
G1 X152.175 Y142.157 E14.8520
G1 X152.611 Y143.272 E14.9193
G1 X152.729 Y143.663 E14.9423
G1 X152.960 Y144.736 E15.0041
G1 X152.995 Y144.938 E15.0156
G1 X155.753 Y165.785 E16.1990
G1 X155.772 Y165.998 E16.2110
G1 X155.827 Y167.143 E16.2755
G1 X155.811 Y167.569 E16.2995
G1 X155.661 Y168.809 E16.3698
G1 X155.574 Y169.227 E16.3938
G1 X155.219 Y170.424 E16.4641
G1 X155.064 Y170.822 E16.4881
G1 X154.514 Y171.943 E16.5584
G1 X154.294 Y172.309 E16.5824
G1 X153.565 Y173.322 E16.6527
G1 X153.287 Y173.646 E16.6767
G1 X152.398 Y174.523 E16.7470
G1 X152.070 Y174.796 E16.7710
G1 X151.047 Y175.512 E16.8413
G1 X150.678 Y175.727 E16.8653
G1 X149.549 Y176.262 E16.9356
G1 X149.150 Y176.412 E16.9596
G1 X147.948 Y176.751 E17.0299
G1 X147.529 Y176.832 E17.0539
G1 X146.287 Y176.965 E17.1242
G1 X145.860 Y176.975 E17.1482
G1 X144.614 Y176.898 E17.2185
G1 X144.192 Y176.837 E17.2425
G1 X143.075 Y176.576 E17.3070
G1 X142.870 Y176.519 E17.3190
G1 X43.239 Y144.268 E23.2123
G1 X43.051 Y144.199 E23.2236
G1 X42.057 Y143.788 E23.2841
G1 X41.700 Y143.607 E23.3066
G1 X40.701 Y142.995 E23.3726
G1 X40.377 Y142.760 E23.3951
G1 X39.486 Y141.998 E23.4611
G1 X39.202 Y141.715 E23.4836
G1 X38.442 Y140.824 E23.5495
G1 X38.207 Y140.499 E23.5721
G1 X37.596 Y139.500 E23.6380
G1 X37.415 Y139.143 E23.6606
G1 X37.005 Y138.148 E23.7211
G1 X36.936 Y137.960 E23.7324
G1 X27.996 Y110.267 E25.3700
G1 X27.952 Y110.113 E25.3790
G1 X27.740 Y109.280 E25.4274
G1 X27.680 Y108.966 E25.4454
G1 X27.575 Y108.113 E25.4937
G1 X27.560 Y107.954 E25.5027
G1 X24.932 Y64.588 E27.9477
G1 X24.929 Y64.367 E27.9601
G1 X24.960 Y63.176 E28.0272
G1 X25.011 Y62.735 E28.0521
G1 X25.270 Y61.464 E28.1252
G1 X25.396 Y61.039 E28.1501
G1 X25.873 Y59.832 E28.2232
G1 X26.071 Y59.435 E28.2481
G1 X26.750 Y58.329 E28.3211
G1 X27.014 Y57.972 E28.3461
G1 X27.874 Y57.001 E28.4191
G1 X28.196 Y56.696 E28.4441
G1 X29.212 Y55.888 E28.5171
G1 X29.582 Y55.644 E28.5421
G1 X30.723 Y55.025 E28.6151
G1 X31.130 Y54.849 E28.6401
G1 X32.361 Y54.438 E28.7131
G1 X32.792 Y54.334 E28.7381
G1 X33.970 Y54.159 E28.8051
G1 X34.191 Y54.136 E28.8176
G1 X54.090 Y52.930 E29.9395
G1 X54.300 Y52.926 E29.9513
G1 X55.430 Y52.951 E30.0149
G1 X55.848 Y52.995 E30.0386
G1 X57.057 Y53.225 E30.1079
G1 X57.463 Y53.338 E30.1315
G1 X58.618 Y53.764 E30.2008
G1 X58.999 Y53.941 E30.2245
G1 X60.068 Y54.552 E30.2938
G1 X60.415 Y54.790 E30.3174
G1 X61.369 Y55.568 E30.3867
G1 X61.671 Y55.860 E30.4104
G1 X62.484 Y56.785 E30.4797
G1 X62.734 Y57.123 E30.5033
G1 X63.330 Y58.083 E30.5669
G1 X63.433 Y58.266 E30.5788
G1 X69.342 Y69.828 E31.3094
G1 X51.096 Y23.281 E34.1229
G1 X51.027 Y23.080 E34.1349
G1 X50.699 Y21.981 E34.1994
G1 X50.612 Y21.563 E34.2234
G1 X50.461 Y20.324 E34.2937
G1 X50.445 Y19.897 E34.3177
G1 X50.502 Y18.650 E34.3880
G1 X50.558 Y18.227 E34.4120
G1 X50.823 Y17.006 E34.4823
G1 X50.949 Y16.598 E34.5063
