; G-Code generated by Simplify3D(R) Version 4.1.2
; Nov 19, 2019 at 7:48:40 PM
; Settings Summary
;   processName,Process1
;   applyToModels,barrel_fixed,handle_filler_fixed,trigger,wheel_fixed
;   profileName,HBot
;   profileVersion,2019-10-26 23:38:43
;   baseProfile,Default
;   printMaterial,PLA
;   printQuality,Fast
;   printExtruders,
;   extruderName,Extruder 1
;   extruderToolheadNumber,0
;   extruderDiameter,0.4
;   extruderAutoWidth,1
;   extruderWidth,0.48
;   extrusionMultiplier,0.94
;   extruderUseRetract,1
;   extruderRetractionDistance,3
;   extruderExtraRestartDistance,0
;   extruderRetractionZLift,0
;   extruderRetractionSpeed,3600
;   extruderUseCoasting,1
;   extruderCoastingDistance,0.2
;   extruderUseWipe,1
;   extruderWipeDistance,5
;   primaryExtruder,0
;   layerHeight,0.3
;   topSolidLayers,3
;   bottomSolidLayers,3
;   perimeterOutlines,3
;   printPerimetersInsideOut,1
;   startPointOption,2
;   startPointOriginX,0
;   startPointOriginY,0
;   sequentialIslands,0
;   spiralVaseMode,0
;   firstLayerHeightPercentage,100
;   firstLayerWidthPercentage,150
;   firstLayerUnderspeed,0.5
;   useRaft,0
;   raftExtruder,0
;   raftTopLayers,3
;   raftBaseLayers,2
;   raftOffset,3
;   raftSeparationDistance,0.18
;   raftTopInfill,100
;   aboveRaftSpeedMultiplier,0.3
;   useSkirt,1
;   skirtExtruder,0
;   skirtLayers,1
;   skirtOutlines,3
;   skirtOffset,4
;   usePrimePillar,0
;   primePillarExtruder,999
;   primePillarWidth,12
;   primePillarLocation,7
;   primePillarSpeedMultiplier,1
;   useOozeShield,0
;   oozeShieldExtruder,999
;   oozeShieldOffset,2
;   oozeShieldOutlines,1
;   oozeShieldSidewallShape,1
;   oozeShieldSidewallAngle,30
;   oozeShieldSpeedMultiplier,1
;   infillExtruder,0
;   internalInfillPattern,Rectilinear
;   externalInfillPattern,Rectilinear
;   infillPercentage,15
;   outlineOverlapPercentage,25
;   infillExtrusionWidthPercentage,150
;   minInfillLength,5
;   infillLayerInterval,1
;   internalInfillAngles,45,-45
;   overlapInternalInfillAngles,0
;   externalInfillAngles,45,-45
;   generateSupport,0
;   supportExtruder,0
;   supportInfillPercentage,25
;   supportExtraInflation,0
;   supportBaseLayers,1
;   denseSupportExtruder,0
;   denseSupportLayers,0
;   denseSupportInfillPercentage,70
;   supportLayerInterval,1
;   supportHorizontalPartOffset,0.3
;   supportUpperSeparationLayers,1
;   supportLowerSeparationLayers,1
;   supportType,0
;   supportGridSpacing,4
;   maxOverhangAngle,45
;   supportAngles,0
;   temperatureName,Extruder 1
;   temperatureNumber,0
;   temperatureSetpointCount,2
;   temperatureSetpointLayers,1,2
;   temperatureSetpointTemperatures,217,210
;   temperatureStabilizeAtStartup,1
;   temperatureHeatedBed,0
;   fanLayers,1,3,5
;   fanSpeeds,0,15,20
;   blipFanToFullPower,1
;   adjustSpeedForCooling,1
;   minSpeedLayerTime,15
;   minCoolingSpeedSlowdown,20
;   increaseFanForCooling,0
;   minFanLayerTime,45
;   maxCoolingFanSpeed,40
;   increaseFanForBridging,0
;   bridgingFanSpeed,80
;   use5D,1
;   relativeEdistances,0
;   allowEaxisZeroing,1
;   independentExtruderAxes,0
;   includeM10123,0
;   stickySupport,1
;   applyToolheadOffsets,0
;   gcodeXoffset,0
;   gcodeYoffset,0
;   gcodeZoffset,0
;   overrideMachineDefinition,1
;   machineTypeOverride,0
;   strokeXoverride,200
;   strokeYoverride,200
;   strokeZoverride,150
;   originOffsetXoverride,0
;   originOffsetYoverride,0
;   originOffsetZoverride,0
;   homeXdirOverride,-1
;   homeYdirOverride,-1
;   homeZdirOverride,-1
;   flipXoverride,1
;   flipYoverride,-1
;   flipZoverride,1
;   toolheadOffsets,0,0|0,0|0,0|0,0|0,0|0,0
;   overrideFirmwareConfiguration,1
;   firmwareTypeOverride,RepRap (Marlin/Repetier/Sprinter)
;   GPXconfigOverride,r2
;   baudRateOverride,115200
;   overridePrinterModels,0
;   printerModelsOverride
;   startingGcode,G28 ; home all axes,G32 ; run bed.g -- probe bed and enable compensation
;   layerChangeGcode,
;   retractionGcode,
;   toolChangeGcode,
;   endingGcode,M0 ; call stop.g
;   exportFileFormat,gcode
;   celebration,0
;   celebrationSong,Random Song
;   postProcessing,
;   defaultSpeed,3600
;   outlineUnderspeed,0.5
;   solidInfillUnderspeed,0.8
;   supportUnderspeed,0.8
;   rapidXYspeed,18000
;   rapidZspeed,1200
;   minBridgingArea,50
;   bridgingExtraInflation,0
;   bridgingExtrusionMultiplier,0.96
;   bridgingSpeedMultiplier,1
;   useFixedBridgingAngle,0
;   fixedBridgingAngle,0
;   applyBridgingToPerimeters,0
;   filamentDiameters,1.75|1.75|1.75|1.75|1.75|1.75
;   filamentPricesPerKg,46|46|46|46|46|46
;   filamentDensities,1.25|1.25|1.25|1.25|1.25|1.25
;   useMinPrintHeight,0
;   minPrintHeight,0
;   useMaxPrintHeight,0
;   maxPrintHeight,0
;   useDiaphragm,1
;   diaphragmLayerInterval,20
;   robustSlicing,1
;   mergeAllIntoSolid,0
;   onlyRetractWhenCrossingOutline,1
;   retractBetweenLayers,0
;   useRetractionMinTravel,1
;   retractionMinTravel,3
;   retractWhileWiping,1
;   onlyWipeOutlines,1
;   avoidCrossingOutline,1
;   maxMovementDetourFactor,3
;   toolChangeRetractionDistance,12
;   toolChangeExtraRestartDistance,-0.5
;   toolChangeRetractionSpeed,600
;   externalThinWallType,1
;   internalThinWallType,1
;   thinWallAllowedOverlapPercentage,10
;   singleExtrusionMinLength,1
;   singleExtrusionMinPrintingWidthPercentage,50
;   singleExtrusionMaxPrintingWidthPercentage,200
;   singleExtrusionEndpointExtension,0.2
;   horizontalSizeCompensation,-0.1
G90
M82
M106 S0
M104 S217 T0
M109 S217 T0
G28 ; home all axes
G32 ; run bed.g -- probe bed and enable compensation
; process Process1
; layer 1, Z = 0.300
T0
G92 E0.0000
G1 E-3.0000 F3600
; feature skirt
; tool H0.300 W0.720
G1 Z0.300 F1200
G1 X24.844 Y42.085 F18000
G1 E0.0000 F3600
G92 E0.0000
G1 X25.863 Y41.673 E0.0928 F1800
G1 X26.315 Y41.532 E0.1327
G1 X27.078 Y41.360 E0.1988
G1 X27.547 Y41.294 E0.2387
G1 X28.328 Y41.248 E0.3048
G1 X28.801 Y41.259 E0.3447
G1 X29.579 Y41.341 E0.4108
G1 X30.044 Y41.429 E0.4507
G1 X30.798 Y41.636 E0.5167
G1 X31.243 Y41.798 E0.5567
G1 X31.954 Y42.125 E0.6227
G1 X32.366 Y42.357 E0.6627
G1 X33.015 Y42.795 E0.7287
G1 X33.384 Y43.091 E0.7687
G1 X33.870 Y43.550 E0.8251
G1 X34.035 Y43.719 E0.8450
G1 X44.736 Y55.622 E2.1962
G1 X46.199 Y55.717 E2.3199
G1 X46.339 Y55.730 E2.3319
G1 X49.256 Y56.062 E2.5797
G1 X49.404 Y56.083 E2.5923
G1 X52.381 Y56.578 E2.8470
G1 X52.523 Y56.605 E2.8592
G1 X55.527 Y57.260 E3.1188
G1 X55.665 Y57.294 E3.1308
G1 X58.664 Y58.104 E3.3930
G1 X58.800 Y58.144 E3.4050
G1 X61.750 Y59.097 E3.6666
G1 X61.886 Y59.145 E3.6788
G1 X64.724 Y60.220 E3.9350
G1 X64.865 Y60.278 E3.9479
G1 X67.512 Y61.444 E4.1921
G1 X67.666 Y61.517 E4.2064
G1 X70.028 Y62.727 E4.4305
G1 X70.209 Y62.828 E4.4480
G1 X72.188 Y64.027 E4.6433
G1 X72.418 Y64.182 E4.6667
G1 X73.873 Y65.266 E4.8199
G1 X74.151 Y65.502 E4.8506
G1 X74.985 Y66.305 E4.9484
G1 X75.254 Y66.602 E4.9822
G1 X75.728 Y67.205 E5.0469
G1 X75.962 Y67.551 E5.0822
G1 X76.133 Y67.848 E5.1111
G1 X76.133 Y65.972 E5.2695
G1 X76.157 Y65.600 E5.3009
G1 X76.303 Y64.467 E5.3974
G1 X73.832 Y63.041 E5.6382
G1 X72.818 Y62.066 E5.7570
G1 X71.541 Y60.051 E5.9583
G1 X71.471 Y56.824 E6.2308
G1 X73.665 Y53.001 E6.6029
G1 X74.786 Y51.893 E6.7359
G1 X76.866 Y50.730 E6.9371
G1 X79.928 Y50.750 E7.1955
G1 X83.149 Y52.605 E7.5093
G1 X84.061 Y51.909 E7.6062
G1 X84.371 Y51.703 E7.6376
G1 X86.069 Y50.722 E7.8031
G1 X86.403 Y50.557 E7.8346
G1 X87.463 Y50.115 E7.9316
G1 X87.468 Y46.331 E8.2510
G1 X89.090 Y43.599 E8.5191
G1 X91.173 Y42.461 E8.7195
G1 X92.604 Y42.100 E8.8441
G1 X97.754 Y42.130 E9.2788
G1 X101.125 Y45.509 E9.6817
G1 X101.142 Y50.111 E10.0702
G1 X102.212 Y50.557 E10.1681
G1 X102.545 Y50.722 E10.1995
G1 X104.244 Y51.703 E10.3651
G1 X104.553 Y51.909 E10.3965
G1 X105.462 Y52.602 E10.4929
G1 X107.719 Y51.299 E10.7129
G1 X108.571 Y50.972 E10.7900
G1 X110.306 Y50.604 E10.9397
G1 X112.780 Y51.160 E11.1538
G1 X114.286 Y52.308 E11.3136
G1 X115.046 Y53.173 E11.4108
G1 X116.724 Y56.079 E11.6941
G1 X117.119 Y57.646 E11.8305
G1 X117.047 Y60.028 E12.0316
G1 X115.504 Y62.614 E12.2859
G1 X112.311 Y64.462 E12.5973
G1 X112.458 Y65.600 E12.6942
G1 X112.482 Y65.972 E12.7256
G1 X112.482 Y67.933 E12.8911
G1 X112.458 Y68.304 E12.9225
G1 X112.309 Y69.454 E13.0204
G1 X116.287 Y71.769 E13.4089
G1 X117.527 Y76.378 E13.8118
G1 X114.613 Y81.495 E14.3089
G1 X112.121 Y83.048 E14.5568
G1 X109.726 Y83.195 E14.7593
G1 X108.063 Y82.804 E14.9035
G1 X105.462 Y81.302 E15.1571
G1 X104.553 Y81.995 E15.2535
G1 X104.244 Y82.201 E15.2849
G1 X102.545 Y83.182 E15.4505
G1 X102.212 Y83.347 E15.4819
G1 X101.155 Y83.788 E15.5785
G1 X101.154 Y87.425 E15.8855
G1 X99.772 Y89.995 E16.1318
G1 X97.785 Y91.310 E16.3330
G1 X96.149 Y91.802 E16.4772
G1 X92.515 Y91.802 E16.7839
G1 X90.961 Y91.360 E16.9203
G1 X88.934 Y90.108 E17.1215
G1 X87.466 Y87.478 E17.3757
G1 X87.462 Y83.789 E17.6871
G1 X86.403 Y83.347 E17.7840
G1 X86.069 Y83.182 E17.8154
G1 X84.371 Y82.201 E17.9810
G1 X84.061 Y81.995 E18.0124
G1 X83.153 Y81.302 E18.1088
G1 X80.896 Y82.605 E18.3288
G1 X80.044 Y82.932 E18.4059
G1 X78.310 Y83.300 E18.5556
G1 X75.836 Y82.745 E18.7696
G1 X75.658 Y82.609 E18.7885
G1 X75.153 Y83.436 E18.8703
G1 X68.000 Y87.671 E19.5719
G1 X66.588 Y88.080 E19.6960
G1 X65.337 Y88.118 E19.8017
G1 X64.851 Y88.092 E19.8428
G1 X64.081 Y87.986 E19.9084
G1 X63.607 Y87.880 E19.9494
G1 X62.866 Y87.646 E20.0150
G1 X62.416 Y87.463 E20.0560
G1 X61.724 Y87.109 E20.1216
G1 X61.311 Y86.852 E20.1627
G1 X60.687 Y86.388 E20.2283
G1 X60.323 Y86.067 E20.2693
G1 X59.785 Y85.506 E20.3349
G1 X59.480 Y85.128 E20.3759
G1 X59.043 Y84.485 E20.4416
G1 X58.805 Y84.061 E20.4826
G1 X58.482 Y83.354 E20.5482
G1 X58.317 Y82.897 E20.5892
G1 X58.116 Y82.146 E20.6549
G1 X58.031 Y81.668 E20.6959
G1 X57.968 Y80.999 E20.7526
G1 X57.955 Y80.732 E20.7752
G1 X57.950 Y77.750 E21.0268
G1 X44.405 Y77.743 E22.1702
G1 X46.480 Y86.351 E22.9177
G1 X46.527 Y86.586 E22.9379
G1 X46.624 Y87.217 E22.9918
G1 X46.645 Y87.944 E23.0532
G1 X46.535 Y89.087 E23.1501
G1 X46.448 Y89.409 E23.1783
G1 X46.563 Y89.368 E23.1886
G1 X46.846 Y89.282 E23.2135
G1 X49.382 Y88.656 E23.4341
G1 X49.672 Y88.600 E23.4590
G1 X52.259 Y88.235 E23.6795
G1 X52.553 Y88.209 E23.7044
G1 X55.248 Y88.105 E23.9321
G1 X55.717 Y88.125 E23.9718
G1 X61.130 Y88.797 E24.4322
G1 X61.590 Y88.893 E24.4718
G1 X64.178 Y89.652 E24.6995
G1 X64.456 Y89.750 E24.7244
G1 X66.875 Y90.736 E24.9449
G1 X67.142 Y90.862 E24.9699
G1 X69.449 Y92.089 E25.1904
G1 X69.702 Y92.241 E25.2153
G1 X71.872 Y93.696 E25.4358
G1 X72.108 Y93.872 E25.4608
G1 X74.119 Y95.540 E25.6813
G1 X74.336 Y95.740 E25.7062
G1 X76.167 Y97.604 E25.9267
G1 X76.363 Y97.824 E25.9517
G1 X77.995 Y99.864 E26.1722
G1 X78.168 Y100.104 E26.1971
G1 X79.584 Y102.299 E26.4176
G1 X79.731 Y102.555 E26.4425
G1 X80.918 Y104.883 E26.6631
G1 X81.038 Y105.152 E26.6880
G1 X81.982 Y107.588 E26.9086
G1 X82.074 Y107.869 E26.9335
G1 X82.517 Y109.481 E27.0746
G1 X83.502 Y109.963 E27.1672
G1 X83.928 Y110.218 E27.2091
G1 X85.216 Y111.150 E27.3433
G1 X85.592 Y111.474 E27.3852
G1 X86.703 Y112.610 E27.5194
G1 X87.018 Y112.994 E27.5613
G1 X87.919 Y114.303 E27.6954
G1 X88.165 Y114.734 E27.7373
G1 X88.830 Y116.178 E27.8715
G1 X88.998 Y116.645 E27.9134
G1 X89.408 Y118.181 E28.0476
G1 X89.495 Y118.669 E28.0895
G1 X89.637 Y120.252 E28.2237
G1 X89.639 Y120.749 E28.2655
G1 X89.510 Y122.333 E28.3997
G1 X89.428 Y122.822 E28.4416
G1 X89.031 Y124.362 E28.5758
G1 X88.866 Y124.830 E28.6177
G1 X88.213 Y126.279 E28.7519
G1 X87.972 Y126.713 E28.7938
G1 X87.081 Y128.029 E28.9280
G1 X86.769 Y128.415 E28.9698
G1 X85.668 Y129.561 E29.1040
G1 X85.295 Y129.889 E29.1459
G1 X84.015 Y130.831 E29.2801
G1 X83.591 Y131.090 E29.3220
G1 X83.066 Y131.352 E29.3715
G1 X156.642 Y131.348 E35.5824
G1 X156.642 Y129.871 E35.7070
G1 X160.039 Y126.474 E36.1126
G1 X168.644 Y126.474 E36.8390
G1 X172.042 Y129.871 E37.2446
G1 X172.042 Y133.222 E37.5275
G1 X172.242 Y133.323 E37.5464
G1 X172.641 Y133.564 E37.5857
G1 X174.387 Y134.823 E37.7675
G1 X174.742 Y135.125 E37.8068
G1 X176.264 Y136.648 E37.9885
G1 X176.566 Y137.003 E38.0279
G1 X177.825 Y138.749 E38.2096
G1 X178.067 Y139.148 E38.2490
G1 X179.031 Y141.073 E38.4307
G1 X179.205 Y141.505 E38.4700
G1 X179.908 Y143.751 E38.6687
G1 X180.042 Y144.622 E38.7431
G1 X180.042 Y155.350 E39.6487
G1 X176.644 Y158.748 E40.0543
G1 X25.696 Y158.748 E52.7965
G1 X23.400 Y157.700 E53.0095
G1 X21.862 Y155.925 E53.2078
G1 X21.703 Y155.724 E53.2294
G1 X20.078 Y153.476 E53.4636
G1 X19.894 Y150.070 E53.7515
G1 X21.419 Y147.392 E54.0117
G1 X21.744 Y146.496 E54.0921
G1 X21.911 Y145.558 E54.1726
G1 X21.917 Y144.604 E54.2531
G1 X21.761 Y143.664 E54.3335
G1 X21.447 Y142.764 E54.4140
G1 X19.950 Y140.063 E54.6747
G1 X20.182 Y136.648 E54.9636
G1 X21.906 Y134.341 E55.2067
G1 X22.082 Y134.127 E55.2301
G1 X23.700 Y132.347 E55.4331
G1 X25.942 Y131.355 E55.6401
G1 X71.765 Y131.352 E59.5082
G1 X71.613 Y131.274 E59.5227
G1 X70.269 Y130.425 E59.6569
G1 X69.873 Y130.126 E59.6988
G1 X68.693 Y129.061 E59.8330
G1 X68.354 Y128.698 E59.8749
G1 X67.372 Y127.448 E60.0090
G1 X67.100 Y127.033 E60.0509
G1 X66.345 Y125.634 E60.1851
G1 X66.148 Y125.179 E60.2270
G1 X65.642 Y123.672 E60.3612
G1 X65.525 Y123.190 E60.4031
G1 X65.283 Y121.619 E60.5373
G1 X65.250 Y121.124 E60.5792
G1 X65.279 Y119.534 E60.7133
G1 X65.330 Y119.041 E60.7552
G1 X65.630 Y117.480 E60.8894
G1 X65.764 Y117.002 E60.9313
G1 X66.325 Y115.515 E61.0655
G1 X66.539 Y115.067 E61.1074
G1 X67.344 Y113.696 E61.2416
G1 X67.632 Y113.292 E61.2834
G1 X68.384 Y112.402 E61.3818
G1 X68.319 Y112.166 E61.4025
G1 X67.733 Y110.699 E61.5359
G1 X66.987 Y109.306 E61.6692
G1 X66.090 Y108.004 E61.8027
G1 X65.055 Y106.811 E61.9360
G1 X63.893 Y105.740 E62.0694
G1 X62.619 Y104.805 E62.2028
G1 X61.248 Y104.018 E62.3362
G1 X59.799 Y103.388 E62.4696
G1 X58.462 Y102.977 E62.5877
G1 X54.836 Y102.526 E62.8962
G1 X53.439 Y102.598 E63.0143
G1 X51.880 Y102.855 E63.1477
G1 X50.358 Y103.283 E63.2811
G1 X48.895 Y103.878 E63.4144
G1 X47.506 Y104.632 E63.5478
G1 X46.210 Y105.536 E63.6813
G1 X45.022 Y106.579 E63.8146
G1 X43.958 Y107.747 E63.9480
G1 X43.031 Y109.027 E64.0814
G1 X42.910 Y109.240 E64.1021
G1 X43.422 Y110.286 E64.2005
G1 X43.602 Y110.749 E64.2424
G1 X44.048 Y112.274 E64.3765
G1 X44.146 Y112.761 E64.4184
G1 X44.326 Y114.340 E64.5526
G1 X44.339 Y114.836 E64.5945
G1 X44.248 Y116.423 E64.7287
G1 X44.177 Y116.914 E64.7706
G1 X43.816 Y118.463 E64.9047
G1 X43.663 Y118.934 E64.9466
G1 X43.044 Y120.399 E65.0808
G1 X42.813 Y120.838 E65.1227
G1 X41.954 Y122.175 E65.2569
G1 X41.651 Y122.568 E65.2988
G1 X40.577 Y123.740 E65.4330
G1 X40.212 Y124.076 E65.4748
G1 X38.954 Y125.048 E65.6090
G1 X38.537 Y125.317 E65.6509
G1 X37.132 Y126.061 E65.7851
G1 X36.675 Y126.254 E65.8270
G1 X35.164 Y126.748 E65.9612
G1 X34.681 Y126.862 E66.0031
G1 X33.108 Y127.091 E66.1372
G1 X32.613 Y127.120 E66.1791
G1 X31.024 Y127.079 E66.3133
G1 X30.531 Y127.023 E66.3552
G1 X28.972 Y126.712 E66.4894
G1 X28.495 Y126.573 E66.5313
G1 X27.012 Y126.001 E66.6655
G1 X26.566 Y125.784 E66.7074
G1 X25.202 Y124.967 E66.8415
G1 X24.800 Y124.677 E66.8834
G1 X23.595 Y123.640 E67.0176
G1 X23.248 Y123.286 E67.0595
G1 X22.237 Y122.059 E67.1937
G1 X21.955 Y121.651 E67.2356
G1 X21.167 Y120.270 E67.3698
G1 X20.959 Y119.820 E67.4117
G1 X20.418 Y118.325 E67.5458
G1 X20.289 Y117.846 E67.5877
G1 X20.011 Y116.281 E67.7219
G1 X19.966 Y115.786 E67.7638
G1 X19.957 Y114.197 E67.8980
G1 X19.997 Y113.702 E67.9399
G1 X20.259 Y112.135 E68.0741
G1 X20.383 Y111.654 E68.1159
G1 X20.908 Y110.154 E68.2501
G1 X21.111 Y109.701 E68.2920
G1 X21.884 Y108.312 E68.4262
G1 X22.162 Y107.900 E68.4681
G1 X23.160 Y106.663 E68.6023
G1 X23.503 Y106.305 E68.6442
G1 X24.697 Y105.256 E68.7784
G1 X25.097 Y104.961 E68.8202
G1 X26.452 Y104.131 E68.9544
G1 X26.896 Y103.908 E68.9963
G1 X28.373 Y103.321 E69.1305
G1 X28.848 Y103.177 E69.1724
G1 X29.921 Y102.951 E69.2650
G1 X30.744 Y101.495 E69.4061
G1 X30.903 Y101.246 E69.4311
G1 X32.413 Y99.115 E69.6516
G1 X32.596 Y98.883 E69.6765
G1 X34.316 Y96.916 E69.8971
G1 X34.521 Y96.704 E69.9220
G1 X36.431 Y94.922 E70.1425
G1 X36.657 Y94.732 E70.1674
G1 X37.531 Y94.069 E70.2600
G1 X37.443 Y94.039 E70.2679
G1 X36.866 Y93.763 E70.3219
