; G-Code generated by Simplify3D(R) Version 4.1.2
; Nov 21, 2019 at 8:56:35 PM
; Settings Summary
;   processName,Process1
;   applyToModels,wheel-spacer,wheel-spacer(2),wheel-spacer(3),wheel-spacer(4)
;   profileName,HBot
;   profileVersion,2019-10-26 23:38:43
;   baseProfile,Default
;   printMaterial,PLA
;   printQuality,Medium
;   printExtruders,
;   extruderName,Extruder 1
;   extruderToolheadNumber,0
;   extruderDiameter,0.4
;   extruderAutoWidth,1
;   extruderWidth,0.48
;   extrusionMultiplier,0.94
;   extruderUseRetract,1
;   extruderRetractionDistance,3
;   extruderExtraRestartDistance,0
;   extruderRetractionZLift,0
;   extruderRetractionSpeed,3600
;   extruderUseCoasting,1
;   extruderCoastingDistance,0.2
;   extruderUseWipe,1
;   extruderWipeDistance,5
;   primaryExtruder,0
;   layerHeight,0.2
;   topSolidLayers,3
;   bottomSolidLayers,3
;   perimeterOutlines,3
;   printPerimetersInsideOut,1
;   startPointOption,2
;   startPointOriginX,0
;   startPointOriginY,0
;   sequentialIslands,0
;   spiralVaseMode,0
;   firstLayerHeightPercentage,100
;   firstLayerWidthPercentage,150
;   firstLayerUnderspeed,0.5
;   useRaft,0
;   raftExtruder,0
;   raftTopLayers,3
;   raftBaseLayers,2
;   raftOffset,3
;   raftSeparationDistance,0.18
;   raftTopInfill,100
;   aboveRaftSpeedMultiplier,0.3
;   useSkirt,1
;   skirtExtruder,0
;   skirtLayers,1
;   skirtOutlines,3
;   skirtOffset,4
;   usePrimePillar,0
;   primePillarExtruder,999
;   primePillarWidth,12
;   primePillarLocation,7
;   primePillarSpeedMultiplier,1
;   useOozeShield,0
;   oozeShieldExtruder,999
;   oozeShieldOffset,2
;   oozeShieldOutlines,1
;   oozeShieldSidewallShape,1
;   oozeShieldSidewallAngle,30
;   oozeShieldSpeedMultiplier,1
;   infillExtruder,0
;   internalInfillPattern,Rectilinear
;   externalInfillPattern,Rectilinear
;   infillPercentage,20
;   outlineOverlapPercentage,25
;   infillExtrusionWidthPercentage,150
;   minInfillLength,5
;   infillLayerInterval,1
;   internalInfillAngles,45,-45
;   overlapInternalInfillAngles,0
;   externalInfillAngles,45,-45
;   generateSupport,0
;   supportExtruder,0
;   supportInfillPercentage,30
;   supportExtraInflation,0
;   supportBaseLayers,1
;   denseSupportExtruder,0
;   denseSupportLayers,0
;   denseSupportInfillPercentage,70
;   supportLayerInterval,1
;   supportHorizontalPartOffset,0.3
;   supportUpperSeparationLayers,1
;   supportLowerSeparationLayers,1
;   supportType,0
;   supportGridSpacing,4
;   maxOverhangAngle,45
;   supportAngles,0
;   temperatureName,Extruder 1,Heated Bed
;   temperatureNumber,0,1
;   temperatureSetpointCount,2,1
;   temperatureSetpointLayers,1,2,1
;   temperatureSetpointTemperatures,217,210,70
;   temperatureStabilizeAtStartup,1,1
;   temperatureHeatedBed,0,1
;   fanLayers,1,3,5
;   fanSpeeds,0,15,20
;   blipFanToFullPower,1
;   adjustSpeedForCooling,1
;   minSpeedLayerTime,15
;   minCoolingSpeedSlowdown,20
;   increaseFanForCooling,0
;   minFanLayerTime,45
;   maxCoolingFanSpeed,40
;   increaseFanForBridging,0
;   bridgingFanSpeed,80
;   use5D,1
;   relativeEdistances,0
;   allowEaxisZeroing,1
;   independentExtruderAxes,0
;   includeM10123,0
;   stickySupport,1
;   applyToolheadOffsets,0
;   gcodeXoffset,0
;   gcodeYoffset,0
;   gcodeZoffset,0
;   overrideMachineDefinition,1
;   machineTypeOverride,0
;   strokeXoverride,200
;   strokeYoverride,200
;   strokeZoverride,150
;   originOffsetXoverride,0
;   originOffsetYoverride,0
;   originOffsetZoverride,0
;   homeXdirOverride,-1
;   homeYdirOverride,-1
;   homeZdirOverride,-1
;   flipXoverride,1
;   flipYoverride,-1
;   flipZoverride,1
;   toolheadOffsets,0,0|0,0|0,0|0,0|0,0|0,0
;   overrideFirmwareConfiguration,1
;   firmwareTypeOverride,RepRap (Marlin/Repetier/Sprinter)
;   GPXconfigOverride,r2
;   baudRateOverride,115200
;   overridePrinterModels,0
;   printerModelsOverride
;   startingGcode,G28 ; home all axes,G32 ; run bed.g -- probe bed and enable compensation
;   layerChangeGcode,
;   retractionGcode,
;   toolChangeGcode,
;   endingGcode,M0 ; call stop.g
;   exportFileFormat,gcode
;   celebration,0
;   celebrationSong,Random Song
;   postProcessing,
;   defaultSpeed,3600
;   outlineUnderspeed,0.5
;   solidInfillUnderspeed,0.8
;   supportUnderspeed,0.8
;   rapidXYspeed,18000
;   rapidZspeed,1200
;   minBridgingArea,50
;   bridgingExtraInflation,0
;   bridgingExtrusionMultiplier,0.96
;   bridgingSpeedMultiplier,1
;   useFixedBridgingAngle,0
;   fixedBridgingAngle,0
;   applyBridgingToPerimeters,0
;   filamentDiameters,1.75|1.75|1.75|1.75|1.75|1.75
;   filamentPricesPerKg,46|46|46|46|46|46
;   filamentDensities,1.25|1.25|1.25|1.25|1.25|1.25
;   useMinPrintHeight,0
;   minPrintHeight,0
;   useMaxPrintHeight,0
;   maxPrintHeight,0
;   useDiaphragm,1
;   diaphragmLayerInterval,20
;   robustSlicing,1
;   mergeAllIntoSolid,0
;   onlyRetractWhenCrossingOutline,1
;   retractBetweenLayers,0
;   useRetractionMinTravel,1
;   retractionMinTravel,3
;   retractWhileWiping,1
;   onlyWipeOutlines,1
;   avoidCrossingOutline,1
;   maxMovementDetourFactor,3
;   toolChangeRetractionDistance,12
;   toolChangeExtraRestartDistance,-0.5
;   toolChangeRetractionSpeed,600
;   externalThinWallType,1
;   internalThinWallType,1
;   thinWallAllowedOverlapPercentage,10
;   singleExtrusionMinLength,1
;   singleExtrusionMinPrintingWidthPercentage,50
;   singleExtrusionMaxPrintingWidthPercentage,200
;   singleExtrusionEndpointExtension,0.2
;   horizontalSizeCompensation,-0.1
G90
M82
M106 S0
M140 S70
M190 S70
M104 S217 T0
M109 S217 T0
G28 ; home all axes
G32 ; run bed.g -- probe bed and enable compensation
; process Process1
; layer 1, Z = 0.200
T0
G92 E0.0000
G1 E-3.0000 F3600
; feature skirt
; tool H0.200 W0.720
G1 Z0.200 F1200
G1 X83.414 Y83.043 F18000
G1 E0.0000 F3600
G92 E0.0000
G1 X84.129 Y82.414 E0.0536 F1800
G1 X84.376 Y82.219 E0.0713
G1 X85.134 Y81.684 E0.1235
G1 X85.355 Y81.543 E0.1383
G1 X85.949 Y81.200 E0.1769
G1 X86.181 Y81.080 E0.1916
G1 X87.023 Y80.690 E0.2438
G1 X87.315 Y80.574 E0.2615
G1 X88.219 Y80.270 E0.3151
G1 X88.521 Y80.186 E0.3328
G1 X89.452 Y79.981 E0.3865
G1 X89.762 Y79.930 E0.4041
G1 X90.710 Y79.827 E0.4578
G1 X91.023 Y79.810 E0.4755
G1 X91.951 Y79.810 E0.5277
G1 X92.213 Y79.822 E0.5424
G1 X92.896 Y79.883 E0.5810
G1 X93.156 Y79.919 E0.5957
G1 X94.068 Y80.085 E0.6480
G1 X94.374 Y80.158 E0.6656
G1 X95.263 Y80.423 E0.7179
G1 X95.511 Y80.509 E0.7326
G1 X96.148 Y80.763 E0.7712
G1 X96.386 Y80.870 E0.7859
G1 X97.214 Y81.290 E0.8381
G1 X97.486 Y81.447 E0.8558
G1 X98.263 Y81.954 E0.9080
G1 X98.476 Y82.107 E0.9228
G1 X99.014 Y82.532 E0.9614
G1 X99.212 Y82.703 E0.9761
G1 X99.886 Y83.341 E1.0283
G1 X100.005 Y83.466 E1.0381
G1 X100.190 Y83.264 E1.0535
G1 X100.414 Y83.043 E1.0712
G1 X101.110 Y82.430 E1.1234
G1 X101.314 Y82.266 E1.1381
G1 X101.868 Y81.861 E1.1767
G1 X102.086 Y81.716 E1.1915
G1 X102.881 Y81.238 E1.2437
G1 X103.158 Y81.090 E1.2614
G1 X104.023 Y80.690 E1.3150
G1 X104.315 Y80.574 E1.3327
G1 X105.195 Y80.278 E1.3849
G1 X105.446 Y80.205 E1.3996
G1 X106.113 Y80.046 E1.4382
G1 X106.371 Y79.996 E1.4530
G1 X107.264 Y79.867 E1.5038
G1 X107.524 Y79.841 E1.5185
G1 X108.209 Y79.803 E1.5571
G1 X108.471 Y79.801 E1.5718
G1 X109.398 Y79.835 E1.6240
G1 X109.711 Y79.863 E1.6417
G1 X110.629 Y79.996 E1.6939
G1 X110.887 Y80.046 E1.7087
G1 X111.554 Y80.205 E1.7473
G1 X111.805 Y80.278 E1.7620
G1 X112.685 Y80.574 E1.8142
G1 X112.977 Y80.690 E1.8319
G1 X113.841 Y81.090 E1.8856
G1 X114.119 Y81.238 E1.9032
G1 X114.914 Y81.716 E1.9555
G1 X115.132 Y81.861 E1.9702
G1 X115.686 Y82.266 E2.0088
G1 X115.890 Y82.430 E2.0235
G1 X116.586 Y83.043 E2.0757
G1 X116.810 Y83.264 E2.0934
G1 X117.453 Y83.967 E2.1471
G1 X117.652 Y84.210 E2.1647
G1 X118.215 Y84.980 E2.2184
G1 X118.387 Y85.243 E2.2361
G1 X118.850 Y86.046 E2.2883
G1 X118.971 Y86.279 E2.3030
G1 X119.259 Y86.901 E2.3416
G1 X119.358 Y87.144 E2.3564
G1 X119.662 Y87.993 E2.4071
G1 X119.739 Y88.244 E2.4219
G1 X119.910 Y88.908 E2.4605
G1 X119.964 Y89.164 E2.4752
G1 X120.114 Y90.080 E2.5274
G1 X120.148 Y90.392 E2.5451
G1 X120.200 Y91.344 E2.5987
G1 X120.200 Y91.658 E2.6164
G1 X120.148 Y92.610 E2.6701
G1 X120.114 Y92.922 E2.6878
G1 X119.964 Y93.838 E2.7400
G1 X119.910 Y94.094 E2.7547
G1 X119.739 Y94.758 E2.7933
G1 X119.662 Y95.008 E2.8080
G1 X119.350 Y95.882 E2.8603
G1 X119.228 Y96.172 E2.8779
G1 X118.823 Y97.007 E2.9301
G1 X118.699 Y97.237 E2.9449
G1 X118.345 Y97.825 E2.9835
G1 X118.200 Y98.043 E2.9982
G1 X117.652 Y98.792 E3.0504
G1 X117.453 Y99.035 E3.0681
G1 X116.810 Y99.738 E3.1218
G1 X116.586 Y99.958 E3.1394
G1 X116.533 Y100.005 E3.1434
G1 X116.886 Y100.339 E3.1707
G1 X117.102 Y100.567 E3.1884
G1 X117.703 Y101.274 E3.2406
G1 X117.863 Y101.481 E3.2554
G1 X118.258 Y102.042 E3.2940
G1 X118.399 Y102.263 E3.3087
G1 X118.863 Y103.066 E3.3609
G1 X119.005 Y103.346 E3.3786
G1 X119.390 Y104.218 E3.4322
G1 X119.501 Y104.512 E3.4499
G1 X119.781 Y105.397 E3.5021
G1 X119.849 Y105.650 E3.5169
G1 X119.996 Y106.320 E3.5555
G1 X120.041 Y106.578 E3.5702
G1 X120.155 Y107.473 E3.6210
G1 X120.176 Y107.734 E3.6357
G1 X120.201 Y108.419 E3.6743
G1 X120.198 Y108.681 E3.6891
G1 X120.148 Y109.608 E3.7413
G1 X120.114 Y109.920 E3.7590
G1 X119.964 Y110.836 E3.8112
G1 X119.910 Y111.092 E3.8259
G1 X119.739 Y111.756 E3.8645
G1 X119.662 Y112.007 E3.8793
G1 X119.350 Y112.880 E3.9315
G1 X119.228 Y113.170 E3.9492
G1 X118.824 Y114.005 E4.0014
G1 X118.699 Y114.235 E4.0161
G1 X118.345 Y114.823 E4.0547
G1 X118.200 Y115.041 E4.0694
G1 X117.652 Y115.790 E4.1217
G1 X117.453 Y116.033 E4.1393
G1 X116.810 Y116.736 E4.1930
G1 X116.586 Y116.957 E4.2107
G1 X115.871 Y117.586 E4.2643
G1 X115.624 Y117.781 E4.2820
G1 X114.866 Y118.316 E4.3342
G1 X114.645 Y118.457 E4.3489
G1 X114.051 Y118.800 E4.3875
G1 X113.819 Y118.920 E4.4023
G1 X112.977 Y119.310 E4.4545
G1 X112.685 Y119.426 E4.4722
G1 X111.805 Y119.722 E4.5244
G1 X111.554 Y119.795 E4.5391
G1 X110.887 Y119.954 E4.5777
G1 X110.629 Y120.004 E4.5925
G1 X109.736 Y120.133 E4.6432
G1 X109.476 Y120.159 E4.6580
G1 X108.791 Y120.197 E4.6966
G1 X108.529 Y120.199 E4.7113
G1 X107.602 Y120.165 E4.7635
G1 X107.289 Y120.137 E4.7812
G1 X106.371 Y120.004 E4.8334
G1 X106.113 Y119.954 E4.8482
G1 X105.446 Y119.795 E4.8868
G1 X105.195 Y119.722 E4.9015
G1 X104.315 Y119.426 E4.9537
G1 X104.023 Y119.310 E4.9714
G1 X103.181 Y118.920 E5.0236
G1 X102.949 Y118.800 E5.0383
G1 X102.355 Y118.457 E5.0769
G1 X102.134 Y118.316 E5.0917
G1 X101.376 Y117.781 E5.1439
G1 X101.129 Y117.586 E5.1616
G1 X100.414 Y116.957 E5.2152
G1 X100.190 Y116.736 E5.2329
G1 X100.000 Y116.528 E5.2487
G1 X99.810 Y116.736 E5.2646
G1 X99.586 Y116.957 E5.2823
G1 X98.890 Y117.570 E5.3345
G1 X98.686 Y117.734 E5.3492
G1 X98.132 Y118.139 E5.3878
G1 X97.914 Y118.284 E5.4026
G1 X97.119 Y118.762 E5.4548
G1 X96.841 Y118.910 E5.4725
G1 X95.977 Y119.310 E5.5261
G1 X95.685 Y119.426 E5.5438
G1 X94.805 Y119.722 E5.5960
G1 X94.554 Y119.795 E5.6107
G1 X93.887 Y119.954 E5.6493
G1 X93.629 Y120.004 E5.6641
G1 X92.736 Y120.133 E5.7149
G1 X92.476 Y120.159 E5.7296
G1 X91.791 Y120.197 E5.7682
G1 X91.529 Y120.199 E5.7829
G1 X90.602 Y120.165 E5.8351
G1 X90.289 Y120.137 E5.8528
G1 X89.371 Y120.004 E5.9050
G1 X89.113 Y119.954 E5.9198
G1 X88.446 Y119.795 E5.9584
G1 X88.195 Y119.722 E5.9731
G1 X87.315 Y119.426 E6.0253
G1 X87.023 Y119.310 E6.0430
G1 X86.158 Y118.910 E6.0967
G1 X85.881 Y118.762 E6.1143
G1 X85.086 Y118.284 E6.1665
G1 X84.868 Y118.139 E6.1813
G1 X84.314 Y117.734 E6.2199
G1 X84.110 Y117.570 E6.2346
G1 X83.414 Y116.957 E6.2868
G1 X83.190 Y116.736 E6.3045
G1 X82.547 Y116.033 E6.3582
G1 X82.348 Y115.790 E6.3758
G1 X81.785 Y115.020 E6.4295
G1 X81.613 Y114.757 E6.4472
G1 X81.150 Y113.954 E6.4994
G1 X81.029 Y113.721 E6.5141
G1 X80.741 Y113.099 E6.5527
G1 X80.642 Y112.856 E6.5675
G1 X80.338 Y112.007 E6.6182
G1 X80.261 Y111.756 E6.6330
G1 X80.090 Y111.092 E6.6716
G1 X80.036 Y110.836 E6.6863
G1 X79.886 Y109.920 E6.7385
G1 X79.852 Y109.608 E6.7562
G1 X79.800 Y108.656 E6.8098
G1 X79.800 Y108.342 E6.8275
G1 X79.852 Y107.390 E6.8812
G1 X79.886 Y107.078 E6.8988
G1 X80.036 Y106.162 E6.9511
G1 X80.090 Y105.906 E6.9658
G1 X80.261 Y105.242 E7.0044
G1 X80.338 Y104.992 E7.0191
G1 X80.643 Y104.138 E7.0701
G1 X80.745 Y103.889 E7.0853
G1 X81.045 Y103.246 E7.1252
G1 X81.164 Y103.017 E7.1397
G1 X81.616 Y102.236 E7.1905
G1 X81.786 Y101.976 E7.2080
G1 X82.348 Y101.208 E7.2615
G1 X82.547 Y100.965 E7.2792
G1 X83.190 Y100.262 E7.3329
G1 X83.414 Y100.042 E7.3505
G1 X83.461 Y100.000 E7.3541
G1 X83.414 Y99.958 E7.3576
G1 X83.190 Y99.738 E7.3753
G1 X82.547 Y99.035 E7.4289
G1 X82.348 Y98.792 E7.4466
G1 X81.800 Y98.043 E7.4988
G1 X81.655 Y97.825 E7.5136
G1 X81.301 Y97.237 E7.5522
G1 X81.176 Y97.007 E7.5669
G1 X80.772 Y96.172 E7.6191
G1 X80.650 Y95.882 E7.6368
G1 X80.338 Y95.009 E7.6890
G1 X80.261 Y94.758 E7.7037
G1 X80.090 Y94.094 E7.7424
G1 X80.036 Y93.838 E7.7571
G1 X79.886 Y92.922 E7.8093
G1 X79.852 Y92.610 E7.8270
G1 X79.800 Y91.658 E7.8806
G1 X79.800 Y91.344 E7.8983
G1 X79.852 Y90.392 E7.9519
G1 X79.886 Y90.080 E7.9696
G1 X80.036 Y89.164 E8.0218
G1 X80.090 Y88.908 E8.0366
G1 X80.261 Y88.244 E8.0752
G1 X80.338 Y87.993 E8.0899
G1 X80.643 Y87.140 E8.1409
G1 X80.745 Y86.891 E8.1561
G1 X81.045 Y86.248 E8.1960
G1 X81.164 Y86.019 E8.2105
G1 X81.616 Y85.238 E8.2613
G1 X81.786 Y84.978 E8.2788
G1 X82.348 Y84.210 E8.3323
G1 X82.547 Y83.967 E8.3500
G1 X83.190 Y83.264 E8.4036
G1 X83.414 Y83.043 E8.4213
G1 X83.905 Y83.571 F18000
G92 E0.0000
G1 X84.590 Y82.967 E0.0514 F1800
G1 X84.807 Y82.796 E0.0669
G1 X85.536 Y82.282 E0.1171
G1 X85.729 Y82.159 E0.1300
G1 X86.295 Y81.832 E0.1668
G1 X86.499 Y81.726 E0.1797
G1 X87.308 Y81.352 E0.2299
G1 X87.564 Y81.250 E0.2454
G1 X88.430 Y80.958 E0.2968
G1 X88.695 Y80.885 E0.3123
G1 X89.588 Y80.688 E0.3638
G1 X89.859 Y80.643 E0.3793
G1 X90.768 Y80.545 E0.4307
G1 X91.043 Y80.530 E0.4462
G1 X91.935 Y80.530 E0.4964
G1 X92.164 Y80.540 E0.5093
G1 X92.815 Y80.599 E0.5461
G1 X93.042 Y80.630 E0.5590
G1 X93.920 Y80.790 E0.6092
G1 X94.187 Y80.854 E0.6247
G1 X95.043 Y81.108 E0.6749
G1 X95.259 Y81.184 E0.6878
G1 X95.866 Y81.425 E0.7246
G1 X96.075 Y81.520 E0.7375
G1 X96.871 Y81.923 E0.7877
G1 X97.109 Y82.061 E0.8031
G1 X97.856 Y82.548 E0.8533
G1 X98.043 Y82.682 E0.8663
G1 X98.556 Y83.087 E0.9030
G1 X98.729 Y83.237 E0.9159
G1 X99.377 Y83.850 E0.9661
G1 X99.566 Y84.050 E0.9816
G1 X99.996 Y84.556 E1.0190
G1 X100.092 Y84.438 E1.0275
G1 X100.708 Y83.764 E1.0790
G1 X100.905 Y83.571 E1.0944
G1 X101.574 Y82.981 E1.1446
G1 X101.753 Y82.838 E1.1575
G1 X102.280 Y82.451 E1.1943
G1 X102.471 Y82.325 E1.2072
G1 X103.235 Y81.865 E1.2574
G1 X103.479 Y81.736 E1.2729
G1 X104.308 Y81.352 E1.3244
G1 X104.564 Y81.250 E1.3398
G1 X105.409 Y80.965 E1.3900
G1 X105.629 Y80.902 E1.4030
G1 X106.265 Y80.750 E1.4397
G1 X106.490 Y80.707 E1.4526
G1 X107.351 Y80.581 E1.5016
G1 X107.580 Y80.559 E1.5145
G1 X108.232 Y80.523 E1.5513
G1 X108.461 Y80.521 E1.5642
G1 X109.353 Y80.553 E1.6144
G1 X109.627 Y80.578 E1.6299
G1 X110.510 Y80.707 E1.6801
G1 X110.735 Y80.750 E1.6930
G1 X111.371 Y80.902 E1.7298
G1 X111.591 Y80.965 E1.7427
G1 X112.436 Y81.250 E1.7929
G1 X112.692 Y81.352 E1.8084
G1 X113.521 Y81.736 E1.8598
G1 X113.765 Y81.865 E1.8753
G1 X114.529 Y82.325 E1.9255
G1 X114.720 Y82.451 E1.9384
G1 X115.247 Y82.838 E1.9752
G1 X115.426 Y82.981 E1.9881
G1 X116.095 Y83.571 E2.0383
G1 X116.292 Y83.764 E2.0538
G1 X116.908 Y84.438 E2.1052
G1 X117.083 Y84.652 E2.1207
G1 X117.623 Y85.389 E2.1721
G1 X117.773 Y85.620 E2.1876
G1 X118.219 Y86.392 E2.2378
G1 X118.324 Y86.596 E2.2507
G1 X118.599 Y87.189 E2.2875
G1 X118.686 Y87.401 E2.3004
G1 X118.978 Y88.220 E2.3494
G1 X119.046 Y88.440 E2.3623
G1 X119.209 Y89.072 E2.3990
G1 X119.256 Y89.297 E2.4120
G1 X119.401 Y90.177 E2.4622
G1 X119.430 Y90.451 E2.4776
G1 X119.480 Y91.363 E2.5291
G1 X119.480 Y91.639 E2.5446
G1 X119.430 Y92.551 E2.5960
G1 X119.401 Y92.825 E2.6115
G1 X119.256 Y93.705 E2.6617
G1 X119.209 Y93.930 E2.6746
G1 X119.046 Y94.562 E2.7114
G1 X118.978 Y94.782 E2.7243
G1 X118.678 Y95.622 E2.7745
G1 X118.572 Y95.875 E2.7900
G1 X118.183 Y96.678 E2.8402
G1 X118.073 Y96.880 E2.8531
G1 X117.737 Y97.440 E2.8898
G1 X117.610 Y97.631 E2.9028
G1 X117.083 Y98.350 E2.9530
G1 X116.908 Y98.564 E2.9685
