; G-Code generated by Simplify3D(R) Version 4.1.2
; Jan 21, 2022 at 7:28:17 PM
; Settings Summary
;   processName,Process1
;   applyToModels,barrel_fixed
;   profileName,HSBot (modified)
;   profileVersion,2019-11-09 11:59:44
;   baseProfile,Default
;   printMaterial,pla
;   printQuality,Medium
;   printExtruders,
;   extruderName,Extruder 1,Extruder - Lite
;   extruderToolheadNumber,0,1
;   extruderDiameter,0.4,0.4
;   extruderAutoWidth,1,1
;   extruderWidth,0.48,0.48
;   extrusionMultiplier,0.96,0.93
;   extruderUseRetract,1,1
;   extruderRetractionDistance,3,1
;   extruderExtraRestartDistance,0,0
;   extruderRetractionZLift,0,0
;   extruderRetractionSpeed,3600,1800
;   extruderUseCoasting,1,0
;   extruderCoastingDistance,0.2,0.2
;   extruderUseWipe,1,0
;   extruderWipeDistance,5,5
;   primaryExtruder,0
;   layerHeight,0.2
;   topSolidLayers,3
;   bottomSolidLayers,3
;   perimeterOutlines,3
;   printPerimetersInsideOut,1
;   startPointOption,2
;   startPointOriginX,0
;   startPointOriginY,0
;   sequentialIslands,0
;   spiralVaseMode,0
;   firstLayerHeightPercentage,150
;   firstLayerWidthPercentage,150
;   firstLayerUnderspeed,0.3
;   useRaft,0
;   raftExtruder,0
;   raftTopLayers,3
;   raftBaseLayers,2
;   raftOffset,3
;   raftSeparationDistance,0.18
;   raftTopInfill,100
;   aboveRaftSpeedMultiplier,0.3
;   useSkirt,1
;   skirtExtruder,0
;   skirtLayers,1
;   skirtOutlines,3
;   skirtOffset,10
;   usePrimePillar,0
;   primePillarExtruder,999
;   primePillarWidth,12
;   primePillarLocation,7
;   primePillarSpeedMultiplier,1
;   useOozeShield,0
;   oozeShieldExtruder,999
;   oozeShieldOffset,2
;   oozeShieldOutlines,1
;   oozeShieldSidewallShape,1
;   oozeShieldSidewallAngle,30
;   oozeShieldSpeedMultiplier,1
;   infillExtruder,0
;   internalInfillPattern,Fast Honeycomb
;   externalInfillPattern,Rectilinear
;   infillPercentage,15
;   outlineOverlapPercentage,15
;   infillExtrusionWidthPercentage,100
;   minInfillLength,5
;   infillLayerInterval,1
;   internalInfillAngles,0
;   overlapInternalInfillAngles,0
;   externalInfillAngles,45,-45
;   generateSupport,1
;   supportExtruder,0
;   supportInfillPercentage,30
;   supportExtraInflation,0
;   supportBaseLayers,1
;   denseSupportExtruder,0
;   denseSupportLayers,0
;   denseSupportInfillPercentage,70
;   supportLayerInterval,1
;   supportHorizontalPartOffset,0.3
;   supportUpperSeparationLayers,1
;   supportLowerSeparationLayers,1
;   supportType,1
;   supportGridSpacing,3
;   maxOverhangAngle,45
;   supportAngles,0
;   temperatureName,Extruder 1,Bed
;   temperatureNumber,0,0
;   temperatureSetpointCount,2,1
;   temperatureSetpointLayers,1,1,1
;   temperatureSetpointTemperatures,217,212,55
;   temperatureStabilizeAtStartup,1,1
;   temperatureHeatedBed,0,1
;   fanLayers,1,2,5
;   fanSpeeds,0,15,50
;   blipFanToFullPower,1
;   adjustSpeedForCooling,1
;   minSpeedLayerTime,15
;   minCoolingSpeedSlowdown,20
;   increaseFanForCooling,0
;   minFanLayerTime,45
;   maxCoolingFanSpeed,40
;   increaseFanForBridging,0
;   bridgingFanSpeed,80
;   use5D,1
;   relativeEdistances,0
;   allowEaxisZeroing,1
;   independentExtruderAxes,0
;   includeM10123,0
;   stickySupport,1
;   applyToolheadOffsets,0
;   gcodeXoffset,0
;   gcodeYoffset,0
;   gcodeZoffset,0
;   overrideMachineDefinition,1
;   machineTypeOverride,0
;   strokeXoverride,210
;   strokeYoverride,210
;   strokeZoverride,150
;   originOffsetXoverride,0
;   originOffsetYoverride,0
;   originOffsetZoverride,0
;   homeXdirOverride,-1
;   homeYdirOverride,-1
;   homeZdirOverride,-1
;   flipXoverride,1
;   flipYoverride,-1
;   flipZoverride,1
;   toolheadOffsets,0,0|0,0|0,0|0,0|0,0|0,0
;   overrideFirmwareConfiguration,0
;   firmwareTypeOverride,RepRap (Marlin/Repetier/Sprinter)
;   GPXconfigOverride,r2
;   baudRateOverride,115200
;   overridePrinterModels,0
;   printerModelsOverride
;   startingGcode,G28 ; home all axes,G32 ; run bed.g -- probe bed and enable compensation
;   layerChangeGcode,
;   retractionGcode,
;   toolChangeGcode,
;   endingGcode,M0 ; call stop.g
;   exportFileFormat,gcode
;   celebration,0
;   celebrationSong,Random Song
;   postProcessing,
;   defaultSpeed,5400
;   outlineUnderspeed,0.5
;   solidInfillUnderspeed,0.8
;   supportUnderspeed,0.8
;   rapidXYspeed,18000
;   rapidZspeed,1200
;   minBridgingArea,50
;   bridgingExtraInflation,0
;   bridgingExtrusionMultiplier,0.96
;   bridgingSpeedMultiplier,1
;   useFixedBridgingAngle,0
;   fixedBridgingAngle,0
;   applyBridgingToPerimeters,0
;   filamentDiameters,1.75|1.75|1.75|1.75|1.75|1.75
;   filamentPricesPerKg,25|46|46|46|46|46
;   filamentDensities,1.25|1.25|1.25|1.25|1.25|1.25
;   useMinPrintHeight,0
;   minPrintHeight,0
;   useMaxPrintHeight,0
;   maxPrintHeight,0
;   useDiaphragm,1
;   diaphragmLayerInterval,20
;   robustSlicing,1
;   mergeAllIntoSolid,0
;   onlyRetractWhenCrossingOutline,1
;   retractBetweenLayers,0
;   useRetractionMinTravel,1
;   retractionMinTravel,3
;   retractWhileWiping,1
;   onlyWipeOutlines,0
;   avoidCrossingOutline,1
;   maxMovementDetourFactor,3
;   toolChangeRetractionDistance,12
;   toolChangeExtraRestartDistance,-0.5
;   toolChangeRetractionSpeed,600
;   externalThinWallType,0
;   internalThinWallType,1
;   thinWallAllowedOverlapPercentage,10
;   singleExtrusionMinLength,0.1
;   singleExtrusionMinPrintingWidthPercentage,50
;   singleExtrusionMaxPrintingWidthPercentage,200
;   singleExtrusionEndpointExtension,0.2
;   horizontalSizeCompensation,-0.1
G90
M82
M106 S0
M140 S55
M190 S55
G10 S212 R{212-50} P0
M116 P0
G28 ; home all axes
G32 ; run bed.g -- probe bed and enable compensation
; process Process1
; layer 1, Z = 0.300
T0
G92 E0.0000
G1 E-3.0000 F3600
; feature skirt
; tool H0.300 W0.720
G1 Z0.300 F1200
G1 X29.673 Y87.807 F18000
G1 E0.0000 F3600
G92 E0.0000
G1 X157.679 Y87.800 E11.0354 F1620
G1 X162.554 Y82.926 E11.6297
G1 X176.129 Y82.926 E12.8001
G1 X183.042 Y89.838 E13.6428
G1 X183.042 Y92.513 E13.8735
G1 X183.092 Y92.550 E13.8788
G1 X183.814 Y93.164 E13.9606
G1 X185.677 Y95.028 E14.1877
G1 X186.292 Y95.750 E14.2695
G1 X187.833 Y97.887 E14.4967
G1 X188.324 Y98.698 E14.5784
G1 X189.504 Y101.055 E14.8056
G1 X189.859 Y101.934 E14.8873
G1 X190.770 Y104.845 E15.1503
G1 X191.042 Y106.618 E15.3050
G1 X191.042 Y120.288 E16.4834
G1 X184.129 Y127.200 E17.3262
G1 X29.391 Y127.200 E30.6662
G1 X24.721 Y125.068 E31.1088
G1 X22.241 Y122.206 E31.4352
G1 X21.918 Y121.799 E31.4800
G1 X19.182 Y118.014 E31.8827
G1 X18.807 Y111.085 E32.4809
G1 X20.851 Y107.497 E32.8369
G1 X18.844 Y103.875 E33.1939
G1 X19.316 Y96.927 E33.7943
G1 X22.185 Y93.087 E34.2075
G1 X22.545 Y92.651 E34.2563
G1 X25.112 Y89.826 E34.5853
G1 X29.673 Y87.807 E35.0154
G1 X29.826 Y88.527 F18000
G92 E0.0000
G1 X157.977 Y88.520 E11.0480 F1620
G1 X162.852 Y83.646 E11.6423
G1 X175.831 Y83.646 E12.7612
G1 X182.322 Y90.136 E13.5526
G1 X182.322 Y92.882 E13.7893
G1 X182.647 Y93.117 E13.8239
G1 X183.325 Y93.694 E13.9006
G1 X185.148 Y95.516 E14.1228
G1 X185.725 Y96.194 E14.1996
G1 X187.232 Y98.285 E14.4218
G1 X187.693 Y99.047 E14.4985
G1 X188.847 Y101.351 E14.7207
G1 X189.180 Y102.177 E14.7975
G1 X190.067 Y105.008 E15.0533
G1 X190.322 Y106.673 E15.1985
G1 X190.322 Y119.989 E16.3465
G1 X183.831 Y126.480 E17.1378
G1 X29.547 Y126.480 E30.4387
G1 X25.163 Y124.478 E30.8542
G1 X22.796 Y121.747 E31.1658
G1 X22.493 Y121.364 E31.2078
G1 X19.889 Y117.764 E31.5909
G1 X19.537 Y111.257 E32.1526
G1 X21.608 Y107.623 E32.5132
G1 X21.625 Y107.576 E32.5175
G1 X21.634 Y107.527 E32.5218
G1 X21.634 Y107.477 E32.5262
G1 X21.626 Y107.427 E32.5305
G1 X21.610 Y107.380 E32.5348
G1 X19.577 Y103.712 E32.8964
G1 X20.020 Y97.188 E33.4601
G1 X22.752 Y93.532 E33.8535
G1 X23.090 Y93.122 E33.8993
G1 X25.542 Y90.423 E34.2137
G1 X29.826 Y88.527 E34.6176
G1 X29.978 Y89.247 F18000
G92 E0.0000
G1 X158.276 Y89.240 E11.0606 F1620
G1 X163.150 Y84.366 E11.6549
G1 X175.533 Y84.366 E12.7224
G1 X181.602 Y90.435 E13.4623
G1 X181.602 Y93.250 E13.7051
G1 X182.203 Y93.684 E13.7689
G1 X182.837 Y94.223 E13.8407
G1 X184.618 Y96.005 E14.0579
G1 X185.158 Y96.639 E14.1297
G1 X186.631 Y98.682 E14.3469
G1 X187.063 Y99.395 E14.4187
G1 X188.190 Y101.648 E14.6359
G1 X188.502 Y102.420 E14.7076
G1 X189.364 Y105.171 E14.9562
G1 X189.602 Y106.728 E15.0920
G1 X189.602 Y119.691 E16.2096
G1 X183.533 Y125.760 E16.9495
G1 X29.704 Y125.760 E30.2111
G1 X25.604 Y123.888 E30.5996
G1 X23.350 Y121.287 E30.8963
G1 X23.067 Y120.930 E30.9357
G1 X20.597 Y117.513 E31.2991
G1 X20.268 Y111.430 E31.8243
G1 X22.264 Y107.926 E32.1720
G1 X22.323 Y107.763 E32.1869
G1 X22.354 Y107.593 E32.2018
G1 X22.355 Y107.419 E32.2168
G1 X22.326 Y107.248 E32.2317
G1 X22.269 Y107.085 E32.2467
G1 X20.309 Y103.548 E32.5952
G1 X20.724 Y97.448 E33.1223
G1 X23.318 Y93.976 E33.4960
G1 X23.634 Y93.594 E33.5388
G1 X25.973 Y91.019 E33.8386
G1 X29.978 Y89.247 E34.2162
G92 E0.0000
G1 E-3.0000 F3600
; feature inner perimeter
G1 X32.327 Y99.967 F18000
G1 X32.664 Y99.967
G1 X33.025 Y101.407
G1 E0.0000 F3600
G92 E0.0000
G1 X169.242 Y101.400 E11.7433 F1215
G1 X169.242 Y100.833 E11.7921
G1 X172.253 Y101.776 E12.0642
G1 X173.502 Y102.402 E12.1846
G1 X174.635 Y103.219 E12.3050
G1 X175.516 Y104.100 E12.4125
G1 X171.942 Y104.100 E12.7207
G1 X171.942 Y110.900 E13.3069
G1 X177.442 Y110.900 E13.7810
G1 X177.442 Y113.600 E14.0138
G1 X148.892 Y113.600 E16.4751
G1 X148.892 Y107.100 E17.0355
G1 X143.392 Y107.100 E17.5096
G1 X143.392 Y103.600 E17.8113
G1 X37.651 Y103.600 E26.9273
G1 X34.011 Y113.600 E27.8447
G1 X33.027 Y113.600 E27.9296
G1 X33.344 Y113.042 E27.9850
G1 X34.111 Y110.923 E28.1792
G1 X34.507 Y108.705 E28.3735
G1 X34.521 Y106.451 E28.5678
G1 X34.151 Y104.229 E28.7620
G1 X33.409 Y102.101 E28.9563
G1 X33.122 Y101.582 E29.0075
G1 X33.025 Y101.407 F1215
G1 X38.025 Y101.406 F1215
G1 X38.155 Y104.320 F18000
G92 E0.0000
G1 X34.515 Y114.320 E0.9174 F1215
G1 X32.450 Y114.320 E1.0954
G1 X32.051 Y113.859 E1.1481
G1 X32.688 Y112.739 E1.2591
G1 X33.413 Y110.736 E1.4428
G1 X33.788 Y108.639 E1.6264
G1 X33.800 Y106.509 E1.8101
G1 X33.451 Y104.407 E1.9937
G1 X32.750 Y102.396 E2.1774
G1 X32.136 Y101.288 E2.2866
G1 X32.303 Y101.065 E2.3106
G1 X32.646 Y100.687 E2.3546
G1 X168.522 Y100.680 E14.0685
G1 X168.522 Y95.806 E14.4887
G1 X170.162 Y95.806 E14.6301
G1 X170.162 Y100.367 E15.0233
G1 X172.523 Y101.107 E15.2367
G1 X173.876 Y101.784 E15.3671
G1 X175.103 Y102.669 E15.4975
G1 X176.173 Y103.738 E15.6279
G1 X176.953 Y104.820 E15.7429
G1 X172.662 Y104.820 E16.1129
G1 X172.662 Y110.180 E16.5750
G1 X178.162 Y110.180 E17.0491
G1 X178.162 Y114.320 E17.4060
G1 X142.672 Y114.320 E20.4656
G1 X142.672 Y113.180 E20.5639
G1 X148.172 Y113.180 E21.0380
G1 X148.172 Y107.820 E21.5001
G1 X142.672 Y107.820 E21.9743
G1 X142.672 Y104.320 E22.2760
G1 X38.355 Y104.320 E31.2692
G1 X38.155 Y104.320 F1215
G1 X36.445 Y109.018 F1215
; feature outer perimeter
G1 X33.068 Y108.573 F18000
G92 E0.0000
G1 X33.080 Y106.566 E0.1730 F810
G1 X32.751 Y104.586 E0.3461
G1 X32.090 Y102.691 E0.5191
G1 X31.280 Y101.230 E0.6631
G1 X31.747 Y100.606 E0.7303
G1 X32.327 Y99.967 E0.8047
G1 X167.802 Y99.960 E12.4840
G1 X167.802 Y95.086 E12.9042
G1 X170.882 Y95.086 E13.1697
G1 X170.882 Y99.838 E13.5794
G1 X172.794 Y100.437 E13.7521
G1 X174.250 Y101.166 E13.8925
G1 X175.571 Y102.118 E14.0329
G1 X176.723 Y103.270 E14.1734
G1 X177.676 Y104.591 E14.3138
G1 X178.405 Y106.048 E14.4542
G1 X178.882 Y107.570 E14.5917
G1 X178.882 Y115.040 E15.2357
G1 X32.122 Y115.040 E27.8879
G1 X31.611 Y114.451 E27.9551
G1 X31.205 Y113.889 E28.0149
G1 X32.032 Y112.436 E28.1590
G1 X32.715 Y110.549 E28.3321
G1 X33.033 Y108.770 E28.4879
G1 X33.068 Y108.573 F810
G1 X33.080 Y106.566 F810
G1 X32.751 Y104.586
G1 X32.426 Y103.655
G1 X38.659 Y105.040 F18000
G92 E0.0000
G1 X35.413 Y113.960 E0.8183 F810
G1 X141.952 Y113.960 E10.0031
G1 X141.952 Y105.040 E10.7721
G1 X38.859 Y105.040 E19.6598
G1 X38.659 Y105.040 F810
G1 X36.949 Y109.738 F810
G1 X38.659 Y105.040 F18000
G1 X141.952 Y105.040
G1 X141.952 Y108.558
G1 X143.532 Y108.540
G92 E0.0000
G1 X143.532 Y112.460 E0.3379 F810
G1 X147.452 Y112.460 E0.6759
G1 X147.452 Y108.540 E1.0138
G1 X143.732 Y108.540 E1.3345
G1 X143.532 Y108.540 F810
G1 X143.532 Y112.460 F810
G1 X144.612 Y112.460
G1 X147.452 Y112.460 F18000
G1 X147.452 Y112.164
G1 X173.382 Y109.460
G92 E0.0000
G1 X177.302 Y109.460 E0.3379 F810
G1 X177.302 Y105.540 E0.6759
G1 X173.382 Y105.540 E1.0138
G1 X173.382 Y109.260 E1.3345
G1 X173.382 Y109.460 F810
G1 X177.302 Y109.460 F810
G1 X177.302 Y108.380
; feature internal single extrusion
; tool H0.300 W0.240
G1 X178.092 Y109.540 F18000
G92 E0.0000
; tool H0.300 W0.862
G1 X178.092 Y109.337 E0.0325 F810
; tool H0.300 W0.858
G1 X178.092 Y107.720 E0.2901
; tool H0.300 W0.837
G1 X178.094 Y107.691 E0.2948
; tool H0.300 W0.808
G1 X178.087 Y107.662 E0.2992
; tool H0.300 W0.779
G1 X178.073 Y107.568 E0.3130
; tool H0.300 W0.750
G1 X178.058 Y107.473 E0.3263
; tool H0.300 W0.721
G1 X178.044 Y107.379 E0.3391
; tool H0.300 W0.692
G1 X178.029 Y107.285 E0.3514
; tool H0.300 W0.663
G1 X178.015 Y107.190 E0.3632
; tool H0.300 W0.635
G1 X178.000 Y107.096 E0.3744
; tool H0.300 W0.606
G1 X177.986 Y107.001 E0.3852
; tool H0.300 W0.577
G1 X177.972 Y106.907 E0.3954
; tool H0.300 W0.548
G1 X177.957 Y106.812 E0.4052
; tool H0.300 W0.519
G1 X177.943 Y106.718 E0.4144
; tool H0.300 W0.490
G1 X177.928 Y106.623 E0.4231
; tool H0.300 W0.461
G1 X177.914 Y106.529 E0.4313
; tool H0.300 W0.435
G1 X177.899 Y106.434 E0.4390
; tool H0.300 W0.406
G1 X177.885 Y106.340 E0.4462
; tool H0.300 W0.366
G1 X177.873 Y106.262 E0.4515
; tool H0.300 W0.323
G1 X177.856 Y106.188 E0.4561
; tool H0.300 W0.280
G1 X177.834 Y106.097 E0.4610
; tool H0.300 W0.240
G1 X177.812 Y106.006 E0.4652
G1 X177.791 Y105.915 E0.4693
G1 X177.769 Y105.823 E0.4735
G1 X177.751 Y105.744 E0.4771
G1 X177.748 Y105.732 F810
G1 X177.726 Y105.641
G1 X177.705 Y105.550
; tool H0.300 W0.920
G1 X169.342 Y100.160 F18000
G92 E0.0000
G1 X169.342 Y99.957 E0.0224 F810
G1 X169.342 Y99.862 E0.0328
G1 X169.342 Y99.767 E0.0433
G1 X169.342 Y99.673 E0.0537
G1 X169.342 Y99.578 E0.0641
G1 X169.342 Y99.483 E0.0746
G1 X169.342 Y99.388 E0.0850
G1 X169.342 Y99.293 E0.0955
G1 X169.342 Y99.199 E0.1059
G1 X169.342 Y99.104 E0.1163
G1 X169.342 Y99.009 E0.1268
G1 X169.342 Y98.914 E0.1372
G1 X169.342 Y98.820 E0.1477
G1 X169.342 Y98.725 E0.1581
G1 X169.342 Y98.630 E0.1685
G1 X169.342 Y98.535 E0.1790
G1 X169.342 Y98.440 E0.1894
G1 X169.342 Y98.346 E0.1999
G1 X169.342 Y98.251 E0.2103
G1 X169.342 Y98.156 E0.2207
G1 X169.342 Y98.061 E0.2312
G1 X169.342 Y97.967 E0.2416
G1 X169.342 Y97.872 E0.2521
G1 X169.342 Y97.777 E0.2625
G1 X169.342 Y97.682 E0.2729
G1 X169.342 Y97.587 E0.2834
G1 X169.342 Y97.493 E0.2938
G1 X169.342 Y97.398 E0.3043
G1 X169.342 Y97.303 E0.3147
G1 X169.342 Y97.208 E0.3251
G1 X169.342 Y97.114 E0.3356
G1 X169.342 Y97.019 E0.3460
G1 X169.342 Y96.924 E0.3565
G1 X169.342 Y96.829 E0.3669
G1 X169.342 Y96.735 E0.3773
G1 X169.342 Y96.640 E0.3878
G1 X169.342 Y96.440 F810
; tool H0.300 W0.420
G1 X167.802 Y97.715 F18000
G1 X167.802 Y99.960
G1 X165.091 Y99.960
G1 X148.441 Y113.750
G92 E0.0000
G1 X143.316 Y113.750 E0.2577 F810
G1 X143.116 Y113.750 F810
G1 X148.116 Y113.750 F810
; tool H0.300 W0.860
G1 X142.742 Y112.541 F18000
G92 E0.0000
G1 X142.742 Y112.341 E0.0206 F810
G1 X142.742 Y108.659 E0.3997
G1 X142.742 Y108.459 F810
; tool H0.300 W0.360
G1 X142.313 Y114.500 F18000
G92 E0.0000
G1 X35.063 Y114.500 E4.6254 F810
; tool H0.300 W0.314
G1 X35.042 Y114.510 E4.6263
G1 X34.967 Y114.546 F810
G1 X34.871 Y114.613
G1 X34.967 Y114.546 F810
G1 X35.063 Y114.500
G1 X39.839 Y114.500
; feature solid layer
; tool H0.300 W0.720
G1 X39.419 Y113.960 F18000
G1 X35.413 Y113.960
G1 X36.690 Y110.451
G1 X35.121 Y108.434
G92 E0.0000
G1 X35.208 Y108.521 E0.0107 F1296
G1 X35.480 Y107.775 E0.0792
G1 X35.127 Y107.421 E0.1222
G1 X35.133 Y106.409 E0.2095
G1 X35.752 Y107.028 E0.2850
G1 X36.024 Y106.282 E0.3535
G1 X34.931 Y105.189 E0.4867
G1 X34.746 Y104.077 E0.5839
G1 X34.698 Y103.938 E0.5966
G1 X36.295 Y105.535 E0.7914
G1 X36.567 Y104.789 E0.8598
G1 X34.153 Y102.375 E1.1542
G1 X34.029 Y102.019 E1.1866
G1 X34.815 Y102.019 E1.2544
G1 X36.839 Y104.042 E1.5011
