; G-Code generated by Simplify3D(R) Version 4.1.2
; Jan 21, 2022 at 4:47:19 PM
; Settings Summary
;   processName,Process1
;   applyToModels,handle-mirrored,handle
;   profileName,HSBot (modified)
;   profileVersion,2019-11-09 11:59:44
;   baseProfile,Default
;   printMaterial,pla
;   printQuality,Medium
;   printExtruders,
;   extruderName,Extruder 1,Extruder - Lite
;   extruderToolheadNumber,0,1
;   extruderDiameter,0.4,0.4
;   extruderAutoWidth,1,1
;   extruderWidth,0.48,0.48
;   extrusionMultiplier,0.96,0.93
;   extruderUseRetract,1,1
;   extruderRetractionDistance,3,1
;   extruderExtraRestartDistance,0,0
;   extruderRetractionZLift,0,0
;   extruderRetractionSpeed,3600,1800
;   extruderUseCoasting,1,0
;   extruderCoastingDistance,0.2,0.2
;   extruderUseWipe,1,0
;   extruderWipeDistance,5,5
;   primaryExtruder,0
;   layerHeight,0.2
;   topSolidLayers,3
;   bottomSolidLayers,3
;   perimeterOutlines,3
;   printPerimetersInsideOut,1
;   startPointOption,2
;   startPointOriginX,0
;   startPointOriginY,0
;   sequentialIslands,0
;   spiralVaseMode,0
;   firstLayerHeightPercentage,150
;   firstLayerWidthPercentage,150
;   firstLayerUnderspeed,0.3
;   useRaft,0
;   raftExtruder,0
;   raftTopLayers,3
;   raftBaseLayers,2
;   raftOffset,3
;   raftSeparationDistance,0.18
;   raftTopInfill,100
;   aboveRaftSpeedMultiplier,0.3
;   useSkirt,1
;   skirtExtruder,0
;   skirtLayers,1
;   skirtOutlines,3
;   skirtOffset,10
;   usePrimePillar,0
;   primePillarExtruder,999
;   primePillarWidth,12
;   primePillarLocation,7
;   primePillarSpeedMultiplier,1
;   useOozeShield,0
;   oozeShieldExtruder,999
;   oozeShieldOffset,2
;   oozeShieldOutlines,1
;   oozeShieldSidewallShape,1
;   oozeShieldSidewallAngle,30
;   oozeShieldSpeedMultiplier,1
;   infillExtruder,0
;   internalInfillPattern,Fast Honeycomb
;   externalInfillPattern,Rectilinear
;   infillPercentage,15
;   outlineOverlapPercentage,15
;   infillExtrusionWidthPercentage,100
;   minInfillLength,5
;   infillLayerInterval,1
;   internalInfillAngles,0
;   overlapInternalInfillAngles,0
;   externalInfillAngles,45,-45
;   generateSupport,0
;   supportExtruder,0
;   supportInfillPercentage,30
;   supportExtraInflation,0
;   supportBaseLayers,1
;   denseSupportExtruder,0
;   denseSupportLayers,0
;   denseSupportInfillPercentage,70
;   supportLayerInterval,1
;   supportHorizontalPartOffset,0.3
;   supportUpperSeparationLayers,1
;   supportLowerSeparationLayers,1
;   supportType,1
;   supportGridSpacing,3
;   maxOverhangAngle,45
;   supportAngles,0
;   temperatureName,Extruder 1,Bed
;   temperatureNumber,0,0
;   temperatureSetpointCount,2,1
;   temperatureSetpointLayers,1,1,1
;   temperatureSetpointTemperatures,217,212,55
;   temperatureStabilizeAtStartup,1,1
;   temperatureHeatedBed,0,1
;   fanLayers,1,2,5
;   fanSpeeds,0,15,50
;   blipFanToFullPower,1
;   adjustSpeedForCooling,1
;   minSpeedLayerTime,15
;   minCoolingSpeedSlowdown,20
;   increaseFanForCooling,0
;   minFanLayerTime,45
;   maxCoolingFanSpeed,40
;   increaseFanForBridging,0
;   bridgingFanSpeed,80
;   use5D,1
;   relativeEdistances,0
;   allowEaxisZeroing,1
;   independentExtruderAxes,0
;   includeM10123,0
;   stickySupport,1
;   applyToolheadOffsets,0
;   gcodeXoffset,0
;   gcodeYoffset,0
;   gcodeZoffset,0
;   overrideMachineDefinition,1
;   machineTypeOverride,0
;   strokeXoverride,210
;   strokeYoverride,210
;   strokeZoverride,150
;   originOffsetXoverride,0
;   originOffsetYoverride,0
;   originOffsetZoverride,0
;   homeXdirOverride,-1
;   homeYdirOverride,-1
;   homeZdirOverride,-1
;   flipXoverride,1
;   flipYoverride,-1
;   flipZoverride,1
;   toolheadOffsets,0,0|0,0|0,0|0,0|0,0|0,0
;   overrideFirmwareConfiguration,0
;   firmwareTypeOverride,RepRap (Marlin/Repetier/Sprinter)
;   GPXconfigOverride,r2
;   baudRateOverride,115200
;   overridePrinterModels,0
;   printerModelsOverride
;   startingGcode,G28 ; home all axes,G32 ; run bed.g -- probe bed and enable compensation
;   layerChangeGcode,
;   retractionGcode,
;   toolChangeGcode,
;   endingGcode,M0 ; call stop.g
;   exportFileFormat,gcode
;   celebration,0
;   celebrationSong,Random Song
;   postProcessing,
;   defaultSpeed,5400
;   outlineUnderspeed,0.5
;   solidInfillUnderspeed,0.8
;   supportUnderspeed,0.8
;   rapidXYspeed,18000
;   rapidZspeed,1200
;   minBridgingArea,50
;   bridgingExtraInflation,0
;   bridgingExtrusionMultiplier,0.96
;   bridgingSpeedMultiplier,1
;   useFixedBridgingAngle,0
;   fixedBridgingAngle,0
;   applyBridgingToPerimeters,0
;   filamentDiameters,1.75|1.75|1.75|1.75|1.75|1.75
;   filamentPricesPerKg,25|46|46|46|46|46
;   filamentDensities,1.25|1.25|1.25|1.25|1.25|1.25
;   useMinPrintHeight,0
;   minPrintHeight,0
;   useMaxPrintHeight,0
;   maxPrintHeight,0
;   useDiaphragm,1
;   diaphragmLayerInterval,20
;   robustSlicing,1
;   mergeAllIntoSolid,0
;   onlyRetractWhenCrossingOutline,1
;   retractBetweenLayers,0
;   useRetractionMinTravel,1
;   retractionMinTravel,3
;   retractWhileWiping,1
;   onlyWipeOutlines,0
;   avoidCrossingOutline,1
;   maxMovementDetourFactor,3
;   toolChangeRetractionDistance,12
;   toolChangeExtraRestartDistance,-0.5
;   toolChangeRetractionSpeed,600
;   externalThinWallType,0
;   internalThinWallType,1
;   thinWallAllowedOverlapPercentage,10
;   singleExtrusionMinLength,0.1
;   singleExtrusionMinPrintingWidthPercentage,50
;   singleExtrusionMaxPrintingWidthPercentage,200
;   singleExtrusionEndpointExtension,0.2
;   horizontalSizeCompensation,0
G90
M82
M106 S0
M140 S55
M190 S55
G10 S212 R{212-50} P0
M116 P0
G28 ; home all axes
G32 ; run bed.g -- probe bed and enable compensation
; process Process1
; layer 1, Z = 0.300
T0
G92 E0.0000
G1 E-3.0000 F3600
; feature skirt
; tool H0.300 W0.720
G1 Z0.300 F1200
G1 X22.626 Y93.262 F18000
G1 E0.0000 F3600
G92 E0.0000
G1 X23.894 Y93.064 E0.1107 F1620
G1 X24.587 Y92.997 E0.1707
G1 X25.871 Y92.949 E0.2814
G1 X26.566 Y92.965 E0.3414
G1 X27.904 Y93.073 E0.4571
G1 X28.706 Y93.194 E0.5271
G1 X30.094 Y93.502 E0.6496
G1 X30.542 Y93.619 E0.6895
G1 X47.946 Y98.940 E2.2585
G1 X48.260 Y99.046 E2.2870
G1 X49.251 Y99.411 E2.3781
G1 X49.858 Y99.674 E2.4351
G1 X50.902 Y100.198 E2.5358
G1 X51.385 Y100.468 E2.5835
G1 X52.217 Y100.988 E2.6681
G1 X52.736 Y101.355 E2.7229
G1 X52.736 Y97.788 E3.0303
G1 X52.754 Y97.320 E3.0707
G1 X52.827 Y96.401 E3.1503
G1 X52.902 Y95.821 E3.2007
G1 X53.122 Y94.602 E3.3074
G1 X53.288 Y93.920 E3.3679
G1 X53.668 Y92.680 E3.4797
G1 X53.913 Y92.023 E3.5402
G1 X54.437 Y90.837 E3.6520
G1 X54.759 Y90.213 E3.7125
G1 X55.420 Y89.098 E3.8243
G1 X55.814 Y88.516 E3.8848
G1 X56.567 Y87.534 E3.9915
G1 X56.946 Y87.088 E4.0420
G1 X57.617 Y86.372 E4.1266
G1 X58.038 Y85.966 E4.1770
G1 X58.970 Y85.151 E4.2838
G1 X59.525 Y84.721 E4.3443
G1 X60.548 Y84.023 E4.4510
G1 X61.046 Y83.717 E4.5014
G1 X61.907 Y83.247 E4.5860
G1 X62.434 Y82.992 E4.6365
G1 X63.520 Y82.531 E4.7382
G1 X64.069 Y82.330 E4.7886
G1 X64.839 Y82.090 E4.8581
G1 X65.063 Y82.025 E4.8782
G1 X128.859 Y64.898 E10.5728
G1 X134.831 Y42.658 E12.5581
G1 X134.925 Y42.343 E12.5864
G1 X135.238 Y41.393 E12.6726
G1 X135.435 Y40.877 E12.7202
G1 X135.805 Y40.029 E12.8000
G1 X136.049 Y39.535 E12.8475
G1 X136.587 Y38.561 E12.9434
G1 X136.876 Y38.091 E12.9910
G1 X137.428 Y37.281 E13.0756
G1 X137.832 Y36.755 E13.1326
G1 X138.679 Y35.771 E13.2446
G1 X138.979 Y35.447 E13.2827
G1 X151.846 Y22.580 E14.8514
G1 X152.099 Y22.342 E14.8814
G1 X152.929 Y21.604 E14.9771
G1 X153.475 Y21.174 E15.0370
G1 X154.528 Y20.440 E15.1477
G1 X155.121 Y20.076 E15.2077
G1 X156.254 Y19.471 E15.3184
G1 X156.885 Y19.180 E15.3783
G1 X158.027 Y18.733 E15.4840
G1 X158.576 Y18.549 E15.5340
G1 X159.511 Y18.285 E15.6177
G1 X160.076 Y18.155 E15.6677
G1 X161.283 Y17.940 E15.7734
G1 X161.973 Y17.858 E15.8333
G1 X163.085 Y17.792 E15.9294
G1 X163.440 Y17.782 E15.9600
G1 X167.029 Y17.786 E16.2693
G1 X167.600 Y17.815 E16.3186
G1 X168.759 Y17.929 E16.4190
G1 X169.332 Y18.014 E16.4690
G1 X170.342 Y18.215 E16.5577
G1 X171.015 Y18.390 E16.6177
G1 X172.533 Y18.884 E16.7553
G1 X173.389 Y19.238 E16.8352
G1 X174.811 Y19.963 E16.9728
G1 X175.411 Y20.314 E17.0327
G1 X176.267 Y20.887 E17.1215
G1 X176.733 Y21.232 E17.1715
G1 X177.680 Y22.010 E17.2772
G1 X178.191 Y22.481 E17.3371
G1 X179.081 Y23.407 E17.4478
G1 X179.532 Y23.936 E17.5077
G1 X180.272 Y24.913 E17.6134
G1 X180.599 Y25.392 E17.6634
G1 X181.107 Y26.221 E17.7472
G1 X181.385 Y26.729 E17.7971
G1 X181.920 Y27.832 E17.9028
G1 X182.186 Y28.474 E17.9627
G1 X182.607 Y29.687 E18.0734
G1 X182.795 Y30.357 E18.1334
G1 X183.071 Y31.611 E18.2441
G1 X183.179 Y32.297 E18.3040
G1 X183.300 Y33.518 E18.4098
G1 X183.328 Y34.098 E18.4598
G1 X183.317 Y84.944 E22.8433
G1 X183.247 Y85.849 E22.9216
G1 X182.990 Y87.507 E23.0662
G1 X182.781 Y88.392 E23.1445
G1 X182.342 Y89.774 E23.2696
G1 X182.187 Y90.202 E23.3088
G1 X175.217 Y107.403 E24.9088
G1 X175.080 Y107.715 E24.9382
G1 X174.614 Y108.698 E25.0320
G1 X174.287 Y109.295 E25.0907
G1 X173.621 Y110.362 E25.1991
G1 X173.228 Y110.918 E25.2578
G1 X172.478 Y111.857 E25.3614
G1 X172.103 Y112.284 E25.4104
G1 X171.400 Y113.009 E25.4974
G1 X170.899 Y113.469 E25.5561
G1 X169.732 Y114.423 E25.6860
G1 X169.084 Y114.884 E25.7546
G1 X167.964 Y115.572 E25.8679
G1 X167.364 Y115.895 E25.9267
G1 X166.223 Y116.426 E26.0351
G1 X165.589 Y116.677 E26.0939
G1 X164.557 Y117.019 E26.1877
G1 X164.230 Y117.117 E26.2171
G1 X156.446 Y119.206 E26.9119
G1 X166.461 Y138.047 E28.7514
G1 X166.665 Y138.471 E28.7919
G1 X167.033 Y139.321 E28.8718
G1 X167.240 Y139.870 E28.9224
G1 X167.636 Y141.111 E29.0347
G1 X167.832 Y141.912 E29.1058
G1 X168.116 Y143.566 E29.2505
G1 X168.201 Y144.503 E29.3316
G1 X168.218 Y146.181 E29.4762
G1 X168.169 Y147.003 E29.5472
G1 X168.002 Y148.295 E29.6595
G1 X167.897 Y148.873 E29.7102
G1 X167.674 Y149.834 E29.7953
G1 X167.512 Y150.402 E29.8461
G1 X167.111 Y151.579 E29.9533
G1 X166.845 Y152.228 E30.0138
G1 X166.256 Y153.456 E30.1312
G1 X165.848 Y154.173 E30.2024
G1 X164.950 Y155.522 E30.3421
G1 X164.447 Y156.174 E30.4130
G1 X163.542 Y157.191 E30.5304
G1 X163.044 Y157.688 E30.5911
G1 X162.025 Y158.591 E30.7085
G1 X161.371 Y159.093 E30.7795
G1 X160.021 Y159.987 E30.9191
G1 X159.305 Y160.393 E30.9900
G1 X158.077 Y160.980 E31.1074
G1 X157.423 Y161.245 E31.1683
G1 X156.244 Y161.644 E31.2756
G1 X155.678 Y161.804 E31.3262
G1 X64.045 Y182.921 E39.4330
G1 X63.711 Y182.988 E39.4624
G1 X62.639 Y183.171 E39.5562
G1 X61.962 Y183.247 E39.6149
G1 X60.648 Y183.317 E39.7283
G1 X59.854 Y183.305 E39.7968
G1 X58.295 Y183.178 E39.9316
G1 X57.508 Y183.060 E40.0002
G1 X56.224 Y182.778 E40.1136
G1 X55.569 Y182.594 E40.1722
G1 X54.379 Y182.185 E40.2807
G1 X53.749 Y181.927 E40.3394
G1 X52.665 Y181.407 E40.4431
G1 X52.164 Y181.136 E40.4921
G1 X51.348 Y180.644 E40.5743
G1 X50.878 Y180.328 E40.6231
G1 X50.051 Y179.713 E40.7120
G1 X49.784 Y179.502 E40.7413
G1 X35.642 Y167.661 E42.3314
G1 X35.472 Y167.512 E42.3509
G1 X34.891 Y166.987 E42.4184
G1 X34.488 Y166.585 E42.4675
G1 X33.715 Y165.737 E42.5664
G1 X33.353 Y165.299 E42.6154
G1 X32.817 Y164.583 E42.6925
G1 X32.561 Y164.211 E42.7314
G1 X32.111 Y163.504 E42.8037
G1 X31.882 Y163.110 E42.8430
G1 X8.324 Y118.811 E47.1684
G1 X8.122 Y118.394 E47.2084
G1 X7.555 Y117.089 E47.3310
G1 X7.283 Y116.325 E47.4010
G1 X6.938 Y115.088 E47.5117
G1 X6.809 Y114.524 E47.5616
G1 X6.640 Y113.567 E47.6453
G1 X6.568 Y112.993 E47.6952
G1 X6.474 Y111.769 E47.8010
G1 X6.462 Y111.072 E47.8611
G1 X6.518 Y109.731 E47.9769
G1 X6.607 Y108.926 E48.0467
G1 X6.880 Y107.414 E48.1791
G1 X7.043 Y106.741 E48.2388
G1 X7.344 Y105.756 E48.3276
G1 X7.541 Y105.209 E48.3778
G1 X7.991 Y104.129 E48.4786
G1 X8.240 Y103.605 E48.5286
G1 X8.728 Y102.698 E48.6174
G1 X9.093 Y102.105 E48.6774
G1 X9.941 Y100.894 E48.8049
G1 X10.371 Y100.352 E48.8645
G1 X11.056 Y99.583 E48.9533
G1 X11.465 Y99.168 E49.0036
G1 X12.325 Y98.376 E49.1043
G1 X12.769 Y98.007 E49.1541
G1 X13.543 Y97.423 E49.2377
G1 X14.020 Y97.099 E49.2874
G1 X14.908 Y96.557 E49.3771
G1 X15.213 Y96.383 E49.4073
G1 X18.169 Y94.811 E49.6960
G1 X18.585 Y94.610 E49.7359
G1 X19.890 Y94.043 E49.8585
G1 X20.655 Y93.771 E49.9285
G1 X21.947 Y93.409 E50.0442
G1 X22.626 Y93.262 E50.1040
G1 X22.758 Y93.970 F18000
G92 E0.0000
G1 X23.985 Y93.778 E0.1070 F1620
G1 X24.635 Y93.716 E0.1634
G1 X25.876 Y93.670 E0.2705
G1 X26.529 Y93.684 E0.3267
G1 X27.821 Y93.788 E0.4385
G1 X28.575 Y93.902 E0.5042
G1 X29.925 Y94.201 E0.6234
G1 X30.345 Y94.312 E0.6609
G1 X47.726 Y99.626 E2.2278
G1 X48.020 Y99.725 E2.2545
G1 X48.984 Y100.080 E2.3430
G1 X49.554 Y100.327 E2.3966
G1 X50.565 Y100.834 E2.4941
G1 X51.017 Y101.088 E2.5388
G1 X51.818 Y101.588 E2.6202
G1 X52.325 Y101.946 E2.6738
G1 X53.398 Y102.797 E2.7918
G1 X53.456 Y102.849 E2.7985
G1 X53.456 Y97.803 E3.2335
G1 X53.473 Y97.363 E3.2714
G1 X53.544 Y96.475 E3.3482
G1 X53.614 Y95.931 E3.3955
G1 X53.827 Y94.751 E3.4988
G1 X53.982 Y94.110 E3.5557
G1 X54.350 Y92.912 E3.6638
G1 X54.580 Y92.294 E3.7206
G1 X55.087 Y91.148 E3.8287
G1 X55.389 Y90.562 E3.8855
G1 X56.029 Y89.483 E3.9936
G1 X56.398 Y88.937 E4.0504
G1 X57.127 Y87.986 E4.1538
G1 X57.483 Y87.567 E4.2011
G1 X58.130 Y86.878 E4.2827
G1 X58.525 Y86.496 E4.3300
G1 X59.428 Y85.707 E4.4334
G1 X59.949 Y85.304 E4.4902
G1 X60.939 Y84.627 E4.5935
G1 X61.407 Y84.341 E4.6409
G1 X62.237 Y83.887 E4.7224
G1 X62.732 Y83.648 E4.7698
G1 X63.785 Y83.201 E4.8684
G1 X64.301 Y83.012 E4.9157
G1 X65.046 Y82.780 E4.9831
G1 X65.257 Y82.719 E5.0020
G1 X129.446 Y65.486 E10.7317
G1 X135.524 Y42.854 E12.7520
G1 X135.612 Y42.559 E12.7785
G1 X135.916 Y41.634 E12.8625
G1 X136.101 Y41.150 E12.9071
G1 X136.458 Y40.332 E12.9840
G1 X136.687 Y39.868 E13.0286
G1 X137.209 Y38.924 E13.1216
G1 X137.480 Y38.483 E13.1663
G1 X138.012 Y37.703 E13.2477
G1 X138.390 Y37.210 E13.3013
G1 X139.216 Y36.250 E13.4104
G1 X139.498 Y35.947 E13.4461
G1 X152.348 Y23.097 E15.0128
G1 X152.585 Y22.873 E15.0409
G1 X153.391 Y22.156 E15.1339
G1 X153.904 Y21.752 E15.1902
G1 X154.923 Y21.042 E15.2972
G1 X155.479 Y20.701 E15.3535
G1 X156.574 Y20.116 E15.4605
G1 X157.167 Y19.843 E15.5168
G1 X158.273 Y19.410 E15.6191
G1 X158.788 Y19.237 E15.6660
G1 X159.690 Y18.983 E15.7468
G1 X160.220 Y18.861 E15.7937
G1 X161.388 Y18.652 E15.8960
G1 X162.037 Y18.575 E15.9523
G1 X163.117 Y18.512 E16.0456
G1 X163.450 Y18.502 E16.0743
G1 X167.010 Y18.506 E16.3812
G1 X167.547 Y18.533 E16.4275
G1 X168.671 Y18.644 E16.5249
G1 X169.209 Y18.724 E16.5718
G1 X170.181 Y18.917 E16.6572
G1 X170.812 Y19.082 E16.7135
G1 X172.283 Y19.560 E16.8468
G1 X173.088 Y19.893 E16.9219
G1 X174.465 Y20.595 E17.0552
G1 X175.028 Y20.925 E17.1115
G1 X175.852 Y21.475 E17.1969
G1 X176.290 Y21.800 E17.2438
G1 X177.207 Y22.553 E17.3462
G1 X177.686 Y22.996 E17.4024
G1 X178.547 Y23.891 E17.5095
G1 X178.971 Y24.387 E17.5658
G1 X179.688 Y25.334 E17.6681
G1 X179.994 Y25.783 E17.7150
G1 X180.484 Y26.582 E17.7957
G1 X180.745 Y27.059 E17.8427
G1 X181.263 Y28.127 E17.9450
G1 X181.513 Y28.730 E18.0012
G1 X181.919 Y29.903 E18.1083
G1 X182.097 Y30.532 E18.1646
G1 X182.363 Y31.744 E18.2716
G1 X182.465 Y32.389 E18.3279
G1 X182.581 Y33.571 E18.4303
G1 X182.608 Y34.116 E18.4773
G1 X182.597 Y84.916 E22.8568
G1 X182.531 Y85.766 E22.9303
G1 X182.282 Y87.369 E23.0702
G1 X182.087 Y88.200 E23.1437
G1 X181.660 Y89.543 E23.2652
G1 X181.515 Y89.944 E23.3020
G1 X174.554 Y107.123 E24.8999
G1 X174.425 Y107.416 E24.9275
G1 X173.972 Y108.370 E25.0186
G1 X173.666 Y108.931 E25.0738
G1 X173.021 Y109.963 E25.1786
G1 X172.652 Y110.485 E25.2338
G1 X171.926 Y111.395 E25.3341
G1 X171.574 Y111.795 E25.3801
G1 X170.898 Y112.492 E25.4638
G1 X170.427 Y112.925 E25.5189
G1 X169.295 Y113.851 E25.6449
G1 X168.687 Y114.283 E25.7093
G1 X167.605 Y114.948 E25.8188
G1 X167.041 Y115.251 E25.8739
G1 X165.938 Y115.764 E25.9788
G1 X165.343 Y116.000 E26.0340
G1 X164.340 Y116.332 E26.1251
G1 X164.034 Y116.424 E26.1527
G1 X155.386 Y118.745 E26.9246
G1 X165.818 Y138.373 E28.8409
G1 X166.010 Y138.770 E28.8789
G1 X166.365 Y139.591 E28.9560
G1 X166.559 Y140.107 E29.0035
G1 X166.943 Y141.306 E29.1121
G1 X167.127 Y142.058 E29.1788
G1 X167.401 Y143.660 E29.3189
G1 X167.481 Y144.540 E29.3951
G1 X167.498 Y146.164 E29.5351
G1 X167.452 Y146.935 E29.6017
