; G-Code generated by Simplify3D(R) Version 4.1.2
; Sep 9, 2020 at 7:14:42 PM
; Settings Summary
;   processName,Process1
;   applyToModels,enclosure-bottom
;   profileName,HBot (modified)
;   profileVersion,2019-10-26 23:38:43
;   baseProfile,Default
;   printMaterial,PETG - ERYONE
;   printQuality,Medium
;   printExtruders,
;   extruderName,Extruder 1
;   extruderToolheadNumber,0
;   extruderDiameter,0.4
;   extruderAutoWidth,1
;   extruderWidth,0.48
;   extrusionMultiplier,1
;   extruderUseRetract,1
;   extruderRetractionDistance,4
;   extruderExtraRestartDistance,0
;   extruderRetractionZLift,0.2
;   extruderRetractionSpeed,3600
;   extruderUseCoasting,1
;   extruderCoastingDistance,0.2
;   extruderUseWipe,1
;   extruderWipeDistance,5
;   primaryExtruder,0
;   layerHeight,0.24
;   topSolidLayers,4
;   bottomSolidLayers,4
;   perimeterOutlines,4
;   printPerimetersInsideOut,1
;   startPointOption,3
;   startPointOriginX,200
;   startPointOriginY,100
;   sequentialIslands,0
;   spiralVaseMode,0
;   firstLayerHeightPercentage,100
;   firstLayerWidthPercentage,100
;   firstLayerUnderspeed,0.5
;   useRaft,0
;   raftExtruder,0
;   raftTopLayers,3
;   raftBaseLayers,2
;   raftOffset,3
;   raftSeparationDistance,0.18
;   raftTopInfill,100
;   aboveRaftSpeedMultiplier,0.3
;   useSkirt,1
;   skirtExtruder,0
;   skirtLayers,1
;   skirtOutlines,5
;   skirtOffset,10
;   usePrimePillar,0
;   primePillarExtruder,999
;   primePillarWidth,12
;   primePillarLocation,7
;   primePillarSpeedMultiplier,1
;   useOozeShield,0
;   oozeShieldExtruder,999
;   oozeShieldOffset,0.9
;   oozeShieldOutlines,2
;   oozeShieldSidewallShape,0
;   oozeShieldSidewallAngle,30
;   oozeShieldSpeedMultiplier,1.5
;   infillExtruder,0
;   internalInfillPattern,Fast Honeycomb
;   externalInfillPattern,Rectilinear
;   infillPercentage,20
;   outlineOverlapPercentage,25
;   infillExtrusionWidthPercentage,100
;   minInfillLength,5
;   infillLayerInterval,1
;   internalInfillAngles,0
;   overlapInternalInfillAngles,0
;   externalInfillAngles,45,-45
;   generateSupport,1
;   supportExtruder,0
;   supportInfillPercentage,25
;   supportExtraInflation,0
;   supportBaseLayers,0
;   denseSupportExtruder,0
;   denseSupportLayers,0
;   denseSupportInfillPercentage,70
;   supportLayerInterval,1
;   supportHorizontalPartOffset,0.3
;   supportUpperSeparationLayers,1
;   supportLowerSeparationLayers,1
;   supportType,0
;   supportGridSpacing,4
;   maxOverhangAngle,25
;   supportAngles,0
;   temperatureName,Extruder 1,Heated Bed
;   temperatureNumber,0,1
;   temperatureSetpointCount,1,1
;   temperatureSetpointLayers,1,1
;   temperatureSetpointTemperatures,230,75
;   temperatureStabilizeAtStartup,1,1
;   temperatureHeatedBed,0,1
;   fanLayers,1
;   fanSpeeds,0
;   blipFanToFullPower,1
;   adjustSpeedForCooling,1
;   minSpeedLayerTime,15
;   minCoolingSpeedSlowdown,20
;   increaseFanForCooling,0
;   minFanLayerTime,45
;   maxCoolingFanSpeed,35
;   increaseFanForBridging,1
;   bridgingFanSpeed,85
;   use5D,1
;   relativeEdistances,0
;   allowEaxisZeroing,1
;   independentExtruderAxes,0
;   includeM10123,0
;   stickySupport,1
;   applyToolheadOffsets,0
;   gcodeXoffset,0
;   gcodeYoffset,0
;   gcodeZoffset,0
;   overrideMachineDefinition,1
;   machineTypeOverride,0
;   strokeXoverride,210
;   strokeYoverride,210
;   strokeZoverride,150
;   originOffsetXoverride,0
;   originOffsetYoverride,0
;   originOffsetZoverride,0
;   homeXdirOverride,-1
;   homeYdirOverride,-1
;   homeZdirOverride,-1
;   flipXoverride,1
;   flipYoverride,-1
;   flipZoverride,1
;   toolheadOffsets,0,0|0,0|0,0|0,0|0,0|0,0
;   overrideFirmwareConfiguration,1
;   firmwareTypeOverride,RepRap (Marlin/Repetier/Sprinter)
;   GPXconfigOverride,r2
;   baudRateOverride,115200
;   overridePrinterModels,0
;   printerModelsOverride
;   startingGcode,G28 ; home all axes,G32 ; run bed.g -- probe bed and enable compensation
;   layerChangeGcode,
;   retractionGcode,
;   toolChangeGcode,
;   endingGcode,M0 ; call stop.g
;   exportFileFormat,gcode
;   celebration,0
;   celebrationSong,Random Song
;   postProcessing,
;   defaultSpeed,3600
;   outlineUnderspeed,0.5
;   solidInfillUnderspeed,0.8
;   supportUnderspeed,0.8
;   rapidXYspeed,18000
;   rapidZspeed,1200
;   minBridgingArea,50
;   bridgingExtraInflation,0
;   bridgingExtrusionMultiplier,0.96
;   bridgingSpeedMultiplier,1
;   useFixedBridgingAngle,0
;   fixedBridgingAngle,0
;   applyBridgingToPerimeters,0
;   filamentDiameters,1.75|1.75|1.75|1.75|1.75|1.75
;   filamentPricesPerKg,46|46|46|46|46|46
;   filamentDensities,1.25|1.25|1.25|1.25|1.25|1.25
;   useMinPrintHeight,0
;   minPrintHeight,20
;   useMaxPrintHeight,0
;   maxPrintHeight,15
;   useDiaphragm,0
;   diaphragmLayerInterval,20
;   robustSlicing,1
;   mergeAllIntoSolid,0
;   onlyRetractWhenCrossingOutline,1
;   retractBetweenLayers,0
;   useRetractionMinTravel,1
;   retractionMinTravel,3
;   retractWhileWiping,1
;   onlyWipeOutlines,1
;   avoidCrossingOutline,1
;   maxMovementDetourFactor,5
;   toolChangeRetractionDistance,12
;   toolChangeExtraRestartDistance,-0.5
;   toolChangeRetractionSpeed,600
;   externalThinWallType,0
;   internalThinWallType,2
;   thinWallAllowedOverlapPercentage,10
;   singleExtrusionMinLength,1
;   singleExtrusionMinPrintingWidthPercentage,50
;   singleExtrusionMaxPrintingWidthPercentage,150
;   singleExtrusionEndpointExtension,0.2
;   horizontalSizeCompensation,-0.1
G90
M82
M106 S0
M140 S75
M190 S75
M104 S230 T0
M109 S230 T0
G28 ; home all axes
G32 ; run bed.g -- probe bed and enable compensation
; process Process1
; layer 1, Z = 0.240
T0
G92 E0.0000
G1 E-4.0000 F3600
; feature skirt
; tool H0.240 W0.480
G1 Z0.240 F1200
G1 X158.660 Y31.231 F18000
G1 E0.0000 F3600
G92 E0.0000
G1 X158.649 Y169.552 E6.6248 F1800
G1 X158.597 Y170.346 E6.6629
G1 X158.410 Y171.770 E6.7317
G1 X158.255 Y172.551 E6.7699
G1 X157.908 Y173.843 E6.8339
G1 X157.726 Y174.411 E6.8625
G1 X157.403 Y175.270 E6.9065
G1 X157.165 Y175.818 E6.9350
G1 X156.618 Y176.928 E6.9943
G1 X156.327 Y177.450 E7.0229
G1 X155.843 Y178.230 E7.0669
G1 X155.503 Y178.721 E7.0955
G1 X154.749 Y179.703 E7.1548
G1 X154.363 Y180.158 E7.1834
G1 X153.736 Y180.828 E7.2273
G1 X153.307 Y181.243 E7.2559
G1 X152.376 Y182.059 E7.3152
G1 X151.909 Y182.430 E7.3438
G1 X151.163 Y182.965 E7.3878
G1 X150.661 Y183.288 E7.4164
G1 X149.588 Y183.907 E7.4757
G1 X149.058 Y184.180 E7.5042
G1 X148.222 Y184.559 E7.5482
G1 X147.667 Y184.778 E7.5768
G1 X146.494 Y185.176 E7.6361
G1 X145.920 Y185.340 E7.6647
G1 X145.026 Y185.548 E7.7086
G1 X144.439 Y185.655 E7.7372
G1 X143.212 Y185.817 E7.7965
G1 X142.617 Y185.866 E7.8251
G1 X141.896 Y185.889 E7.8596
G1 X141.696 Y185.892 E7.8692
G1 X67.680 Y185.882 E11.4142
G1 X66.887 Y185.830 E11.4523
G1 X65.561 Y185.655 E11.5163
G1 X64.973 Y185.548 E11.5449
G1 X64.080 Y185.340 E11.5889
G1 X63.506 Y185.176 E11.6175
G1 X62.333 Y184.778 E11.6767
G1 X61.778 Y184.559 E11.7053
G1 X60.942 Y184.180 E11.7493
G1 X60.412 Y183.907 E11.7779
G1 X59.340 Y183.288 E11.8372
G1 X58.838 Y182.965 E11.8657
G1 X58.172 Y182.488 E11.9049
G1 X57.857 Y182.246 E11.9240
G1 X57.224 Y181.727 E11.9632
G1 X56.782 Y181.326 E11.9918
G1 X55.836 Y180.380 E12.0558
G1 X55.311 Y179.782 E12.0940
G1 X54.497 Y178.721 E12.1580
G1 X54.157 Y178.230 E12.1866
G1 X53.672 Y177.450 E12.2306
G1 X53.382 Y176.928 E12.2592
G1 X52.835 Y175.818 E12.3185
G1 X52.597 Y175.270 E12.3471
G1 X52.309 Y174.505 E12.3862
G1 X52.182 Y174.128 E12.4053
G1 X51.944 Y173.345 E12.4445
G1 X51.799 Y172.766 E12.4731
G1 X51.538 Y171.454 E12.5372
G1 X51.434 Y170.664 E12.5753
G1 X51.353 Y169.427 E12.6347
G1 X51.340 Y169.029 E12.6537
G1 X51.346 Y31.230 E19.2536
G1 X58.469 Y24.107 E19.7360
G1 X151.537 Y24.107 E24.1935
G1 X158.660 Y31.231 E24.6760
G1 X158.180 Y31.430 F18000
G92 E0.0000
G1 X158.169 Y169.536 E6.6145 F1800
G1 X158.119 Y170.299 E6.6511
G1 X157.936 Y171.692 E6.7184
G1 X157.787 Y172.442 E6.7551
G1 X157.448 Y173.707 E6.8178
G1 X157.272 Y174.253 E6.8453
G1 X156.957 Y175.090 E6.8881
G1 X156.729 Y175.616 E6.9155
G1 X156.192 Y176.705 E6.9737
G1 X155.914 Y177.207 E7.0012
G1 X155.441 Y177.966 E7.0440
G1 X155.115 Y178.438 E7.0715
G1 X154.376 Y179.401 E7.1297
G1 X154.005 Y179.839 E7.1571
G1 X153.393 Y180.491 E7.1999
G1 X152.982 Y180.890 E7.2274
G1 X152.069 Y181.690 E7.2855
G1 X151.620 Y182.047 E7.3130
G1 X150.893 Y182.568 E7.3558
G1 X150.410 Y182.879 E7.3833
G1 X149.359 Y183.486 E7.4415
G1 X148.849 Y183.748 E7.4689
G1 X148.035 Y184.117 E7.5118
G1 X147.501 Y184.327 E7.5392
G1 X146.351 Y184.718 E7.5974
G1 X145.800 Y184.875 E7.6249
G1 X144.929 Y185.078 E7.6677
G1 X144.365 Y185.181 E7.6952
G1 X143.161 Y185.339 E7.7533
G1 X142.589 Y185.386 E7.7808
G1 X141.885 Y185.409 E7.8145
G1 X141.693 Y185.412 E7.8237
G1 X67.696 Y185.402 E11.3678
G1 X66.934 Y185.352 E11.4044
G1 X65.635 Y185.181 E11.4671
G1 X65.071 Y185.078 E11.4946
G1 X64.200 Y184.875 E11.5374
G1 X63.649 Y184.718 E11.5649
G1 X62.499 Y184.327 E11.6230
G1 X61.965 Y184.117 E11.6505
G1 X61.151 Y183.748 E11.6933
G1 X60.641 Y183.486 E11.7207
G1 X59.590 Y182.879 E11.7789
G1 X59.108 Y182.568 E11.8064
G1 X58.458 Y182.103 E11.8446
G1 X58.155 Y181.870 E11.8629
G1 X57.538 Y181.363 E11.9012
G1 X57.113 Y180.978 E11.9287
G1 X56.187 Y180.052 E11.9914
G1 X55.683 Y179.477 E12.0280
G1 X54.885 Y178.438 E12.0908
G1 X54.559 Y177.966 E12.1182
G1 X54.086 Y177.207 E12.1611
G1 X53.808 Y176.705 E12.1885
G1 X53.271 Y175.616 E12.2467
G1 X53.043 Y175.090 E12.2742
G1 X52.761 Y174.343 E12.3124
G1 X52.639 Y173.981 E12.3307
G1 X52.407 Y173.217 E12.3689
G1 X52.267 Y172.661 E12.3964
G1 X52.012 Y171.376 E12.4592
G1 X51.912 Y170.617 E12.4958
G1 X51.832 Y169.403 E12.5541
G1 X51.820 Y169.021 E12.5724
G1 X51.826 Y31.429 E19.1623
G1 X58.668 Y24.587 E19.6257
G1 X151.338 Y24.587 E24.0641
G1 X158.180 Y31.430 E24.5276
G1 X157.700 Y31.629 F18000
G92 E0.0000
G1 X157.689 Y169.520 E6.6042 F1800
G1 X157.641 Y170.251 E6.6393
G1 X157.462 Y171.614 E6.7051
G1 X157.319 Y172.333 E6.7403
G1 X156.987 Y173.572 E6.8017
G1 X156.819 Y174.095 E6.8280
G1 X156.512 Y174.910 E6.8697
G1 X156.294 Y175.414 E6.8961
G1 X155.767 Y176.482 E6.9531
G1 X155.500 Y176.963 E6.9794
G1 X155.040 Y177.703 E7.0211
G1 X154.727 Y178.155 E7.0475
G1 X154.002 Y179.100 E7.1045
G1 X153.646 Y179.519 E7.1309
G1 X153.051 Y180.154 E7.1726
G1 X152.656 Y180.537 E7.1989
G1 X151.761 Y181.322 E7.2559
G1 X151.331 Y181.663 E7.2822
G1 X150.623 Y182.171 E7.3239
G1 X150.160 Y182.469 E7.3503
G1 X149.129 Y183.064 E7.4073
G1 X148.640 Y183.315 E7.4336
G1 X147.847 Y183.674 E7.4753
G1 X147.336 Y183.877 E7.5017
G1 X146.208 Y184.259 E7.5587
G1 X145.679 Y184.410 E7.5850
G1 X144.831 Y184.608 E7.6268
G1 X144.290 Y184.707 E7.6531
G1 X143.110 Y184.862 E7.7101
G1 X142.562 Y184.907 E7.7365
G1 X141.873 Y184.929 E7.7695
G1 X141.689 Y184.932 E7.7783
G1 X67.712 Y184.922 E11.3214
G1 X66.981 Y184.874 E11.3565
G1 X65.710 Y184.707 E11.4179
G1 X65.168 Y184.608 E11.4442
G1 X64.321 Y184.410 E11.4859
G1 X63.792 Y184.259 E11.5122
G1 X62.664 Y183.877 E11.5693
G1 X62.153 Y183.674 E11.5956
G1 X61.360 Y183.315 E11.6373
G1 X60.871 Y183.064 E11.6636
G1 X59.840 Y182.469 E11.7207
G1 X59.378 Y182.171 E11.7470
G1 X58.744 Y181.717 E11.7843
G1 X58.454 Y181.494 E11.8019
G1 X57.851 Y181.000 E11.8392
G1 X57.444 Y180.630 E11.8655
G1 X56.537 Y179.724 E11.9269
G1 X56.054 Y179.172 E11.9620
G1 X55.273 Y178.155 E12.0235
G1 X54.960 Y177.703 E12.0498
G1 X54.500 Y176.963 E12.0915
G1 X54.233 Y176.482 E12.1179
G1 X53.706 Y175.414 E12.1749
G1 X53.488 Y174.910 E12.2012
G1 X53.213 Y174.181 E12.2385
G1 X53.096 Y173.834 E12.2561
G1 X52.870 Y173.089 E12.2934
G1 X52.736 Y172.556 E12.3197
G1 X52.486 Y171.297 E12.3812
G1 X52.390 Y170.570 E12.4163
G1 X52.312 Y169.380 E12.4734
G1 X52.300 Y169.013 E12.4910
G1 X52.306 Y31.628 E19.0710
G1 X58.866 Y25.067 E19.5154
G1 X151.139 Y25.067 E23.9347
G1 X157.700 Y31.629 E24.3792
G1 X157.220 Y31.828 F18000
G92 E0.0000
G1 X157.209 Y169.505 E6.5940 F1800
G1 X157.164 Y170.204 E6.6276
G1 X156.988 Y171.535 E6.6919
G1 X156.851 Y172.224 E6.7255
G1 X156.527 Y173.436 E6.7856
G1 X156.366 Y173.937 E6.8108
G1 X156.067 Y174.730 E6.8514
G1 X155.858 Y175.213 E6.8766
G1 X155.342 Y176.260 E6.9325
G1 X155.086 Y176.720 E6.9577
G1 X154.639 Y177.439 E6.9983
G1 X154.339 Y177.872 E7.0235
G1 X153.628 Y178.798 E7.0794
G1 X153.288 Y179.200 E7.1046
G1 X152.709 Y179.818 E7.1452
G1 X152.331 Y180.183 E7.1704
G1 X151.453 Y180.953 E7.2262
G1 X151.041 Y181.280 E7.2514
G1 X150.353 Y181.774 E7.2920
G1 X149.910 Y182.059 E7.3173
G1 X148.899 Y182.643 E7.3732
G1 X148.431 Y182.883 E7.3984
G1 X147.660 Y183.232 E7.4389
G1 X147.170 Y183.426 E7.4641
G1 X146.065 Y183.801 E7.5200
G1 X145.559 Y183.946 E7.5452
G1 X144.734 Y184.138 E7.5858
G1 X144.216 Y184.232 E7.6110
G1 X143.059 Y184.385 E7.6669
G1 X142.534 Y184.428 E7.6921
G1 X141.861 Y184.450 E7.7244
G1 X141.685 Y184.452 E7.7328
G1 X67.727 Y184.442 E11.2750
G1 X67.028 Y184.396 E11.3086
G1 X65.784 Y184.232 E11.3687
G1 X65.266 Y184.138 E11.3939
G1 X64.441 Y183.946 E11.4344
G1 X63.935 Y183.801 E11.4596
G1 X62.830 Y183.426 E11.5156
G1 X62.340 Y183.232 E11.5408
G1 X61.569 Y182.883 E11.5813
G1 X61.101 Y182.643 E11.6065
G1 X60.090 Y182.059 E11.6624
G1 X59.648 Y181.774 E11.6876
G1 X59.030 Y181.331 E11.7240
G1 X58.752 Y181.118 E11.7408
G1 X58.165 Y180.636 E11.7772
G1 X57.775 Y180.283 E11.8024
G1 X56.888 Y179.395 E11.8625
G1 X56.425 Y178.868 E11.8961
G1 X55.661 Y177.872 E11.9562
G1 X55.361 Y177.439 E11.9814
G1 X54.914 Y176.720 E12.0220
G1 X54.658 Y176.260 E12.0472
G1 X54.142 Y175.213 E12.1031
G1 X53.933 Y174.730 E12.1283
G1 X53.665 Y174.019 E12.1647
G1 X53.553 Y173.687 E12.1815
G1 X53.332 Y172.961 E12.2178
G1 X53.204 Y172.450 E12.2430
G1 X52.959 Y171.219 E12.3032
G1 X52.868 Y170.523 E12.3368
G1 X52.791 Y169.356 E12.3928
G1 X52.780 Y169.006 E12.4096
G1 X52.786 Y31.827 E18.9797
G1 X59.065 Y25.547 E19.4050
G1 X150.941 Y25.547 E23.8054
G1 X157.220 Y31.828 E24.2307
G1 X156.740 Y32.027 F18000
G92 E0.0000
G1 X156.729 Y169.489 E6.5837 F1800
G1 X156.686 Y170.157 E6.6158
G1 X156.514 Y171.457 E6.6786
G1 X156.384 Y172.115 E6.7107
G1 X156.066 Y173.301 E6.7695
G1 X155.912 Y173.779 E6.7936
G1 X155.622 Y174.550 E6.8330
G1 X155.422 Y175.011 E6.8571
G1 X154.916 Y176.037 E6.9118
G1 X154.672 Y176.476 E6.9359
G1 X154.237 Y177.176 E6.9754
G1 X153.951 Y177.589 E6.9995
G1 X153.255 Y178.497 E7.0543
G1 X152.929 Y178.880 E7.0783
G1 X152.367 Y179.481 E7.1178
G1 X152.006 Y179.830 E7.1418
G1 X151.146 Y180.584 E7.1966
G1 X150.752 Y180.897 E7.2207
G1 X150.083 Y181.377 E7.2601
G1 X149.660 Y181.649 E7.2842
G1 X148.669 Y182.221 E7.3390
G1 X148.222 Y182.451 E7.3631
G1 X147.472 Y182.790 E7.4025
G1 X147.005 Y182.975 E7.4266
G1 X145.922 Y183.343 E7.4813
G1 X145.438 Y183.481 E7.5054
G1 X144.636 Y183.668 E7.5449
G1 X144.142 Y183.758 E7.5690
G1 X143.008 Y183.907 E7.6237
G1 X142.507 Y183.948 E7.6478
G1 X141.849 Y183.970 E7.6793
G1 X141.681 Y183.972 E7.6874
G1 X67.743 Y183.962 E11.2286
G1 X67.075 Y183.918 E11.2607
G1 X65.858 Y183.758 E11.3194
G1 X65.364 Y183.668 E11.3435
G1 X64.561 Y183.481 E11.3830
G1 X64.078 Y183.343 E11.4070
G1 X62.995 Y182.975 E11.4618
G1 X62.527 Y182.790 E11.4859
G1 X61.778 Y182.451 E11.5253
G1 X61.331 Y182.221 E11.5494
G1 X60.340 Y181.649 E11.6042
G1 X59.918 Y181.377 E11.6282
G1 X59.316 Y180.946 E11.6637
G1 X59.050 Y180.742 E11.6797
G1 X58.479 Y180.273 E11.7152
G1 X58.106 Y179.935 E11.7393
G1 X57.238 Y179.067 E11.7980
G1 X56.796 Y178.563 E11.8301
G1 X56.049 Y177.589 E11.8889
G1 X55.763 Y177.176 E11.9130
G1 X55.328 Y176.476 E11.9525
G1 X55.084 Y176.037 E11.9765
G1 X54.578 Y175.011 E12.0313
G1 X54.378 Y174.550 E12.0554
G1 X54.117 Y173.858 E12.0908
G1 X54.010 Y173.541 E12.1069
G1 X53.795 Y172.833 E12.1423
G1 X53.673 Y172.345 E12.1664
G1 X53.433 Y171.141 E12.2252
G1 X53.346 Y170.476 E12.2573
G1 X53.271 Y169.332 E12.3122
G1 X53.260 Y168.998 E12.3282
G1 X53.266 Y32.026 E18.8884
G1 X59.264 Y26.027 E19.2947
G1 X150.742 Y26.027 E23.6760
G1 X156.740 Y32.027 E24.0823
G92 E0.0000
G1 E-4.0000 F3600
; feature inner perimeter
G1 Z0.440 F1200
G1 X146.260 Y36.507 F18000
G1 X146.260 Y81.707
G1 X140.700 Y108.062
G1 Z0.240 F1200
G1 E0.0000 F3600
G92 E0.0000
G1 X140.715 Y107.704 E0.0172 F1350
