; G-Code generated by Simplify3D(R) Version 4.1.2
; Sep 6, 2020 at 10:40:21 PM
; Settings Summary
;   processName,Process1
;   applyToModels,spacer
;   profileName,HBot (modified)
;   profileVersion,2019-10-26 23:38:43
;   baseProfile,Default
;   printMaterial,PETG - ERYONE
;   printQuality,Medium
;   printExtruders,
;   extruderName,Extruder 1
;   extruderToolheadNumber,0
;   extruderDiameter,0.4
;   extruderAutoWidth,1
;   extruderWidth,0.48
;   extrusionMultiplier,0.98
;   extruderUseRetract,1
;   extruderRetractionDistance,4
;   extruderExtraRestartDistance,0
;   extruderRetractionZLift,0.2
;   extruderRetractionSpeed,3600
;   extruderUseCoasting,1
;   extruderCoastingDistance,0.2
;   extruderUseWipe,1
;   extruderWipeDistance,5
;   primaryExtruder,0
;   layerHeight,0.24
;   topSolidLayers,4
;   bottomSolidLayers,4
;   perimeterOutlines,4
;   printPerimetersInsideOut,1
;   startPointOption,3
;   startPointOriginX,200
;   startPointOriginY,100
;   sequentialIslands,0
;   spiralVaseMode,0
;   firstLayerHeightPercentage,100
;   firstLayerWidthPercentage,100
;   firstLayerUnderspeed,0.5
;   useRaft,0
;   raftExtruder,0
;   raftTopLayers,3
;   raftBaseLayers,2
;   raftOffset,3
;   raftSeparationDistance,0.18
;   raftTopInfill,100
;   aboveRaftSpeedMultiplier,0.3
;   useSkirt,1
;   skirtExtruder,0
;   skirtLayers,1
;   skirtOutlines,5
;   skirtOffset,10
;   usePrimePillar,0
;   primePillarExtruder,999
;   primePillarWidth,12
;   primePillarLocation,7
;   primePillarSpeedMultiplier,1
;   useOozeShield,0
;   oozeShieldExtruder,999
;   oozeShieldOffset,0.9
;   oozeShieldOutlines,2
;   oozeShieldSidewallShape,0
;   oozeShieldSidewallAngle,30
;   oozeShieldSpeedMultiplier,1.5
;   infillExtruder,0
;   internalInfillPattern,Fast Honeycomb
;   externalInfillPattern,Rectilinear
;   infillPercentage,20
;   outlineOverlapPercentage,25
;   infillExtrusionWidthPercentage,100
;   minInfillLength,5
;   infillLayerInterval,1
;   internalInfillAngles,0
;   overlapInternalInfillAngles,0
;   externalInfillAngles,45,-45
;   generateSupport,1
;   supportExtruder,0
;   supportInfillPercentage,25
;   supportExtraInflation,0
;   supportBaseLayers,0
;   denseSupportExtruder,0
;   denseSupportLayers,0
;   denseSupportInfillPercentage,70
;   supportLayerInterval,1
;   supportHorizontalPartOffset,0.3
;   supportUpperSeparationLayers,1
;   supportLowerSeparationLayers,1
;   supportType,0
;   supportGridSpacing,4
;   maxOverhangAngle,25
;   supportAngles,0
;   temperatureName,Extruder 1,Heated Bed
;   temperatureNumber,0,1
;   temperatureSetpointCount,1,1
;   temperatureSetpointLayers,1,1
;   temperatureSetpointTemperatures,230,75
;   temperatureStabilizeAtStartup,1,1
;   temperatureHeatedBed,0,1
;   fanLayers,1
;   fanSpeeds,0
;   blipFanToFullPower,1
;   adjustSpeedForCooling,1
;   minSpeedLayerTime,15
;   minCoolingSpeedSlowdown,20
;   increaseFanForCooling,0
;   minFanLayerTime,45
;   maxCoolingFanSpeed,35
;   increaseFanForBridging,1
;   bridgingFanSpeed,85
;   use5D,1
;   relativeEdistances,0
;   allowEaxisZeroing,1
;   independentExtruderAxes,0
;   includeM10123,0
;   stickySupport,1
;   applyToolheadOffsets,0
;   gcodeXoffset,0
;   gcodeYoffset,0
;   gcodeZoffset,0
;   overrideMachineDefinition,1
;   machineTypeOverride,0
;   strokeXoverride,210
;   strokeYoverride,210
;   strokeZoverride,150
;   originOffsetXoverride,0
;   originOffsetYoverride,0
;   originOffsetZoverride,0
;   homeXdirOverride,-1
;   homeYdirOverride,-1
;   homeZdirOverride,-1
;   flipXoverride,1
;   flipYoverride,-1
;   flipZoverride,1
;   toolheadOffsets,0,0|0,0|0,0|0,0|0,0|0,0
;   overrideFirmwareConfiguration,1
;   firmwareTypeOverride,RepRap (Marlin/Repetier/Sprinter)
;   GPXconfigOverride,r2
;   baudRateOverride,115200
;   overridePrinterModels,0
;   printerModelsOverride
;   startingGcode,G28 ; home all axes,G32 ; run bed.g -- probe bed and enable compensation
;   layerChangeGcode,
;   retractionGcode,
;   toolChangeGcode,
;   endingGcode,M0 ; call stop.g
;   exportFileFormat,gcode
;   celebration,0
;   celebrationSong,Random Song
;   postProcessing,
;   defaultSpeed,3600
;   outlineUnderspeed,0.5
;   solidInfillUnderspeed,0.8
;   supportUnderspeed,0.8
;   rapidXYspeed,18000
;   rapidZspeed,1200
;   minBridgingArea,50
;   bridgingExtraInflation,0
;   bridgingExtrusionMultiplier,0.96
;   bridgingSpeedMultiplier,1
;   useFixedBridgingAngle,0
;   fixedBridgingAngle,0
;   applyBridgingToPerimeters,0
;   filamentDiameters,1.75|1.75|1.75|1.75|1.75|1.75
;   filamentPricesPerKg,46|46|46|46|46|46
;   filamentDensities,1.25|1.25|1.25|1.25|1.25|1.25
;   useMinPrintHeight,0
;   minPrintHeight,20
;   useMaxPrintHeight,0
;   maxPrintHeight,15
;   useDiaphragm,0
;   diaphragmLayerInterval,20
;   robustSlicing,1
;   mergeAllIntoSolid,0
;   onlyRetractWhenCrossingOutline,1
;   retractBetweenLayers,0
;   useRetractionMinTravel,1
;   retractionMinTravel,3
;   retractWhileWiping,1
;   onlyWipeOutlines,1
;   avoidCrossingOutline,1
;   maxMovementDetourFactor,5
;   toolChangeRetractionDistance,12
;   toolChangeExtraRestartDistance,-0.5
;   toolChangeRetractionSpeed,600
;   externalThinWallType,0
;   internalThinWallType,2
;   thinWallAllowedOverlapPercentage,10
;   singleExtrusionMinLength,1
;   singleExtrusionMinPrintingWidthPercentage,50
;   singleExtrusionMaxPrintingWidthPercentage,150
;   singleExtrusionEndpointExtension,0.2
;   horizontalSizeCompensation,-0.1
G90
M82
M106 S0
M140 S75
M190 S75
M104 S230 T0
M109 S230 T0
G28 ; home all axes
G32 ; run bed.g -- probe bed and enable compensation
; process Process1
; layer 1, Z = 0.240
T0
G92 E0.0000
G1 E-4.0000 F3600
; feature skirt
; tool H0.240 W0.480
G1 Z0.240 F1200
G1 X135.380 Y104.283 F18000
G1 E0.0000 F3600
G92 E0.0000
G1 X135.380 Y138.257 E1.5946 F1800
G1 X135.210 Y138.427 E1.6059
G1 X135.210 Y149.937 E2.1461
G1 X128.087 Y157.060 E2.6190
G1 X81.913 Y157.060 E4.7862
G1 X74.790 Y149.937 E5.2590
G1 X74.790 Y136.063 E5.9102
G1 X81.913 Y128.940 E6.3830
G1 X106.620 Y128.940 E7.5427
G1 X106.620 Y103.743 E8.7253
G1 X107.090 Y103.273 E8.7565
G1 X107.090 Y81.060 E9.7992
G1 X81.913 Y81.060 E10.9809
G1 X74.790 Y73.937 E11.4537
G1 X74.790 Y60.063 E12.1049
G1 X81.913 Y52.940 E12.5777
G1 X128.087 Y52.940 E14.7450
G1 X135.210 Y60.063 E15.2178
G1 X135.210 Y104.113 E17.2853
G1 X135.380 Y104.283 E17.2966
G1 X134.900 Y104.482 F18000
G92 E0.0000
G1 X134.900 Y138.058 E1.5759 F1800
G1 X134.730 Y138.228 E1.5872
G1 X134.730 Y149.738 E2.1275
G1 X127.888 Y156.580 E2.5816
G1 X82.112 Y156.580 E4.7302
G1 X75.270 Y149.738 E5.1844
G1 X75.270 Y136.262 E5.8169
G1 X82.112 Y129.420 E6.2711
G1 X107.100 Y129.420 E7.4439
G1 X107.100 Y103.942 E8.6398
G1 X107.570 Y103.472 E8.6710
G1 X107.570 Y80.580 E9.7454
G1 X82.112 Y80.580 E10.9403
G1 X75.270 Y73.738 E11.3945
G1 X75.270 Y60.262 E12.0270
G1 X82.112 Y53.420 E12.4812
G1 X127.888 Y53.420 E14.6298
G1 X134.730 Y60.262 E15.0839
G1 X134.730 Y104.312 E17.1515
G1 X134.900 Y104.482 E17.1628
G1 X134.420 Y104.681 F18000
G92 E0.0000
G1 X134.420 Y137.859 E1.5573 F1800
G1 X134.250 Y138.029 E1.5686
G1 X134.250 Y149.539 E2.1088
G1 X127.689 Y156.100 E2.5443
G1 X82.311 Y156.100 E4.6742
G1 X75.750 Y149.539 E5.1097
G1 X75.750 Y136.461 E5.7236
G1 X82.311 Y129.900 E6.1591
G1 X107.580 Y129.900 E7.3451
G1 X107.580 Y104.141 E8.5542
G1 X108.050 Y103.671 E8.5854
G1 X108.050 Y80.100 E9.6917
G1 X82.311 Y80.100 E10.8998
G1 X75.750 Y73.539 E11.3353
G1 X75.750 Y60.461 E11.9492
G1 X82.311 Y53.900 E12.3847
G1 X127.689 Y53.900 E14.5146
G1 X134.250 Y60.461 E14.9501
G1 X134.250 Y104.511 E17.0176
G1 X134.420 Y104.681 E17.0289
G1 X133.940 Y104.880 F18000
G92 E0.0000
G1 X133.940 Y137.660 E1.5386 F1800
G1 X133.770 Y137.830 E1.5499
G1 X133.770 Y149.340 E2.0901
G1 X127.490 Y155.620 E2.5070
G1 X82.510 Y155.620 E4.6182
G1 X76.230 Y149.340 E5.0351
G1 X76.230 Y136.660 E5.6303
G1 X82.510 Y130.380 E6.0471
G1 X108.060 Y130.380 E7.2463
G1 X108.060 Y104.340 E8.4686
G1 X108.530 Y103.870 E8.4998
G1 X108.530 Y79.620 E9.6380
G1 X82.510 Y79.620 E10.8593
G1 X76.230 Y73.340 E11.2761
G1 X76.230 Y60.660 E11.8713
G1 X82.510 Y54.380 E12.2881
G1 X127.490 Y54.380 E14.3994
G1 X133.770 Y60.660 E14.8162
G1 X133.770 Y104.710 E16.8838
G1 X133.940 Y104.880 E16.8951
G1 X133.460 Y105.078 F18000
G92 E0.0000
G1 X133.460 Y137.462 E1.5200 F1800
G1 X133.290 Y137.632 E1.5312
G1 X133.290 Y149.142 E2.0715
G1 X127.292 Y155.140 E2.4697
G1 X82.708 Y155.140 E4.5622
G1 X76.710 Y149.142 E4.9604
G1 X76.710 Y136.858 E5.5369
G1 X82.708 Y130.860 E5.9351
G1 X108.540 Y130.860 E7.1475
G1 X108.540 Y104.538 E8.3830
G1 X109.010 Y104.068 E8.4142
G1 X109.010 Y79.140 E9.5843
G1 X82.708 Y79.140 E10.8188
G1 X76.710 Y73.142 E11.2169
G1 X76.710 Y60.858 E11.7935
G1 X82.708 Y54.860 E12.1916
G1 X127.292 Y54.860 E14.2842
G1 X133.290 Y60.858 E14.6824
G1 X133.290 Y104.908 E16.7499
G1 X133.460 Y105.078 E16.7612
G92 E0.0000
G1 E-4.0000 F3600
; feature inner perimeter
G1 Z0.440 F1200
G1 X121.370 Y107.340 F18000
G1 Z0.240 F1200
G1 E0.0000 F3600
G92 E0.0000
G1 X120.930 Y107.340 E0.0207 F1350
G1 X120.930 Y67.220 E1.9038
G1 X88.630 Y67.220 E3.4198
G1 X88.630 Y66.780 E3.4405
G1 X121.370 Y66.780 E4.9772
G1 X121.370 Y107.140 E6.8715
G1 X121.370 Y107.340 F1350
G1 X121.850 Y107.820 F18000
G92 E0.0000
G1 X120.450 Y107.820 E0.0657 F1350
G1 X120.450 Y67.700 E1.9488
G1 X88.150 Y67.700 E3.4649
G1 X88.150 Y66.300 E3.5306
G1 X121.850 Y66.300 E5.1123
G1 X121.850 Y107.620 E7.0518
G1 X121.850 Y107.820 F1350
G1 X122.330 Y108.300 F18000
G92 E0.0000
G1 X119.970 Y108.300 E0.1108 F1350
G1 X119.970 Y68.180 E1.9939
G1 X87.670 Y68.180 E3.5099
G1 X87.670 Y65.820 E3.6207
G1 X122.330 Y65.820 E5.2475
G1 X122.330 Y108.100 E7.2320
G1 X122.330 Y108.300 F1350
; feature outer perimeter
G1 X122.810 Y108.780 F18000
G92 E0.0000
G1 X119.490 Y108.780 E0.1558 F900
G1 X119.490 Y68.660 E2.0389
G1 X87.190 Y68.660 E3.5550
G1 X87.190 Y65.340 E3.7108
G1 X122.810 Y65.340 E5.3827
G1 X122.810 Y108.580 E7.4122
G1 X122.810 Y108.780 F900
G92 E0.0000
G1 X121.810 Y108.780 E-4.0000 F900
G1 X119.490 Y108.780 F900
G1 X119.490 Y107.100
; feature inner perimeter
G1 Z0.440 F1200
G1 X119.597 Y108.780 F18000
G1 X122.810 Y108.780
G1 X122.810 Y135.220
G1 X121.278 Y135.220
G1 X121.370 Y136.660
G1 Z0.240 F1200
G1 E0.0000 F3600
G92 E0.0000
G1 X121.370 Y143.220 E0.3079 F1350
G1 X88.630 Y143.220 E1.8446
G1 X88.630 Y142.780 E1.8653
G1 X120.930 Y142.780 E3.3813
G1 X120.930 Y136.660 E3.6686
G1 X121.170 Y136.660 E3.6798
G1 X121.370 Y136.660 F1350
G1 X121.850 Y136.180 F18000
G92 E0.0000
G1 X121.850 Y143.700 E0.3530 F1350
G1 X88.150 Y143.700 E1.9347
G1 X88.150 Y142.300 E2.0004
G1 X120.450 Y142.300 E3.5165
G1 X120.450 Y136.180 E3.8038
G1 X121.650 Y136.180 E3.8601
G1 X121.850 Y136.180 F1350
G1 X122.330 Y135.700 F18000
G92 E0.0000
G1 X122.330 Y144.180 E0.3980 F1350
G1 X87.670 Y144.180 E2.0248
G1 X87.670 Y141.820 E2.1356
G1 X119.970 Y141.820 E3.6517
G1 X119.970 Y135.700 E3.9389
G1 X122.130 Y135.700 E4.0403
G1 X122.330 Y135.700 F1350
; feature outer perimeter
G1 X122.810 Y135.220 F18000
G92 E0.0000
G1 X122.810 Y144.660 E0.4431 F900
G1 X87.190 Y144.660 E2.1150
G1 X87.190 Y141.340 E2.2708
G1 X119.490 Y141.340 E3.7869
G1 X119.490 Y135.220 E4.0741
G1 X122.610 Y135.220 E4.2205
G1 X122.810 Y135.220 F900
G92 E0.0000
G1 X122.810 Y136.220 E-4.0000 F900
G1 X122.810 Y140.220 F900
; feature support
G1 Z0.440 F1200
G1 X122.154 Y135.220 F18000
G1 X119.490 Y135.220
G1 X119.030 Y111.400
G1 Z0.240 F1200
G1 E0.0000 F3600
G92 E0.0000
G1 X122.970 Y111.400 E0.1849 F1440
G1 X122.970 Y113.320 E0.2750
G1 X119.030 Y113.320 E0.4600
G1 X119.030 Y115.240 E0.5501
G1 X122.970 Y115.240 E0.7350
G1 X122.970 Y117.160 E0.8251
G1 X119.030 Y117.160 E1.0101
G1 X119.030 Y119.080 E1.1002
G1 X122.970 Y119.080 E1.2851
G1 X122.970 Y121.000 E1.3752
G1 X119.030 Y121.000 E1.5602
G1 X119.030 Y122.920 E1.6503
G1 X122.970 Y122.920 E1.8352
G1 X122.970 Y124.840 E1.9253
G1 X119.030 Y124.840 E2.1103
G1 X119.030 Y126.760 E2.2004
G1 X122.970 Y126.760 E2.3853
G1 X122.970 Y128.680 E2.4754
G1 X119.030 Y128.680 E2.6604
G1 X119.030 Y130.600 E2.7505
G1 X122.970 Y130.600 E2.9354
G1 X122.970 Y132.520 E3.0255
G1 X119.230 Y132.520 E3.2011
G1 X119.030 Y132.520 F1440
G92 E0.0000
G1 E-4.0000 F3600
; layer 2, Z = 0.480
; feature inner perimeter
G1 Z0.480 F1200
G1 X119.490 Y135.220 F18000
G1 X120.650 Y135.220
G1 X121.370 Y136.420
G1 E0.0000 F3600
G92 E0.0000
G1 X121.370 Y143.220 E0.3192 F2700
G1 X88.630 Y143.220 E1.8559
G1 X88.630 Y142.780 E1.8765
G1 X120.930 Y142.780 E3.3926
G1 X120.930 Y136.420 E3.6911
G1 X121.170 Y136.420 E3.7024
G1 X121.370 Y136.420 F2700
G1 X121.850 Y135.940 F18000
G92 E0.0000
G1 X121.850 Y143.700 E0.3642 F2700
G1 X88.150 Y143.700 E1.9460
G1 X88.150 Y142.300 E2.0117
G1 X120.450 Y142.300 E3.5278
G1 X120.450 Y135.940 E3.8263
G1 X121.650 Y135.940 E3.8826
G1 X121.850 Y135.940 F2700
G1 X122.330 Y135.460 F18000
G92 E0.0000
G1 X122.330 Y144.180 E0.4093 F2700
G1 X87.670 Y144.180 E2.0361
G1 X87.670 Y141.820 E2.1469
G1 X119.970 Y141.820 E3.6629
G1 X119.970 Y135.460 E3.9615
G1 X122.130 Y135.460 E4.0628
G1 X122.330 Y135.460 F2700
; feature outer perimeter
G1 X122.810 Y134.980 F18000
G92 E0.0000
G1 X122.810 Y144.660 E0.4543 F1800
G1 X87.190 Y144.660 E2.1262
G1 X87.190 Y141.340 E2.2821
G1 X119.490 Y141.340 E3.7981
G1 X119.490 Y134.980 E4.0966
G1 X122.610 Y134.980 E4.2431
G1 X122.810 Y134.980 F1800
G92 E0.0000
G1 X122.810 Y136.980 E-4.0000 F1800
G1 X122.810 Y139.980 F1800
; feature inner perimeter
G1 Z0.680 F1200
G1 X122.588 Y134.980 F18000
G1 X122.810 Y109.020
G1 X121.434 Y109.020
G1 X121.370 Y107.580
G1 Z0.480 F1200
G1 E0.0000 F3600
G92 E0.0000
G1 X120.930 Y107.580 E0.0207 F2700
G1 X120.930 Y67.220 E1.9150
G1 X88.630 Y67.220 E3.4311
G1 X88.630 Y66.780 E3.4517
G1 X121.370 Y66.780 E4.9884
G1 X121.370 Y107.380 E6.8941
G1 X121.370 Y107.580 F2700
G1 X121.850 Y108.060 F18000
G92 E0.0000
G1 X120.450 Y108.060 E0.0657 F2700
G1 X120.450 Y67.700 E1.9601
G1 X88.150 Y67.700 E3.4761
G1 X88.150 Y66.300 E3.5418
G1 X121.850 Y66.300 E5.1236
G1 X121.850 Y107.860 E7.0743
G1 X121.850 Y108.060 F2700
G1 X122.330 Y108.540 F18000
G92 E0.0000
G1 X119.970 Y108.540 E0.1108 F2700
G1 X119.970 Y68.180 E2.0051
G1 X87.670 Y68.180 E3.5212
G1 X87.670 Y65.820 E3.6320
G1 X122.330 Y65.820 E5.2588
G1 X122.330 Y108.340 E7.2545
G1 X122.330 Y108.540 F2700
; feature outer perimeter
G1 X122.810 Y109.020 F18000
G92 E0.0000
G1 X119.490 Y109.020 E0.1558 F1800
G1 X119.490 Y68.660 E2.0502
G1 X87.190 Y68.660 E3.5663
G1 X87.190 Y65.340 E3.7221
G1 X122.810 Y65.340 E5.3940
G1 X122.810 Y108.820 E7.4348
G1 X122.810 Y109.020 F1800
G92 E0.0000
G1 X120.810 Y109.020 E-4.0000 F1800
G1 X119.490 Y109.020 F1800
G1 X119.490 Y107.340
; feature support
G1 Z0.680 F1200
G1 X119.490 Y109.020 F18000
G1 X119.030 Y111.400
G1 Z0.480 F1200
G1 E0.0000 F3600
G92 E0.0000
G1 X122.970 Y111.400 E0.1849 F2880
G1 X122.970 Y113.320 E0.2750
G1 X119.030 Y113.320 E0.4600
G1 X119.030 Y115.240 E0.5501
G1 X122.970 Y115.240 E0.7350
G1 X122.970 Y117.160 E0.8251
G1 X119.030 Y117.160 E1.0101
G1 X119.030 Y119.080 E1.1002
G1 X122.970 Y119.080 E1.2851
G1 X122.970 Y121.000 E1.3752
G1 X119.030 Y121.000 E1.5602
G1 X119.030 Y122.920 E1.6503
G1 X122.970 Y122.920 E1.8352
G1 X122.970 Y124.840 E1.9253
G1 X119.030 Y124.840 E2.1103
G1 X119.030 Y126.760 E2.2004
G1 X122.970 Y126.760 E2.3853
G1 X122.970 Y128.680 E2.4754
G1 X119.030 Y128.680 E2.6604
G1 X119.030 Y130.600 E2.7505
G1 X122.970 Y130.600 E2.9354
G1 X122.970 Y132.520 E3.0255
G1 X119.230 Y132.520 E3.2011
G1 X119.030 Y132.520 F2880
G92 E0.0000
G1 E-4.0000 F3600
; layer 3, Z = 0.720
; feature inner perimeter
G1 Z0.720 F1200
G1 X119.490 Y134.980 F18000
G1 X120.603 Y134.980
G1 X121.370 Y136.180
G1 E0.0000 F3600
G92 E0.0000
G1 X121.370 Y143.220 E0.3304 F2700
G1 X88.630 Y143.220 E1.8671
G1 X88.630 Y142.780 E1.8878
G1 X120.930 Y142.780 E3.4039
G1 X120.930 Y136.180 E3.7136
G1 X121.170 Y136.180 E3.7249
G1 X121.370 Y136.180 F2700
G1 X121.850 Y135.700 F18000
G92 E0.0000
G1 X121.850 Y143.700 E0.3755 F2700
G1 X88.150 Y143.700 E1.9573
G1 X88.150 Y142.300 E2.0230
G1 X120.450 Y142.300 E3.5390
G1 X120.450 Y135.700 E3.8488
G1 X121.650 Y135.700 E3.9051
G1 X121.850 Y135.700 F2700
G1 X122.330 Y135.220 F18000
