; G-Code generated by Simplify3D(R) Version 4.1.2
; Dec 4, 2021 at 5:35:51 PM
; Settings Summary
;   processName,Process1
;   applyToModels,clamp
;   profileName,HSBot (modified)
;   profileVersion,2019-11-09 11:59:44
;   baseProfile,Default
;   printMaterial,PETG - Eryone
;   printQuality,Fast
;   printExtruders,
;   extruderName,Extruder 1,Extruder - Lite
;   extruderToolheadNumber,0,1
;   extruderDiameter,0.4,0.4
;   extruderAutoWidth,1,1
;   extruderWidth,0.48,0.48
;   extrusionMultiplier,1,0.9
;   extruderUseRetract,1,1
;   extruderRetractionDistance,3,1
;   extruderExtraRestartDistance,0,0
;   extruderRetractionZLift,0,0
;   extruderRetractionSpeed,3600,1800
;   extruderUseCoasting,1,0
;   extruderCoastingDistance,0.2,0.2
;   extruderUseWipe,0,0
;   extruderWipeDistance,5,5
;   primaryExtruder,0
;   layerHeight,0.3
;   topSolidLayers,3
;   bottomSolidLayers,3
;   perimeterOutlines,3
;   printPerimetersInsideOut,1
;   startPointOption,2
;   startPointOriginX,0
;   startPointOriginY,0
;   sequentialIslands,0
;   spiralVaseMode,0
;   firstLayerHeightPercentage,150
;   firstLayerWidthPercentage,150
;   firstLayerUnderspeed,0.3
;   useRaft,0
;   raftExtruder,0
;   raftTopLayers,3
;   raftBaseLayers,2
;   raftOffset,3
;   raftSeparationDistance,0.18
;   raftTopInfill,100
;   aboveRaftSpeedMultiplier,0.3
;   useSkirt,1
;   skirtExtruder,0
;   skirtLayers,1
;   skirtOutlines,7
;   skirtOffset,0
;   usePrimePillar,0
;   primePillarExtruder,999
;   primePillarWidth,12
;   primePillarLocation,7
;   primePillarSpeedMultiplier,1
;   useOozeShield,0
;   oozeShieldExtruder,999
;   oozeShieldOffset,2
;   oozeShieldOutlines,1
;   oozeShieldSidewallShape,1
;   oozeShieldSidewallAngle,30
;   oozeShieldSpeedMultiplier,1
;   infillExtruder,0
;   internalInfillPattern,Rectilinear
;   externalInfillPattern,Rectilinear
;   infillPercentage,15
;   outlineOverlapPercentage,15
;   infillExtrusionWidthPercentage,150
;   minInfillLength,5
;   infillLayerInterval,1
;   internalInfillAngles,45,-45
;   overlapInternalInfillAngles,0
;   externalInfillAngles,45,-45
;   generateSupport,1
;   supportExtruder,0
;   supportInfillPercentage,25
;   supportExtraInflation,0
;   supportBaseLayers,1
;   denseSupportExtruder,0
;   denseSupportLayers,0
;   denseSupportInfillPercentage,70
;   supportLayerInterval,1
;   supportHorizontalPartOffset,0.3
;   supportUpperSeparationLayers,1
;   supportLowerSeparationLayers,1
;   supportType,0
;   supportGridSpacing,4
;   maxOverhangAngle,45
;   supportAngles,0
;   temperatureName,Extruder 1,Bed
;   temperatureNumber,0,0
;   temperatureSetpointCount,1,1
;   temperatureSetpointLayers,1,1
;   temperatureSetpointTemperatures,225,85
;   temperatureStabilizeAtStartup,1,1
;   temperatureHeatedBed,0,1
;   fanLayers,1,2,3
;   fanSpeeds,0,15,25
;   blipFanToFullPower,1
;   adjustSpeedForCooling,1
;   minSpeedLayerTime,15
;   minCoolingSpeedSlowdown,20
;   increaseFanForCooling,0
;   minFanLayerTime,45
;   maxCoolingFanSpeed,40
;   increaseFanForBridging,0
;   bridgingFanSpeed,80
;   use5D,1
;   relativeEdistances,0
;   allowEaxisZeroing,1
;   independentExtruderAxes,0
;   includeM10123,0
;   stickySupport,1
;   applyToolheadOffsets,0
;   gcodeXoffset,0
;   gcodeYoffset,0
;   gcodeZoffset,0
;   overrideMachineDefinition,1
;   machineTypeOverride,0
;   strokeXoverride,200
;   strokeYoverride,200
;   strokeZoverride,150
;   originOffsetXoverride,0
;   originOffsetYoverride,0
;   originOffsetZoverride,0
;   homeXdirOverride,-1
;   homeYdirOverride,-1
;   homeZdirOverride,-1
;   flipXoverride,1
;   flipYoverride,-1
;   flipZoverride,1
;   toolheadOffsets,0,0|0,0|0,0|0,0|0,0|0,0
;   overrideFirmwareConfiguration,0
;   firmwareTypeOverride,RepRap (Marlin/Repetier/Sprinter)
;   GPXconfigOverride,r2
;   baudRateOverride,115200
;   overridePrinterModels,0
;   printerModelsOverride
;   startingGcode,G28 ; home all axes,G32 ; run bed.g -- probe bed and enable compensation
;   layerChangeGcode,
;   retractionGcode,
;   toolChangeGcode,
;   endingGcode,M0 ; call stop.g
;   exportFileFormat,gcode
;   celebration,0
;   celebrationSong,Random Song
;   postProcessing,
;   defaultSpeed,8100
;   outlineUnderspeed,0.5
;   solidInfillUnderspeed,0.8
;   supportUnderspeed,0.8
;   rapidXYspeed,18000
;   rapidZspeed,1200
;   minBridgingArea,50
;   bridgingExtraInflation,0
;   bridgingExtrusionMultiplier,0.96
;   bridgingSpeedMultiplier,1
;   useFixedBridgingAngle,0
;   fixedBridgingAngle,0
;   applyBridgingToPerimeters,0
;   filamentDiameters,1.75|1.75|1.75|1.75|1.75|1.75
;   filamentPricesPerKg,25|46|46|46|46|46
;   filamentDensities,1.25|1.25|1.25|1.25|1.25|1.25
;   useMinPrintHeight,0
;   minPrintHeight,0
;   useMaxPrintHeight,0
;   maxPrintHeight,0
;   useDiaphragm,1
;   diaphragmLayerInterval,20
;   robustSlicing,1
;   mergeAllIntoSolid,0
;   onlyRetractWhenCrossingOutline,1
;   retractBetweenLayers,0
;   useRetractionMinTravel,1
;   retractionMinTravel,3
;   retractWhileWiping,1
;   onlyWipeOutlines,0
;   avoidCrossingOutline,1
;   maxMovementDetourFactor,3
;   toolChangeRetractionDistance,12
;   toolChangeExtraRestartDistance,-0.5
;   toolChangeRetractionSpeed,600
;   externalThinWallType,1
;   internalThinWallType,2
;   thinWallAllowedOverlapPercentage,10
;   singleExtrusionMinLength,1
;   singleExtrusionMinPrintingWidthPercentage,50
;   singleExtrusionMaxPrintingWidthPercentage,200
;   singleExtrusionEndpointExtension,0.2
;   horizontalSizeCompensation,-0.1
G90
M82
M106 S0
M140 S85
M190 S85
G10 S225 R{225-50} P0
M116 P0
G28 ; home all axes
G32 ; run bed.g -- probe bed and enable compensation
; process Process1
; layer 1, Z = 0.450
T0
G92 E0.0000
G1 E-3.0000 F3600
; feature skirt
; tool H0.450 W0.720
G1 Z0.450 F1200
G1 X69.630 Y83.563 F18000
G1 E0.0000 F3600
G92 E0.0000
G1 X94.085 Y83.563 E3.2942 F2430
G1 X94.258 Y83.570 E3.3175
G1 X96.347 Y83.724 E3.5997
G1 X96.690 Y83.775 E3.6463
G1 X98.814 Y84.254 E3.9396
G1 X99.145 Y84.355 E3.9863
G1 X101.175 Y85.142 E4.2796
G1 X101.488 Y85.290 E4.3262
G1 X103.370 Y86.361 E4.6178
G1 X103.639 Y86.540 E4.6613
G1 X105.855 Y88.243 E5.0379
G1 X116.677 Y88.243 E6.4957
G1 X117.466 Y87.454 E6.6460
G1 X119.677 Y85.243 E7.0672
G1 X129.994 Y85.243 E8.4569
G1 X132.736 Y87.985 E8.9791
G1 X132.736 Y113.302 E12.3894
G1 X129.994 Y116.043 E12.9117
G1 X119.677 Y116.043 E14.3014
G1 X117.147 Y113.513 E14.7835
G1 X116.677 Y113.043 E14.8729
G1 X105.855 Y113.043 E16.3307
G1 X103.639 Y114.747 E16.7072
G1 X103.370 Y114.925 E16.7507
G1 X101.488 Y115.996 E17.0424
G1 X101.176 Y116.145 E17.0890
G1 X99.145 Y116.931 E17.3823
G1 X98.814 Y117.032 E17.4289
G1 X96.690 Y117.511 E17.7223
G1 X96.347 Y117.562 E17.7689
G1 X94.258 Y117.717 E18.0511
G1 X94.085 Y117.723 E18.0744
G1 X69.630 Y117.723 E21.3686
G1 X66.889 Y114.982 E21.8908
G1 X66.889 Y86.305 E25.7537
G1 X69.630 Y83.563 E26.2760
G1 X69.928 Y84.283 F18000
G92 E0.0000
G1 X94.072 Y84.283 E3.2522 F2430
G1 X94.218 Y84.289 E3.2719
G1 X96.268 Y84.440 E3.5487
G1 X96.557 Y84.484 E3.5882
G1 X98.630 Y84.951 E3.8744
G1 X98.910 Y85.036 E3.9138
G1 X100.891 Y85.803 E4.1999
G1 X101.155 Y85.929 E4.2394
G1 X102.992 Y86.975 E4.5241
G1 X103.220 Y87.126 E4.5609
G1 X105.688 Y89.023 E4.9803
G1 X105.841 Y89.097 E5.0032
G1 X105.976 Y88.963 E5.0288
G1 X116.976 Y88.963 E6.5105
G1 X117.976 Y87.963 E6.7010
G1 X119.976 Y85.963 E7.0820
G1 X129.696 Y85.963 E8.3914
G1 X132.016 Y88.283 E8.8333
G1 X132.016 Y113.003 E12.1633
G1 X129.696 Y115.323 E12.6052
G1 X119.976 Y115.323 E13.9146
G1 X117.656 Y113.003 E14.3565
G1 X116.976 Y112.323 E14.4861
G1 X105.976 Y112.323 E15.9678
G1 X105.841 Y112.189 E15.9934
G1 X105.688 Y112.263 E16.0163
G1 X103.220 Y114.161 E16.4357
G1 X102.992 Y114.312 E16.4724
G1 X101.155 Y115.357 E16.7572
G1 X100.891 Y115.483 E16.7966
G1 X98.910 Y116.250 E17.0828
G1 X98.630 Y116.336 E17.1222
G1 X96.557 Y116.803 E17.4084
G1 X96.268 Y116.846 E17.4478
G1 X94.218 Y116.998 E17.7247
G1 X94.072 Y117.003 E17.7444
G1 X69.928 Y117.003 E20.9966
G1 X67.609 Y114.684 E21.4385
G1 X67.609 Y86.603 E25.2210
G1 X69.928 Y84.283 E25.6629
G1 X70.227 Y85.003 F18000
G92 E0.0000
G1 X94.059 Y85.003 E3.2102 F2430
G1 X94.178 Y85.008 E3.2264
G1 X96.188 Y85.156 E3.4978
G1 X96.425 Y85.192 E3.5301
G1 X98.445 Y85.647 E3.8091
G1 X98.675 Y85.717 E3.8414
G1 X100.606 Y86.465 E4.1203
G1 X100.822 Y86.568 E4.1526
G1 X102.615 Y87.588 E4.4304
G1 X102.801 Y87.712 E4.4605
G1 X105.308 Y89.639 E4.8864
G1 X105.988 Y89.969 E4.9883
G1 X106.274 Y89.683 E5.0427
G1 X117.274 Y89.683 E6.5245
G1 X118.274 Y88.683 E6.7150
G1 X118.376 Y88.683 E6.7287
G1 X118.376 Y88.581 E6.7425
G1 X120.274 Y86.683 E7.1040
G1 X129.398 Y86.683 E8.3331
G1 X131.296 Y88.581 E8.6946
G1 X131.296 Y112.705 E11.9442
G1 X129.398 Y114.603 E12.3058
G1 X120.274 Y114.603 E13.5348
G1 X118.376 Y112.705 E13.8964
G1 X118.376 Y112.603 E13.9101
G1 X118.274 Y112.603 E13.9239
G1 X117.274 Y111.603 E14.1144
G1 X106.274 Y111.603 E15.5961
G1 X105.988 Y111.318 E15.6505
G1 X105.308 Y111.648 E15.7524
G1 X102.801 Y113.575 E16.1783
G1 X102.615 Y113.698 E16.2084
G1 X100.822 Y114.718 E16.4863
G1 X100.606 Y114.821 E16.5185
G1 X98.675 Y115.569 E16.7975
G1 X98.445 Y115.639 E16.8298
G1 X96.425 Y116.095 E17.1088
G1 X96.188 Y116.130 E17.1410
G1 X94.178 Y116.279 E17.4125
G1 X94.059 Y116.283 E17.4286
G1 X70.227 Y116.283 E20.6389
G1 X68.329 Y114.385 E21.0004
G1 X68.329 Y86.901 E24.7026
G1 X70.227 Y85.003 E25.0642
G1 X70.525 Y85.723 F18000
G92 E0.0000
G1 X94.045 Y85.723 E3.1683 F2430
G1 X94.139 Y85.727 E3.1808
G1 X96.108 Y85.873 E3.4469
G1 X96.293 Y85.900 E3.4720
G1 X98.261 Y86.344 E3.7438
G1 X98.439 Y86.398 E3.7689
G1 X100.321 Y87.127 E4.0407
G1 X100.489 Y87.207 E4.0658
G1 X102.237 Y88.202 E4.3367
G1 X102.382 Y88.298 E4.3601
G1 X104.927 Y90.254 E4.7926
G1 X105.872 Y90.713 E4.9340
G1 X106.180 Y90.795 E4.9770
G1 X106.572 Y90.403 E5.0516
G1 X117.572 Y90.403 E6.5334
G1 X118.572 Y89.403 E6.7239
G1 X119.096 Y89.403 E6.7944
G1 X119.096 Y88.879 E6.8650
G1 X120.572 Y87.403 E7.1462
G1 X129.100 Y87.403 E8.2949
G1 X130.576 Y88.879 E8.5761
G1 X130.576 Y100.407 E10.1289
G1 X130.340 Y100.643 E10.1739
G1 X130.576 Y100.879 E10.2189
G1 X130.576 Y112.407 E11.7717
G1 X129.100 Y113.883 E12.0529
G1 X120.572 Y113.883 E13.2016
G1 X119.096 Y112.407 E13.4829
G1 X119.096 Y111.883 E13.5534
G1 X118.572 Y111.883 E13.6240
G1 X117.572 Y110.883 E13.8145
G1 X106.572 Y110.883 E15.2962
G1 X106.180 Y110.492 E15.3708
G1 X105.872 Y110.574 E15.4138
G1 X104.927 Y111.032 E15.5553
G1 X102.382 Y112.989 E15.9877
G1 X102.237 Y113.085 E16.0111
G1 X100.489 Y114.080 E16.2820
G1 X100.321 Y114.159 E16.3071
G1 X98.439 Y114.888 E16.5790
G1 X98.261 Y114.943 E16.6041
G1 X96.293 Y115.386 E16.8759
G1 X96.108 Y115.414 E16.9010
G1 X94.139 Y115.560 E17.1670
G1 X94.045 Y115.563 E17.1796
G1 X70.525 Y115.563 E20.3479
G1 X69.049 Y114.087 E20.6291
G1 X69.049 Y100.699 E22.4324
G1 X69.105 Y100.643 E22.4431
G1 X69.049 Y100.587 E22.4538
G1 X69.049 Y87.199 E24.2572
G1 X70.525 Y85.723 E24.5384
G1 X70.823 Y86.443 F18000
G92 E0.0000
G1 X94.032 Y86.443 E3.1263 F2430
G1 X94.099 Y86.446 E3.1353
G1 X96.029 Y86.589 E3.3960
G1 X96.160 Y86.608 E3.4139
G1 X98.077 Y87.040 E3.6785
G1 X98.204 Y87.079 E3.6965
G1 X100.036 Y87.789 E3.9611
G1 X100.156 Y87.846 E3.9790
G1 X101.859 Y88.815 E4.2430
G1 X101.963 Y88.884 E4.2597
G1 X104.547 Y90.870 E4.6987
G1 X105.620 Y91.391 E4.8594
G1 X106.396 Y91.597 E4.9676
G1 X106.870 Y91.123 E5.0579
G1 X117.870 Y91.123 E6.5397
G1 X118.870 Y90.123 E6.7302
G1 X119.816 Y90.123 E6.8576
G1 X119.816 Y89.178 E6.9849
G1 X120.870 Y88.123 E7.1858
G1 X128.801 Y88.123 E8.2541
G1 X129.856 Y89.178 E8.4550
G1 X129.856 Y96.109 E9.3887
G1 X129.821 Y96.143 E9.3952
G1 X129.856 Y96.178 E9.4018
G1 X129.856 Y100.109 E9.9313
G1 X129.321 Y100.643 E10.0331
G1 X129.856 Y101.178 E10.1349
G1 X129.856 Y105.109 E10.6645
G1 X129.821 Y105.143 E10.6710
G1 X129.856 Y105.178 E10.6776
G1 X129.856 Y112.109 E11.6112
G1 X128.801 Y113.163 E11.8121
G1 X120.870 Y113.163 E12.8805
G1 X119.816 Y112.109 E13.0813
G1 X119.816 Y111.163 E13.2087
G1 X118.870 Y111.163 E13.3361
G1 X117.870 Y110.163 E13.5266
G1 X106.870 Y110.163 E15.0083
G1 X106.396 Y109.689 E15.0987
G1 X105.620 Y109.896 E15.2069
G1 X104.547 Y110.416 E15.3675
G1 X101.963 Y112.403 E15.8065
G1 X101.859 Y112.471 E15.8232
G1 X100.156 Y113.441 E16.0872
G1 X100.036 Y113.498 E16.1052
G1 X98.204 Y114.207 E16.3698
G1 X98.077 Y114.246 E16.3877
G1 X96.160 Y114.678 E16.6524
G1 X96.028 Y114.698 E16.6703
G1 X94.099 Y114.841 E16.9310
G1 X94.032 Y114.843 E16.9399
G1 X70.823 Y114.843 E20.0663
G1 X69.769 Y113.789 E20.2671
G1 X69.769 Y100.998 E21.9901
G1 X70.123 Y100.643 E22.0577
G1 X69.769 Y100.289 E22.1252
G1 X69.769 Y87.498 E23.8482
G1 X70.823 Y86.443 E24.0491
G1 X71.121 Y87.163 F18000
G92 E0.0000
G1 X94.019 Y87.163 E3.0844 F2430
G1 X94.059 Y87.165 E3.0897
G1 X95.949 Y87.305 E3.3450
G1 X96.028 Y87.316 E3.3558
G1 X97.892 Y87.737 E3.6132
G1 X97.969 Y87.760 E3.6240
G1 X99.751 Y88.451 E3.8815
G1 X99.823 Y88.485 E3.8922
G1 X101.482 Y89.429 E4.1493
G1 X101.544 Y89.470 E4.1593
G1 X104.166 Y91.486 E4.6049
G1 X105.368 Y92.069 E4.7847
G1 X106.612 Y92.400 E4.9582
G1 X107.168 Y91.843 E5.0642
G1 X118.536 Y91.843 E6.5955
G1 X118.536 Y91.476 E6.6450
G1 X119.168 Y90.843 E6.7655
G1 X120.536 Y90.843 E6.9497
G1 X120.536 Y89.476 E7.1338
G1 X121.168 Y88.843 E7.2544
G1 X128.503 Y88.843 E8.2424
G1 X129.136 Y89.476 E8.3629
G1 X129.136 Y95.811 E9.2162
G1 X128.803 Y96.143 E9.2796
G1 X129.136 Y96.476 E9.3429
G1 X129.136 Y99.811 E9.7921
G1 X128.503 Y100.443 E9.9127
G1 X107.729 Y100.443 E12.7110
G1 X107.707 Y100.480 E12.7168
G1 X107.534 Y100.569 E12.7430
G1 X107.508 Y100.600 E12.7484
G1 X107.498 Y100.643 E12.7544
G1 X107.508 Y100.686 E12.7604
G1 X107.534 Y100.718 E12.7658
G1 X107.707 Y100.806 E12.7920
G1 X107.729 Y100.843 E12.7978
G1 X128.503 Y100.843 E15.5961
G1 X129.136 Y101.476 E15.7167
G1 X129.136 Y104.811 E16.1659
G1 X128.803 Y105.143 E16.2292
G1 X129.136 Y105.476 E16.2926
G1 X129.136 Y111.811 E17.1459
G1 X128.503 Y112.443 E17.2664
G1 X121.168 Y112.443 E18.2544
G1 X120.536 Y111.811 E18.3750
G1 X120.536 Y110.443 E18.5591
G1 X119.168 Y110.443 E18.7433
G1 X118.536 Y109.811 E18.8638
G1 X118.536 Y109.443 E18.9133
G1 X107.168 Y109.443 E20.4446
G1 X106.612 Y108.886 E20.5506
G1 X105.367 Y109.218 E20.7241
G1 X104.166 Y109.801 E20.9039
G1 X101.544 Y111.816 E21.3495
G1 X101.482 Y111.858 E21.3595
G1 X99.823 Y112.802 E21.6166
G1 X99.751 Y112.836 E21.6273
G1 X97.969 Y113.526 E21.8848
G1 X97.892 Y113.550 E21.8956
G1 X96.028 Y113.970 E22.1530
G1 X95.949 Y113.982 E22.1638
G1 X94.059 Y114.122 E22.4191
G1 X94.019 Y114.123 E22.4244
G1 X71.121 Y114.123 E25.5088
G1 X70.489 Y113.491 E25.6293
G1 X70.489 Y101.296 E27.2720
G1 X71.121 Y100.663 E27.3925
G1 X86.765 Y100.663 E29.4998
G1 X87.355 Y101.130 E29.6011
G1 X87.745 Y102.788 E29.8306
G1 X88.290 Y103.979 E30.0070
G1 X89.059 Y105.039 E30.1834
G1 X90.022 Y105.927 E30.3598
G1 X91.141 Y106.607 E30.5362
G1 X92.372 Y107.054 E30.7126
G1 X93.667 Y107.250 E30.8891
G1 X94.975 Y107.186 E31.0655
G1 X96.254 Y106.864 E31.2431
G1 X97.210 Y106.431 E31.3845
G1 X98.092 Y105.846 E31.5270
G1 X98.868 Y105.128 E31.6694
G1 X99.542 Y104.262 E31.8172
G1 X100.067 Y103.292 E31.9658
G1 X100.370 Y102.445 E32.0870
G1 X100.557 Y101.558 E32.2091
G1 X100.620 Y100.643 E32.3326
G1 X100.557 Y99.729 E32.4561
G1 X100.370 Y98.841 E32.5783
G1 X100.067 Y97.994 E32.6995
G1 X99.542 Y97.024 E32.8481
G1 X98.868 Y96.159 E32.9959
G1 X98.092 Y95.441 E33.1382
G1 X97.210 Y94.855 E33.2808
G1 X96.254 Y94.422 E33.4221
G1 X94.975 Y94.100 E33.5998
G1 X93.667 Y94.037 E33.7762
G1 X92.372 Y94.232 E33.9526
G1 X91.141 Y94.679 E34.1291
G1 X90.022 Y95.360 E34.3055
G1 X89.059 Y96.247 E34.4819
G1 X88.290 Y97.307 E34.6583
G1 X87.745 Y98.498 E34.8347
G1 X87.355 Y100.156 E35.0642
G1 X86.765 Y100.623 E35.1655
G1 X71.121 Y100.623 E37.2728
G1 X70.489 Y99.991 E37.3933
G1 X70.489 Y87.796 E39.0360
G1 X71.121 Y87.163 E39.1565
G1 X71.420 Y87.883 F18000
G92 E0.0000
G1 X94.006 Y87.883 E3.0424 F2430
G1 X94.019 Y87.884 E3.0442
G1 X95.869 Y88.021 E3.2941
G1 X95.895 Y88.025 E3.2977
G1 X97.708 Y88.433 E3.5480
G1 X97.733 Y88.441 E3.5516
G1 X99.466 Y89.112 E3.8019
G1 X99.490 Y89.124 E3.8054
G1 X101.104 Y90.042 E4.0556
