; G-Code generated by Simplify3D(R) Version 4.1.2
; Dec 4, 2021 at 5:30:40 PM
; Settings Summary
;   processName,Process1
;   applyToModels,clamp
;   profileName,HSBot (modified)
;   profileVersion,2019-11-09 11:59:44
;   baseProfile,Default
;   printMaterial,PETG - Eryone
;   printQuality,Medium
;   printExtruders,
;   extruderName,Extruder 1,Extruder - Lite
;   extruderToolheadNumber,0,1
;   extruderDiameter,0.4,0.4
;   extruderAutoWidth,1,1
;   extruderWidth,0.48,0.48
;   extrusionMultiplier,1,0.9
;   extruderUseRetract,1,1
;   extruderRetractionDistance,3,1
;   extruderExtraRestartDistance,0,0
;   extruderRetractionZLift,0,0
;   extruderRetractionSpeed,3600,1800
;   extruderUseCoasting,1,0
;   extruderCoastingDistance,0.2,0.2
;   extruderUseWipe,0,0
;   extruderWipeDistance,5,5
;   primaryExtruder,0
;   layerHeight,0.2
;   topSolidLayers,3
;   bottomSolidLayers,3
;   perimeterOutlines,3
;   printPerimetersInsideOut,1
;   startPointOption,2
;   startPointOriginX,0
;   startPointOriginY,0
;   sequentialIslands,0
;   spiralVaseMode,0
;   firstLayerHeightPercentage,150
;   firstLayerWidthPercentage,150
;   firstLayerUnderspeed,0.3
;   useRaft,0
;   raftExtruder,0
;   raftTopLayers,3
;   raftBaseLayers,2
;   raftOffset,3
;   raftSeparationDistance,0.18
;   raftTopInfill,100
;   aboveRaftSpeedMultiplier,0.3
;   useSkirt,1
;   skirtExtruder,0
;   skirtLayers,1
;   skirtOutlines,7
;   skirtOffset,0
;   usePrimePillar,0
;   primePillarExtruder,999
;   primePillarWidth,12
;   primePillarLocation,7
;   primePillarSpeedMultiplier,1
;   useOozeShield,0
;   oozeShieldExtruder,999
;   oozeShieldOffset,2
;   oozeShieldOutlines,1
;   oozeShieldSidewallShape,1
;   oozeShieldSidewallAngle,30
;   oozeShieldSpeedMultiplier,1
;   infillExtruder,0
;   internalInfillPattern,Fast Honeycomb
;   externalInfillPattern,Rectilinear
;   infillPercentage,20
;   outlineOverlapPercentage,15
;   infillExtrusionWidthPercentage,150
;   minInfillLength,5
;   infillLayerInterval,1
;   internalInfillAngles,0
;   overlapInternalInfillAngles,0
;   externalInfillAngles,45,-45
;   generateSupport,1
;   supportExtruder,0
;   supportInfillPercentage,30
;   supportExtraInflation,0
;   supportBaseLayers,1
;   denseSupportExtruder,0
;   denseSupportLayers,0
;   denseSupportInfillPercentage,70
;   supportLayerInterval,1
;   supportHorizontalPartOffset,0.3
;   supportUpperSeparationLayers,1
;   supportLowerSeparationLayers,1
;   supportType,0
;   supportGridSpacing,4
;   maxOverhangAngle,45
;   supportAngles,0
;   temperatureName,Extruder 1,Bed
;   temperatureNumber,0,0
;   temperatureSetpointCount,1,1
;   temperatureSetpointLayers,1,1
;   temperatureSetpointTemperatures,225,85
;   temperatureStabilizeAtStartup,1,1
;   temperatureHeatedBed,0,1
;   fanLayers,1,2,3
;   fanSpeeds,0,15,25
;   blipFanToFullPower,1
;   adjustSpeedForCooling,1
;   minSpeedLayerTime,15
;   minCoolingSpeedSlowdown,20
;   increaseFanForCooling,0
;   minFanLayerTime,45
;   maxCoolingFanSpeed,40
;   increaseFanForBridging,0
;   bridgingFanSpeed,80
;   use5D,1
;   relativeEdistances,0
;   allowEaxisZeroing,1
;   independentExtruderAxes,0
;   includeM10123,0
;   stickySupport,1
;   applyToolheadOffsets,0
;   gcodeXoffset,0
;   gcodeYoffset,0
;   gcodeZoffset,0
;   overrideMachineDefinition,1
;   machineTypeOverride,0
;   strokeXoverride,200
;   strokeYoverride,200
;   strokeZoverride,150
;   originOffsetXoverride,0
;   originOffsetYoverride,0
;   originOffsetZoverride,0
;   homeXdirOverride,-1
;   homeYdirOverride,-1
;   homeZdirOverride,-1
;   flipXoverride,1
;   flipYoverride,-1
;   flipZoverride,1
;   toolheadOffsets,0,0|0,0|0,0|0,0|0,0|0,0
;   overrideFirmwareConfiguration,0
;   firmwareTypeOverride,RepRap (Marlin/Repetier/Sprinter)
;   GPXconfigOverride,r2
;   baudRateOverride,115200
;   overridePrinterModels,0
;   printerModelsOverride
;   startingGcode,G28 ; home all axes,G32 ; run bed.g -- probe bed and enable compensation
;   layerChangeGcode,
;   retractionGcode,
;   toolChangeGcode,
;   endingGcode,M0 ; call stop.g
;   exportFileFormat,gcode
;   celebration,0
;   celebrationSong,Random Song
;   postProcessing,
;   defaultSpeed,7200
;   outlineUnderspeed,0.5
;   solidInfillUnderspeed,0.8
;   supportUnderspeed,0.8
;   rapidXYspeed,18000
;   rapidZspeed,1200
;   minBridgingArea,50
;   bridgingExtraInflation,0
;   bridgingExtrusionMultiplier,0.96
;   bridgingSpeedMultiplier,1
;   useFixedBridgingAngle,0
;   fixedBridgingAngle,0
;   applyBridgingToPerimeters,0
;   filamentDiameters,1.75|1.75|1.75|1.75|1.75|1.75
;   filamentPricesPerKg,25|46|46|46|46|46
;   filamentDensities,1.25|1.25|1.25|1.25|1.25|1.25
;   useMinPrintHeight,0
;   minPrintHeight,0
;   useMaxPrintHeight,0
;   maxPrintHeight,0
;   useDiaphragm,1
;   diaphragmLayerInterval,20
;   robustSlicing,1
;   mergeAllIntoSolid,0
;   onlyRetractWhenCrossingOutline,1
;   retractBetweenLayers,0
;   useRetractionMinTravel,1
;   retractionMinTravel,3
;   retractWhileWiping,1
;   onlyWipeOutlines,0
;   avoidCrossingOutline,1
;   maxMovementDetourFactor,3
;   toolChangeRetractionDistance,12
;   toolChangeExtraRestartDistance,-0.5
;   toolChangeRetractionSpeed,600
;   externalThinWallType,1
;   internalThinWallType,2
;   thinWallAllowedOverlapPercentage,10
;   singleExtrusionMinLength,1
;   singleExtrusionMinPrintingWidthPercentage,50
;   singleExtrusionMaxPrintingWidthPercentage,200
;   singleExtrusionEndpointExtension,0.2
;   horizontalSizeCompensation,-0.1
G90
M82
M106 S0
M140 S85
M190 S85
G10 S225 R{225-50} P0
M116 P0
G28 ; home all axes
G32 ; run bed.g -- probe bed and enable compensation
; process Process1
; layer 1, Z = 0.300
T0
G92 E0.0000
G1 E-3.0000 F3600
; feature skirt
; tool H0.300 W0.720
G1 Z0.300 F1200
G1 X69.630 Y83.563 F18000
G1 E0.0000 F3600
G92 E0.0000
G1 X94.085 Y83.563 E2.1961 F2160
G1 X94.258 Y83.570 E2.2116
G1 X96.347 Y83.724 E2.3998
G1 X96.690 Y83.775 E2.4309
G1 X98.814 Y84.254 E2.6264
G1 X99.145 Y84.355 E2.6575
G1 X101.175 Y85.142 E2.8530
G1 X101.488 Y85.290 E2.8841
G1 X103.370 Y86.361 E3.0786
G1 X103.639 Y86.540 E3.1075
G1 X105.855 Y88.243 E3.3586
G1 X116.677 Y88.243 E4.3304
G1 X117.466 Y87.454 E4.4307
G1 X119.677 Y85.243 E4.7114
G1 X129.994 Y85.243 E5.6379
G1 X132.736 Y87.985 E5.9861
G1 X132.736 Y113.302 E8.2596
G1 X129.994 Y116.043 E8.6078
G1 X119.677 Y116.043 E9.5343
G1 X117.147 Y113.513 E9.8557
G1 X116.677 Y113.043 E9.9153
G1 X105.855 Y113.043 E10.8871
G1 X103.639 Y114.747 E11.1382
G1 X103.370 Y114.925 E11.1671
G1 X101.488 Y115.996 E11.3616
G1 X101.176 Y116.145 E11.3927
G1 X99.145 Y116.931 E11.5882
G1 X98.814 Y117.032 E11.6193
G1 X96.690 Y117.511 E11.8149
G1 X96.347 Y117.562 E11.8459
G1 X94.258 Y117.717 E12.0341
G1 X94.085 Y117.723 E12.0496
G1 X69.630 Y117.723 E14.2457
G1 X66.889 Y114.982 E14.5939
G1 X66.889 Y86.305 E17.1691
G1 X69.630 Y83.563 E17.5173
G1 X69.928 Y84.283 F18000
G92 E0.0000
G1 X94.072 Y84.283 E2.1681 F2160
G1 X94.218 Y84.289 E2.1813
G1 X96.268 Y84.440 E2.3658
G1 X96.557 Y84.484 E2.3921
G1 X98.630 Y84.951 E2.5829
G1 X98.910 Y85.036 E2.6092
G1 X100.891 Y85.803 E2.8000
G1 X101.155 Y85.929 E2.8263
G1 X102.992 Y86.975 E3.0161
G1 X103.220 Y87.126 E3.0406
G1 X105.688 Y89.023 E3.3202
G1 X105.841 Y89.097 E3.3355
G1 X105.976 Y88.963 E3.3525
G1 X116.976 Y88.963 E4.3404
G1 X117.976 Y87.963 E4.4674
G1 X119.976 Y85.963 E4.7214
G1 X129.696 Y85.963 E5.5943
G1 X132.016 Y88.283 E5.8889
G1 X132.016 Y113.003 E8.1088
G1 X129.696 Y115.323 E8.4034
G1 X119.976 Y115.323 E9.2764
G1 X117.656 Y113.003 E9.5710
G1 X116.976 Y112.323 E9.6574
G1 X105.976 Y112.323 E10.6452
G1 X105.841 Y112.189 E10.6622
G1 X105.688 Y112.263 E10.6775
G1 X103.220 Y114.161 E10.9571
G1 X102.992 Y114.312 E10.9816
G1 X101.155 Y115.357 E11.1715
G1 X100.891 Y115.483 E11.1978
G1 X98.910 Y116.250 E11.3885
G1 X98.630 Y116.336 E11.4148
G1 X96.557 Y116.803 E11.6056
G1 X96.268 Y116.846 E11.6319
G1 X94.218 Y116.998 E11.8164
G1 X94.072 Y117.003 E11.8296
G1 X69.928 Y117.003 E13.9977
G1 X67.609 Y114.684 E14.2923
G1 X67.609 Y86.603 E16.8140
G1 X69.928 Y84.283 E17.1086
G1 X70.227 Y85.003 F18000
G92 E0.0000
G1 X94.059 Y85.003 E2.1402 F2160
G1 X94.178 Y85.008 E2.1509
G1 X96.188 Y85.156 E2.3319
G1 X96.425 Y85.192 E2.3534
G1 X98.445 Y85.647 E2.5394
G1 X98.675 Y85.717 E2.5609
G1 X100.606 Y86.465 E2.7469
G1 X100.822 Y86.568 E2.7684
G1 X102.615 Y87.588 E2.9536
G1 X102.801 Y87.712 E2.9737
G1 X105.308 Y89.639 E3.2576
G1 X105.988 Y89.969 E3.3255
G1 X106.274 Y89.683 E3.3618
G1 X117.274 Y89.683 E4.3496
G1 X118.274 Y88.683 E4.4766
G1 X118.376 Y88.683 E4.4858
G1 X118.376 Y88.581 E4.4950
G1 X120.274 Y86.683 E4.7360
G1 X129.398 Y86.683 E5.5554
G1 X131.296 Y88.581 E5.7964
G1 X131.296 Y112.705 E7.9628
G1 X129.398 Y114.603 E8.2039
G1 X120.274 Y114.603 E9.0232
G1 X118.376 Y112.705 E9.2643
G1 X118.376 Y112.603 E9.2734
G1 X118.274 Y112.603 E9.2826
G1 X117.274 Y111.603 E9.4096
G1 X106.274 Y111.603 E10.3974
G1 X105.988 Y111.318 E10.4337
G1 X105.308 Y111.648 E10.5016
G1 X102.801 Y113.575 E10.7855
G1 X102.615 Y113.698 E10.8056
G1 X100.822 Y114.718 E10.9908
G1 X100.606 Y114.821 E11.0124
G1 X98.675 Y115.569 E11.1983
G1 X98.445 Y115.639 E11.2199
G1 X96.425 Y116.095 E11.4058
G1 X96.188 Y116.130 E11.4274
G1 X94.178 Y116.279 E11.6083
G1 X94.059 Y116.283 E11.6191
G1 X70.227 Y116.283 E13.7592
G1 X68.329 Y114.385 E14.0003
G1 X68.329 Y86.901 E16.4684
G1 X70.227 Y85.003 E16.7095
G1 X70.525 Y85.723 F18000
G92 E0.0000
G1 X94.045 Y85.723 E2.1122 F2160
G1 X94.139 Y85.727 E2.1206
G1 X96.108 Y85.873 E2.2979
G1 X96.293 Y85.900 E2.3147
G1 X98.261 Y86.344 E2.4959
G1 X98.439 Y86.398 E2.5126
G1 X100.321 Y87.127 E2.6938
G1 X100.489 Y87.207 E2.7105
G1 X102.237 Y88.202 E2.8911
G1 X102.382 Y88.298 E2.9067
G1 X104.927 Y90.254 E3.1951
G1 X105.872 Y90.713 E3.2893
G1 X106.180 Y90.795 E3.3180
G1 X106.572 Y90.403 E3.3678
G1 X117.572 Y90.403 E4.3556
G1 X118.572 Y89.403 E4.4826
G1 X119.096 Y89.403 E4.5296
G1 X119.096 Y88.879 E4.5767
G1 X120.572 Y87.403 E4.7641
G1 X129.100 Y87.403 E5.5299
G1 X130.576 Y88.879 E5.7174
G1 X130.576 Y100.407 E6.7526
G1 X130.340 Y100.643 E6.7826
G1 X130.576 Y100.879 E6.8126
G1 X130.576 Y112.407 E7.8478
G1 X129.100 Y113.883 E8.0353
G1 X120.572 Y113.883 E8.8011
G1 X119.096 Y112.407 E8.9886
G1 X119.096 Y111.883 E9.0356
G1 X118.572 Y111.883 E9.0827
G1 X117.572 Y110.883 E9.2097
G1 X106.572 Y110.883 E10.1975
G1 X106.180 Y110.492 E10.2472
G1 X105.872 Y110.574 E10.2759
G1 X104.927 Y111.032 E10.3702
G1 X102.382 Y112.989 E10.6585
G1 X102.237 Y113.085 E10.6741
G1 X100.489 Y114.080 E10.8547
G1 X100.321 Y114.159 E10.8714
G1 X98.439 Y114.888 E11.0526
G1 X98.261 Y114.943 E11.0694
G1 X96.293 Y115.386 E11.2506
G1 X96.108 Y115.414 E11.2673
G1 X94.139 Y115.560 E11.4447
G1 X94.045 Y115.563 E11.4530
G1 X70.525 Y115.563 E13.5652
G1 X69.049 Y114.087 E13.7527
G1 X69.049 Y100.699 E14.9550
G1 X69.105 Y100.643 E14.9621
G1 X69.049 Y100.587 E14.9692
G1 X69.049 Y87.199 E16.1715
G1 X70.525 Y85.723 E16.3589
G1 X70.823 Y86.443 F18000
G92 E0.0000
G1 X94.032 Y86.443 E2.0842 F2160
G1 X94.099 Y86.446 E2.0902
G1 X96.029 Y86.589 E2.2640
G1 X96.160 Y86.608 E2.2759
G1 X98.077 Y87.040 E2.4523
G1 X98.204 Y87.079 E2.4643
G1 X100.036 Y87.789 E2.6407
G1 X100.156 Y87.846 E2.6527
G1 X101.859 Y88.815 E2.8287
G1 X101.963 Y88.884 E2.8398
G1 X104.547 Y90.870 E3.1325
G1 X105.620 Y91.391 E3.2396
G1 X106.396 Y91.597 E3.3117
G1 X106.870 Y91.123 E3.3720
G1 X117.870 Y91.123 E4.3598
G1 X118.870 Y90.123 E4.4868
G1 X119.816 Y90.123 E4.5717
G1 X119.816 Y89.178 E4.6566
G1 X120.870 Y88.123 E4.7905
G1 X128.801 Y88.123 E5.5028
G1 X129.856 Y89.178 E5.6367
G1 X129.856 Y96.109 E6.2591
G1 X129.821 Y96.143 E6.2635
G1 X129.856 Y96.178 E6.2679
G1 X129.856 Y100.109 E6.6209
G1 X129.321 Y100.643 E6.6888
G1 X129.856 Y101.178 E6.7566
G1 X129.856 Y105.109 E7.1097
G1 X129.821 Y105.143 E7.1140
G1 X129.856 Y105.178 E7.1184
G1 X129.856 Y112.109 E7.7408
G1 X128.801 Y113.163 E7.8747
G1 X120.870 Y113.163 E8.5870
G1 X119.816 Y112.109 E8.7209
G1 X119.816 Y111.163 E8.8058
G1 X118.870 Y111.163 E8.8907
G1 X117.870 Y110.163 E9.0177
G1 X106.870 Y110.163 E10.0055
G1 X106.396 Y109.689 E10.0658
G1 X105.620 Y109.896 E10.1379
G1 X104.547 Y110.416 E10.2450
G1 X101.963 Y112.403 E10.5377
G1 X101.859 Y112.471 E10.5488
G1 X100.156 Y113.441 E10.7248
G1 X100.036 Y113.498 E10.7368
G1 X98.204 Y114.207 E10.9132
G1 X98.077 Y114.246 E10.9252
G1 X96.160 Y114.678 E11.1016
G1 X96.028 Y114.698 E11.1135
G1 X94.099 Y114.841 E11.2873
G1 X94.032 Y114.843 E11.2933
G1 X70.823 Y114.843 E13.3775
G1 X69.769 Y113.789 E13.5114
G1 X69.769 Y100.998 E14.6601
G1 X70.123 Y100.643 E14.7051
G1 X69.769 Y100.289 E14.7501
G1 X69.769 Y87.498 E15.8988
G1 X70.823 Y86.443 E16.0327
G1 X71.121 Y87.163 F18000
G92 E0.0000
G1 X94.019 Y87.163 E2.0562 F2160
G1 X94.059 Y87.165 E2.0598
G1 X95.949 Y87.305 E2.2300
G1 X96.028 Y87.316 E2.2372
G1 X97.892 Y87.737 E2.4088
G1 X97.969 Y87.760 E2.4160
G1 X99.751 Y88.451 E2.5876
G1 X99.823 Y88.485 E2.5948
G1 X101.482 Y89.429 E2.7662
G1 X101.544 Y89.470 E2.7729
G1 X104.166 Y91.486 E3.0699
G1 X105.368 Y92.069 E3.1898
G1 X106.612 Y92.400 E3.3055
G1 X107.168 Y91.843 E3.3762
G1 X118.536 Y91.843 E4.3970
G1 X118.536 Y91.476 E4.4300
G1 X119.168 Y90.843 E4.5103
G1 X120.536 Y90.843 E4.6331
G1 X120.536 Y89.476 E4.7559
G1 X121.168 Y88.843 E4.8362
G1 X128.503 Y88.843 E5.4949
G1 X129.136 Y89.476 E5.5753
G1 X129.136 Y95.811 E6.1441
G1 X128.803 Y96.143 E6.1864
G1 X129.136 Y96.476 E6.2286
G1 X129.136 Y99.811 E6.5281
G1 X128.503 Y100.443 E6.6084
G1 X107.639 Y100.443 E8.4821
G1 X107.508 Y100.600 E8.5004
G1 X107.498 Y100.643 E8.5044
G1 X107.508 Y100.686 E8.5084
G1 X107.639 Y100.843 E8.5268
G1 X128.503 Y100.843 E10.4004
G1 X129.136 Y101.476 E10.4807
G1 X129.136 Y104.811 E10.7802
G1 X128.803 Y105.143 E10.8224
G1 X129.136 Y105.476 E10.8647
G1 X129.136 Y111.811 E11.4336
G1 X128.503 Y112.443 E11.5139
G1 X121.168 Y112.443 E12.1726
G1 X120.536 Y111.811 E12.2529
G1 X120.536 Y110.443 E12.3757
G1 X119.168 Y110.443 E12.4985
G1 X118.536 Y109.811 E12.5789
G1 X118.536 Y109.443 E12.6118
G1 X107.168 Y109.443 E13.6327
G1 X106.612 Y108.886 E13.7034
G1 X105.367 Y109.218 E13.8190
G1 X104.166 Y109.801 E13.9389
G1 X101.544 Y111.816 E14.2359
G1 X101.482 Y111.858 E14.2426
G1 X99.823 Y112.802 E14.4140
G1 X99.751 Y112.836 E14.4212
G1 X97.969 Y113.526 E14.5928
G1 X97.892 Y113.550 E14.6000
G1 X96.028 Y113.970 E14.7716
G1 X95.949 Y113.982 E14.7788
G1 X94.059 Y114.122 E14.9490
G1 X94.019 Y114.123 E14.9526
G1 X71.121 Y114.123 E17.0088
G1 X70.489 Y113.491 E17.0892
G1 X70.489 Y101.296 E18.1843
G1 X71.121 Y100.663 E18.2646
G1 X86.765 Y100.663 E19.6695
G1 X87.355 Y101.130 E19.7370
G1 X87.745 Y102.788 E19.8900
G1 X88.290 Y103.979 E20.0076
G1 X89.059 Y105.039 E20.1252
G1 X90.022 Y105.927 E20.2428
G1 X91.141 Y106.607 E20.3605
G1 X92.372 Y107.054 E20.4781
G1 X93.667 Y107.250 E20.5957
G1 X94.975 Y107.186 E20.7133
G1 X96.254 Y106.864 E20.8317
G1 X97.210 Y106.431 E20.9259
G1 X98.092 Y105.846 E21.0210
G1 X98.868 Y105.128 E21.1159
G1 X99.542 Y104.262 E21.2144
G1 X100.067 Y103.292 E21.3135
G1 X100.370 Y102.445 E21.3943
G1 X100.557 Y101.558 E21.4757
G1 X100.620 Y100.643 E21.5581
G1 X100.557 Y99.729 E21.6404
G1 X100.370 Y98.841 E21.7218
G1 X100.067 Y97.994 E21.8026
G1 X99.542 Y97.024 E21.9017
G1 X98.868 Y96.159 E22.0002
G1 X98.092 Y95.441 E22.0951
G1 X97.210 Y94.855 E22.1902
G1 X96.254 Y94.422 E22.2844
G1 X94.975 Y94.100 E22.4028
G1 X93.667 Y94.037 E22.5205
G1 X92.372 Y94.232 E22.6381
G1 X91.141 Y94.679 E22.7557
G1 X90.022 Y95.360 E22.8733
G1 X89.059 Y96.247 E22.9909
G1 X88.290 Y97.307 E23.1085
G1 X87.745 Y98.498 E23.2261
G1 X87.355 Y100.156 E23.3791
G1 X86.765 Y100.623 E23.4466
G1 X71.121 Y100.623 E24.8515
G1 X70.489 Y99.991 E24.9318
G1 X70.489 Y87.796 E26.0269
G1 X71.121 Y87.163 E26.1073
G1 X71.420 Y87.883 F18000
G92 E0.0000
G1 X94.006 Y87.883 E2.0283 F2160
G1 X94.019 Y87.884 E2.0295
G1 X95.869 Y88.021 E2.1961
G1 X95.895 Y88.025 E2.1985
G1 X97.708 Y88.433 E2.3653
G1 X97.733 Y88.441 E2.3677
G1 X99.466 Y89.112 E2.5346
G1 X99.490 Y89.124 E2.5370
G1 X101.104 Y90.042 E2.7037
G1 X101.125 Y90.056 E2.7060
G1 X103.786 Y92.101 E3.0073
G1 X105.115 Y92.747 E3.1401
G1 X106.547 Y93.128 E3.2731
G1 X106.933 Y93.160 E3.3079
G1 X107.123 Y93.366 E3.3331
