; G-Code generated by Simplify3D(R) Version 4.1.2
; Dec 8, 2021 at 12:42:42 PM
; Settings Summary
;   processName,Process1
;   applyToModels,stand
;   profileName,HSBot (modified)
;   profileVersion,2019-11-09 11:59:44
;   baseProfile,Default
;   printMaterial,PETG - Eryone
;   printQuality,Fast
;   printExtruders,
;   extruderName,Extruder 1,Extruder - Lite
;   extruderToolheadNumber,0,1
;   extruderDiameter,0.4,0.4
;   extruderAutoWidth,1,1
;   extruderWidth,0.48,0.48
;   extrusionMultiplier,1.03,0.9
;   extruderUseRetract,1,1
;   extruderRetractionDistance,3,1
;   extruderExtraRestartDistance,0,0
;   extruderRetractionZLift,0,0
;   extruderRetractionSpeed,3600,1800
;   extruderUseCoasting,1,0
;   extruderCoastingDistance,0.2,0.2
;   extruderUseWipe,1,0
;   extruderWipeDistance,5,5
;   primaryExtruder,0
;   layerHeight,0.24
;   topSolidLayers,3
;   bottomSolidLayers,3
;   perimeterOutlines,3
;   printPerimetersInsideOut,1
;   startPointOption,2
;   startPointOriginX,0
;   startPointOriginY,0
;   sequentialIslands,0
;   spiralVaseMode,0
;   firstLayerHeightPercentage,150
;   firstLayerWidthPercentage,150
;   firstLayerUnderspeed,0.3
;   useRaft,0
;   raftExtruder,0
;   raftTopLayers,3
;   raftBaseLayers,2
;   raftOffset,3
;   raftSeparationDistance,0.18
;   raftTopInfill,100
;   aboveRaftSpeedMultiplier,0.3
;   useSkirt,1
;   skirtExtruder,0
;   skirtLayers,2
;   skirtOutlines,15
;   skirtOffset,0
;   usePrimePillar,0
;   primePillarExtruder,999
;   primePillarWidth,12
;   primePillarLocation,7
;   primePillarSpeedMultiplier,1
;   useOozeShield,0
;   oozeShieldExtruder,999
;   oozeShieldOffset,2
;   oozeShieldOutlines,1
;   oozeShieldSidewallShape,1
;   oozeShieldSidewallAngle,30
;   oozeShieldSpeedMultiplier,1
;   infillExtruder,0
;   internalInfillPattern,Rectilinear
;   externalInfillPattern,Rectilinear
;   infillPercentage,15
;   outlineOverlapPercentage,15
;   infillExtrusionWidthPercentage,150
;   minInfillLength,5
;   infillLayerInterval,1
;   internalInfillAngles,45,-45
;   overlapInternalInfillAngles,0
;   externalInfillAngles,45,-45
;   generateSupport,1
;   supportExtruder,0
;   supportInfillPercentage,25
;   supportExtraInflation,0
;   supportBaseLayers,1
;   denseSupportExtruder,0
;   denseSupportLayers,0
;   denseSupportInfillPercentage,70
;   supportLayerInterval,1
;   supportHorizontalPartOffset,0.3
;   supportUpperSeparationLayers,1
;   supportLowerSeparationLayers,1
;   supportType,0
;   supportGridSpacing,4
;   maxOverhangAngle,45
;   supportAngles,0
;   temperatureName,Extruder 1,Bed
;   temperatureNumber,0,0
;   temperatureSetpointCount,1,1
;   temperatureSetpointLayers,1,1
;   temperatureSetpointTemperatures,225,85
;   temperatureStabilizeAtStartup,1,1
;   temperatureHeatedBed,0,1
;   fanLayers,1,2,3
;   fanSpeeds,0,15,25
;   blipFanToFullPower,1
;   adjustSpeedForCooling,1
;   minSpeedLayerTime,15
;   minCoolingSpeedSlowdown,20
;   increaseFanForCooling,0
;   minFanLayerTime,45
;   maxCoolingFanSpeed,40
;   increaseFanForBridging,0
;   bridgingFanSpeed,80
;   use5D,1
;   relativeEdistances,0
;   allowEaxisZeroing,1
;   independentExtruderAxes,0
;   includeM10123,0
;   stickySupport,1
;   applyToolheadOffsets,0
;   gcodeXoffset,0
;   gcodeYoffset,0
;   gcodeZoffset,0
;   overrideMachineDefinition,1
;   machineTypeOverride,0
;   strokeXoverride,200
;   strokeYoverride,200
;   strokeZoverride,150
;   originOffsetXoverride,0
;   originOffsetYoverride,0
;   originOffsetZoverride,0
;   homeXdirOverride,-1
;   homeYdirOverride,-1
;   homeZdirOverride,-1
;   flipXoverride,1
;   flipYoverride,-1
;   flipZoverride,1
;   toolheadOffsets,0,0|0,0|0,0|0,0|0,0|0,0
;   overrideFirmwareConfiguration,0
;   firmwareTypeOverride,RepRap (Marlin/Repetier/Sprinter)
;   GPXconfigOverride,r2
;   baudRateOverride,115200
;   overridePrinterModels,0
;   printerModelsOverride
;   startingGcode,G28 ; home all axes,G32 ; run bed.g -- probe bed and enable compensation
;   layerChangeGcode,
;   retractionGcode,
;   toolChangeGcode,
;   endingGcode,M0 ; call stop.g
;   exportFileFormat,gcode
;   celebration,0
;   celebrationSong,Random Song
;   postProcessing,
;   defaultSpeed,8100
;   outlineUnderspeed,0.5
;   solidInfillUnderspeed,0.8
;   supportUnderspeed,0.8
;   rapidXYspeed,18000
;   rapidZspeed,1200
;   minBridgingArea,50
;   bridgingExtraInflation,0
;   bridgingExtrusionMultiplier,0.96
;   bridgingSpeedMultiplier,1
;   useFixedBridgingAngle,0
;   fixedBridgingAngle,0
;   applyBridgingToPerimeters,0
;   filamentDiameters,1.75|1.75|1.75|1.75|1.75|1.75
;   filamentPricesPerKg,25|46|46|46|46|46
;   filamentDensities,1.25|1.25|1.25|1.25|1.25|1.25
;   useMinPrintHeight,0
;   minPrintHeight,0
;   useMaxPrintHeight,0
;   maxPrintHeight,0
;   useDiaphragm,1
;   diaphragmLayerInterval,20
;   robustSlicing,1
;   mergeAllIntoSolid,0
;   onlyRetractWhenCrossingOutline,1
;   retractBetweenLayers,0
;   useRetractionMinTravel,1
;   retractionMinTravel,3
;   retractWhileWiping,1
;   onlyWipeOutlines,0
;   avoidCrossingOutline,1
;   maxMovementDetourFactor,3
;   toolChangeRetractionDistance,12
;   toolChangeExtraRestartDistance,-0.5
;   toolChangeRetractionSpeed,600
;   externalThinWallType,1
;   internalThinWallType,2
;   thinWallAllowedOverlapPercentage,10
;   singleExtrusionMinLength,1
;   singleExtrusionMinPrintingWidthPercentage,50
;   singleExtrusionMaxPrintingWidthPercentage,200
;   singleExtrusionEndpointExtension,0.2
;   horizontalSizeCompensation,-0.1
G90
M82
M106 S0
M140 S85
M190 S85
G10 S225 R{225-50} P0
M116 P0
G28 ; home all axes
G32 ; run bed.g -- probe bed and enable compensation
; process Process1
; layer 1, Z = 0.360
T0
G92 E0.0000
G1 E-3.0000 F3600
; feature skirt
; tool H0.360 W0.720
G1 Z0.360 F1200
G1 X23.303 Y17.177 F18000
G1 E0.0000 F3600
G92 E0.0000
G1 X23.785 Y16.513 E0.0910 F2430
G1 X25.328 Y14.708 E0.3546
G1 X25.908 Y14.127 E0.4457
G1 X27.713 Y12.585 E0.7092
G1 X28.377 Y12.103 E0.8003
G1 X30.401 Y10.863 E1.0637
G1 X31.132 Y10.491 E1.1548
G1 X33.325 Y9.582 E1.4183
G1 X34.105 Y9.329 E1.5093
G1 X36.414 Y8.775 E1.7728
G1 X37.224 Y8.646 E1.8639
G1 X39.391 Y8.476 E2.1052
G1 X39.801 Y8.460 E2.1507
G1 X160.234 Y8.462 E15.5183
G1 X160.644 Y8.479 E15.5639
G1 X161.288 Y8.529 E15.6355
G1 X162.776 Y8.646 E15.8012
G1 X163.586 Y8.775 E15.8923
G1 X165.894 Y9.329 E16.1557
G1 X166.675 Y9.582 E16.2468
G1 X168.868 Y10.491 E16.5103
G1 X169.599 Y10.863 E16.6014
G1 X171.622 Y12.103 E16.8647
G1 X172.286 Y12.585 E16.9558
G1 X174.092 Y14.127 E17.2194
G1 X174.672 Y14.708 E17.3105
G1 X176.214 Y16.513 E17.5741
G1 X176.696 Y17.177 E17.6651
G1 X177.936 Y19.200 E17.9285
G1 X178.309 Y19.931 E18.0195
G1 X179.218 Y22.125 E18.2831
G1 X179.471 Y22.906 E18.3742
G1 X180.025 Y25.214 E18.6377
G1 X180.153 Y26.024 E18.7287
G1 X180.324 Y28.187 E18.9696
G1 X180.340 Y28.597 E19.0151
G1 X180.340 Y171.403 E34.8659
G1 X180.324 Y171.812 E34.9115
G1 X180.153 Y173.977 E35.1525
G1 X180.025 Y174.788 E35.2436
G1 X179.471 Y177.094 E35.5068
G1 X179.218 Y177.874 E35.5979
G1 X178.309 Y180.068 E35.8614
G1 X177.937 Y180.799 E35.9525
G1 X176.696 Y182.823 E36.2160
G1 X176.214 Y183.487 E36.3071
G1 X174.672 Y185.292 E36.5706
G1 X174.092 Y185.873 E36.6617
G1 X172.287 Y187.414 E36.9251
G1 X171.623 Y187.896 E37.0162
G1 X169.599 Y189.137 E37.2798
G1 X168.868 Y189.509 E37.3708
G1 X166.674 Y190.418 E37.6343
G1 X165.894 Y190.671 E37.7254
G1 X163.586 Y191.225 E37.9889
G1 X162.776 Y191.354 E38.0799
G1 X160.612 Y191.524 E38.3208
G1 X160.203 Y191.540 E38.3663
G1 X39.797 Y191.540 E51.7308
G1 X39.388 Y191.524 E51.7763
G1 X37.223 Y191.353 E52.0173
G1 X36.412 Y191.225 E52.1084
G1 X34.106 Y190.671 E52.3717
G1 X33.326 Y190.418 E52.4627
G1 X31.132 Y189.509 E52.7263
G1 X30.401 Y189.137 E52.8173
G1 X28.375 Y187.896 E53.0810
G1 X27.712 Y187.413 E53.1721
G1 X25.908 Y185.873 E53.4354
G1 X25.328 Y185.292 E53.5265
G1 X23.786 Y183.487 E53.7900
G1 X23.304 Y182.823 E53.8811
G1 X22.063 Y180.799 E54.1446
G1 X21.691 Y180.068 E54.2356
G1 X20.782 Y177.875 E54.4991
G1 X20.529 Y177.095 E54.5902
G1 X19.975 Y174.786 E54.8537
G1 X19.846 Y173.976 E54.9448
G1 X19.676 Y171.812 E55.1856
G1 X19.660 Y171.403 E55.2311
G1 X19.660 Y28.597 E71.0819
G1 X19.676 Y28.187 E71.1275
G1 X19.847 Y26.024 E71.3683
G1 X19.975 Y25.214 E71.4594
G1 X20.529 Y22.905 E71.7229
G1 X20.782 Y22.125 E71.8140
G1 X21.691 Y19.932 E72.0775
G1 X22.063 Y19.201 E72.1685
G1 X23.303 Y17.177 E72.4320
G1 X23.903 Y17.577 F18000
G92 E0.0000
G1 X24.351 Y16.959 E0.0848 F2430
G1 X25.857 Y15.197 E0.3420
G1 X26.397 Y14.657 E0.4268
G1 X28.159 Y13.151 E0.6841
G1 X28.777 Y12.702 E0.7689
G1 X30.753 Y11.492 E1.0260
G1 X31.433 Y11.145 E1.1108
G1 X33.574 Y10.258 E1.3680
G1 X34.301 Y10.022 E1.4528
G1 X36.554 Y9.481 E1.7100
G1 X37.309 Y9.362 E1.7948
G1 X39.434 Y9.195 E2.0314
G1 X39.815 Y9.180 E2.0738
G1 X160.220 Y9.182 E15.4382
G1 X160.602 Y9.198 E15.4806
G1 X161.232 Y9.247 E15.5508
G1 X162.691 Y9.362 E15.7133
G1 X163.446 Y9.481 E15.7981
G1 X165.699 Y10.022 E16.0553
G1 X166.425 Y10.258 E16.1400
G1 X168.566 Y11.145 E16.3973
G1 X169.247 Y11.492 E16.4820
G1 X171.222 Y12.702 E16.7392
G1 X171.840 Y13.151 E16.8239
G1 X173.603 Y14.657 E17.0813
G1 X174.143 Y15.197 E17.1661
G1 X175.649 Y16.959 E17.4233
G1 X176.097 Y17.577 E17.5081
G1 X177.308 Y19.552 E17.7652
G1 X177.655 Y20.233 E17.8500
G1 X178.542 Y22.375 E18.1073
G1 X178.778 Y23.101 E18.1921
G1 X179.319 Y25.354 E18.4493
G1 X179.438 Y26.109 E18.5341
G1 X179.605 Y28.230 E18.7702
G1 X179.620 Y28.611 E18.8126
G1 X179.620 Y171.389 E34.6603
G1 X179.605 Y171.770 E34.7026
G1 X179.438 Y173.893 E34.9390
G1 X179.318 Y174.647 E35.0238
G1 X178.778 Y176.899 E35.2808
G1 X178.542 Y177.625 E35.3656
G1 X177.655 Y179.766 E35.6228
G1 X177.308 Y180.447 E35.7076
G1 X176.097 Y182.423 E35.9648
G1 X175.648 Y183.041 E36.0496
G1 X174.143 Y184.803 E36.3069
G1 X173.603 Y185.343 E36.3916
G1 X171.841 Y186.848 E36.6488
G1 X171.223 Y187.297 E36.7336
G1 X169.247 Y188.508 E36.9909
G1 X168.566 Y188.855 E37.0757
G1 X166.425 Y189.742 E37.3329
G1 X165.699 Y189.978 E37.4177
G1 X163.446 Y190.519 E37.6749
G1 X162.691 Y190.638 E37.7597
G1 X160.570 Y190.805 E37.9958
G1 X160.189 Y190.820 E38.0382
G1 X39.811 Y190.820 E51.3995
G1 X39.430 Y190.805 E51.4419
G1 X37.307 Y190.638 E51.6782
G1 X36.553 Y190.518 E51.7630
G1 X34.301 Y189.978 E52.0200
G1 X33.575 Y189.742 E52.1048
G1 X31.434 Y188.855 E52.3621
G1 X30.753 Y188.508 E52.4468
G1 X28.776 Y187.297 E52.7042
G1 X28.158 Y186.847 E52.7890
G1 X26.397 Y185.343 E53.0461
G1 X25.857 Y184.803 E53.1308
G1 X24.352 Y183.041 E53.3881
G1 X23.903 Y182.423 E53.4729
G1 X22.692 Y180.447 E53.7301
G1 X22.345 Y179.767 E53.8149
G1 X21.458 Y177.626 E54.0721
G1 X21.222 Y176.899 E54.1568
G1 X20.681 Y174.645 E54.4141
G1 X20.562 Y173.891 E54.4989
G1 X20.395 Y171.770 E54.7351
G1 X20.380 Y171.389 E54.7774
G1 X20.380 Y28.611 E70.6251
G1 X20.395 Y28.230 E70.6675
G1 X20.562 Y26.109 E70.9036
G1 X20.681 Y25.354 E70.9884
G1 X21.222 Y23.101 E71.2456
G1 X21.458 Y22.374 E71.3304
G1 X22.345 Y20.233 E71.5877
G1 X22.692 Y19.553 E71.6724
G1 X23.903 Y17.577 E71.9296
G1 X24.502 Y17.978 F18000
G92 E0.0000
G1 X24.917 Y17.405 E0.0785 F2430
G1 X26.386 Y15.686 E0.3295
G1 X26.886 Y15.186 E0.4080
G1 X28.605 Y13.717 E0.6590
G1 X29.178 Y13.302 E0.7375
G1 X31.105 Y12.121 E0.9884
G1 X31.735 Y11.800 E1.0668
G1 X33.824 Y10.934 E1.3178
G1 X34.496 Y10.716 E1.3963
G1 X36.695 Y10.188 E1.6472
G1 X37.393 Y10.078 E1.7257
G1 X39.476 Y9.914 E1.9576
G1 X39.829 Y9.900 E1.9968
G1 X160.206 Y9.902 E15.3582
G1 X160.559 Y9.916 E15.3974
G1 X161.175 Y9.965 E15.4660
G1 X162.607 Y10.078 E15.6254
G1 X163.305 Y10.188 E15.7039
G1 X165.503 Y10.716 E15.9548
G1 X166.176 Y10.934 E16.0333
G1 X168.265 Y11.800 E16.2842
G1 X168.895 Y12.121 E16.3627
G1 X170.822 Y13.301 E16.6136
G1 X171.394 Y13.717 E16.6921
G1 X173.114 Y15.186 E16.9431
G1 X173.614 Y15.686 E17.0216
G1 X175.083 Y17.405 E17.2726
G1 X175.498 Y17.977 E17.3511
G1 X176.679 Y19.904 E17.6019
G1 X177.000 Y20.535 E17.6804
G1 X177.866 Y22.624 E17.9315
G1 X178.084 Y23.297 E18.0100
G1 X178.612 Y25.495 E18.2609
G1 X178.722 Y26.193 E18.3394
G1 X178.886 Y28.272 E18.5709
G1 X178.900 Y28.626 E18.6101
G1 X178.900 Y171.374 E34.4546
G1 X178.886 Y171.727 E34.4938
G1 X178.722 Y173.808 E34.7255
G1 X178.612 Y174.507 E34.8040
G1 X178.084 Y176.703 E35.0547
G1 X177.866 Y177.376 E35.1332
G1 X177.001 Y179.465 E35.3842
G1 X176.680 Y180.095 E35.4627
G1 X175.498 Y182.023 E35.7136
G1 X175.083 Y182.595 E35.7921
G1 X173.614 Y184.314 E36.0431
G1 X173.114 Y184.814 E36.1216
G1 X171.395 Y186.282 E36.3725
G1 X170.823 Y186.698 E36.4510
G1 X168.895 Y187.880 E36.7020
G1 X168.265 Y188.200 E36.7805
G1 X166.176 Y189.066 E37.0315
G1 X165.503 Y189.284 E37.1100
G1 X163.305 Y189.812 E37.3609
G1 X162.606 Y189.922 E37.4394
G1 X160.527 Y190.086 E37.6708
G1 X160.174 Y190.100 E37.7101
G1 X39.826 Y190.100 E51.0683
G1 X39.473 Y190.086 E51.1075
G1 X37.392 Y189.922 E51.3391
G1 X36.693 Y189.812 E51.4176
G1 X34.497 Y189.284 E51.6684
G1 X33.824 Y189.066 E51.7469
G1 X31.735 Y188.201 E51.9978
G1 X31.105 Y187.880 E52.0763
G1 X29.176 Y186.697 E52.3274
G1 X28.604 Y186.282 E52.4059
G1 X26.886 Y184.814 E52.6567
G1 X26.386 Y184.314 E52.7352
G1 X24.918 Y182.595 E52.9862
G1 X24.502 Y182.023 E53.0647
G1 X23.321 Y180.095 E53.3156
G1 X23.000 Y179.465 E53.3941
G1 X22.134 Y177.376 E53.6450
G1 X21.916 Y176.704 E53.7235
G1 X21.388 Y174.505 E53.9745
G1 X21.278 Y173.806 E54.0530
G1 X21.114 Y171.727 E54.2845
G1 X21.100 Y171.374 E54.3237
G1 X21.100 Y28.626 E70.1682
G1 X21.114 Y28.272 E70.2075
G1 X21.278 Y26.193 E70.4390
G1 X21.388 Y25.495 E70.5174
G1 X21.916 Y23.297 E70.7684
G1 X22.134 Y22.624 E70.8469
G1 X23.000 Y20.535 E71.0978
G1 X23.321 Y19.905 E71.1763
G1 X24.502 Y17.978 E71.4272
G1 X25.101 Y18.378 F18000
G92 E0.0000
G1 X25.483 Y17.852 E0.0722 F2430
G1 X26.915 Y16.175 E0.3169
G1 X27.375 Y15.715 E0.3891
G1 X29.051 Y14.283 E0.6338
G1 X29.578 Y13.901 E0.7061
G1 X31.457 Y12.749 E0.9507
G1 X32.037 Y12.454 E1.0229
G1 X34.073 Y11.610 E1.2675
G1 X34.692 Y11.409 E1.3398
G1 X36.835 Y10.895 E1.5844
G1 X37.478 Y10.793 E1.6566
G1 X39.518 Y10.633 E1.8838
G1 X39.843 Y10.620 E1.9199
G1 X160.192 Y10.622 E15.2781
G1 X160.517 Y10.635 E15.3142
G1 X161.021 Y10.675 E15.3703
G1 X162.522 Y10.793 E15.5375
G1 X163.165 Y10.895 E15.6097
G1 X165.308 Y11.409 E15.8543
G1 X165.927 Y11.610 E15.9265
G1 X167.963 Y12.454 E16.1712
G1 X168.543 Y12.749 E16.2434
G1 X170.422 Y13.900 E16.4880
G1 X170.948 Y14.283 E16.5602
G1 X172.625 Y15.715 E16.8049
G1 X173.085 Y16.175 E16.8772
G1 X174.517 Y17.851 E17.1219
G1 X174.899 Y18.378 E17.1941
G1 X176.050 Y20.256 E17.4387
G1 X176.346 Y20.836 E17.5109
G1 X177.190 Y22.873 E17.7556
G1 X177.391 Y23.492 E17.8278
G1 X177.905 Y25.635 E18.0725
G1 X178.007 Y26.278 E18.1447
G1 X178.167 Y28.315 E18.3715
G1 X178.180 Y28.640 E18.4076
G1 X178.180 Y171.360 E34.2489
G1 X178.167 Y171.685 E34.2850
G1 X178.007 Y173.723 E34.5120
G1 X177.905 Y174.366 E34.5842
G1 X177.391 Y176.508 E34.8287
G1 X177.190 Y177.126 E34.9009
G1 X176.346 Y179.163 E35.1456
G1 X176.051 Y179.743 E35.2178
G1 X174.899 Y181.622 E35.4624
G1 X174.517 Y182.149 E35.5347
G1 X173.085 Y183.825 E35.7794
G1 X172.625 Y184.285 E35.8516
G1 X170.949 Y185.717 E36.0962
G1 X170.422 Y186.099 E36.1684
G1 X168.543 Y187.251 E36.4131
G1 X167.963 Y187.546 E36.4853
G1 X165.926 Y188.390 E36.7300
G1 X165.308 Y188.591 E36.8022
G1 X163.165 Y189.105 E37.0469
G1 X162.522 Y189.207 E37.1191
G1 X160.485 Y189.367 E37.3459
G1 X160.160 Y189.380 E37.3820
G1 X39.840 Y189.380 E50.7370
G1 X39.515 Y189.367 E50.7731
G1 X37.477 Y189.207 E51.0000
G1 X36.834 Y189.105 E51.0722
G1 X34.692 Y188.591 E51.3167
G1 X34.074 Y188.390 E51.3889
G1 X32.037 Y187.546 E51.6336
G1 X31.457 Y187.251 E51.7058
G1 X29.577 Y186.098 E51.9507
G1 X29.050 Y185.716 E52.0229
G1 X27.375 Y184.285 E52.2674
G1 X26.915 Y183.825 E52.3396
G1 X25.484 Y182.149 E52.5843
G1 X25.101 Y181.622 E52.6565
G1 X23.949 Y179.743 E52.9012
G1 X23.654 Y179.163 E52.9734
G1 X22.810 Y177.127 E53.2180
G1 X22.609 Y176.508 E53.2902
G1 X22.095 Y174.364 E53.5349
G1 X21.993 Y173.722 E53.6072
G1 X21.833 Y171.685 E53.8339
G1 X21.820 Y171.360 E53.8700
G1 X21.820 Y28.640 E69.7114
G1 X21.833 Y28.315 E69.7475
G1 X21.993 Y26.278 E69.9743
