; G-Code generated by Simplify3D(R) Version 4.1.2
; Aug 13, 2020 at 5:27:47 PM
; Settings Summary
;   processName,Process1
;   applyToModels,lager-halterung,lager-halterung(2)
;   profileName,HBot (modified)
;   profileVersion,2019-10-26 23:38:43
;   baseProfile,Default
;   printMaterial,PETG - ERYONE
;   printQuality,Medium
;   printExtruders,
;   extruderName,Extruder 1
;   extruderToolheadNumber,0
;   extruderDiameter,0.4
;   extruderAutoWidth,1
;   extruderWidth,0.48
;   extrusionMultiplier,0.98
;   extruderUseRetract,1
;   extruderRetractionDistance,4
;   extruderExtraRestartDistance,0
;   extruderRetractionZLift,0.2
;   extruderRetractionSpeed,3600
;   extruderUseCoasting,1
;   extruderCoastingDistance,0.2
;   extruderUseWipe,1
;   extruderWipeDistance,5
;   primaryExtruder,0
;   layerHeight,0.24
;   topSolidLayers,4
;   bottomSolidLayers,4
;   perimeterOutlines,3
;   printPerimetersInsideOut,1
;   startPointOption,3
;   startPointOriginX,200
;   startPointOriginY,100
;   sequentialIslands,0
;   spiralVaseMode,0
;   firstLayerHeightPercentage,100
;   firstLayerWidthPercentage,100
;   firstLayerUnderspeed,0.5
;   useRaft,0
;   raftExtruder,0
;   raftTopLayers,3
;   raftBaseLayers,2
;   raftOffset,3
;   raftSeparationDistance,0.18
;   raftTopInfill,100
;   aboveRaftSpeedMultiplier,0.3
;   useSkirt,1
;   skirtExtruder,0
;   skirtLayers,1
;   skirtOutlines,2
;   skirtOffset,10
;   usePrimePillar,0
;   primePillarExtruder,999
;   primePillarWidth,12
;   primePillarLocation,7
;   primePillarSpeedMultiplier,1
;   useOozeShield,0
;   oozeShieldExtruder,999
;   oozeShieldOffset,0.9
;   oozeShieldOutlines,2
;   oozeShieldSidewallShape,0
;   oozeShieldSidewallAngle,30
;   oozeShieldSpeedMultiplier,1.5
;   infillExtruder,0
;   internalInfillPattern,Fast Honeycomb
;   externalInfillPattern,Rectilinear
;   infillPercentage,15
;   outlineOverlapPercentage,25
;   infillExtrusionWidthPercentage,100
;   minInfillLength,5
;   infillLayerInterval,1
;   internalInfillAngles,0
;   overlapInternalInfillAngles,0
;   externalInfillAngles,45,-45
;   generateSupport,1
;   supportExtruder,0
;   supportInfillPercentage,20
;   supportExtraInflation,0
;   supportBaseLayers,1
;   denseSupportExtruder,0
;   denseSupportLayers,0
;   denseSupportInfillPercentage,70
;   supportLayerInterval,1
;   supportHorizontalPartOffset,0.3
;   supportUpperSeparationLayers,1
;   supportLowerSeparationLayers,1
;   supportType,0
;   supportGridSpacing,4
;   maxOverhangAngle,25
;   supportAngles,0
;   temperatureName,Extruder 1,Heated Bed
;   temperatureNumber,0,1
;   temperatureSetpointCount,1,1
;   temperatureSetpointLayers,1,1
;   temperatureSetpointTemperatures,230,75
;   temperatureStabilizeAtStartup,1,1
;   temperatureHeatedBed,0,1
;   fanLayers,1,2
;   fanSpeeds,0,20
;   blipFanToFullPower,1
;   adjustSpeedForCooling,1
;   minSpeedLayerTime,15
;   minCoolingSpeedSlowdown,20
;   increaseFanForCooling,0
;   minFanLayerTime,45
;   maxCoolingFanSpeed,35
;   increaseFanForBridging,1
;   bridgingFanSpeed,85
;   use5D,1
;   relativeEdistances,0
;   allowEaxisZeroing,1
;   independentExtruderAxes,0
;   includeM10123,0
;   stickySupport,1
;   applyToolheadOffsets,0
;   gcodeXoffset,0
;   gcodeYoffset,0
;   gcodeZoffset,0
;   overrideMachineDefinition,1
;   machineTypeOverride,0
;   strokeXoverride,210
;   strokeYoverride,210
;   strokeZoverride,150
;   originOffsetXoverride,0
;   originOffsetYoverride,0
;   originOffsetZoverride,0
;   homeXdirOverride,-1
;   homeYdirOverride,-1
;   homeZdirOverride,-1
;   flipXoverride,1
;   flipYoverride,-1
;   flipZoverride,1
;   toolheadOffsets,0,0|0,0|0,0|0,0|0,0|0,0
;   overrideFirmwareConfiguration,1
;   firmwareTypeOverride,RepRap (Marlin/Repetier/Sprinter)
;   GPXconfigOverride,r2
;   baudRateOverride,115200
;   overridePrinterModels,0
;   printerModelsOverride
;   startingGcode,G28 ; home all axes,G32 ; run bed.g -- probe bed and enable compensation
;   layerChangeGcode,
;   retractionGcode,
;   toolChangeGcode,
;   endingGcode,M0 ; call stop.g
;   exportFileFormat,gcode
;   celebration,0
;   celebrationSong,Random Song
;   postProcessing,
;   defaultSpeed,3600
;   outlineUnderspeed,0.5
;   solidInfillUnderspeed,0.8
;   supportUnderspeed,0.8
;   rapidXYspeed,18000
;   rapidZspeed,1200
;   minBridgingArea,50
;   bridgingExtraInflation,0
;   bridgingExtrusionMultiplier,0.96
;   bridgingSpeedMultiplier,1
;   useFixedBridgingAngle,0
;   fixedBridgingAngle,0
;   applyBridgingToPerimeters,0
;   filamentDiameters,1.75|1.75|1.75|1.75|1.75|1.75
;   filamentPricesPerKg,46|46|46|46|46|46
;   filamentDensities,1.25|1.25|1.25|1.25|1.25|1.25
;   useMinPrintHeight,0
;   minPrintHeight,20
;   useMaxPrintHeight,0
;   maxPrintHeight,15
;   useDiaphragm,0
;   diaphragmLayerInterval,20
;   robustSlicing,1
;   mergeAllIntoSolid,0
;   onlyRetractWhenCrossingOutline,1
;   retractBetweenLayers,0
;   useRetractionMinTravel,1
;   retractionMinTravel,3
;   retractWhileWiping,1
;   onlyWipeOutlines,1
;   avoidCrossingOutline,1
;   maxMovementDetourFactor,5
;   toolChangeRetractionDistance,12
;   toolChangeExtraRestartDistance,-0.5
;   toolChangeRetractionSpeed,600
;   externalThinWallType,0
;   internalThinWallType,2
;   thinWallAllowedOverlapPercentage,10
;   singleExtrusionMinLength,1
;   singleExtrusionMinPrintingWidthPercentage,50
;   singleExtrusionMaxPrintingWidthPercentage,150
;   singleExtrusionEndpointExtension,0.2
;   horizontalSizeCompensation,-0.1
G90
M82
M106 S0
M140 S75
M190 S75
M104 S230 T0
M109 S230 T0
G28 ; home all axes
G32 ; run bed.g -- probe bed and enable compensation
; process Process1
; layer 1, Z = 0.240
T0
G92 E0.0000
G1 E-4.0000 F3600
; feature skirt
; tool H0.240 W0.480
G1 Z0.240 F1200
G1 X123.387 Y98.626 F18000
G1 E0.0000 F3600
G92 E0.0000
G1 X122.780 Y98.845 E0.0303 F1800
G1 X121.703 Y105.000 E0.3236
G1 X122.780 Y111.155 E0.6169
G1 X123.387 Y111.374 E0.6472
G1 X123.103 Y113.000 E0.7246
G1 X123.387 Y114.626 E0.8021
G1 X122.780 Y114.845 E0.8324
G1 X120.283 Y129.120 E1.5126
G1 X92.910 Y129.120 E2.7974
G1 X86.630 Y122.840 E3.2142
G1 X86.630 Y87.160 E4.8890
G1 X92.910 Y80.880 E5.3058
G1 X120.283 Y80.880 E6.5906
G1 X122.780 Y95.155 E7.2708
G1 X123.387 Y95.374 E7.3011
G1 X123.103 Y97.000 E7.3786
G1 X123.387 Y98.626 E7.4560
G1 X122.845 Y98.311 F18000
G92 E0.0000
G1 X122.355 Y98.488 E0.0244 F1800
G1 X121.216 Y105.000 E0.3347
G1 X122.355 Y111.512 E0.6450
G1 X122.845 Y111.689 E0.6695
G1 X122.616 Y113.000 E0.7319
G1 X122.845 Y114.311 E0.7944
G1 X122.355 Y114.488 E0.8188
G1 X119.880 Y128.640 E1.4932
G1 X93.108 Y128.640 E2.7497
G1 X87.110 Y122.642 E3.1479
G1 X87.110 Y87.358 E4.8040
G1 X93.108 Y81.360 E5.2022
G1 X119.880 Y81.360 E6.4587
G1 X122.355 Y95.512 E7.1331
G1 X122.845 Y95.689 E7.1575
G1 X122.616 Y97.000 E7.2200
G1 X122.845 Y98.311 E7.2824
G92 E0.0000
G1 E-4.0000 F3600
; feature inner perimeter
G1 Z0.440 F1200
G1 X110.017 Y102.160 F18000
G1 X109.987 Y102.145
G1 X109.676 Y101.965
G1 X109.376 Y101.767
G1 X109.089 Y101.550
G1 X108.816 Y101.316
G1 X108.557 Y101.066
G1 X108.493 Y100.995
G1 X107.395 Y101.200
G1 Z0.240 F1200
G1 E0.0000 F3600
G92 E0.0000
G1 X98.550 Y101.200 E0.4152 F1350
G1 X98.550 Y92.800 E0.8094
G1 X107.395 Y92.800 E1.2246
G1 X107.081 Y93.244 E1.2501
G1 X106.861 Y93.600 E1.2697
G1 X106.662 Y93.969 E1.2894
G1 X106.487 Y94.349 E1.3091
G1 X106.336 Y94.740 E1.3287
G1 X106.209 Y95.139 E1.3484
G1 X106.107 Y95.545 E1.3680
G1 X106.030 Y95.957 E1.3877
G1 X105.978 Y96.372 E1.4074
G1 X105.953 Y96.791 E1.4270
G1 X105.953 Y97.209 E1.4467
G1 X105.978 Y97.628 E1.4663
G1 X106.030 Y98.043 E1.4860
G1 X106.107 Y98.455 E1.5057
G1 X106.209 Y98.861 E1.5253
G1 X106.336 Y99.260 E1.5450
G1 X106.487 Y99.651 E1.5646
G1 X106.662 Y100.031 E1.5843
G1 X106.860 Y100.400 E1.6040
G1 X107.081 Y100.756 E1.6236
G1 X107.279 Y101.037 E1.6397
G1 X107.395 Y101.200 F1350
G1 X107.706 Y100.809 F18000
G92 E0.0000
G1 X107.950 Y101.112 E0.0183 F1350
G1 X108.468 Y101.680 E0.0543
G1 X98.070 Y101.680 E0.5424
G1 X98.070 Y92.320 E0.9817
G1 X108.468 Y92.320 E1.4698
G1 X107.950 Y92.888 E1.5058
G1 X107.706 Y93.191 E1.5241
G1 X107.481 Y93.509 E1.5424
G1 X107.276 Y93.840 E1.5606
G1 X107.092 Y94.183 E1.5789
G1 X106.930 Y94.536 E1.5972
G1 X106.789 Y94.899 E1.6154
G1 X106.671 Y95.270 E1.6337
G1 X106.576 Y95.648 E1.6520
G1 X106.504 Y96.031 E1.6703
G1 X106.457 Y96.417 E1.6885
G1 X106.433 Y96.805 E1.7068
G1 X106.433 Y97.195 E1.7251
G1 X106.457 Y97.583 E1.7433
G1 X106.504 Y97.969 E1.7616
G1 X106.576 Y98.352 E1.7799
G1 X106.671 Y98.730 E1.7982
G1 X106.789 Y99.101 E1.8164
G1 X106.930 Y99.464 E1.8347
G1 X107.092 Y99.817 E1.8530
G1 X107.276 Y100.160 E1.8712
G1 X107.481 Y100.491 E1.8895
G1 X107.591 Y100.646 E1.8984
G1 X107.706 Y100.809 F1350
; feature outer perimeter
G1 X108.089 Y100.519 F18000
G92 E0.0000
G1 X108.315 Y100.800 E0.0169 F900
G1 X108.557 Y101.066 E0.0338
G1 X108.816 Y101.316 E0.0506
G1 X109.089 Y101.550 E0.0675
G1 X109.376 Y101.767 E0.0844
G1 X109.676 Y101.965 E0.1013
G1 X109.987 Y102.145 E0.1182
G1 X110.017 Y102.160 E0.1197
G1 X97.590 Y102.160 E0.7030
G1 X97.590 Y91.840 E1.1874
G1 X110.017 Y91.840 E1.7707
G1 X109.987 Y91.855 E1.7722
G1 X109.676 Y92.035 E1.7891
G1 X109.376 Y92.233 E1.8060
G1 X109.089 Y92.450 E1.8229
G1 X108.816 Y92.684 E1.8397
G1 X108.557 Y92.934 E1.8566
G1 X108.315 Y93.200 E1.8735
G1 X108.089 Y93.481 E1.8904
G1 X107.882 Y93.774 E1.9073
G1 X107.692 Y94.080 E1.9242
G1 X107.522 Y94.397 E1.9410
G1 X107.372 Y94.724 E1.9579
G1 X107.242 Y95.059 E1.9748
G1 X107.133 Y95.402 E1.9917
G1 X107.045 Y95.751 E2.0086
G1 X106.979 Y96.104 E2.0255
G1 X106.935 Y96.461 E2.0423
G1 X106.913 Y96.820 E2.0592
G1 X106.913 Y97.180 E2.0761
G1 X106.935 Y97.539 E2.0930
G1 X106.979 Y97.896 E2.1099
G1 X107.045 Y98.249 E2.1268
G1 X107.133 Y98.598 E2.1436
G1 X107.242 Y98.941 E2.1605
G1 X107.372 Y99.276 E2.1774
G1 X107.522 Y99.603 E2.1943
G1 X107.692 Y99.920 E2.2112
G1 X107.882 Y100.226 E2.2280
G1 X107.974 Y100.356 E2.2355
G1 X108.089 Y100.519 F900
G1 X108.315 Y100.800 F900
G1 X108.557 Y101.066
G1 X108.816 Y101.316
G1 X109.089 Y101.550
G1 X109.376 Y101.767
G1 X109.676 Y101.965
G1 X109.987 Y102.145
G1 X110.017 Y102.160
G1 X107.568 Y102.160
; feature solid layer
G1 X98.910 Y100.268 F18000
G92 E0.0000
G1 X99.482 Y100.840 E0.0380 F1440
G1 X100.161 Y100.840 E0.0699
G1 X98.910 Y99.589 E0.1529
G1 X98.910 Y98.910 E0.1848
G1 X100.840 Y100.840 E0.3129
G1 X101.519 Y100.840 E0.3447
G1 X98.910 Y98.231 E0.5179
G1 X98.910 Y97.552 E0.5498
G1 X102.198 Y100.840 E0.7680
G1 X102.876 Y100.840 E0.7999
G1 X98.910 Y96.874 E1.0632
G1 X98.910 Y96.195 E1.0950
G1 X103.555 Y100.840 E1.4034
G1 X104.234 Y100.840 E1.4352
G1 X98.910 Y95.516 E1.7886
G1 X98.910 Y94.837 E1.8205
G1 X104.913 Y100.840 E2.2190
G1 X105.592 Y100.840 E2.2508
G1 X98.910 Y94.158 E2.6943
G1 X98.910 Y93.479 E2.7262
G1 X106.271 Y100.840 E3.2148
G1 X106.709 Y100.840 E3.2354
G1 X106.549 Y100.580 E3.2497
G1 X106.385 Y100.275 E3.2660
G1 X99.269 Y93.160 E3.7383
G1 X99.948 Y93.160 E3.7701
G1 X105.916 Y99.128 E4.1663
G1 X105.863 Y98.960 E4.1746
G1 X105.755 Y98.532 E4.1953
G1 X105.699 Y98.232 E4.2096
G1 X100.627 Y93.160 E4.5463
G1 X101.306 Y93.160 E4.5781
G1 X105.607 Y97.462 E4.8636
G1 X105.593 Y97.221 E4.8750
G1 X105.593 Y96.779 E4.8957
G1 X105.593 Y96.769 E4.8962
G1 X101.985 Y93.160 E5.1357
G1 X102.664 Y93.160 E5.1676
G1 X105.644 Y96.141 E5.3655
G1 X105.674 Y95.902 E5.3768
G1 X105.739 Y95.556 E5.3933
G1 X103.342 Y93.160 E5.5523
G1 X104.021 Y93.160 E5.5842
G1 X105.872 Y95.011 E5.7070
G1 X105.996 Y94.620 E5.7263
G1 X106.042 Y94.502 E5.7322
G1 X104.700 Y93.160 E5.8213
G1 X105.379 Y93.160 E5.8532
G1 X106.241 Y94.022 E5.9104
G1 X106.340 Y93.808 E5.9215
G1 X106.468 Y93.570 E5.9342
G1 X106.199 Y93.301 E5.9520
G1 X106.058 Y93.160 F1440
G92 E0.0000
G1 E-4.0000 F3600
; feature inner perimeter
G1 Z0.440 F1200
G1 X107.395 Y108.800 F18000
G1 Z0.240 F1200
G1 E0.0000 F3600
G92 E0.0000
G1 X107.081 Y109.244 E0.0255 F1350
G1 X106.861 Y109.600 E0.0452
G1 X106.662 Y109.969 E0.0648
G1 X106.487 Y110.349 E0.0845
G1 X106.336 Y110.740 E0.1041
G1 X106.209 Y111.139 E0.1238
G1 X106.107 Y111.545 E0.1435
G1 X106.030 Y111.957 E0.1631
G1 X105.978 Y112.372 E0.1828
G1 X105.953 Y112.791 E0.2024
G1 X105.953 Y113.209 E0.2221
G1 X105.978 Y113.628 E0.2418
G1 X106.030 Y114.043 E0.2614
G1 X106.107 Y114.455 E0.2811
G1 X106.209 Y114.861 E0.3007
G1 X106.336 Y115.260 E0.3204
G1 X106.487 Y115.651 E0.3401
G1 X106.662 Y116.031 E0.3597
G1 X106.860 Y116.400 E0.3794
G1 X107.081 Y116.756 E0.3990
G1 X107.395 Y117.200 E0.4245
G1 X98.550 Y117.200 E0.8397
G1 X98.550 Y108.800 E1.2340
G1 X107.195 Y108.800 E1.6397
G1 X107.395 Y108.800 F1350
G1 X107.706 Y109.191 F18000
G92 E0.0000
G1 X107.481 Y109.509 E0.0183 F1350
G1 X107.276 Y109.840 E0.0365
G1 X107.092 Y110.183 E0.0548
G1 X106.930 Y110.536 E0.0731
G1 X106.789 Y110.899 E0.0914
G1 X106.671 Y111.270 E0.1096
G1 X106.576 Y111.648 E0.1279
G1 X106.504 Y112.031 E0.1462
G1 X106.457 Y112.417 E0.1644
G1 X106.433 Y112.805 E0.1827
G1 X106.433 Y113.195 E0.2010
G1 X106.457 Y113.583 E0.2193
G1 X106.504 Y113.969 E0.2375
G1 X106.576 Y114.352 E0.2558
G1 X106.671 Y114.730 E0.2741
G1 X106.789 Y115.101 E0.2923
G1 X106.930 Y115.464 E0.3106
G1 X107.092 Y115.817 E0.3289
G1 X107.276 Y116.160 E0.3471
G1 X107.481 Y116.491 E0.3654
G1 X107.706 Y116.809 E0.3837
G1 X107.950 Y117.112 E0.4020
G1 X108.468 Y117.680 E0.4380
G1 X98.070 Y117.680 E0.9261
G1 X98.070 Y108.320 E1.3654
G1 X108.468 Y108.320 E1.8534
G1 X107.950 Y108.888 E1.8895
G1 X107.832 Y109.035 E1.8984
G1 X107.706 Y109.191 F1350
; feature outer perimeter
G1 X108.089 Y109.481 F18000
G92 E0.0000
G1 X107.882 Y109.774 E0.0169 F900
G1 X107.692 Y110.080 E0.0338
G1 X107.522 Y110.397 E0.0506
G1 X107.372 Y110.724 E0.0675
G1 X107.242 Y111.059 E0.0844
G1 X107.133 Y111.402 E0.1013
G1 X107.045 Y111.751 E0.1182
G1 X106.979 Y112.104 E0.1351
G1 X106.935 Y112.461 E0.1519
G1 X106.913 Y112.820 E0.1688
G1 X106.913 Y113.180 E0.1857
G1 X106.935 Y113.539 E0.2026
G1 X106.979 Y113.896 E0.2195
G1 X107.045 Y114.249 E0.2364
G1 X107.133 Y114.598 E0.2532
G1 X107.242 Y114.941 E0.2701
G1 X107.372 Y115.276 E0.2870
G1 X107.522 Y115.603 E0.3039
G1 X107.692 Y115.920 E0.3208
G1 X107.882 Y116.226 E0.3377
G1 X108.089 Y116.519 E0.3545
G1 X108.315 Y116.800 E0.3714
G1 X108.557 Y117.066 E0.3883
G1 X108.816 Y117.316 E0.4052
G1 X109.089 Y117.550 E0.4221
G1 X109.376 Y117.767 E0.4390
G1 X109.676 Y117.965 E0.4558
G1 X109.987 Y118.145 E0.4727
G1 X110.017 Y118.160 E0.4743
G1 X97.590 Y118.160 E1.0575
G1 X97.590 Y107.840 E1.5419
G1 X110.017 Y107.840 E2.1252
G1 X109.987 Y107.855 E2.1268
G1 X109.676 Y108.035 E2.1436
G1 X109.376 Y108.233 E2.1605
G1 X109.089 Y108.450 E2.1774
G1 X108.816 Y108.684 E2.1943
G1 X108.557 Y108.934 E2.2112
G1 X108.315 Y109.200 E2.2280
G1 X108.215 Y109.325 E2.2355
G1 X108.089 Y109.481 F900
G1 X107.882 Y109.774 F900
G1 X107.692 Y110.080
G1 X107.522 Y110.397
G1 X107.372 Y110.724
G1 X107.242 Y111.059
G1 X107.133 Y111.402
G1 X107.045 Y111.751
G1 X106.979 Y112.104
G1 X106.935 Y112.461
G1 X106.913 Y112.820
G1 X106.913 Y113.180
G1 X106.935 Y113.539
G1 X106.979 Y113.896
G1 X107.038 Y114.214
; feature solid layer
G1 X106.979 Y113.896 F18000
G1 X106.935 Y113.539
G1 X106.913 Y113.180
G1 X106.913 Y113.143
G1 X106.445 Y109.160
G92 E0.0000
G1 X106.608 Y109.323 E0.0108 F1440
G1 X106.549 Y109.420 E0.0162
G1 X106.366 Y109.760 E0.0343
G1 X105.766 Y109.160 E0.0741
G1 X105.087 Y109.160 E0.1060
G1 X106.150 Y110.223 E0.1765
G1 X105.996 Y110.620 E0.1965
G1 X105.965 Y110.717 E0.2013
G1 X104.408 Y109.160 E0.3047
G1 X103.729 Y109.160 E0.3365
G1 X105.812 Y111.242 E0.4747
G1 X105.755 Y111.468 E0.4857
G1 X105.693 Y111.802 E0.5016
G1 X103.051 Y109.160 E0.6770
G1 X102.372 Y109.160 E0.7088
G1 X105.616 Y112.404 E0.9242
G1 X105.593 Y112.779 E0.9418
G1 X105.593 Y113.060 E0.9550
G1 X101.693 Y109.160 E1.2138
G1 X101.014 Y109.160 E1.2457
G1 X105.635 Y113.780 E1.5524
G1 X105.674 Y114.098 E1.5674
G1 X105.755 Y114.532 E1.5881
G1 X105.771 Y114.596 E1.5912
G1 X100.335 Y109.160 E1.9520
G1 X99.656 Y109.160 E1.9839
G1 X106.072 Y115.576 E2.4098
G1 X106.156 Y115.791 E2.4206
G1 X106.340 Y116.192 E2.4413
G1 X106.549 Y116.580 E2.4620
G1 X106.709 Y116.840 E2.4763
G1 X106.658 Y116.840 E2.4788
