; G-Code generated by Simplify3D(R) Version 4.1.2
; Aug 17, 2020 at 4:33:15 PM
; Settings Summary
;   processName,Process1
;   applyToModels,mitte-unten
;   profileName,HBot (modified)
;   profileVersion,2019-10-26 23:38:43
;   baseProfile,Default
;   printMaterial,PETG - ERYONE
;   printQuality,Medium
;   printExtruders,
;   extruderName,Extruder 1
;   extruderToolheadNumber,0
;   extruderDiameter,0.4
;   extruderAutoWidth,1
;   extruderWidth,0.48
;   extrusionMultiplier,0.98
;   extruderUseRetract,1
;   extruderRetractionDistance,4
;   extruderExtraRestartDistance,0
;   extruderRetractionZLift,0.2
;   extruderRetractionSpeed,3600
;   extruderUseCoasting,1
;   extruderCoastingDistance,0.2
;   extruderUseWipe,1
;   extruderWipeDistance,5
;   primaryExtruder,0
;   layerHeight,0.24
;   topSolidLayers,4
;   bottomSolidLayers,4
;   perimeterOutlines,3
;   printPerimetersInsideOut,1
;   startPointOption,3
;   startPointOriginX,200
;   startPointOriginY,100
;   sequentialIslands,0
;   spiralVaseMode,0
;   firstLayerHeightPercentage,100
;   firstLayerWidthPercentage,100
;   firstLayerUnderspeed,0.5
;   useRaft,0
;   raftExtruder,0
;   raftTopLayers,3
;   raftBaseLayers,2
;   raftOffset,3
;   raftSeparationDistance,0.18
;   raftTopInfill,100
;   aboveRaftSpeedMultiplier,0.3
;   useSkirt,1
;   skirtExtruder,0
;   skirtLayers,2
;   skirtOutlines,20
;   skirtOffset,0
;   usePrimePillar,0
;   primePillarExtruder,999
;   primePillarWidth,12
;   primePillarLocation,7
;   primePillarSpeedMultiplier,1
;   useOozeShield,0
;   oozeShieldExtruder,999
;   oozeShieldOffset,0.9
;   oozeShieldOutlines,2
;   oozeShieldSidewallShape,0
;   oozeShieldSidewallAngle,30
;   oozeShieldSpeedMultiplier,1.5
;   infillExtruder,0
;   internalInfillPattern,Fast Honeycomb
;   externalInfillPattern,Rectilinear
;   infillPercentage,15
;   outlineOverlapPercentage,25
;   infillExtrusionWidthPercentage,100
;   minInfillLength,5
;   infillLayerInterval,1
;   internalInfillAngles,0
;   overlapInternalInfillAngles,0
;   externalInfillAngles,45,-45
;   generateSupport,1
;   supportExtruder,0
;   supportInfillPercentage,20
;   supportExtraInflation,0
;   supportBaseLayers,1
;   denseSupportExtruder,0
;   denseSupportLayers,0
;   denseSupportInfillPercentage,70
;   supportLayerInterval,1
;   supportHorizontalPartOffset,0.3
;   supportUpperSeparationLayers,1
;   supportLowerSeparationLayers,1
;   supportType,0
;   supportGridSpacing,4
;   maxOverhangAngle,25
;   supportAngles,0
;   temperatureName,Extruder 1,Heated Bed
;   temperatureNumber,0,1
;   temperatureSetpointCount,1,1
;   temperatureSetpointLayers,1,1
;   temperatureSetpointTemperatures,230,75
;   temperatureStabilizeAtStartup,1,1
;   temperatureHeatedBed,0,1
;   fanLayers,1
;   fanSpeeds,0
;   blipFanToFullPower,1
;   adjustSpeedForCooling,1
;   minSpeedLayerTime,15
;   minCoolingSpeedSlowdown,20
;   increaseFanForCooling,0
;   minFanLayerTime,45
;   maxCoolingFanSpeed,35
;   increaseFanForBridging,1
;   bridgingFanSpeed,85
;   use5D,1
;   relativeEdistances,0
;   allowEaxisZeroing,1
;   independentExtruderAxes,0
;   includeM10123,0
;   stickySupport,1
;   applyToolheadOffsets,0
;   gcodeXoffset,0
;   gcodeYoffset,0
;   gcodeZoffset,0
;   overrideMachineDefinition,1
;   machineTypeOverride,0
;   strokeXoverride,210
;   strokeYoverride,210
;   strokeZoverride,150
;   originOffsetXoverride,0
;   originOffsetYoverride,0
;   originOffsetZoverride,0
;   homeXdirOverride,-1
;   homeYdirOverride,-1
;   homeZdirOverride,-1
;   flipXoverride,1
;   flipYoverride,-1
;   flipZoverride,1
;   toolheadOffsets,0,0|0,0|0,0|0,0|0,0|0,0
;   overrideFirmwareConfiguration,1
;   firmwareTypeOverride,RepRap (Marlin/Repetier/Sprinter)
;   GPXconfigOverride,r2
;   baudRateOverride,115200
;   overridePrinterModels,0
;   printerModelsOverride
;   startingGcode,G28 ; home all axes,G32 ; run bed.g -- probe bed and enable compensation
;   layerChangeGcode,
;   retractionGcode,
;   toolChangeGcode,
;   endingGcode,M0 ; call stop.g
;   exportFileFormat,gcode
;   celebration,0
;   celebrationSong,Random Song
;   postProcessing,
;   defaultSpeed,3600
;   outlineUnderspeed,0.5
;   solidInfillUnderspeed,0.8
;   supportUnderspeed,0.8
;   rapidXYspeed,18000
;   rapidZspeed,1200
;   minBridgingArea,50
;   bridgingExtraInflation,0
;   bridgingExtrusionMultiplier,0.96
;   bridgingSpeedMultiplier,1
;   useFixedBridgingAngle,0
;   fixedBridgingAngle,0
;   applyBridgingToPerimeters,0
;   filamentDiameters,1.75|1.75|1.75|1.75|1.75|1.75
;   filamentPricesPerKg,46|46|46|46|46|46
;   filamentDensities,1.25|1.25|1.25|1.25|1.25|1.25
;   useMinPrintHeight,0
;   minPrintHeight,20
;   useMaxPrintHeight,0
;   maxPrintHeight,15
;   useDiaphragm,0
;   diaphragmLayerInterval,20
;   robustSlicing,1
;   mergeAllIntoSolid,0
;   onlyRetractWhenCrossingOutline,1
;   retractBetweenLayers,0
;   useRetractionMinTravel,1
;   retractionMinTravel,3
;   retractWhileWiping,1
;   onlyWipeOutlines,1
;   avoidCrossingOutline,1
;   maxMovementDetourFactor,5
;   toolChangeRetractionDistance,12
;   toolChangeExtraRestartDistance,-0.5
;   toolChangeRetractionSpeed,600
;   externalThinWallType,0
;   internalThinWallType,2
;   thinWallAllowedOverlapPercentage,10
;   singleExtrusionMinLength,1
;   singleExtrusionMinPrintingWidthPercentage,50
;   singleExtrusionMaxPrintingWidthPercentage,150
;   singleExtrusionEndpointExtension,0.2
;   horizontalSizeCompensation,-0.1
G90
M82
M106 S0
M140 S75
M190 S75
M104 S230 T0
M109 S230 T0
G28 ; home all axes
G32 ; run bed.g -- probe bed and enable compensation
; process Process1
; layer 1, Z = 0.240
T0
G92 E0.0000
G1 E-4.0000 F3600
; feature skirt
; tool H0.240 W0.480
G1 Z0.240 F1200
G1 X174.260 Y76.598 F18000
G1 E0.0000 F3600
G92 E0.0000
G1 X174.249 Y133.879 E2.6886 F1800
G1 X174.209 Y134.489 E2.7173
G1 X174.055 Y135.660 E2.7727
G1 X173.972 Y136.112 E2.7943
G1 X173.796 Y136.867 E2.8307
G1 X173.670 Y137.309 E2.8522
G1 X173.291 Y138.425 E2.9076
G1 X173.057 Y138.991 E2.9363
G1 X172.503 Y140.115 E2.9951
G1 X172.196 Y140.646 E3.0239
G1 X171.499 Y141.689 E3.0828
G1 X171.126 Y142.175 E3.1115
G1 X170.300 Y143.117 E3.1704
G1 X169.867 Y143.550 E3.1991
G1 X168.925 Y144.376 E3.2579
G1 X168.439 Y144.749 E3.2867
G1 X167.396 Y145.446 E3.3456
G1 X166.865 Y145.752 E3.3743
G1 X165.741 Y146.307 E3.4331
G1 X165.175 Y146.541 E3.4619
G1 X163.988 Y146.944 E3.5207
G1 X163.396 Y147.103 E3.5495
G1 X162.164 Y147.348 E3.6084
G1 X161.556 Y147.428 E3.6372
G1 X160.459 Y147.500 E3.6888
G1 X160.153 Y147.510 E3.7032
G1 X49.847 Y147.510 E8.8806
G1 X49.541 Y147.500 E8.8950
G1 X48.444 Y147.428 E8.9466
G1 X47.836 Y147.348 E8.9753
G1 X46.603 Y147.103 E9.0344
G1 X46.011 Y146.944 E9.0632
G1 X44.826 Y146.542 E9.1219
G1 X44.260 Y146.307 E9.1507
G1 X43.136 Y145.753 E9.2095
G1 X42.605 Y145.447 E9.2382
G1 X41.562 Y144.749 E9.2971
G1 X41.076 Y144.376 E9.3259
G1 X40.133 Y143.550 E9.3847
G1 X39.700 Y143.117 E9.4135
G1 X38.873 Y142.174 E9.4723
G1 X38.500 Y141.687 E9.5011
G1 X37.803 Y140.644 E9.5600
G1 X37.496 Y140.113 E9.5888
G1 X36.944 Y138.992 E9.6475
G1 X36.709 Y138.426 E9.6762
G1 X36.306 Y137.239 E9.7350
G1 X36.147 Y136.647 E9.7638
G1 X35.902 Y135.414 E9.8228
G1 X35.822 Y134.806 E9.8516
G1 X35.750 Y133.709 E9.9032
G1 X35.740 Y133.403 E9.9176
G1 X35.740 Y76.586 E12.5844
G1 X35.751 Y76.274 E12.5990
G1 X35.751 Y76.120 E12.6063
G1 X35.791 Y75.509 E12.6350
G1 X35.812 Y75.349 E12.6426
G1 X35.823 Y75.189 E12.6501
G1 X35.902 Y74.585 E12.6787
G1 X35.933 Y74.428 E12.6862
G1 X35.955 Y74.266 E12.6939
G1 X36.074 Y73.666 E12.7226
G1 X36.115 Y73.513 E12.7300
G1 X36.147 Y73.355 E12.7376
G1 X36.305 Y72.763 E12.7664
G1 X36.357 Y72.611 E12.7739
G1 X36.398 Y72.456 E12.7814
G1 X36.595 Y71.876 E12.8102
G1 X36.656 Y71.729 E12.8177
G1 X36.708 Y71.575 E12.8253
G1 X36.943 Y71.009 E12.8540
G1 X37.014 Y70.866 E12.8615
G1 X37.076 Y70.716 E12.8691
G1 X37.347 Y70.167 E12.8979
G1 X37.426 Y70.029 E12.9053
G1 X37.497 Y69.886 E12.9129
G1 X37.804 Y69.354 E12.9417
G1 X37.893 Y69.221 E12.9492
G1 X37.974 Y69.080 E12.9568
G1 X38.315 Y68.571 E12.9856
G1 X38.411 Y68.446 E12.9930
G1 X38.502 Y68.310 E13.0006
G1 X38.875 Y67.824 E13.0294
G1 X38.979 Y67.705 E13.0368
G1 X39.076 Y67.579 E13.0443
G1 X39.479 Y67.119 E13.0730
G1 X39.594 Y67.004 E13.0806
G1 X39.700 Y66.884 E13.0881
G1 X40.132 Y66.451 E13.1169
G1 X40.254 Y66.344 E13.1245
G1 X40.368 Y66.230 E13.1320
G1 X40.828 Y65.827 E13.1607
G1 X40.956 Y65.728 E13.1683
G1 X41.075 Y65.625 E13.1757
G1 X41.560 Y65.252 E13.2044
G1 X41.695 Y65.161 E13.2121
G1 X41.764 Y65.109 E13.2161
G1 X42.142 Y64.848 E13.2377
G1 X42.804 Y64.435 E13.2743
G1 X43.206 Y64.212 E13.2959
G1 X44.255 Y63.695 E13.3508
G1 X44.822 Y63.460 E13.3796
G1 X46.011 Y63.056 E13.4385
G1 X46.603 Y62.897 E13.4673
G1 X47.836 Y62.652 E13.5263
G1 X48.444 Y62.572 E13.5551
G1 X49.547 Y62.500 E13.6070
G1 X49.853 Y62.490 E13.6213
G1 X160.628 Y62.500 E18.8208
G1 X161.239 Y62.541 E18.8495
G1 X162.405 Y62.694 E18.9047
G1 X162.858 Y62.777 E18.9263
G1 X163.616 Y62.953 E18.9628
G1 X164.057 Y63.079 E18.9844
G1 X165.103 Y63.434 E19.0362
G1 X165.530 Y63.603 E19.0578
G1 X166.169 Y63.893 E19.0907
G1 X166.443 Y64.028 E19.1051
G1 X167.066 Y64.360 E19.1382
G1 X167.460 Y64.597 E19.1598
G1 X168.372 Y65.206 E19.2112
G1 X168.741 Y65.479 E19.2328
G1 X169.348 Y65.978 E19.2697
G1 X169.689 Y66.287 E19.2913
G1 X170.517 Y67.115 E19.3462
G1 X170.922 Y67.576 E19.3750
G1 X171.639 Y68.511 E19.4303
G1 X171.900 Y68.888 E19.4519
G1 X172.314 Y69.553 E19.4886
G1 X172.537 Y69.955 E19.5102
G1 X173.025 Y70.945 E19.5620
G1 X173.208 Y71.367 E19.5836
G1 X173.456 Y72.028 E19.6167
G1 X173.554 Y72.317 E19.6311
G1 X173.755 Y72.979 E19.6635
G1 X173.867 Y73.425 E19.6851
G1 X174.098 Y74.587 E19.7407
G1 X174.178 Y75.195 E19.7695
G1 X174.250 Y76.291 E19.8211
G1 X174.260 Y76.598 E19.8355
G1 X173.780 Y76.606 F18000
G92 E0.0000
G1 X173.769 Y133.863 E2.6875 F1800
G1 X173.731 Y134.442 E2.7147
G1 X173.581 Y135.585 E2.7688
G1 X173.502 Y136.014 E2.7893
G1 X173.332 Y136.746 E2.8246
G1 X173.212 Y137.166 E2.8451
G1 X172.842 Y138.256 E2.8991
G1 X172.619 Y138.793 E2.9264
G1 X172.079 Y139.888 E2.9837
G1 X171.788 Y140.392 E3.0110
G1 X171.109 Y141.409 E3.0684
G1 X170.755 Y141.870 E3.0957
G1 X169.949 Y142.788 E3.1530
G1 X169.538 Y143.199 E3.1803
G1 X168.620 Y144.005 E3.2376
G1 X168.159 Y144.359 E3.2649
G1 X167.142 Y145.038 E3.3223
G1 X166.638 Y145.329 E3.3496
G1 X165.543 Y145.869 E3.4069
G1 X165.006 Y146.092 E3.4342
G1 X163.848 Y146.485 E3.4916
G1 X163.287 Y146.635 E3.5189
G1 X162.086 Y146.874 E3.5764
G1 X161.509 Y146.950 E3.6037
G1 X160.436 Y147.020 E3.6542
G1 X160.145 Y147.030 E3.6678
G1 X49.855 Y147.030 E8.8445
G1 X49.564 Y147.020 E8.8581
G1 X48.491 Y146.950 E8.9086
G1 X47.915 Y146.874 E8.9359
G1 X46.712 Y146.635 E8.9935
G1 X46.150 Y146.484 E9.0207
G1 X44.995 Y146.092 E9.0780
G1 X44.458 Y145.870 E9.1053
G1 X43.362 Y145.329 E9.1626
G1 X42.859 Y145.039 E9.1899
G1 X41.842 Y144.359 E9.2473
G1 X41.381 Y144.005 E9.2746
G1 X40.462 Y143.199 E9.3320
G1 X40.051 Y142.789 E9.3593
G1 X39.244 Y141.869 E9.4167
G1 X38.890 Y141.408 E9.4439
G1 X38.211 Y140.390 E9.5014
G1 X37.920 Y139.887 E9.5287
G1 X37.381 Y138.794 E9.5859
G1 X37.158 Y138.257 E9.6132
G1 X36.766 Y137.100 E9.6705
G1 X36.615 Y136.538 E9.6978
G1 X36.376 Y135.336 E9.7553
G1 X36.300 Y134.759 E9.7826
G1 X36.230 Y133.685 E9.8331
G1 X36.220 Y133.395 E9.8468
G1 X36.220 Y76.594 E12.5128
G1 X36.230 Y76.302 E12.5266
G1 X36.231 Y76.290 E12.5271
G1 X36.231 Y76.136 E12.5344
G1 X36.269 Y75.556 E12.5616
G1 X36.290 Y75.396 E12.5692
G1 X36.300 Y75.236 E12.5767
G1 X36.376 Y74.663 E12.6039
G1 X36.407 Y74.506 E12.6114
G1 X36.428 Y74.344 E12.6190
G1 X36.542 Y73.775 E12.6463
G1 X36.583 Y73.622 E12.6537
G1 X36.614 Y73.464 E12.6613
G1 X36.765 Y72.902 E12.6886
G1 X36.816 Y72.751 E12.6961
G1 X36.858 Y72.596 E12.7036
G1 X37.045 Y72.045 E12.7309
G1 X37.106 Y71.898 E12.7384
G1 X37.158 Y71.744 E12.7460
G1 X37.381 Y71.207 E12.7733
G1 X37.451 Y71.064 E12.7808
G1 X37.513 Y70.914 E12.7884
G1 X37.770 Y70.393 E12.8157
G1 X37.850 Y70.255 E12.8231
G1 X37.921 Y70.112 E12.8306
G1 X38.212 Y69.608 E12.8579
G1 X38.301 Y69.475 E12.8655
G1 X38.382 Y69.334 E12.8731
G1 X38.705 Y68.850 E12.9004
G1 X38.801 Y68.726 E12.9078
G1 X38.892 Y68.590 E12.9154
G1 X39.246 Y68.129 E12.9427
G1 X39.351 Y68.010 E12.9502
G1 X39.448 Y67.883 E12.9576
G1 X39.830 Y67.447 E12.9849
G1 X39.945 Y67.332 E12.9925
G1 X40.050 Y67.212 E13.0000
G1 X40.461 Y66.801 E13.0272
G1 X40.582 Y66.695 E13.0348
G1 X40.696 Y66.581 E13.0424
G1 X41.132 Y66.198 E13.0696
G1 X41.261 Y66.100 E13.0772
G1 X41.379 Y65.996 E13.0846
G1 X41.840 Y65.642 E13.1119
G1 X41.975 Y65.552 E13.1195
G1 X42.047 Y65.497 E13.1238
G1 X42.405 Y65.249 E13.1442
G1 X43.048 Y64.849 E13.1797
G1 X43.429 Y64.638 E13.2002
G1 X44.454 Y64.132 E13.2538
G1 X44.991 Y63.909 E13.2811
G1 X46.151 Y63.515 E13.3386
G1 X46.712 Y63.365 E13.3659
G1 X47.914 Y63.126 E13.4234
G1 X48.491 Y63.050 E13.4507
G1 X49.570 Y62.979 E13.5015
G1 X49.861 Y62.970 E13.5151
G1 X160.612 Y62.980 E18.7135
G1 X161.192 Y63.019 E18.7407
G1 X162.331 Y63.169 E18.7946
G1 X162.760 Y63.247 E18.8151
G1 X163.495 Y63.418 E18.8505
G1 X163.914 Y63.538 E18.8710
G1 X164.937 Y63.885 E18.9217
G1 X165.343 Y64.045 E18.9422
G1 X165.964 Y64.327 E18.9742
G1 X166.224 Y64.455 E18.9878
G1 X166.829 Y64.778 E19.0200
G1 X167.204 Y65.003 E19.0405
G1 X168.095 Y65.599 E19.0908
G1 X168.445 Y65.858 E19.1113
G1 X169.035 Y66.342 E19.1471
G1 X169.358 Y66.635 E19.1675
G1 X170.167 Y67.444 E19.2212
G1 X170.551 Y67.881 E19.2485
G1 X171.251 Y68.794 E19.3025
G1 X171.499 Y69.152 E19.3230
G1 X171.900 Y69.797 E19.3586
G1 X172.112 Y70.178 E19.3791
G1 X172.589 Y71.146 E19.4298
G1 X172.763 Y71.547 E19.4503
G1 X173.004 Y72.189 E19.4825
G1 X173.097 Y72.464 E19.4961
G1 X173.292 Y73.108 E19.5277
G1 X173.399 Y73.530 E19.5481
G1 X173.624 Y74.665 E19.6024
G1 X173.700 Y75.242 E19.6297
G1 X173.770 Y76.315 E19.6802
G1 X173.780 Y76.606 E19.6939
G1 X173.300 Y76.614 F18000
G92 E0.0000
G1 X173.289 Y133.847 E2.6863 F1800
G1 X173.253 Y134.395 E2.7121
G1 X173.107 Y135.510 E2.7649
G1 X173.032 Y135.916 E2.7843
G1 X172.867 Y136.626 E2.8185
G1 X172.754 Y137.023 E2.8379
G1 X172.392 Y138.087 E2.8906
G1 X172.182 Y138.595 E2.9164
G1 X171.655 Y139.662 E2.9723
G1 X171.380 Y140.138 E2.9981
G1 X170.718 Y141.129 E3.0540
G1 X170.384 Y141.565 E3.0798
G1 X169.599 Y142.460 E3.1357
G1 X169.210 Y142.849 E3.1615
G1 X168.315 Y143.634 E3.2174
G1 X167.879 Y143.968 E3.2432
G1 X166.888 Y144.630 E3.2991
G1 X166.412 Y144.905 E3.3249
G1 X165.345 Y145.432 E3.3808
G1 X164.836 Y145.642 E3.4066
G1 X163.709 Y146.025 E3.4625
G1 X163.178 Y146.168 E3.4883
G1 X162.008 Y146.400 E3.5443
G1 X161.462 Y146.472 E3.5701
G1 X160.412 Y146.541 E3.6195
G1 X160.138 Y146.550 E3.6324
G1 X49.862 Y146.550 E8.8083
G1 X49.588 Y146.541 E8.8212
G1 X48.538 Y146.472 E8.8706
G1 X47.993 Y146.400 E8.8964
G1 X46.821 Y146.167 E8.9525
G1 X46.290 Y146.025 E8.9783
G1 X45.164 Y145.643 E9.0341
G1 X44.656 Y145.432 E9.0599
G1 X43.589 Y144.906 E9.1158
G1 X43.112 Y144.631 E9.1416
G1 X42.121 Y143.969 E9.1975
G1 X41.685 Y143.634 E9.2234
G1 X40.790 Y142.849 E9.2792
G1 X40.401 Y142.460 E9.3050
G1 X39.616 Y141.564 E9.3610
G1 X39.281 Y141.128 E9.3868
G1 X38.619 Y140.137 E9.4427
G1 X38.344 Y139.660 E9.4686
G1 X37.818 Y138.595 E9.5243
G1 X37.608 Y138.087 E9.5501
G1 X37.225 Y136.960 E9.6060
G1 X37.082 Y136.429 E9.6318
G1 X36.850 Y135.258 E9.6878
G1 X36.778 Y134.712 E9.7137
G1 X36.709 Y133.662 E9.7631
G1 X36.700 Y133.387 E9.7760
G1 X36.700 Y76.602 E12.4413
G1 X36.709 Y76.326 E12.4543
G1 X36.711 Y76.306 E12.4552
G1 X36.711 Y76.151 E12.4624
G1 X36.747 Y75.603 E12.4882
G1 X36.768 Y75.443 E12.4958
G1 X36.778 Y75.284 E12.5033
G1 X36.850 Y74.741 E12.5290
G1 X36.881 Y74.584 E12.5365
G1 X36.902 Y74.423 E12.5441
G1 X37.010 Y73.884 E12.5699
G1 X37.051 Y73.731 E12.5774
G1 X37.082 Y73.573 E12.5849
G1 X37.224 Y73.042 E12.6107
G1 X37.276 Y72.890 E12.6183
G1 X37.318 Y72.735 E12.6258
G1 X37.494 Y72.214 E12.6516
G1 X37.555 Y72.067 E12.6591
G1 X37.607 Y71.914 E12.6667
G1 X37.818 Y71.405 E12.6925
G1 X37.889 Y71.262 E12.7000
G1 X37.951 Y71.113 E12.7076
G1 X38.194 Y70.620 E12.7334
G1 X38.274 Y70.482 E12.7409
G1 X38.344 Y70.338 E12.7484
