; G-Code generated by Simplify3D(R) Version 4.1.2
; Aug 25, 2020 at 12:03:22 AM
; Settings Summary
;   processName,Process1
;   applyToModels,riemen-halterung,riemen-halterung(2),riemen-halterung(3),riemen-halterung(4)
;   profileName,HBot (modified)
;   profileVersion,2019-10-26 23:38:43
;   baseProfile,Default
;   printMaterial,PETG - ERYONE
;   printQuality,Medium
;   printExtruders,
;   extruderName,Extruder 1
;   extruderToolheadNumber,0
;   extruderDiameter,0.4
;   extruderAutoWidth,1
;   extruderWidth,0.48
;   extrusionMultiplier,0.98
;   extruderUseRetract,1
;   extruderRetractionDistance,4
;   extruderExtraRestartDistance,0
;   extruderRetractionZLift,0.2
;   extruderRetractionSpeed,3600
;   extruderUseCoasting,1
;   extruderCoastingDistance,0.2
;   extruderUseWipe,1
;   extruderWipeDistance,5
;   primaryExtruder,0
;   layerHeight,0.24
;   topSolidLayers,4
;   bottomSolidLayers,4
;   perimeterOutlines,3
;   printPerimetersInsideOut,1
;   startPointOption,3
;   startPointOriginX,200
;   startPointOriginY,100
;   sequentialIslands,0
;   spiralVaseMode,0
;   firstLayerHeightPercentage,100
;   firstLayerWidthPercentage,100
;   firstLayerUnderspeed,0.5
;   useRaft,0
;   raftExtruder,0
;   raftTopLayers,3
;   raftBaseLayers,2
;   raftOffset,3
;   raftSeparationDistance,0.18
;   raftTopInfill,100
;   aboveRaftSpeedMultiplier,0.3
;   useSkirt,1
;   skirtExtruder,0
;   skirtLayers,2
;   skirtOutlines,5
;   skirtOffset,10
;   usePrimePillar,0
;   primePillarExtruder,999
;   primePillarWidth,12
;   primePillarLocation,7
;   primePillarSpeedMultiplier,1
;   useOozeShield,0
;   oozeShieldExtruder,999
;   oozeShieldOffset,0.9
;   oozeShieldOutlines,2
;   oozeShieldSidewallShape,0
;   oozeShieldSidewallAngle,30
;   oozeShieldSpeedMultiplier,1.5
;   infillExtruder,0
;   internalInfillPattern,Fast Honeycomb
;   externalInfillPattern,Rectilinear
;   infillPercentage,15
;   outlineOverlapPercentage,25
;   infillExtrusionWidthPercentage,100
;   minInfillLength,5
;   infillLayerInterval,1
;   internalInfillAngles,0
;   overlapInternalInfillAngles,0
;   externalInfillAngles,45,-45
;   generateSupport,1
;   supportExtruder,0
;   supportInfillPercentage,30
;   supportExtraInflation,0
;   supportBaseLayers,1
;   denseSupportExtruder,0
;   denseSupportLayers,0
;   denseSupportInfillPercentage,70
;   supportLayerInterval,1
;   supportHorizontalPartOffset,0.3
;   supportUpperSeparationLayers,1
;   supportLowerSeparationLayers,1
;   supportType,0
;   supportGridSpacing,4
;   maxOverhangAngle,25
;   supportAngles,0
;   temperatureName,Extruder 1,Heated Bed
;   temperatureNumber,0,1
;   temperatureSetpointCount,1,1
;   temperatureSetpointLayers,1,1
;   temperatureSetpointTemperatures,230,75
;   temperatureStabilizeAtStartup,1,1
;   temperatureHeatedBed,0,1
;   fanLayers,1
;   fanSpeeds,0
;   blipFanToFullPower,1
;   adjustSpeedForCooling,1
;   minSpeedLayerTime,15
;   minCoolingSpeedSlowdown,20
;   increaseFanForCooling,0
;   minFanLayerTime,45
;   maxCoolingFanSpeed,35
;   increaseFanForBridging,1
;   bridgingFanSpeed,85
;   use5D,1
;   relativeEdistances,0
;   allowEaxisZeroing,1
;   independentExtruderAxes,0
;   includeM10123,0
;   stickySupport,1
;   applyToolheadOffsets,0
;   gcodeXoffset,0
;   gcodeYoffset,0
;   gcodeZoffset,0
;   overrideMachineDefinition,1
;   machineTypeOverride,0
;   strokeXoverride,210
;   strokeYoverride,210
;   strokeZoverride,150
;   originOffsetXoverride,0
;   originOffsetYoverride,0
;   originOffsetZoverride,0
;   homeXdirOverride,-1
;   homeYdirOverride,-1
;   homeZdirOverride,-1
;   flipXoverride,1
;   flipYoverride,-1
;   flipZoverride,1
;   toolheadOffsets,0,0|0,0|0,0|0,0|0,0|0,0
;   overrideFirmwareConfiguration,1
;   firmwareTypeOverride,RepRap (Marlin/Repetier/Sprinter)
;   GPXconfigOverride,r2
;   baudRateOverride,115200
;   overridePrinterModels,0
;   printerModelsOverride
;   startingGcode,G28 ; home all axes,G32 ; run bed.g -- probe bed and enable compensation
;   layerChangeGcode,
;   retractionGcode,
;   toolChangeGcode,
;   endingGcode,M0 ; call stop.g
;   exportFileFormat,gcode
;   celebration,0
;   celebrationSong,Random Song
;   postProcessing,
;   defaultSpeed,3600
;   outlineUnderspeed,0.5
;   solidInfillUnderspeed,0.8
;   supportUnderspeed,0.8
;   rapidXYspeed,18000
;   rapidZspeed,1200
;   minBridgingArea,50
;   bridgingExtraInflation,0
;   bridgingExtrusionMultiplier,0.96
;   bridgingSpeedMultiplier,1
;   useFixedBridgingAngle,0
;   fixedBridgingAngle,0
;   applyBridgingToPerimeters,0
;   filamentDiameters,1.75|1.75|1.75|1.75|1.75|1.75
;   filamentPricesPerKg,46|46|46|46|46|46
;   filamentDensities,1.25|1.25|1.25|1.25|1.25|1.25
;   useMinPrintHeight,0
;   minPrintHeight,20
;   useMaxPrintHeight,0
;   maxPrintHeight,15
;   useDiaphragm,0
;   diaphragmLayerInterval,20
;   robustSlicing,1
;   mergeAllIntoSolid,0
;   onlyRetractWhenCrossingOutline,1
;   retractBetweenLayers,0
;   useRetractionMinTravel,1
;   retractionMinTravel,3
;   retractWhileWiping,1
;   onlyWipeOutlines,1
;   avoidCrossingOutline,1
;   maxMovementDetourFactor,5
;   toolChangeRetractionDistance,12
;   toolChangeExtraRestartDistance,-0.5
;   toolChangeRetractionSpeed,600
;   externalThinWallType,0
;   internalThinWallType,2
;   thinWallAllowedOverlapPercentage,10
;   singleExtrusionMinLength,1
;   singleExtrusionMinPrintingWidthPercentage,50
;   singleExtrusionMaxPrintingWidthPercentage,150
;   singleExtrusionEndpointExtension,0.2
;   horizontalSizeCompensation,-0.1
G90
M82
M106 S0
M140 S75
M190 S75
M104 S230 T0
M109 S230 T0
G28 ; home all axes
G32 ; run bed.g -- probe bed and enable compensation
; process Process1
; layer 1, Z = 0.240
T0
G92 E0.0000
G1 E-4.0000 F3600
; feature skirt
; tool H0.240 W0.480
G1 Z0.240 F1200
G1 X133.020 Y98.716 F18000
G1 E0.0000 F3600
G92 E0.0000
G1 X132.940 Y99.530 E0.0384 F1800
G1 X132.888 Y99.924 E0.0570
G1 X132.755 Y100.731 E0.0954
G1 X132.629 Y101.315 E0.1235
G1 X132.308 Y102.511 E0.1816
G1 X132.126 Y103.079 E0.2096
G1 X131.803 Y103.938 E0.2527
G1 X131.565 Y104.486 E0.2807
G1 X131.311 Y105.000 E0.3076
G1 X131.609 Y105.604 E0.3392
G1 X131.914 Y106.339 E0.3766
G1 X132.344 Y107.606 E0.4393
G1 X132.507 Y108.179 E0.4674
G1 X132.716 Y109.073 E0.5104
G1 X132.823 Y109.661 E0.5385
G1 X132.997 Y110.987 E0.6012
G1 X133.049 Y111.781 E0.6386
G1 X133.049 Y113.119 E0.7014
G1 X133.020 Y113.716 E0.7294
G1 X132.940 Y114.530 E0.7678
G1 X132.888 Y114.924 E0.7865
G1 X132.755 Y115.731 E0.8249
G1 X132.629 Y116.315 E0.8529
G1 X132.308 Y117.511 E0.9110
G1 X132.126 Y118.079 E0.9390
G1 X131.803 Y118.938 E0.9821
G1 X131.565 Y119.486 E1.0101
G1 X131.311 Y120.000 E1.0371
G1 X131.609 Y120.604 E1.0687
G1 X131.914 Y121.339 E1.1060
G1 X132.344 Y122.606 E1.1688
G1 X132.507 Y123.179 E1.1968
G1 X132.716 Y124.073 E1.2399
G1 X132.823 Y124.661 E1.2679
G1 X132.997 Y125.987 E1.3307
G1 X133.049 Y126.781 E1.3681
G1 X133.049 Y128.119 E1.4309
G1 X133.020 Y128.716 E1.4589
G1 X132.940 Y129.530 E1.4973
G1 X132.888 Y129.924 E1.5159
G1 X132.755 Y130.731 E1.5543
G1 X132.629 Y131.315 E1.5824
G1 X132.308 Y132.511 E1.6405
G1 X132.126 Y133.079 E1.6685
G1 X131.803 Y133.937 E1.7115
G1 X131.565 Y134.485 E1.7396
G1 X130.973 Y135.685 E1.8024
G1 X130.575 Y136.375 E1.8398
G1 X129.832 Y137.487 E1.9025
G1 X129.477 Y137.966 E1.9305
G1 X128.894 Y138.676 E1.9736
G1 X128.494 Y139.118 E2.0016
G1 X127.548 Y140.064 E2.0644
G1 X126.949 Y140.589 E2.1018
G1 X125.888 Y141.403 E2.1646
G1 X125.397 Y141.743 E2.1926
G1 X124.618 Y142.227 E2.2357
G1 X124.096 Y142.517 E2.2637
G1 X122.896 Y143.109 E2.3265
G1 X122.160 Y143.414 E2.3639
G1 X120.894 Y143.844 E2.4266
G1 X120.321 Y144.007 E2.4546
G1 X119.427 Y144.216 E2.4977
G1 X118.839 Y144.323 E2.5257
G1 X117.612 Y144.484 E2.5838
G1 X117.017 Y144.533 E2.6118
G1 X116.297 Y144.557 E2.6457
G1 X116.098 Y144.560 E2.6550
G1 X93.803 Y144.560 E3.7014
G1 X93.406 Y144.547 E3.7201
G1 X92.168 Y144.466 E3.7783
G1 X91.379 Y144.362 E3.8157
G1 X89.969 Y144.082 E3.8832
G1 X89.200 Y143.876 E3.9205
G1 X87.840 Y143.414 E3.9880
G1 X87.104 Y143.109 E4.0253
G1 X85.904 Y142.517 E4.0881
G1 X85.382 Y142.227 E4.1161
G1 X84.603 Y141.743 E4.1592
G1 X84.112 Y141.403 E4.1872
G1 X83.051 Y140.589 E4.2500
G1 X82.452 Y140.064 E4.2874
G1 X81.506 Y139.118 E4.3502
G1 X81.106 Y138.676 E4.3782
G1 X80.523 Y137.966 E4.4213
G1 X80.168 Y137.487 E4.4493
G1 X79.425 Y136.375 E4.5120
G1 X79.027 Y135.685 E4.5494
G1 X78.435 Y134.485 E4.6122
G1 X78.197 Y133.937 E4.6403
G1 X77.874 Y133.079 E4.6833
G1 X77.692 Y132.511 E4.7113
G1 X77.676 Y132.452 E4.7142
G1 X77.656 Y132.394 E4.7170
G1 X77.493 Y131.820 E4.7450
G1 X77.284 Y130.927 E4.7881
G1 X77.177 Y130.339 E4.8161
G1 X77.016 Y129.112 E4.8743
G1 X76.967 Y128.516 E4.9023
G1 X76.940 Y127.699 E4.9407
G1 X76.940 Y127.301 E4.9593
G1 X76.967 Y126.484 E4.9977
G1 X77.016 Y125.888 E5.0258
G1 X77.177 Y124.661 E5.0839
G1 X77.284 Y124.073 E5.1119
G1 X77.493 Y123.179 E5.1550
G1 X77.656 Y122.606 E5.1830
G1 X78.086 Y121.339 E5.2458
G1 X78.391 Y120.604 E5.2832
G1 X78.689 Y120.000 E5.3147
G1 X78.435 Y119.486 E5.3417
G1 X78.197 Y118.938 E5.3697
G1 X77.874 Y118.079 E5.4128
G1 X77.692 Y117.511 E5.4408
G1 X77.448 Y116.603 E5.4849
G1 X77.351 Y116.245 E5.5023
G1 X77.348 Y116.229 E5.5031
G1 X77.341 Y116.202 E5.5044
G1 X77.268 Y115.831 E5.5221
G1 X77.191 Y115.447 E5.5405
G1 X77.187 Y115.417 E5.5419
G1 X77.180 Y115.380 E5.5437
G1 X77.136 Y115.026 E5.5604
G1 X77.016 Y114.112 E5.6037
G1 X76.967 Y113.516 E5.6318
G1 X76.940 Y112.699 E5.6702
G1 X76.940 Y112.301 E5.6888
G1 X76.967 Y111.484 E5.7272
G1 X77.016 Y110.888 E5.7552
G1 X77.177 Y109.661 E5.8134
G1 X77.284 Y109.073 E5.8414
G1 X77.493 Y108.179 E5.8845
G1 X77.656 Y107.606 E5.9125
G1 X78.086 Y106.339 E5.9752
G1 X78.391 Y105.604 E6.0126
G1 X78.689 Y105.000 E6.0442
G1 X78.435 Y104.486 E6.0711
G1 X78.197 Y103.938 E6.0992
G1 X77.874 Y103.079 E6.1422
G1 X77.692 Y102.511 E6.1702
G1 X77.352 Y101.242 E6.2319
G1 X77.349 Y101.227 E6.2326
G1 X77.341 Y101.198 E6.2340
G1 X77.269 Y100.833 E6.2515
G1 X77.202 Y100.504 E6.2673
G1 X77.198 Y100.476 E6.2686
G1 X77.189 Y100.431 E6.2707
G1 X77.016 Y99.112 E6.3332
G1 X76.967 Y98.516 E6.3612
G1 X76.940 Y97.699 E6.3996
G1 X76.940 Y97.301 E6.4183
G1 X76.967 Y96.484 E6.4567
G1 X77.016 Y95.888 E6.4847
G1 X77.190 Y94.562 E6.5475
G1 X77.346 Y93.781 E6.5849
G1 X77.692 Y92.489 E6.6476
G1 X77.874 Y91.921 E6.6756
G1 X78.197 Y91.062 E6.7187
G1 X78.435 Y90.514 E6.7467
G1 X78.689 Y90.000 E6.7737
G1 X78.435 Y89.486 E6.8006
G1 X78.197 Y88.938 E6.8286
G1 X77.874 Y88.079 E6.8717
G1 X77.692 Y87.511 E6.8997
G1 X77.352 Y86.242 E6.9613
G1 X77.349 Y86.227 E6.9621
G1 X77.341 Y86.198 E6.9635
G1 X77.269 Y85.833 E6.9809
G1 X77.202 Y85.504 E6.9967
G1 X77.198 Y85.476 E6.9980
G1 X77.189 Y85.431 E7.0002
G1 X77.016 Y84.112 E7.0626
G1 X76.967 Y83.516 E7.0907
G1 X76.940 Y82.699 E7.1291
G1 X76.940 Y82.301 E7.1477
G1 X76.967 Y81.484 E7.1861
G1 X77.016 Y80.888 E7.2142
G1 X77.190 Y79.562 E7.2769
G1 X77.346 Y78.781 E7.3143
G1 X77.692 Y77.489 E7.3771
G1 X77.874 Y76.921 E7.4051
G1 X78.197 Y76.062 E7.4482
G1 X78.435 Y75.514 E7.4762
G1 X78.983 Y74.404 E7.5343
G1 X79.273 Y73.882 E7.5623
G1 X79.757 Y73.103 E7.6054
G1 X80.097 Y72.612 E7.6334
G1 X80.850 Y71.630 E7.6915
G1 X81.237 Y71.174 E7.7196
G1 X81.796 Y70.577 E7.7580
G1 X82.078 Y70.296 E7.7766
G1 X82.675 Y69.737 E7.8150
G1 X83.130 Y69.350 E7.8431
G1 X84.112 Y68.597 E7.9012
G1 X84.603 Y68.257 E7.9292
G1 X85.382 Y67.773 E7.9723
G1 X85.904 Y67.483 E8.0003
G1 X87.104 Y66.891 E8.0631
G1 X87.839 Y66.586 E8.1004
G1 X89.106 Y66.156 E8.1632
G1 X89.680 Y65.992 E8.1912
G1 X90.574 Y65.784 E8.2343
G1 X91.161 Y65.677 E8.2623
G1 X92.388 Y65.516 E8.3204
G1 X92.983 Y65.467 E8.3484
G1 X93.705 Y65.443 E8.3823
G1 X93.907 Y65.440 E8.3918
G1 X116.723 Y65.451 E9.4627
G1 X117.514 Y65.503 E9.5000
G1 X118.839 Y65.677 E9.5627
G1 X119.426 Y65.784 E9.5907
G1 X120.320 Y65.992 E9.6338
G1 X120.894 Y66.156 E9.6618
G1 X122.161 Y66.586 E9.7246
G1 X122.896 Y66.891 E9.7619
G1 X124.096 Y67.483 E9.8247
G1 X124.618 Y67.773 E9.8527
G1 X125.397 Y68.257 E9.8958
G1 X125.888 Y68.597 E9.9238
G1 X126.870 Y69.350 E9.9819
G1 X127.325 Y69.737 E10.0100
G1 X127.922 Y70.296 E10.0484
G1 X128.204 Y70.577 E10.0670
G1 X128.763 Y71.174 E10.1054
G1 X129.150 Y71.630 E10.1335
G1 X129.903 Y72.612 E10.1916
G1 X130.243 Y73.103 E10.2196
G1 X130.727 Y73.882 E10.2626
G1 X131.017 Y74.404 E10.2907
G1 X131.565 Y75.514 E10.3488
G1 X131.802 Y76.062 E10.3768
G1 X132.126 Y76.921 E10.4199
G1 X132.308 Y77.489 E10.4479
G1 X132.654 Y78.781 E10.5107
G1 X132.810 Y79.562 E10.5480
G1 X132.997 Y80.987 E10.6155
G1 X133.049 Y81.781 E10.6529
G1 X133.049 Y83.119 E10.7157
G1 X133.020 Y83.716 E10.7437
G1 X132.940 Y84.530 E10.7821
G1 X132.888 Y84.924 E10.8007
G1 X132.755 Y85.731 E10.8391
G1 X132.629 Y86.315 E10.8672
G1 X132.308 Y87.511 E10.9253
G1 X132.126 Y88.079 E10.9533
G1 X131.803 Y88.938 E10.9964
G1 X131.565 Y89.486 E11.0244
G1 X131.311 Y90.000 E11.0513
G1 X131.565 Y90.514 E11.0782
G1 X131.802 Y91.062 E11.1063
G1 X132.126 Y91.921 E11.1493
G1 X132.308 Y92.489 E11.1774
G1 X132.654 Y93.781 E11.2401
G1 X132.810 Y94.562 E11.2775
G1 X132.997 Y95.987 E11.3450
G1 X133.049 Y96.781 E11.3823
G1 X133.049 Y98.119 E11.4451
G1 X133.020 Y98.716 E11.4732
G1 X132.541 Y98.681 F18000
G92 E0.0000
G1 X132.463 Y99.475 E0.0375 F1800
G1 X132.413 Y99.853 E0.0554
G1 X132.283 Y100.641 E0.0928
G1 X132.162 Y101.202 E0.1198
G1 X131.848 Y102.375 E0.1768
G1 X131.672 Y102.921 E0.2037
G1 X131.357 Y103.758 E0.2457
G1 X131.129 Y104.284 E0.2726
G1 X130.776 Y105.000 E0.3101
G1 X131.172 Y105.802 E0.3520
G1 X131.464 Y106.508 E0.3879
G1 X131.885 Y107.749 E0.4494
G1 X132.043 Y108.300 E0.4763
G1 X132.246 Y109.171 E0.5183
G1 X132.348 Y109.735 E0.5452
G1 X132.519 Y111.034 E0.6067
G1 X132.569 Y111.797 E0.6426
G1 X132.569 Y113.107 E0.7041
G1 X132.541 Y113.680 E0.7310
G1 X132.463 Y114.475 E0.7685
G1 X132.413 Y114.854 E0.7864
G1 X132.283 Y115.641 E0.8239
G1 X132.162 Y116.202 E0.8508
G1 X131.848 Y117.375 E0.9078
G1 X131.672 Y117.921 E0.9347
G1 X131.357 Y118.758 E0.9767
G1 X131.129 Y119.284 E1.0036
G1 X130.776 Y120.000 E1.0411
G1 X131.172 Y120.802 E1.0830
G1 X131.464 Y121.509 E1.1190
G1 X131.885 Y122.749 E1.1804
G1 X132.043 Y123.300 E1.2073
G1 X132.246 Y124.171 E1.2493
G1 X132.348 Y124.735 E1.2762
G1 X132.519 Y126.034 E1.3377
G1 X132.569 Y126.797 E1.3736
G1 X132.569 Y128.107 E1.4351
G1 X132.541 Y128.681 E1.4620
G1 X132.463 Y129.475 E1.4995
G1 X132.413 Y129.853 E1.5174
G1 X132.283 Y130.641 E1.5549
G1 X132.162 Y131.202 E1.5818
G1 X131.848 Y132.375 E1.6388
G1 X131.672 Y132.920 E1.6657
G1 X131.358 Y133.757 E1.7077
G1 X131.129 Y134.284 E1.7346
G1 X130.550 Y135.459 E1.7961
G1 X130.167 Y136.121 E1.8320
G1 X129.439 Y137.211 E1.8935
G1 X129.098 Y137.671 E1.9204
G1 X128.531 Y138.362 E1.9624
G1 X128.146 Y138.787 E1.9893
G1 X127.219 Y139.713 E2.0508
G1 X126.644 Y140.218 E2.0867
G1 X125.605 Y141.015 E2.1482
G1 X125.134 Y141.341 E2.1751
G1 X124.374 Y141.813 E2.2170
G1 X123.873 Y142.092 E2.2440
G1 X122.698 Y142.672 E2.3055
G1 X121.991 Y142.964 E2.3414
G1 X120.751 Y143.385 E2.4028
G1 X120.200 Y143.543 E2.4297
G1 X119.330 Y143.746 E2.4717
G1 X118.765 Y143.848 E2.4986
G1 X117.561 Y144.007 E2.5556
G1 X116.990 Y144.054 E2.5825
G1 X116.285 Y144.077 E2.6156
G1 X116.094 Y144.080 E2.6246
G1 X93.811 Y144.080 E3.6705
G1 X93.429 Y144.068 E3.6884
G1 X92.216 Y143.988 E3.7455
G1 X91.457 Y143.888 E3.7814
G1 X90.078 Y143.614 E3.8474
G1 X89.340 Y143.416 E3.8833
G1 X88.009 Y142.964 E3.9492
G1 X87.302 Y142.672 E3.9852
G1 X86.127 Y142.092 E4.0466
G1 X85.626 Y141.814 E4.0736
G1 X84.866 Y141.341 E4.1155
G1 X84.395 Y141.015 E4.1424
G1 X83.356 Y140.218 E4.2039
G1 X82.781 Y139.713 E4.2398
G1 X81.854 Y138.787 E4.3013
G1 X81.469 Y138.362 E4.3282
G1 X80.902 Y137.671 E4.3702
G1 X80.561 Y137.211 E4.3971
G1 X79.833 Y136.121 E4.4586
G1 X79.450 Y135.459 E4.4945
G1 X78.871 Y134.284 E4.5560
G1 X78.642 Y133.757 E4.5829
G1 X78.328 Y132.921 E4.6249
G1 X78.152 Y132.375 E4.6518
G1 X78.136 Y132.313 E4.6548
G1 X78.115 Y132.251 E4.6579
G1 X77.957 Y131.700 E4.6848
G1 X77.754 Y130.829 E4.7267
G1 X77.652 Y130.265 E4.7536
G1 X77.493 Y129.061 E4.8107
G1 X77.446 Y128.489 E4.8376
G1 X77.420 Y127.691 E4.8751
G1 X77.420 Y127.309 E4.8930
