; G-Code generated by Simplify3D(R) Version 4.1.2
; Aug 20, 2020 at 6:34:46 PM
; Settings Summary
;   processName,Process1
;   applyToModels,seite-unten
;   profileName,HBot (modified)
;   profileVersion,2019-10-26 23:38:43
;   baseProfile,Default
;   printMaterial,PETG - ERYONE
;   printQuality,Medium
;   printExtruders,
;   extruderName,Extruder 1
;   extruderToolheadNumber,0
;   extruderDiameter,0.4
;   extruderAutoWidth,1
;   extruderWidth,0.48
;   extrusionMultiplier,0.98
;   extruderUseRetract,1
;   extruderRetractionDistance,4
;   extruderExtraRestartDistance,0
;   extruderRetractionZLift,0.2
;   extruderRetractionSpeed,3600
;   extruderUseCoasting,1
;   extruderCoastingDistance,0.2
;   extruderUseWipe,1
;   extruderWipeDistance,5
;   primaryExtruder,0
;   layerHeight,0.24
;   topSolidLayers,4
;   bottomSolidLayers,4
;   perimeterOutlines,3
;   printPerimetersInsideOut,1
;   startPointOption,3
;   startPointOriginX,200
;   startPointOriginY,100
;   sequentialIslands,0
;   spiralVaseMode,0
;   firstLayerHeightPercentage,100
;   firstLayerWidthPercentage,100
;   firstLayerUnderspeed,0.5
;   useRaft,0
;   raftExtruder,0
;   raftTopLayers,3
;   raftBaseLayers,2
;   raftOffset,3
;   raftSeparationDistance,0.18
;   raftTopInfill,100
;   aboveRaftSpeedMultiplier,0.3
;   useSkirt,1
;   skirtExtruder,0
;   skirtLayers,2
;   skirtOutlines,20
;   skirtOffset,0
;   usePrimePillar,0
;   primePillarExtruder,999
;   primePillarWidth,12
;   primePillarLocation,7
;   primePillarSpeedMultiplier,1
;   useOozeShield,0
;   oozeShieldExtruder,999
;   oozeShieldOffset,0.9
;   oozeShieldOutlines,2
;   oozeShieldSidewallShape,0
;   oozeShieldSidewallAngle,30
;   oozeShieldSpeedMultiplier,1.5
;   infillExtruder,0
;   internalInfillPattern,Fast Honeycomb
;   externalInfillPattern,Rectilinear
;   infillPercentage,15
;   outlineOverlapPercentage,25
;   infillExtrusionWidthPercentage,100
;   minInfillLength,5
;   infillLayerInterval,1
;   internalInfillAngles,0
;   overlapInternalInfillAngles,0
;   externalInfillAngles,45,-45
;   generateSupport,1
;   supportExtruder,0
;   supportInfillPercentage,30
;   supportExtraInflation,0
;   supportBaseLayers,1
;   denseSupportExtruder,0
;   denseSupportLayers,0
;   denseSupportInfillPercentage,70
;   supportLayerInterval,1
;   supportHorizontalPartOffset,0.3
;   supportUpperSeparationLayers,1
;   supportLowerSeparationLayers,1
;   supportType,0
;   supportGridSpacing,4
;   maxOverhangAngle,25
;   supportAngles,0
;   temperatureName,Extruder 1,Heated Bed
;   temperatureNumber,0,1
;   temperatureSetpointCount,1,1
;   temperatureSetpointLayers,1,1
;   temperatureSetpointTemperatures,230,75
;   temperatureStabilizeAtStartup,1,1
;   temperatureHeatedBed,0,1
;   fanLayers,1
;   fanSpeeds,0
;   blipFanToFullPower,1
;   adjustSpeedForCooling,1
;   minSpeedLayerTime,15
;   minCoolingSpeedSlowdown,20
;   increaseFanForCooling,0
;   minFanLayerTime,45
;   maxCoolingFanSpeed,35
;   increaseFanForBridging,1
;   bridgingFanSpeed,85
;   use5D,1
;   relativeEdistances,0
;   allowEaxisZeroing,1
;   independentExtruderAxes,0
;   includeM10123,0
;   stickySupport,1
;   applyToolheadOffsets,0
;   gcodeXoffset,0
;   gcodeYoffset,0
;   gcodeZoffset,0
;   overrideMachineDefinition,1
;   machineTypeOverride,0
;   strokeXoverride,210
;   strokeYoverride,210
;   strokeZoverride,150
;   originOffsetXoverride,0
;   originOffsetYoverride,0
;   originOffsetZoverride,0
;   homeXdirOverride,-1
;   homeYdirOverride,-1
;   homeZdirOverride,-1
;   flipXoverride,1
;   flipYoverride,-1
;   flipZoverride,1
;   toolheadOffsets,0,0|0,0|0,0|0,0|0,0|0,0
;   overrideFirmwareConfiguration,1
;   firmwareTypeOverride,RepRap (Marlin/Repetier/Sprinter)
;   GPXconfigOverride,r2
;   baudRateOverride,115200
;   overridePrinterModels,0
;   printerModelsOverride
;   startingGcode,G28 ; home all axes,G32 ; run bed.g -- probe bed and enable compensation
;   layerChangeGcode,
;   retractionGcode,
;   toolChangeGcode,
;   endingGcode,M0 ; call stop.g
;   exportFileFormat,gcode
;   celebration,0
;   celebrationSong,Random Song
;   postProcessing,
;   defaultSpeed,3600
;   outlineUnderspeed,0.5
;   solidInfillUnderspeed,0.8
;   supportUnderspeed,0.8
;   rapidXYspeed,18000
;   rapidZspeed,1200
;   minBridgingArea,50
;   bridgingExtraInflation,0
;   bridgingExtrusionMultiplier,0.96
;   bridgingSpeedMultiplier,1
;   useFixedBridgingAngle,0
;   fixedBridgingAngle,0
;   applyBridgingToPerimeters,0
;   filamentDiameters,1.75|1.75|1.75|1.75|1.75|1.75
;   filamentPricesPerKg,46|46|46|46|46|46
;   filamentDensities,1.25|1.25|1.25|1.25|1.25|1.25
;   useMinPrintHeight,0
;   minPrintHeight,20
;   useMaxPrintHeight,0
;   maxPrintHeight,15
;   useDiaphragm,0
;   diaphragmLayerInterval,20
;   robustSlicing,1
;   mergeAllIntoSolid,0
;   onlyRetractWhenCrossingOutline,1
;   retractBetweenLayers,0
;   useRetractionMinTravel,1
;   retractionMinTravel,3
;   retractWhileWiping,1
;   onlyWipeOutlines,1
;   avoidCrossingOutline,1
;   maxMovementDetourFactor,5
;   toolChangeRetractionDistance,12
;   toolChangeExtraRestartDistance,-0.5
;   toolChangeRetractionSpeed,600
;   externalThinWallType,0
;   internalThinWallType,2
;   thinWallAllowedOverlapPercentage,10
;   singleExtrusionMinLength,1
;   singleExtrusionMinPrintingWidthPercentage,50
;   singleExtrusionMaxPrintingWidthPercentage,150
;   singleExtrusionEndpointExtension,0.2
;   horizontalSizeCompensation,-0.1
G90
M82
M106 S0
M140 S75
M190 S75
M104 S230 T0
M109 S230 T0
G28 ; home all axes
G32 ; run bed.g -- probe bed and enable compensation
; process Process1
; layer 1, Z = 0.240
T0
G92 E0.0000
G1 E-4.0000 F3600
; feature skirt
; tool H0.240 W0.480
G1 Z0.240 F1200
G1 X171.260 Y66.723 F18000
G1 E0.0000 F3600
G92 E0.0000
G1 X171.260 Y143.277 E3.5932 F1800
G1 X165.777 Y148.760 E3.9571
G1 X44.223 Y148.760 E9.6625
G1 X38.740 Y143.277 E10.0264
G1 X38.740 Y66.723 E13.6196
G1 X44.223 Y61.240 E13.9836
G1 X165.777 Y61.240 E19.6889
G1 X171.260 Y66.723 E20.0529
G1 X170.780 Y66.922 F18000
G92 E0.0000
G1 X170.780 Y143.078 E3.5745 F1800
G1 X165.578 Y148.280 E3.9198
G1 X44.422 Y148.280 E9.6065
G1 X39.220 Y143.078 E9.9518
G1 X39.220 Y66.922 E13.5263
G1 X44.422 Y61.720 E13.8716
G1 X165.578 Y61.720 E19.5583
G1 X170.780 Y66.922 E19.9036
G1 X170.300 Y67.121 F18000
G92 E0.0000
G1 X170.300 Y142.879 E3.5559 F1800
G1 X165.379 Y147.800 E3.8825
G1 X44.621 Y147.800 E9.5505
G1 X39.700 Y142.879 E9.8771
G1 X39.700 Y67.121 E13.4330
G1 X44.621 Y62.200 E13.7596
G1 X165.379 Y62.200 E19.4276
G1 X170.300 Y67.121 E19.7543
G1 X169.820 Y67.320 F18000
G92 E0.0000
G1 X169.820 Y142.680 E3.5372 F1800
G1 X165.180 Y147.320 E3.8452
G1 X44.820 Y147.320 E9.4945
G1 X40.180 Y142.681 E9.8025
G1 X40.180 Y67.319 E13.3397
G1 X44.819 Y62.680 E13.6476
G1 X165.181 Y62.680 E19.2970
G1 X169.820 Y67.320 E19.6049
G1 X169.340 Y67.518 F18000
G92 E0.0000
G1 X169.340 Y142.482 E3.5185 F1800
G1 X164.982 Y146.840 E3.8078
G1 X45.018 Y146.840 E9.4385
G1 X40.660 Y142.482 E9.7278
G1 X40.660 Y67.518 E13.2463
G1 X45.018 Y63.160 E13.5356
G1 X164.982 Y63.160 E19.1663
G1 X169.340 Y67.518 E19.4556
G1 X168.860 Y67.717 F18000
G92 E0.0000
G1 X168.860 Y142.283 E3.4999 F1800
G1 X164.783 Y146.360 E3.7705
G1 X45.217 Y146.360 E9.3825
G1 X41.140 Y142.283 E9.6531
G1 X41.140 Y67.717 E13.1530
G1 X45.217 Y63.640 E13.4237
G1 X164.783 Y63.640 E19.0357
G1 X168.860 Y67.717 E19.3063
G1 X168.380 Y67.916 F18000
G92 E0.0000
G1 X168.380 Y142.084 E3.4812 F1800
G1 X164.584 Y145.880 E3.7332
G1 X45.416 Y145.880 E9.3265
G1 X41.620 Y142.084 E9.5785
G1 X41.620 Y67.916 E13.0597
G1 X45.416 Y64.120 E13.3117
G1 X164.584 Y64.120 E18.9050
G1 X168.380 Y67.916 E19.1570
G1 X167.900 Y68.115 F18000
G92 E0.0000
G1 X167.900 Y141.885 E3.4625 F1800
G1 X164.385 Y145.400 E3.6958
G1 X45.615 Y145.400 E9.2705
G1 X42.100 Y141.885 E9.5038
G1 X42.100 Y68.115 E12.9664
G1 X45.615 Y64.600 E13.1997
G1 X164.385 Y64.600 E18.7744
G1 X167.900 Y68.115 E19.0077
G1 X167.420 Y68.314 F18000
G92 E0.0000
G1 X167.420 Y141.686 E3.4439 F1800
G1 X164.186 Y144.920 E3.6585
G1 X45.814 Y144.920 E9.2145
G1 X42.580 Y141.687 E9.4292
G1 X42.580 Y68.314 E12.8731
G1 X45.814 Y65.080 E13.0877
G1 X164.187 Y65.080 E18.6437
G1 X167.420 Y68.314 E18.8584
G1 X166.940 Y68.512 F18000
G92 E0.0000
G1 X166.940 Y141.488 E3.4252 F1800
G1 X163.988 Y144.440 E3.6212
G1 X46.012 Y144.440 E9.1585
G1 X43.060 Y141.488 E9.3545
G1 X43.060 Y68.512 E12.7797
G1 X46.012 Y65.560 E12.9757
G1 X163.988 Y65.560 E18.5131
G1 X166.940 Y68.512 E18.7091
G1 X166.460 Y68.711 F18000
G92 E0.0000
G1 X166.460 Y141.289 E3.4065 F1800
G1 X163.789 Y143.960 E3.5839
G1 X46.211 Y143.960 E9.1026
G1 X43.540 Y141.289 E9.2799
G1 X43.540 Y68.711 E12.6864
G1 X46.211 Y66.040 E12.8637
G1 X163.789 Y66.040 E18.3824
G1 X166.460 Y68.711 E18.5598
G1 X165.980 Y68.910 F18000
G92 E0.0000
G1 X165.980 Y141.090 E3.3879 F1800
G1 X163.590 Y143.480 E3.5465
G1 X46.410 Y143.480 E9.0466
G1 X44.020 Y141.090 E9.2052
G1 X44.020 Y68.910 E12.5931
G1 X46.410 Y66.520 E12.7518
G1 X163.590 Y66.520 E18.2518
G1 X165.980 Y68.910 E18.4104
G1 X165.500 Y69.109 F18000
G92 E0.0000
G1 X165.500 Y140.891 E3.3692 F1800
G1 X163.391 Y143.000 E3.5092
G1 X46.609 Y143.000 E8.9906
G1 X44.500 Y140.891 E9.1306
G1 X44.500 Y69.109 E12.4998
G1 X46.609 Y67.000 E12.6398
G1 X163.391 Y67.000 E18.1211
G1 X165.500 Y69.109 E18.2611
G1 X165.020 Y69.308 F18000
G92 E0.0000
G1 X165.020 Y140.692 E3.3506 F1800
G1 X163.192 Y142.520 E3.4719
G1 X46.808 Y142.520 E8.9346
G1 X44.980 Y140.692 E9.0559
G1 X44.980 Y69.308 E12.4065
G1 X46.808 Y67.480 E12.5278
G1 X163.192 Y67.480 E17.9905
G1 X165.020 Y69.308 E18.1118
G1 X164.540 Y69.507 F18000
G92 E0.0000
G1 X164.540 Y140.494 E3.3319 F1800
G1 X162.994 Y142.040 E3.4345
G1 X47.007 Y142.040 E8.8786
G1 X45.460 Y140.494 E8.9812
G1 X45.460 Y69.506 E12.3131
G1 X47.006 Y67.960 E12.4158
G1 X162.994 Y67.960 E17.8599
G1 X164.540 Y69.507 E17.9625
G1 X164.060 Y69.705 F18000
G92 E0.0000
G1 X164.060 Y140.295 E3.3132 F1800
G1 X162.795 Y141.560 E3.3972
G1 X47.205 Y141.560 E8.8226
G1 X45.940 Y140.295 E8.9066
G1 X45.940 Y69.705 E12.2198
G1 X47.205 Y68.440 E12.3038
G1 X162.795 Y68.440 E17.7292
G1 X164.060 Y69.705 E17.8132
G1 X163.580 Y69.904 F18000
G92 E0.0000
G1 X163.580 Y140.096 E3.2946 F1800
G1 X162.596 Y141.080 E3.3599
G1 X47.404 Y141.080 E8.7666
G1 X46.420 Y140.096 E8.8319
G1 X46.420 Y69.904 E12.1265
G1 X47.404 Y68.920 E12.1918
G1 X162.596 Y68.920 E17.5986
G1 X163.580 Y69.904 E17.6639
G1 X163.100 Y70.103 F18000
G92 E0.0000
G1 X163.100 Y139.897 E3.2759 F1800
G1 X162.397 Y140.600 E3.3226
G1 X47.603 Y140.600 E8.7106
G1 X46.900 Y139.897 E8.7573
G1 X46.900 Y70.103 E12.0332
G1 X47.603 Y69.400 E12.0798
G1 X162.397 Y69.400 E17.4679
G1 X163.100 Y70.103 E17.5146
G1 X162.620 Y70.302 F18000
G92 E0.0000
G1 X162.620 Y139.698 E3.2572 F1800
G1 X162.198 Y140.120 E3.2852
G1 X47.802 Y140.120 E8.6546
G1 X47.380 Y139.698 E8.6826
G1 X47.380 Y70.302 E11.9399
G1 X47.802 Y69.880 E11.9679
G1 X162.198 Y69.880 E17.3373
G1 X162.620 Y70.302 E17.3653
G1 X162.140 Y70.501 F18000
G92 E0.0000
G1 X162.140 Y139.499 E3.2386 F1800
G1 X161.999 Y139.640 E3.2479
G1 X48.001 Y139.640 E8.5986
G1 X47.860 Y139.499 E8.6080
G1 X47.860 Y70.501 E11.8465
G1 X48.001 Y70.360 E11.8559
G1 X161.999 Y70.360 E17.2066
G1 X162.140 Y70.501 E17.2159
; feature inner perimeter
G1 X161.660 Y70.840 F18000
G1 X161.660 Y70.934
G1 X160.700 Y71.800
G92 E0.0000
G1 X160.700 Y138.200 E3.1166 F1350
G1 X49.300 Y138.200 E8.3453
G1 X49.300 Y71.800 E11.4619
G1 X160.500 Y71.800 E16.6813
G1 X160.700 Y71.800 F1350
G1 X161.180 Y71.320 F18000
G92 E0.0000
G1 X161.180 Y138.680 E3.1617 F1350
G1 X48.820 Y138.680 E8.4355
G1 X48.820 Y71.320 E11.5971
G1 X160.980 Y71.320 E16.8615
G1 X161.180 Y71.320 F1350
; feature outer perimeter
G1 X161.660 Y70.840 F18000
G92 E0.0000
G1 X161.660 Y139.160 E3.2067 F900
G1 X48.340 Y139.160 E8.5256
G1 X48.340 Y70.840 E11.7323
G1 X161.460 Y70.840 E17.0418
G1 X161.660 Y70.840 F900
G1 X161.660 Y75.840 F900
; feature inner perimeter
G1 X114.677 Y87.500 F18000
G92 E0.0000
G1 X112.338 Y83.450 E0.2195 F1350
G1 X107.662 Y83.450 E0.4390
G1 X105.323 Y87.500 E0.6585
G1 X107.662 Y91.550 E0.8780
G1 X112.338 Y91.550 E1.0975
G1 X114.577 Y87.673 E1.3076
G1 X114.677 Y87.500 F1350
G1 X114.122 Y87.500 F18000
G92 E0.0000
G1 X112.061 Y83.930 E0.1935 F1350
G1 X107.939 Y83.930 E0.3870
G1 X105.878 Y87.500 E0.5805
G1 X107.939 Y91.070 E0.7739
G1 X112.061 Y91.070 E0.9674
G1 X114.022 Y87.673 E1.1515
G1 X114.122 Y87.500 F1350
; feature outer perimeter
G1 X113.568 Y87.500 F18000
G92 E0.0000
G1 X111.784 Y84.410 E0.1675 F900
G1 X108.216 Y84.410 E0.3349
G1 X106.432 Y87.500 E0.5024
G1 X108.216 Y90.590 E0.6699
G1 X111.784 Y90.590 E0.8374
G1 X113.468 Y87.673 E0.9954
G1 X113.568 Y87.500 F900
G1 X111.784 Y84.410 F900
G1 X110.352 Y84.410
; feature inner perimeter
G1 X108.216 Y84.410 F18000
G1 X106.432 Y87.500
G1 X108.216 Y90.590
G1 X108.701 Y90.590
G1 X105.868 Y101.196
G92 E0.0000
G1 X105.524 Y101.134 E0.0164 F1350
G1 X105.175 Y101.103 E0.0329
G1 X104.825 Y101.103 E0.0493
G1 X104.476 Y101.134 E0.0657
G1 X104.132 Y101.196 E0.0822
G1 X103.794 Y101.290 E0.0986
G1 X103.467 Y101.413 E0.1150
G1 X103.151 Y101.564 E0.1314
G1 X102.851 Y101.744 E0.1479
G1 X102.568 Y101.950 E0.1643
G1 X102.304 Y102.180 E0.1807
G1 X102.062 Y102.433 E0.1972
G1 X101.844 Y102.707 E0.2136
G1 X101.651 Y102.999 E0.2300
G1 X101.485 Y103.307 E0.2465
G1 X101.347 Y103.629 E0.2629
G1 X101.239 Y103.962 E0.2793
G1 X101.161 Y104.303 E0.2958
G1 X101.114 Y104.650 E0.3122
G1 X101.099 Y105.000 E0.3286
G1 X101.114 Y105.343 E0.3447
G1 X101.161 Y105.695 E0.3614
G1 X101.239 Y106.038 E0.3779
G1 X101.347 Y106.371 E0.3943
G1 X101.485 Y106.693 E0.4108
G1 X101.651 Y107.001 E0.4272
G1 X101.844 Y107.293 E0.4436
G1 X102.062 Y107.567 E0.4601
G1 X102.304 Y107.820 E0.4765
G1 X102.568 Y108.050 E0.4929
G1 X102.851 Y108.256 E0.5094
G1 X103.151 Y108.436 E0.5258
G1 X103.467 Y108.587 E0.5422
G1 X103.794 Y108.710 E0.5586
G1 X104.132 Y108.804 E0.5751
G1 X104.476 Y108.866 E0.5915
G1 X104.825 Y108.897 E0.6079
G1 X105.175 Y108.897 E0.6244
G1 X105.524 Y108.866 E0.6408
G1 X105.868 Y108.804 E0.6572
G1 X106.206 Y108.710 E0.6737
G1 X106.533 Y108.587 E0.6901
G1 X106.849 Y108.436 E0.7065
G1 X107.149 Y108.256 E0.7230
G1 X107.432 Y108.050 E0.7394
G1 X107.696 Y107.820 E0.7558
G1 X107.938 Y107.567 E0.7722
G1 X108.156 Y107.293 E0.7887
G1 X108.349 Y107.001 E0.8051
G1 X108.515 Y106.693 E0.8215
G1 X108.653 Y106.371 E0.8380
G1 X108.761 Y106.038 E0.8544
G1 X108.839 Y105.697 E0.8708
G1 X108.886 Y105.350 E0.8873
G1 X108.901 Y105.000 E0.9037
G1 X108.886 Y104.650 E0.9201
G1 X108.839 Y104.303 E0.9366
G1 X108.761 Y103.962 E0.9530
G1 X108.653 Y103.629 E0.9694
G1 X108.515 Y103.307 E0.9859
G1 X108.349 Y102.999 E1.0023
G1 X108.156 Y102.707 E1.0187
G1 X107.938 Y102.433 E1.0351
G1 X107.696 Y102.180 E1.0516
G1 X107.432 Y101.950 E1.0680
G1 X107.149 Y101.744 E1.0844
G1 X106.849 Y101.564 E1.1009
G1 X106.533 Y101.413 E1.1173
G1 X106.206 Y101.290 E1.1337
G1 X106.061 Y101.250 E1.1408
G1 X105.868 Y101.196 F1350
G1 X105.761 Y101.665 F18000
G92 E0.0000
G1 X105.459 Y101.610 E0.0144 F1350
G1 X105.153 Y101.583 E0.0288
G1 X104.847 Y101.583 E0.0432
G1 X104.541 Y101.610 E0.0576
G1 X104.239 Y101.665 E0.0720
G1 X103.943 Y101.747 E0.0864
G1 X103.655 Y101.854 E0.1009
G1 X103.379 Y101.988 E0.1153
G1 X103.115 Y102.145 E0.1297
G1 X102.867 Y102.325 E0.1441
G1 X102.636 Y102.527 E0.1585
G1 X102.424 Y102.749 E0.1729
G1 X102.233 Y102.989 E0.1873
G1 X102.063 Y103.245 E0.2017
G1 X101.918 Y103.516 E0.2161
G1 X101.797 Y103.798 E0.2305
G1 X101.702 Y104.090 E0.2449
G1 X101.634 Y104.389 E0.2593
G1 X101.593 Y104.693 E0.2737
G1 X101.579 Y105.000 E0.2881
G1 X101.593 Y105.301 E0.3023
G1 X101.634 Y105.610 E0.3169
G1 X101.702 Y105.910 E0.3314
G1 X101.797 Y106.202 E0.3458
G1 X101.918 Y106.484 E0.3602
G1 X102.063 Y106.755 E0.3746
G1 X102.233 Y107.011 E0.3890
G1 X102.424 Y107.251 E0.4034
G1 X102.636 Y107.473 E0.4178
G1 X102.867 Y107.675 E0.4322
G1 X103.115 Y107.855 E0.4466
G1 X103.379 Y108.012 E0.4610
G1 X103.655 Y108.146 E0.4754
G1 X103.943 Y108.253 E0.4898
G1 X104.239 Y108.335 E0.5043
G1 X104.541 Y108.390 E0.5187
G1 X104.847 Y108.417 E0.5331
G1 X105.153 Y108.417 E0.5475
