; G-Code generated by Simplify3D(R) Version 4.1.2
; Aug 19, 2020 at 10:11:12 PM
; Settings Summary
;   processName,Process1
;   applyToModels,seite
;   profileName,HBot (modified)
;   profileVersion,2019-10-26 23:38:43
;   baseProfile,Default
;   printMaterial,PETG - ERYONE
;   printQuality,Medium
;   printExtruders,
;   extruderName,Extruder 1
;   extruderToolheadNumber,0
;   extruderDiameter,0.4
;   extruderAutoWidth,1
;   extruderWidth,0.48
;   extrusionMultiplier,0.98
;   extruderUseRetract,1
;   extruderRetractionDistance,4
;   extruderExtraRestartDistance,0
;   extruderRetractionZLift,0.2
;   extruderRetractionSpeed,3600
;   extruderUseCoasting,1
;   extruderCoastingDistance,0.2
;   extruderUseWipe,1
;   extruderWipeDistance,5
;   primaryExtruder,0
;   layerHeight,0.24
;   topSolidLayers,4
;   bottomSolidLayers,4
;   perimeterOutlines,3
;   printPerimetersInsideOut,1
;   startPointOption,3
;   startPointOriginX,200
;   startPointOriginY,100
;   sequentialIslands,0
;   spiralVaseMode,0
;   firstLayerHeightPercentage,100
;   firstLayerWidthPercentage,100
;   firstLayerUnderspeed,0.5
;   useRaft,0
;   raftExtruder,0
;   raftTopLayers,3
;   raftBaseLayers,2
;   raftOffset,3
;   raftSeparationDistance,0.18
;   raftTopInfill,100
;   aboveRaftSpeedMultiplier,0.3
;   useSkirt,1
;   skirtExtruder,0
;   skirtLayers,2
;   skirtOutlines,20
;   skirtOffset,0
;   usePrimePillar,0
;   primePillarExtruder,999
;   primePillarWidth,12
;   primePillarLocation,7
;   primePillarSpeedMultiplier,1
;   useOozeShield,0
;   oozeShieldExtruder,999
;   oozeShieldOffset,0.9
;   oozeShieldOutlines,2
;   oozeShieldSidewallShape,0
;   oozeShieldSidewallAngle,30
;   oozeShieldSpeedMultiplier,1.5
;   infillExtruder,0
;   internalInfillPattern,Fast Honeycomb
;   externalInfillPattern,Rectilinear
;   infillPercentage,15
;   outlineOverlapPercentage,25
;   infillExtrusionWidthPercentage,100
;   minInfillLength,5
;   infillLayerInterval,1
;   internalInfillAngles,0
;   overlapInternalInfillAngles,0
;   externalInfillAngles,45,-45
;   generateSupport,1
;   supportExtruder,0
;   supportInfillPercentage,30
;   supportExtraInflation,0
;   supportBaseLayers,1
;   denseSupportExtruder,0
;   denseSupportLayers,0
;   denseSupportInfillPercentage,70
;   supportLayerInterval,1
;   supportHorizontalPartOffset,0.3
;   supportUpperSeparationLayers,1
;   supportLowerSeparationLayers,1
;   supportType,0
;   supportGridSpacing,4
;   maxOverhangAngle,25
;   supportAngles,0
;   temperatureName,Extruder 1,Heated Bed
;   temperatureNumber,0,1
;   temperatureSetpointCount,1,1
;   temperatureSetpointLayers,1,1
;   temperatureSetpointTemperatures,230,75
;   temperatureStabilizeAtStartup,1,1
;   temperatureHeatedBed,0,1
;   fanLayers,1
;   fanSpeeds,0
;   blipFanToFullPower,1
;   adjustSpeedForCooling,1
;   minSpeedLayerTime,15
;   minCoolingSpeedSlowdown,20
;   increaseFanForCooling,0
;   minFanLayerTime,45
;   maxCoolingFanSpeed,35
;   increaseFanForBridging,1
;   bridgingFanSpeed,85
;   use5D,1
;   relativeEdistances,0
;   allowEaxisZeroing,1
;   independentExtruderAxes,0
;   includeM10123,0
;   stickySupport,1
;   applyToolheadOffsets,0
;   gcodeXoffset,0
;   gcodeYoffset,0
;   gcodeZoffset,0
;   overrideMachineDefinition,1
;   machineTypeOverride,0
;   strokeXoverride,210
;   strokeYoverride,210
;   strokeZoverride,150
;   originOffsetXoverride,0
;   originOffsetYoverride,0
;   originOffsetZoverride,0
;   homeXdirOverride,-1
;   homeYdirOverride,-1
;   homeZdirOverride,-1
;   flipXoverride,1
;   flipYoverride,-1
;   flipZoverride,1
;   toolheadOffsets,0,0|0,0|0,0|0,0|0,0|0,0
;   overrideFirmwareConfiguration,1
;   firmwareTypeOverride,RepRap (Marlin/Repetier/Sprinter)
;   GPXconfigOverride,r2
;   baudRateOverride,115200
;   overridePrinterModels,0
;   printerModelsOverride
;   startingGcode,G28 ; home all axes,G32 ; run bed.g -- probe bed and enable compensation
;   layerChangeGcode,
;   retractionGcode,
;   toolChangeGcode,
;   endingGcode,M0 ; call stop.g
;   exportFileFormat,gcode
;   celebration,0
;   celebrationSong,Random Song
;   postProcessing,
;   defaultSpeed,3600
;   outlineUnderspeed,0.5
;   solidInfillUnderspeed,0.8
;   supportUnderspeed,0.8
;   rapidXYspeed,18000
;   rapidZspeed,1200
;   minBridgingArea,50
;   bridgingExtraInflation,0
;   bridgingExtrusionMultiplier,0.96
;   bridgingSpeedMultiplier,1
;   useFixedBridgingAngle,0
;   fixedBridgingAngle,0
;   applyBridgingToPerimeters,0
;   filamentDiameters,1.75|1.75|1.75|1.75|1.75|1.75
;   filamentPricesPerKg,46|46|46|46|46|46
;   filamentDensities,1.25|1.25|1.25|1.25|1.25|1.25
;   useMinPrintHeight,0
;   minPrintHeight,20
;   useMaxPrintHeight,0
;   maxPrintHeight,15
;   useDiaphragm,0
;   diaphragmLayerInterval,20
;   robustSlicing,1
;   mergeAllIntoSolid,0
;   onlyRetractWhenCrossingOutline,1
;   retractBetweenLayers,0
;   useRetractionMinTravel,1
;   retractionMinTravel,3
;   retractWhileWiping,1
;   onlyWipeOutlines,1
;   avoidCrossingOutline,1
;   maxMovementDetourFactor,5
;   toolChangeRetractionDistance,12
;   toolChangeExtraRestartDistance,-0.5
;   toolChangeRetractionSpeed,600
;   externalThinWallType,0
;   internalThinWallType,2
;   thinWallAllowedOverlapPercentage,10
;   singleExtrusionMinLength,1
;   singleExtrusionMinPrintingWidthPercentage,50
;   singleExtrusionMaxPrintingWidthPercentage,150
;   singleExtrusionEndpointExtension,0.2
;   horizontalSizeCompensation,-0.1
G90
M82
M106 S0
M140 S75
M190 S75
M104 S230 T0
M109 S230 T0
G28 ; home all axes
G32 ; run bed.g -- probe bed and enable compensation
; process Process1
; layer 1, Z = 0.240
T0
G92 E0.0000
G1 E-4.0000 F3600
; feature skirt
; tool H0.240 W0.480
G1 Z0.240 F1200
G1 X120.580 Y44.903 F18000
G1 E0.0000 F3600
G92 E0.0000
G1 X120.580 Y165.097 E5.6415 F1800
G1 X115.097 Y170.580 E6.0055
G1 X111.097 Y174.580 E6.2710
G1 X98.903 Y174.580 E6.8433
G1 X94.145 Y169.822 E7.1591
G1 X94.109 Y169.822 E7.1608
G1 X88.626 Y164.339 E7.5248
G1 X88.626 Y158.091 E7.8181
G1 X88.378 Y157.843 E7.8345
G1 X88.378 Y145.649 E8.4069
G1 X92.490 Y141.537 E8.6798
G1 X92.490 Y68.276 E12.1184
G1 X88.794 Y64.580 E12.3638
G1 X88.794 Y58.259 E12.6605
G1 X88.591 Y58.056 E12.6740
G1 X88.591 Y45.862 E13.2463
G1 X93.420 Y41.032 E13.5669
G1 X93.420 Y40.903 E13.5729
G1 X98.903 Y35.420 E13.9369
G1 X111.097 Y35.420 E14.5092
G1 X115.800 Y40.123 E14.8214
G1 X120.580 Y44.903 E15.1387
G92 E0.0000
G1 E-4.0000 F3600
G1 Z0.440 F1200
G1 X120.100 Y73.102 F18000
G1 Z0.240 F1200
G1 E0.0000 F3600
G92 E0.0000
G1 X120.100 Y136.898 E2.9944 F1800
G1 X119.998 Y137.000 E3.0012
G1 X120.100 Y137.102 E3.0079
G1 X120.100 Y164.898 E4.3126
G1 X114.898 Y170.100 E4.6579
G1 X110.898 Y174.100 E4.9234
G1 X99.102 Y174.100 E5.4771
G1 X94.344 Y169.342 E5.7929
G1 X94.308 Y169.342 E5.7946
G1 X89.106 Y164.140 E6.1399
G1 X89.106 Y157.892 E6.4332
G1 X88.858 Y157.644 E6.4496
G1 X88.858 Y145.848 E7.0033
G1 X92.970 Y141.736 E7.2762
G1 X92.970 Y68.077 E10.7335
G1 X89.274 Y64.382 E10.9788
G1 X89.274 Y58.060 E11.2755
G1 X89.071 Y57.857 E11.2890
G1 X89.071 Y46.060 E11.8427
G1 X93.900 Y41.231 E12.1633
G1 X93.900 Y41.102 E12.1694
G1 X99.102 Y35.900 E12.5146
G1 X110.898 Y35.900 E13.0683
G1 X115.461 Y40.462 E13.3712
G1 X120.100 Y45.102 E13.6791
G1 X120.100 Y72.898 E14.9838
G1 X119.998 Y73.000 E14.9906
G1 X120.100 Y73.102 E14.9973
G1 X119.620 Y73.301 F18000
G92 E0.0000
G1 X119.620 Y136.699 E2.9757 F1800
G1 X119.319 Y137.000 E2.9957
G1 X119.620 Y137.301 E3.0157
G1 X119.620 Y164.699 E4.3017
G1 X114.699 Y169.620 E4.6283
G1 X110.699 Y173.620 E4.8938
G1 X99.301 Y173.620 E5.4288
G1 X94.543 Y168.862 E5.7446
G1 X94.507 Y168.862 E5.7463
G1 X89.586 Y163.941 E6.0730
G1 X89.586 Y157.693 E6.3662
G1 X89.338 Y157.445 E6.3827
G1 X89.338 Y146.047 E6.9177
G1 X93.450 Y141.935 E7.1906
G1 X93.450 Y67.878 E10.6666
G1 X89.754 Y64.183 E10.9119
G1 X89.754 Y57.861 E11.2086
G1 X89.551 Y57.658 E11.2221
G1 X89.551 Y46.259 E11.7571
G1 X94.380 Y41.430 E12.0777
G1 X94.380 Y41.301 E12.0838
G1 X99.301 Y36.380 E12.4104
G1 X110.699 Y36.380 E12.9454
G1 X115.121 Y40.802 E13.2389
G1 X119.620 Y45.301 E13.5375
G1 X119.620 Y72.699 E14.8236
G1 X119.319 Y73.000 E14.8435
G1 X119.620 Y73.301 E14.8635
G1 X119.140 Y73.499 F18000
G92 E0.0000
G1 X119.140 Y136.501 E2.9571 F1800
G1 X118.641 Y137.000 E2.9902
G1 X119.140 Y137.500 E3.0234
G1 X119.140 Y164.500 E4.2907
G1 X114.501 Y169.140 E4.5987
G1 X110.501 Y173.140 E4.8642
G1 X99.499 Y173.140 E5.3805
G1 X94.860 Y168.500 E5.6885
G1 X94.860 Y168.382 E5.6941
G1 X94.705 Y168.382 E5.7013
G1 X90.066 Y163.743 E6.0093
G1 X90.066 Y157.494 E6.3026
G1 X89.818 Y157.247 E6.3190
G1 X89.818 Y146.246 E6.8354
G1 X93.930 Y142.134 E7.1083
G1 X93.930 Y67.680 E10.6029
G1 X90.234 Y63.984 E10.8482
G1 X90.234 Y57.663 E11.1449
G1 X90.031 Y57.459 E11.1584
G1 X90.031 Y46.458 E11.6748
G1 X94.670 Y41.819 E11.9828
G1 X94.860 Y41.819 E11.9917
G1 X94.860 Y41.499 E12.0066
G1 X99.499 Y36.860 E12.3146
G1 X110.501 Y36.860 E12.8310
G1 X114.782 Y41.141 E13.1151
G1 X119.140 Y45.499 E13.4044
G1 X119.140 Y72.501 E14.6718
G1 X118.641 Y73.000 E14.7049
G1 X119.140 Y73.499 E14.7381
G1 X118.660 Y73.698 F18000
G92 E0.0000
G1 X118.660 Y136.302 E2.9384 F1800
G1 X117.962 Y137.000 E2.9848
G1 X118.660 Y137.698 E3.0311
G1 X118.660 Y164.302 E4.2798
G1 X114.302 Y168.660 E4.5691
G1 X110.302 Y172.660 E4.8346
G1 X99.698 Y172.660 E5.3323
G1 X95.340 Y168.302 E5.6216
G1 X95.340 Y167.902 E5.6403
G1 X94.904 Y167.902 E5.6608
G1 X90.546 Y163.544 E5.9501
G1 X90.546 Y157.296 E6.2434
G1 X90.298 Y157.048 E6.2598
G1 X90.298 Y146.444 E6.7575
G1 X94.410 Y142.333 E7.0304
G1 X94.410 Y67.481 E10.5437
G1 X90.714 Y63.785 E10.7890
G1 X90.714 Y57.464 E11.0857
G1 X90.511 Y57.260 E11.0993
G1 X90.511 Y46.657 E11.5969
G1 X94.869 Y42.299 E11.8862
G1 X95.340 Y42.299 E11.9083
G1 X95.340 Y41.698 E11.9365
G1 X99.698 Y37.340 E12.2258
G1 X110.302 Y37.340 E12.7235
G1 X114.442 Y41.481 E12.9984
G1 X118.660 Y45.698 E13.2783
G1 X118.660 Y72.302 E14.5270
G1 X117.962 Y73.000 E14.5733
G1 X118.660 Y73.698 E14.6197
G1 X118.180 Y73.897 F18000
G92 E0.0000
G1 X118.180 Y136.103 E2.9197 F1800
G1 X117.283 Y137.000 E2.9793
G1 X118.180 Y137.897 E3.0388
G1 X118.180 Y164.103 E4.2688
G1 X114.103 Y168.180 E4.5395
G1 X110.103 Y172.180 E4.8050
G1 X99.897 Y172.180 E5.2840
G1 X95.820 Y168.103 E5.5547
G1 X95.820 Y167.422 E5.5866
G1 X95.103 Y167.422 E5.6203
G1 X91.026 Y163.345 E5.8909
G1 X91.026 Y157.097 E6.1842
G1 X90.778 Y156.849 E6.2006
G1 X90.778 Y146.643 E6.6796
G1 X94.855 Y142.566 E6.9503
G1 X94.890 Y142.566 E6.9519
G1 X94.890 Y67.282 E10.4855
G1 X91.194 Y63.586 E10.7308
G1 X91.194 Y57.265 E11.0275
G1 X90.991 Y57.061 E11.0410
G1 X90.991 Y46.856 E11.5200
G1 X95.068 Y42.779 E11.7907
G1 X95.820 Y42.779 E11.8260
G1 X95.820 Y41.897 E11.8673
G1 X99.897 Y37.820 E12.1380
G1 X110.103 Y37.820 E12.6170
G1 X114.103 Y41.820 E12.8825
G1 X118.180 Y45.897 E13.1531
G1 X118.180 Y72.103 E14.3832
G1 X117.283 Y73.000 E14.4427
G1 X118.180 Y73.897 E14.5023
G1 X117.700 Y74.096 F18000
G92 E0.0000
G1 X117.700 Y135.904 E2.9011 F1800
G1 X116.604 Y137.000 E2.9738
G1 X117.700 Y138.096 E3.0466
G1 X117.700 Y163.904 E4.2579
G1 X113.904 Y167.700 E4.5099
G1 X113.700 Y167.700 E4.5195
G1 X113.700 Y167.904 E4.5290
G1 X109.904 Y171.700 E4.7810
G1 X100.096 Y171.700 E5.2414
G1 X96.300 Y167.904 E5.4933
G1 X96.300 Y166.942 E5.5385
G1 X95.302 Y166.942 E5.5853
G1 X91.506 Y163.146 E5.8373
G1 X91.506 Y156.898 E6.1306
G1 X91.258 Y156.650 E6.1470
G1 X91.258 Y146.842 E6.6074
G1 X95.054 Y143.046 E6.8594
G1 X95.370 Y143.046 E6.8742
G1 X95.370 Y67.083 E10.4396
G1 X91.674 Y63.387 E10.6850
G1 X91.674 Y57.066 E10.9817
G1 X91.471 Y56.863 E10.9952
G1 X91.471 Y47.055 E11.4555
G1 X95.267 Y43.259 E11.7075
G1 X96.300 Y43.259 E11.7560
G1 X96.300 Y42.096 E11.8106
G1 X100.096 Y38.300 E12.0625
G1 X109.904 Y38.300 E12.5229
G1 X113.700 Y42.096 E12.7749
G1 X113.700 Y42.300 E12.7844
G1 X113.904 Y42.300 E12.7940
G1 X117.700 Y46.096 E13.0460
G1 X117.700 Y71.904 E14.2573
G1 X116.604 Y73.000 E14.3301
G1 X117.700 Y74.096 E14.4028
G1 X117.220 Y74.295 F18000
G92 E0.0000
G1 X117.220 Y135.705 E2.8824 F1800
G1 X115.925 Y137.000 E2.9684
G1 X117.220 Y138.295 E3.0543
G1 X117.220 Y163.705 E4.2470
G1 X113.705 Y167.220 E4.4803
G1 X113.220 Y167.220 E4.5031
G1 X113.220 Y167.705 E4.5258
G1 X109.705 Y171.220 E4.7591
G1 X100.295 Y171.220 E5.2008
G1 X96.780 Y167.705 E5.4341
G1 X96.780 Y166.462 E5.4925
G1 X95.501 Y166.462 E5.5525
G1 X91.986 Y162.947 E5.7858
G1 X91.986 Y156.699 E6.0791
G1 X91.738 Y156.451 E6.0956
G1 X91.738 Y147.041 E6.5373
G1 X95.253 Y143.526 E6.7706
G1 X95.850 Y143.526 E6.7986
G1 X95.850 Y66.703 E10.4044
G1 X95.669 Y66.703 E10.4129
G1 X92.154 Y63.189 E10.6462
G1 X92.154 Y56.867 E10.9429
G1 X91.951 Y56.664 E10.9564
G1 X91.951 Y47.253 E11.3981
G1 X95.466 Y43.739 E11.6314
G1 X96.780 Y43.739 E11.6931
G1 X96.780 Y42.295 E11.7609
G1 X100.295 Y38.780 E11.9942
G1 X109.705 Y38.780 E12.4359
G1 X113.220 Y42.295 E12.6692
G1 X113.220 Y42.780 E12.6919
G1 X113.705 Y42.780 E12.7147
G1 X117.220 Y46.295 E12.9480
G1 X117.220 Y71.705 E14.1407
G1 X115.925 Y73.000 E14.2267
G1 X117.220 Y74.295 E14.3126
G1 X116.740 Y74.493 F18000
G92 E0.0000
G1 X116.740 Y135.506 E2.8637 F1800
G1 X115.246 Y137.000 E2.9629
G1 X116.740 Y138.494 E3.0620
G1 X116.740 Y163.506 E4.2360
G1 X113.506 Y166.740 E4.4507
G1 X112.740 Y166.740 E4.4867
G1 X112.740 Y167.506 E4.5226
G1 X109.506 Y170.740 E4.7373
G1 X100.494 Y170.740 E5.1603
G1 X97.260 Y167.506 E5.3749
G1 X97.260 Y165.982 E5.4465
G1 X95.699 Y165.982 E5.5197
G1 X92.466 Y162.748 E5.7344
G1 X92.466 Y156.500 E6.0277
G1 X92.218 Y156.253 E6.0441
G1 X92.218 Y147.240 E6.4671
G1 X95.452 Y144.006 E6.6818
G1 X96.330 Y144.006 E6.7230
G1 X96.330 Y66.223 E10.3739
G1 X95.868 Y66.223 E10.3956
G1 X92.634 Y62.990 E10.6102
G1 X92.634 Y56.668 E10.9069
G1 X92.431 Y56.465 E10.9204
G1 X92.431 Y47.452 E11.3434
G1 X95.664 Y44.219 E11.5581
G1 X97.260 Y44.219 E11.6330
G1 X97.260 Y42.494 E11.7139
G1 X100.494 Y39.260 E11.9286
G1 X109.506 Y39.260 E12.3516
G1 X112.740 Y42.494 E12.5662
G1 X112.740 Y43.260 E12.6022
G1 X113.506 Y43.260 E12.6382
G1 X116.740 Y46.494 E12.8528
G1 X116.740 Y71.507 E14.0269
G1 X115.246 Y73.000 E14.1260
G1 X116.740 Y74.493 E14.2251
G1 X116.260 Y74.692 F18000
G92 E0.0000
G1 X116.260 Y135.308 E2.8451 F1800
G1 X114.568 Y137.000 E2.9574
G1 X116.260 Y138.692 E3.0698
G1 X116.260 Y163.308 E4.2251
G1 X113.308 Y166.260 E4.4211
G1 X112.260 Y166.260 E4.4703
G1 X112.260 Y167.308 E4.5194
G1 X109.308 Y170.260 E4.7154
G1 X100.692 Y170.260 E5.1198
G1 X97.740 Y167.308 E5.3158
G1 X97.740 Y165.502 E5.4005
G1 X95.898 Y165.502 E5.4869
G1 X92.946 Y162.550 E5.6829
G1 X92.946 Y156.301 E5.9762
G1 X92.698 Y156.054 E5.9926
G1 X92.698 Y147.439 E6.3970
G1 X95.651 Y144.486 E6.5930
G1 X96.810 Y144.486 E6.6474
G1 X96.810 Y65.743 E10.3433
G1 X96.067 Y65.743 E10.3782
G1 X93.114 Y62.791 E10.5742
G1 X93.114 Y56.470 E10.8709
G1 X92.911 Y56.266 E10.8844
G1 X92.911 Y47.651 E11.2888
G1 X95.863 Y44.699 E11.4847
G1 X97.740 Y44.699 E11.5728
G1 X97.740 Y42.692 E11.6670
G1 X100.692 Y39.740 E11.8630
G1 X109.308 Y39.740 E12.2673
G1 X112.260 Y42.692 E12.4633
G1 X112.260 Y43.740 E12.5125
G1 X113.308 Y43.740 E12.5617
G1 X116.260 Y46.692 E12.7576
G1 X116.260 Y71.308 E13.9130
G1 X114.568 Y73.000 E14.0253
G1 X116.260 Y74.692 E14.1377
G1 X115.780 Y74.891 F18000
G92 E0.0000
G1 X115.780 Y135.109 E2.8264 F1800
G1 X113.889 Y137.000 E2.9520
G1 X115.780 Y138.891 E3.0775
G1 X115.780 Y163.109 E4.2142
G1 X113.109 Y165.780 E4.3915
G1 X111.780 Y165.780 E4.4539
G1 X111.780 Y167.109 E4.5162
G1 X109.109 Y169.780 E4.6935
G1 X100.891 Y169.780 E5.0792
G1 X98.220 Y167.109 E5.2566
G1 X98.220 Y165.022 E5.3545
G1 X96.097 Y165.022 E5.4541
G1 X93.426 Y162.351 E5.6315
G1 X93.426 Y156.103 E5.9247
G1 X93.178 Y155.855 E5.9412
G1 X93.178 Y147.637 E6.3269
G1 X95.849 Y144.966 E6.5042
G1 X97.290 Y144.966 E6.5718
G1 X97.290 Y65.263 E10.3128
G1 X96.265 Y65.263 E10.3609
G1 X93.594 Y62.592 E10.5382
G1 X93.594 Y56.271 E10.8349
G1 X93.391 Y56.067 E10.8484
G1 X93.391 Y47.850 E11.2341
G1 X96.062 Y45.179 E11.4114
G1 X98.220 Y45.179 E11.5127
G1 X98.220 Y42.891 E11.6201
G1 X100.891 Y40.220 E11.7974
G1 X109.109 Y40.220 E12.1831
G1 X111.780 Y42.891 E12.3604
