; G-Code generated by Simplify3D(R) Version 4.1.2
; Nov 26, 2019 at 12:49:44 PM
; Settings Summary
;   processName,Process1
;   applyToModels,barrel_fixed (1)
;   profileName,HBot (modified)
;   profileVersion,2019-10-26 23:38:43
;   baseProfile,Default
;   printMaterial,PLA
;   printQuality,Medium
;   printExtruders,
;   extruderName,Extruder 1
;   extruderToolheadNumber,0
;   extruderDiameter,0.4
;   extruderAutoWidth,1
;   extruderWidth,0.48
;   extrusionMultiplier,0.94
;   extruderUseRetract,1
;   extruderRetractionDistance,3
;   extruderExtraRestartDistance,0
;   extruderRetractionZLift,0
;   extruderRetractionSpeed,3600
;   extruderUseCoasting,1
;   extruderCoastingDistance,0.2
;   extruderUseWipe,1
;   extruderWipeDistance,5
;   primaryExtruder,0
;   layerHeight,0.2
;   topSolidLayers,3
;   bottomSolidLayers,3
;   perimeterOutlines,3
;   printPerimetersInsideOut,1
;   startPointOption,2
;   startPointOriginX,0
;   startPointOriginY,0
;   sequentialIslands,0
;   spiralVaseMode,0
;   firstLayerHeightPercentage,100
;   firstLayerWidthPercentage,150
;   firstLayerUnderspeed,0.5
;   useRaft,0
;   raftExtruder,0
;   raftTopLayers,3
;   raftBaseLayers,2
;   raftOffset,3
;   raftSeparationDistance,0.18
;   raftTopInfill,100
;   aboveRaftSpeedMultiplier,0.3
;   useSkirt,1
;   skirtExtruder,0
;   skirtLayers,1
;   skirtOutlines,3
;   skirtOffset,4
;   usePrimePillar,0
;   primePillarExtruder,999
;   primePillarWidth,12
;   primePillarLocation,7
;   primePillarSpeedMultiplier,1
;   useOozeShield,0
;   oozeShieldExtruder,999
;   oozeShieldOffset,2
;   oozeShieldOutlines,1
;   oozeShieldSidewallShape,1
;   oozeShieldSidewallAngle,30
;   oozeShieldSpeedMultiplier,1
;   infillExtruder,0
;   internalInfillPattern,Rectilinear
;   externalInfillPattern,Rectilinear
;   infillPercentage,20
;   outlineOverlapPercentage,25
;   infillExtrusionWidthPercentage,150
;   minInfillLength,5
;   infillLayerInterval,1
;   internalInfillAngles,45,-45
;   overlapInternalInfillAngles,0
;   externalInfillAngles,45,-45
;   generateSupport,1
;   supportExtruder,0
;   supportInfillPercentage,30
;   supportExtraInflation,0
;   supportBaseLayers,1
;   denseSupportExtruder,0
;   denseSupportLayers,0
;   denseSupportInfillPercentage,70
;   supportLayerInterval,1
;   supportHorizontalPartOffset,0.3
;   supportUpperSeparationLayers,1
;   supportLowerSeparationLayers,1
;   supportType,0
;   supportGridSpacing,4
;   maxOverhangAngle,45
;   supportAngles,0
;   temperatureName,Extruder 1,Heated Bed
;   temperatureNumber,0,1
;   temperatureSetpointCount,2,1
;   temperatureSetpointLayers,1,2,1
;   temperatureSetpointTemperatures,217,210,55
;   temperatureStabilizeAtStartup,1,1
;   temperatureHeatedBed,0,1
;   fanLayers,1,3,5
;   fanSpeeds,0,15,20
;   blipFanToFullPower,1
;   adjustSpeedForCooling,1
;   minSpeedLayerTime,15
;   minCoolingSpeedSlowdown,20
;   increaseFanForCooling,0
;   minFanLayerTime,45
;   maxCoolingFanSpeed,40
;   increaseFanForBridging,0
;   bridgingFanSpeed,80
;   use5D,1
;   relativeEdistances,0
;   allowEaxisZeroing,1
;   independentExtruderAxes,0
;   includeM10123,0
;   stickySupport,1
;   applyToolheadOffsets,0
;   gcodeXoffset,0
;   gcodeYoffset,0
;   gcodeZoffset,0
;   overrideMachineDefinition,1
;   machineTypeOverride,0
;   strokeXoverride,200
;   strokeYoverride,200
;   strokeZoverride,150
;   originOffsetXoverride,0
;   originOffsetYoverride,0
;   originOffsetZoverride,0
;   homeXdirOverride,-1
;   homeYdirOverride,-1
;   homeZdirOverride,-1
;   flipXoverride,1
;   flipYoverride,-1
;   flipZoverride,1
;   toolheadOffsets,0,0|0,0|0,0|0,0|0,0|0,0
;   overrideFirmwareConfiguration,1
;   firmwareTypeOverride,RepRap (Marlin/Repetier/Sprinter)
;   GPXconfigOverride,r2
;   baudRateOverride,115200
;   overridePrinterModels,0
;   printerModelsOverride
;   startingGcode,G28 ; home all axes,G32 ; run bed.g -- probe bed and enable compensation
;   layerChangeGcode,
;   retractionGcode,
;   toolChangeGcode,
;   endingGcode,M0 ; call stop.g
;   exportFileFormat,gcode
;   celebration,0
;   celebrationSong,Random Song
;   postProcessing,
;   defaultSpeed,3600
;   outlineUnderspeed,0.5
;   solidInfillUnderspeed,0.8
;   supportUnderspeed,0.8
;   rapidXYspeed,18000
;   rapidZspeed,1200
;   minBridgingArea,50
;   bridgingExtraInflation,0
;   bridgingExtrusionMultiplier,0.96
;   bridgingSpeedMultiplier,1
;   useFixedBridgingAngle,0
;   fixedBridgingAngle,0
;   applyBridgingToPerimeters,0
;   filamentDiameters,1.75|1.75|1.75|1.75|1.75|1.75
;   filamentPricesPerKg,46|46|46|46|46|46
;   filamentDensities,1.25|1.25|1.25|1.25|1.25|1.25
;   useMinPrintHeight,0
;   minPrintHeight,0
;   useMaxPrintHeight,0
;   maxPrintHeight,0
;   useDiaphragm,1
;   diaphragmLayerInterval,20
;   robustSlicing,1
;   mergeAllIntoSolid,0
;   onlyRetractWhenCrossingOutline,1
;   retractBetweenLayers,0
;   useRetractionMinTravel,1
;   retractionMinTravel,3
;   retractWhileWiping,1
;   onlyWipeOutlines,1
;   avoidCrossingOutline,1
;   maxMovementDetourFactor,3
;   toolChangeRetractionDistance,12
;   toolChangeExtraRestartDistance,-0.5
;   toolChangeRetractionSpeed,600
;   externalThinWallType,1
;   internalThinWallType,1
;   thinWallAllowedOverlapPercentage,10
;   singleExtrusionMinLength,1
;   singleExtrusionMinPrintingWidthPercentage,50
;   singleExtrusionMaxPrintingWidthPercentage,200
;   singleExtrusionEndpointExtension,0.2
;   horizontalSizeCompensation,-0.1
G90
M82
M106 S0
M140 S55
M190 S55
M104 S217 T0
M109 S217 T0
G28 ; home all axes
G32 ; run bed.g -- probe bed and enable compensation
; process Process1
; layer 1, Z = 0.200
T0
G92 E0.0000
G1 E-3.0000 F3600
; feature skirt
; tool H0.200 W0.720
G1 Z0.200 F1200
G1 X25.944 Y88.805 F18000
G1 E0.0000 F3600
G92 E0.0000
G1 X156.642 Y88.800 E7.3552 F1800
G1 X156.642 Y87.281 E7.4406
G1 X160.039 Y83.884 E7.7110
G1 X168.644 Y83.884 E8.1953
G1 X172.042 Y87.281 E8.4657
G1 X172.042 Y90.674 E8.6566
G1 X172.242 Y90.775 E8.6692
G1 X172.641 Y91.016 E8.6955
G1 X174.387 Y92.275 E8.8166
G1 X174.742 Y92.577 E8.8428
G1 X176.264 Y94.100 E8.9640
G1 X176.566 Y94.455 E8.9902
G1 X177.825 Y96.201 E9.1114
G1 X178.067 Y96.600 E9.1376
G1 X179.031 Y98.525 E9.2588
G1 X179.205 Y98.957 E9.2850
G1 X179.908 Y101.203 E9.4174
G1 X180.042 Y102.074 E9.4671
G1 X180.042 Y112.802 E10.0708
G1 X176.644 Y116.200 E10.3412
G1 X25.696 Y116.200 E18.8360
G1 X23.400 Y115.152 E18.9780
G1 X21.862 Y113.377 E19.1102
G1 X21.703 Y113.176 E19.1246
G1 X20.078 Y110.928 E19.2807
G1 X19.894 Y107.522 E19.4726
G1 X21.419 Y104.845 E19.6461
G1 X21.744 Y103.948 E19.6997
G1 X21.911 Y103.010 E19.7534
G1 X21.917 Y102.056 E19.8070
G1 X21.761 Y101.116 E19.8607
G1 X21.447 Y100.216 E19.9143
G1 X19.950 Y97.515 E20.0881
G1 X20.182 Y94.100 E20.2807
G1 X21.906 Y91.793 E20.4427
G1 X22.082 Y91.579 E20.4584
G1 X23.702 Y89.797 E20.5939
G1 X25.944 Y88.805 E20.7319
G1 X26.096 Y89.525 F18000
G92 E0.0000
G1 X157.362 Y89.520 E7.3871 F1800
G1 X157.362 Y87.580 E7.4963
G1 X160.337 Y84.604 E7.7331
G1 X168.346 Y84.604 E8.1838
G1 X171.322 Y87.580 E8.4207
G1 X171.322 Y91.119 E8.6198
G1 X171.894 Y91.406 E8.6559
G1 X172.243 Y91.617 E8.6788
G1 X173.942 Y92.842 E8.7967
G1 X174.253 Y93.107 E8.8197
G1 X175.735 Y94.588 E8.9376
G1 X175.999 Y94.899 E8.9606
G1 X177.225 Y96.599 E9.0785
G1 X177.436 Y96.948 E9.1015
G1 X178.374 Y98.821 E9.2194
G1 X178.527 Y99.200 E9.2423
G1 X179.205 Y101.366 E9.3701
G1 X179.322 Y102.129 E9.4135
G1 X179.322 Y112.504 E9.9974
G1 X176.346 Y115.480 E10.2342
G1 X25.852 Y115.480 E18.7034
G1 X23.842 Y114.562 E18.8278
G1 X22.416 Y112.917 E18.9503
G1 X22.277 Y112.742 E18.9629
G1 X20.785 Y110.678 E19.1062
G1 X20.624 Y107.695 E19.2743
G1 X22.075 Y105.148 E19.4393
G1 X22.442 Y104.135 E19.4999
G1 X22.631 Y103.076 E19.5605
G1 X22.637 Y101.999 E19.6210
G1 X22.461 Y100.937 E19.6816
G1 X22.106 Y99.921 E19.7422
G1 X20.683 Y97.352 E19.9075
G1 X20.886 Y94.361 E20.0762
G1 X22.472 Y92.238 E20.2253
G1 X22.627 Y92.051 E20.2390
G1 X24.132 Y90.394 E20.3650
G1 X26.096 Y89.525 E20.4858
G1 X26.248 Y90.245 F18000
G92 E0.0000
G1 X158.082 Y90.240 E7.4191 F1800
G1 X158.082 Y87.878 E7.5520
G1 X160.636 Y85.324 E7.7553
G1 X168.048 Y85.324 E8.1724
G1 X170.602 Y87.878 E8.3756
G1 X170.602 Y91.564 E8.5831
G1 X171.546 Y92.036 E8.6425
G1 X171.845 Y92.218 E8.6622
G1 X173.498 Y93.409 E8.7768
G1 X173.765 Y93.637 E8.7966
G1 X175.205 Y95.077 E8.9112
G1 X175.432 Y95.344 E8.9309
G1 X176.624 Y96.996 E9.0456
G1 X176.805 Y97.296 E9.0653
G1 X177.717 Y99.118 E9.1799
G1 X177.848 Y99.443 E9.1997
G1 X178.501 Y101.529 E9.3227
G1 X178.602 Y102.184 E9.3600
G1 X178.602 Y112.206 E9.9240
G1 X176.048 Y114.760 E10.1272
G1 X26.009 Y114.760 E18.5708
G1 X24.284 Y113.972 E18.6776
G1 X22.971 Y112.458 E18.7904
G1 X22.852 Y112.307 E18.8012
G1 X21.493 Y110.428 E18.9317
G1 X21.354 Y107.867 E19.0760
G1 X22.731 Y105.450 E19.2325
G1 X23.140 Y104.322 E19.3000
G1 X23.350 Y103.141 E19.3676
G1 X23.358 Y101.942 E19.4351
G1 X23.161 Y100.758 E19.5026
G1 X22.766 Y99.626 E19.5701
G1 X21.416 Y97.189 E19.7269
G1 X21.590 Y94.622 E19.8717
G1 X23.039 Y92.683 E20.0079
G1 X23.172 Y92.522 E20.0196
G1 X24.563 Y90.991 E20.1361
G1 X26.248 Y90.245 E20.2398
G92 E0.0000
G1 E-3.0000 F3600
; feature inner perimeter
G1 X27.329 Y94.965 F18000
G1 X27.609 Y94.964
G1 X28.024 Y96.404
G1 E0.0000 F3600
G92 E0.0000
G1 X164.242 Y96.400 E7.6658 F1350
G1 X164.242 Y95.833 E7.6977
G1 X167.253 Y96.776 E7.8753
G1 X168.502 Y97.402 E7.9539
G1 X169.635 Y98.219 E8.0325
G1 X170.516 Y99.100 E8.1027
G1 X166.942 Y99.100 E8.3038
G1 X166.942 Y105.900 E8.6865
G1 X172.442 Y105.900 E8.9960
G1 X172.442 Y108.600 E9.1480
G1 X143.892 Y108.600 E10.7546
G1 X143.892 Y102.100 E11.1204
G1 X138.392 Y102.100 E11.4300
G1 X138.392 Y98.600 E11.6269
G1 X32.651 Y98.600 E17.5776
G1 X29.011 Y108.600 E18.1765
G1 X28.027 Y108.600 E18.2319
G1 X28.344 Y108.042 E18.2680
G1 X29.111 Y105.923 E18.3948
G1 X29.507 Y103.705 E18.5217
G1 X29.521 Y101.451 E18.6485
G1 X29.151 Y99.229 E18.7753
G1 X28.409 Y97.101 E18.9021
G1 X28.121 Y96.579 E18.9356
G1 X28.024 Y96.404 F1350
G1 X27.303 Y96.064 F18000
G92 E0.0000
G1 X27.648 Y95.684 E0.0289 F1350
G1 X163.522 Y95.680 E7.6753
G1 X163.522 Y90.764 E7.9520
G1 X165.162 Y90.764 E8.0443
G1 X165.162 Y95.367 E8.3033
G1 X167.523 Y96.107 E8.4426
G1 X168.876 Y96.784 E8.5277
G1 X170.103 Y97.669 E8.6129
G1 X171.173 Y98.738 E8.6980
G1 X171.953 Y99.820 E8.7731
G1 X167.662 Y99.820 E9.0146
G1 X167.662 Y105.180 E9.3162
G1 X173.162 Y105.180 E9.6257
G1 X173.162 Y109.320 E9.8587
G1 X137.672 Y109.320 E11.8559
G1 X137.672 Y108.180 E11.9201
G1 X143.172 Y108.180 E12.2296
G1 X143.172 Y102.820 E12.5312
G1 X137.672 Y102.820 E12.8408
G1 X137.672 Y99.320 E13.0377
G1 X33.155 Y99.320 E18.9195
G1 X29.515 Y109.320 E19.5184
G1 X27.450 Y109.320 E19.6346
G1 X27.051 Y108.859 E19.6690
G1 X27.688 Y107.739 E19.7415
G1 X28.413 Y105.736 E19.8614
G1 X28.788 Y103.639 E19.9812
G1 X28.800 Y101.509 E20.1011
G1 X28.451 Y99.407 E20.2210
G1 X27.750 Y97.396 E20.3409
G1 X27.136 Y96.288 E20.4122
G1 X27.183 Y96.225 E20.4166
G1 X27.303 Y96.064 F1350
; feature outer perimeter
G1 X26.747 Y95.606 F18000
G92 E0.0000
G1 X27.329 Y94.965 E0.0488 F900
G1 X162.802 Y94.960 E7.6726
G1 X162.802 Y90.044 E7.9493
G1 X165.882 Y90.044 E8.1226
G1 X165.882 Y94.838 E8.3924
G1 X167.794 Y95.437 E8.5052
G1 X169.250 Y96.166 E8.5968
G1 X170.571 Y97.118 E8.6885
G1 X171.723 Y98.270 E8.7801
G1 X172.676 Y99.591 E8.8718
G1 X173.405 Y101.048 E8.9635
G1 X173.882 Y102.570 E9.0532
G1 X173.882 Y110.040 E9.4736
G1 X27.122 Y110.040 E17.7327
G1 X26.611 Y109.451 E17.7766
G1 X26.205 Y108.889 E17.8156
G1 X27.032 Y107.436 E17.9097
G1 X27.715 Y105.549 E18.0226
G1 X28.068 Y103.573 E18.1356
G1 X28.080 Y101.566 E18.2485
G1 X27.751 Y99.586 E18.3615
G1 X27.090 Y97.691 E18.4744
G1 X26.280 Y96.230 E18.5684
G1 X26.627 Y95.766 E18.6010
G1 X26.747 Y95.606 F900
G1 X27.329 Y94.965 F900
G1 X31.463 Y94.964
G1 X33.659 Y100.040 F18000
G92 E0.0000
G1 X30.413 Y108.960 E0.5342 F900
G1 X136.952 Y108.960 E6.5298
G1 X136.952 Y100.040 E7.0318
G1 X33.859 Y100.040 E12.8335
G1 X33.659 Y100.040 F900
G1 X31.949 Y104.738 F900
G1 X33.659 Y100.040 F18000
G1 X136.952 Y100.040
G1 X136.952 Y103.558
G1 X138.532 Y103.540
G92 E0.0000
G1 X138.532 Y107.460 E0.2206 F900
G1 X142.452 Y107.460 E0.4412
G1 X142.452 Y103.540 E0.6618
G1 X138.732 Y103.540 E0.8712
G1 X138.532 Y103.540 F900
G1 X138.532 Y107.460 F900
G1 X139.612 Y107.460
G1 X142.452 Y107.460 F18000
G1 X142.452 Y107.164
G1 X168.382 Y104.460
G92 E0.0000
G1 X172.302 Y104.460 E0.2206 F900
G1 X172.302 Y100.540 E0.4412
G1 X168.382 Y100.540 E0.6618
G1 X168.382 Y104.260 E0.8712
G1 X168.382 Y104.460 F900
G1 X172.302 Y104.460 F900
G1 X172.302 Y103.380
; feature internal single extrusion
; tool H0.200 W0.240
G1 X173.092 Y104.540 F18000
G92 E0.0000
; tool H0.200 W0.862
G1 X173.092 Y104.337 E0.0212 F900
; tool H0.200 W0.858
G1 X173.092 Y102.720 E0.1894
; tool H0.200 W0.837
G1 X173.094 Y102.691 E0.1924
; tool H0.200 W0.808
G1 X173.087 Y102.662 E0.1953
; tool H0.200 W0.779
G1 X173.073 Y102.568 E0.2043
; tool H0.200 W0.750
G1 X173.058 Y102.473 E0.2130
; tool H0.200 W0.721
G1 X173.044 Y102.379 E0.2214
; tool H0.200 W0.692
G1 X173.029 Y102.285 E0.2294
; tool H0.200 W0.663
G1 X173.015 Y102.190 E0.2371
; tool H0.200 W0.635
G1 X173.000 Y102.096 E0.2444
; tool H0.200 W0.606
G1 X172.986 Y102.001 E0.2514
; tool H0.200 W0.577
G1 X172.972 Y101.907 E0.2581
; tool H0.200 W0.548
G1 X172.957 Y101.812 E0.2645
; tool H0.200 W0.519
G1 X172.943 Y101.718 E0.2705
; tool H0.200 W0.490
G1 X172.928 Y101.623 E0.2762
; tool H0.200 W0.461
G1 X172.914 Y101.529 E0.2815
; tool H0.200 W0.435
G1 X172.899 Y101.434 E0.2866
; tool H0.200 W0.406
G1 X172.885 Y101.340 E0.2913
; tool H0.200 W0.366
G1 X172.873 Y101.262 E0.2947
; tool H0.200 W0.323
G1 X172.856 Y101.188 E0.2977
; tool H0.200 W0.280
G1 X172.834 Y101.097 E0.3009
; tool H0.200 W0.240
G1 X172.812 Y101.006 E0.3036
G1 X172.791 Y100.915 E0.3064
G1 X172.769 Y100.823 E0.3091
G1 X172.751 Y100.744 E0.3115
G1 X172.748 Y100.732 F900
G1 X172.726 Y100.641
G1 X172.705 Y100.550
; tool H0.200 W0.920
G1 X164.342 Y95.154 F18000
G92 E0.0000
G1 X164.342 Y94.857 E0.0213 F900
G1 X164.342 Y94.762 E0.0282
G1 X164.342 Y94.666 E0.0351
G1 X164.342 Y94.570 E0.0420
G1 X164.342 Y94.474 E0.0489
G1 X164.342 Y94.379 E0.0557
G1 X164.342 Y94.283 E0.0626
G1 X164.342 Y94.187 E0.0695
G1 X164.342 Y94.091 E0.0764
G1 X164.342 Y93.996 E0.0833
G1 X164.342 Y93.900 E0.0902
G1 X164.342 Y93.804 E0.0970
G1 X164.342 Y93.709 E0.1039
G1 X164.342 Y93.613 E0.1108
G1 X164.342 Y93.517 E0.1177
G1 X164.342 Y93.421 E0.1246
G1 X164.342 Y93.326 E0.1315
G1 X164.342 Y93.230 E0.1383
G1 X164.342 Y93.134 E0.1452
G1 X164.342 Y93.038 E0.1521
G1 X164.342 Y92.943 E0.1590
G1 X164.342 Y92.847 E0.1659
G1 X164.342 Y92.751 E0.1728
G1 X164.342 Y92.656 E0.1796
G1 X164.342 Y92.560 E0.1865
G1 X164.342 Y92.464 E0.1934
G1 X164.342 Y92.368 E0.2003
G1 X164.342 Y92.273 E0.2072
G1 X164.342 Y92.177 E0.2141
G1 X164.342 Y92.081 E0.2209
G1 X164.342 Y91.985 E0.2278
G1 X164.342 Y91.890 E0.2347
G1 X164.342 Y91.794 E0.2416
G1 X164.342 Y91.698 E0.2485
G1 X164.342 Y91.603 E0.2554
G1 X164.342 Y91.403 F900
; tool H0.200 W0.420
G1 X162.802 Y92.681 F18000
G1 X162.802 Y94.960
G1 X160.055 Y94.960
G1 X143.441 Y108.750
G92 E0.0000
G1 X138.316 Y108.750 E0.1682 F900
G1 X138.116 Y108.750 F900
; tool H0.200 W0.360
G1 X137.313 Y109.500 F18000
G92 E0.0000
G1 X30.063 Y109.500 E3.0194 F900
; tool H0.200 W0.314
G1 X30.042 Y109.510 E3.0199
G1 X29.967 Y109.546 F900
G1 X29.871 Y109.613
; tool H0.200 W0.860
G1 X63.861 Y108.960 F18000
G1 X136.952 Y108.960
G1 X136.952 Y107.556
G1 X137.742 Y107.541
G92 E0.0000
G1 X137.742 Y107.341 E0.0134 F900
G1 X137.742 Y103.659 E0.2609
G1 X137.742 Y103.459 F900
; feature solid layer
; tool H0.200 W0.720
G1 X139.235 Y101.560 F18000
G92 E0.0000
G1 X138.932 Y101.257 E0.0241 F1440
G1 X138.932 Y100.239 E0.0814
G1 X140.253 Y101.560 E0.1865
G1 X141.271 Y101.560 E0.2438
G1 X139.073 Y99.362 E0.4187
G1 X138.932 Y99.221 F1440
G1 X144.432 Y102.684 F18000
G92 E0.0000
G1 X149.808 Y108.060 E0.4278 F1440
G1 X148.789 Y108.060 E0.4851
G1 X144.432 Y103.703 E0.8319
G1 X144.432 Y104.721 E0.8892
G1 X147.771 Y108.060 E1.1550
G1 X146.753 Y108.060 E1.2123
