; G-Code generated by Simplify3D(R) Version 4.1.2
; Nov 25, 2019 at 7:40:54 PM
; Settings Summary
;   processName,Process1
;   applyToModels,handle,handle-mirrored
;   profileName,HBot
;   profileVersion,2019-10-26 23:38:43
;   baseProfile,Default
;   printMaterial,PLA
;   printQuality,Medium
;   printExtruders,
;   extruderName,Extruder 1
;   extruderToolheadNumber,0
;   extruderDiameter,0.4
;   extruderAutoWidth,1
;   extruderWidth,0.48
;   extrusionMultiplier,0.94
;   extruderUseRetract,1
;   extruderRetractionDistance,3
;   extruderExtraRestartDistance,0
;   extruderRetractionZLift,0
;   extruderRetractionSpeed,3600
;   extruderUseCoasting,1
;   extruderCoastingDistance,0.2
;   extruderUseWipe,1
;   extruderWipeDistance,5
;   primaryExtruder,0
;   layerHeight,0.2
;   topSolidLayers,3
;   bottomSolidLayers,3
;   perimeterOutlines,3
;   printPerimetersInsideOut,1
;   startPointOption,2
;   startPointOriginX,0
;   startPointOriginY,0
;   sequentialIslands,0
;   spiralVaseMode,0
;   firstLayerHeightPercentage,100
;   firstLayerWidthPercentage,150
;   firstLayerUnderspeed,0.5
;   useRaft,0
;   raftExtruder,0
;   raftTopLayers,3
;   raftBaseLayers,2
;   raftOffset,3
;   raftSeparationDistance,0.18
;   raftTopInfill,100
;   aboveRaftSpeedMultiplier,0.3
;   useSkirt,1
;   skirtExtruder,0
;   skirtLayers,1
;   skirtOutlines,3
;   skirtOffset,4
;   usePrimePillar,0
;   primePillarExtruder,999
;   primePillarWidth,12
;   primePillarLocation,7
;   primePillarSpeedMultiplier,1
;   useOozeShield,0
;   oozeShieldExtruder,999
;   oozeShieldOffset,2
;   oozeShieldOutlines,1
;   oozeShieldSidewallShape,1
;   oozeShieldSidewallAngle,30
;   oozeShieldSpeedMultiplier,1
;   infillExtruder,0
;   internalInfillPattern,Rectilinear
;   externalInfillPattern,Rectilinear
;   infillPercentage,20
;   outlineOverlapPercentage,25
;   infillExtrusionWidthPercentage,150
;   minInfillLength,5
;   infillLayerInterval,1
;   internalInfillAngles,45,-45
;   overlapInternalInfillAngles,0
;   externalInfillAngles,45,-45
;   generateSupport,1
;   supportExtruder,0
;   supportInfillPercentage,30
;   supportExtraInflation,0
;   supportBaseLayers,1
;   denseSupportExtruder,0
;   denseSupportLayers,0
;   denseSupportInfillPercentage,70
;   supportLayerInterval,1
;   supportHorizontalPartOffset,0.3
;   supportUpperSeparationLayers,1
;   supportLowerSeparationLayers,1
;   supportType,0
;   supportGridSpacing,4
;   maxOverhangAngle,45
;   supportAngles,0
;   temperatureName,Extruder 1,Heated Bed
;   temperatureNumber,0,1
;   temperatureSetpointCount,2,1
;   temperatureSetpointLayers,1,2,1
;   temperatureSetpointTemperatures,217,210,55
;   temperatureStabilizeAtStartup,1,1
;   temperatureHeatedBed,0,1
;   fanLayers,1,3,5
;   fanSpeeds,0,15,20
;   blipFanToFullPower,1
;   adjustSpeedForCooling,1
;   minSpeedLayerTime,15
;   minCoolingSpeedSlowdown,20
;   increaseFanForCooling,0
;   minFanLayerTime,45
;   maxCoolingFanSpeed,40
;   increaseFanForBridging,0
;   bridgingFanSpeed,80
;   use5D,1
;   relativeEdistances,0
;   allowEaxisZeroing,1
;   independentExtruderAxes,0
;   includeM10123,0
;   stickySupport,1
;   applyToolheadOffsets,0
;   gcodeXoffset,0
;   gcodeYoffset,0
;   gcodeZoffset,0
;   overrideMachineDefinition,1
;   machineTypeOverride,0
;   strokeXoverride,200
;   strokeYoverride,200
;   strokeZoverride,150
;   originOffsetXoverride,0
;   originOffsetYoverride,0
;   originOffsetZoverride,0
;   homeXdirOverride,-1
;   homeYdirOverride,-1
;   homeZdirOverride,-1
;   flipXoverride,1
;   flipYoverride,-1
;   flipZoverride,1
;   toolheadOffsets,0,0|0,0|0,0|0,0|0,0|0,0
;   overrideFirmwareConfiguration,1
;   firmwareTypeOverride,RepRap (Marlin/Repetier/Sprinter)
;   GPXconfigOverride,r2
;   baudRateOverride,115200
;   overridePrinterModels,0
;   printerModelsOverride
;   startingGcode,G28 ; home all axes,G32 ; run bed.g -- probe bed and enable compensation
;   layerChangeGcode,
;   retractionGcode,
;   toolChangeGcode,
;   endingGcode,M0 ; call stop.g
;   exportFileFormat,gcode
;   celebration,0
;   celebrationSong,Random Song
;   postProcessing,
;   defaultSpeed,3600
;   outlineUnderspeed,0.5
;   solidInfillUnderspeed,0.8
;   supportUnderspeed,0.8
;   rapidXYspeed,18000
;   rapidZspeed,1200
;   minBridgingArea,50
;   bridgingExtraInflation,0
;   bridgingExtrusionMultiplier,0.96
;   bridgingSpeedMultiplier,1
;   useFixedBridgingAngle,0
;   fixedBridgingAngle,0
;   applyBridgingToPerimeters,0
;   filamentDiameters,1.75|1.75|1.75|1.75|1.75|1.75
;   filamentPricesPerKg,46|46|46|46|46|46
;   filamentDensities,1.25|1.25|1.25|1.25|1.25|1.25
;   useMinPrintHeight,0
;   minPrintHeight,0
;   useMaxPrintHeight,0
;   maxPrintHeight,0
;   useDiaphragm,1
;   diaphragmLayerInterval,20
;   robustSlicing,1
;   mergeAllIntoSolid,0
;   onlyRetractWhenCrossingOutline,1
;   retractBetweenLayers,0
;   useRetractionMinTravel,1
;   retractionMinTravel,3
;   retractWhileWiping,1
;   onlyWipeOutlines,1
;   avoidCrossingOutline,1
;   maxMovementDetourFactor,3
;   toolChangeRetractionDistance,12
;   toolChangeExtraRestartDistance,-0.5
;   toolChangeRetractionSpeed,600
;   externalThinWallType,1
;   internalThinWallType,1
;   thinWallAllowedOverlapPercentage,10
;   singleExtrusionMinLength,1
;   singleExtrusionMinPrintingWidthPercentage,50
;   singleExtrusionMaxPrintingWidthPercentage,200
;   singleExtrusionEndpointExtension,0.2
;   horizontalSizeCompensation,-0.1
G90
M82
M106 S0
M140 S55
M190 S55
M104 S217 T0
M109 S217 T0
G28 ; home all axes
G32 ; run bed.g -- probe bed and enable compensation
; process Process1
; layer 1, Z = 0.200
T0
G92 E0.0000
G1 E-3.0000 F3600
; feature skirt
; tool H0.200 W0.720
G1 Z0.200 F1200
G1 X18.436 Y45.909 F18000
G1 E0.0000 F3600
G92 E0.0000
G1 X18.767 Y45.808 E0.0195 F1800
G1 X19.674 Y45.590 E0.0720
G1 X20.015 Y45.529 E0.0915
G1 X20.913 Y45.424 E0.1424
G1 X21.201 Y45.405 E0.1586
G1 X21.879 Y45.394 E0.1968
G1 X22.168 Y45.403 E0.2130
G1 X23.068 Y45.478 E0.2639
G1 X23.410 Y45.527 E0.2833
G1 X24.233 Y45.696 E0.3306
G1 X24.403 Y45.736 E0.3404
G1 X78.184 Y60.171 E3.4741
G1 X74.342 Y55.902 E3.7973
G1 X74.161 Y55.680 E3.8135
G1 X73.649 Y54.984 E3.8621
G1 X73.492 Y54.746 E3.8781
G1 X73.136 Y54.147 E3.9174
G1 X72.979 Y53.844 E3.9366
G1 X72.505 Y52.776 E4.0023
G1 X72.353 Y52.347 E4.0280
G1 X72.037 Y51.164 E4.0969
G1 X71.954 Y50.715 E4.1225
G1 X71.828 Y49.504 E4.1911
G1 X71.815 Y49.062 E4.2160
G1 X71.990 Y45.470 E4.4184
G1 X71.999 Y45.343 E4.4255
G1 X72.053 Y44.754 E4.4588
G1 X72.094 Y44.472 E4.4748
G1 X72.257 Y43.624 E4.5234
G1 X72.325 Y43.347 E4.5395
G1 X72.523 Y42.679 E4.5787
G1 X72.640 Y42.358 E4.5979
G1 X73.090 Y41.312 E4.6620
G1 X73.272 Y40.958 E4.6844
G1 X73.763 Y40.146 E4.7378
G1 X73.957 Y39.865 E4.7570
G1 X74.539 Y39.117 E4.8103
G1 X74.805 Y38.820 E4.8328
G1 X75.641 Y38.007 E4.8984
G1 X75.945 Y37.750 E4.9208
G1 X76.709 Y37.188 E4.9742
G1 X76.996 Y37.002 E4.9934
G1 X77.795 Y36.548 E5.0451
G1 X78.101 Y36.397 E5.0644
G1 X78.948 Y36.041 E5.1160
G1 X79.270 Y35.927 E5.1353
G1 X80.153 Y35.673 E5.1870
G1 X80.487 Y35.597 E5.2062
G1 X81.366 Y35.453 E5.2564
G1 X81.649 Y35.421 E5.2724
G1 X82.344 Y35.376 E5.3116
G1 X82.685 Y35.374 E5.3308
G1 X132.780 Y38.022 E8.1539
G1 X132.950 Y38.036 E8.1635
G1 X133.786 Y38.130 E8.2108
G1 X134.169 Y38.199 E8.2327
G1 X135.277 Y38.477 E8.2970
G1 X135.649 Y38.597 E8.3190
G1 X136.437 Y38.912 E8.3668
G1 X136.591 Y38.979 E8.3762
G1 X153.381 Y46.849 E9.4197
G1 X153.578 Y46.951 E9.4322
G1 X154.124 Y47.260 E9.4675
G1 X154.360 Y47.409 E9.4832
G1 X155.075 Y47.910 E9.5324
G1 X155.338 Y48.118 E9.5512
G1 X155.991 Y48.698 E9.6004
G1 X156.190 Y48.893 E9.6161
G1 X156.617 Y49.353 E9.6514
G1 X156.762 Y49.523 E9.6640
G1 X157.152 Y50.014 E9.6993
G1 X157.315 Y50.240 E9.7149
G1 X157.789 Y50.973 E9.7641
G1 X157.955 Y51.264 E9.7829
G1 X158.342 Y52.047 E9.8321
G1 X158.454 Y52.303 E9.8478
G1 X158.686 Y52.915 E9.8846
G1 X158.772 Y53.180 E9.9003
G1 X158.981 Y53.944 E9.9449
G1 X159.021 Y54.107 E9.9543
G1 X178.493 Y145.885 E15.2342
G1 X178.545 Y146.227 E15.2537
G1 X178.648 Y147.378 E15.3187
G1 X178.656 Y147.782 E15.3415
G1 X178.607 Y148.773 E15.3973
G1 X178.558 Y149.175 E15.4201
G1 X178.336 Y150.337 E15.4866
G1 X178.232 Y150.728 E15.5094
G1 X177.912 Y151.667 E15.5652
G1 X177.754 Y152.040 E15.5880
G1 X177.233 Y153.070 E15.6530
G1 X177.058 Y153.370 E15.6725
G1 X176.682 Y153.935 E15.7107
G1 X176.546 Y154.122 E15.7238
G1 X176.125 Y154.656 E15.7620
G1 X175.895 Y154.914 E15.7815
G1 X175.077 Y155.730 E15.8465
G1 X174.771 Y155.995 E15.8693
G1 X174.024 Y156.556 E15.9218
G1 X173.785 Y156.718 E15.9381
G1 X173.180 Y157.084 E15.9779
G1 X172.873 Y157.246 E15.9974
G1 X171.821 Y157.722 E16.0624
G1 X171.441 Y157.863 E16.0852
G1 X170.545 Y158.126 E16.1378
G1 X170.264 Y158.194 E16.1540
G1 X169.626 Y158.314 E16.1906
G1 X169.397 Y158.347 E16.2036
G1 X168.751 Y158.416 E16.2401
G1 X168.463 Y158.433 E16.2564
G1 X167.642 Y158.438 E16.3026
G1 X167.468 Y158.434 E16.3124
G1 X140.166 Y156.978 E17.8510
G1 X139.880 Y156.949 E17.8672
G1 X139.019 Y156.816 E17.9162
G1 X138.737 Y156.759 E17.9324
G1 X138.111 Y156.598 E17.9688
G1 X137.891 Y156.532 E17.9817
G1 X137.279 Y156.322 E18.0181
G1 X137.012 Y156.215 E18.0343
G1 X136.220 Y155.852 E18.0833
G1 X135.964 Y155.719 E18.0995
G1 X135.383 Y155.379 E18.1375
G1 X135.142 Y155.222 E18.1536
G1 X134.390 Y154.676 E18.2060
G1 X134.081 Y154.417 E18.2286
G1 X133.253 Y153.620 E18.2933
G1 X133.020 Y153.366 E18.3127
G1 X132.592 Y152.842 E18.3508
G1 X132.454 Y152.659 E18.3637
G1 X132.086 Y152.127 E18.4001
G1 X131.934 Y151.883 E18.4163
G1 X131.497 Y151.096 E18.4669
G1 X131.348 Y150.785 E18.4863
G1 X130.998 Y149.926 E18.5385
G1 X130.886 Y149.599 E18.5579
G1 X130.662 Y148.785 E18.6055
G1 X130.622 Y148.618 E18.6152
G1 X129.414 Y142.928 E18.9425
G1 X129.415 Y146.985 E19.1708
G1 X129.401 Y147.270 E19.1869
G1 X129.316 Y148.130 E19.2355
G1 X129.275 Y148.412 E19.2515
G1 X129.144 Y149.067 E19.2891
G1 X129.075 Y149.343 E19.3051
G1 X128.824 Y150.169 E19.3537
G1 X128.729 Y150.437 E19.3697
G1 X128.484 Y151.029 E19.4058
G1 X128.388 Y151.235 E19.4186
G1 X128.098 Y151.806 E19.4546
G1 X127.956 Y152.053 E19.4706
G1 X127.460 Y152.828 E19.5224
G1 X127.222 Y153.149 E19.5449
G1 X126.446 Y154.057 E19.6121
G1 X126.124 Y154.380 E19.6378
G1 X125.215 Y155.156 E19.7050
G1 X124.895 Y155.393 E19.7275
G1 X124.119 Y155.890 E19.7793
G1 X123.872 Y156.031 E19.7953
G1 X123.302 Y156.322 E19.8313
G1 X123.095 Y156.417 E19.8441
G1 X122.504 Y156.662 E19.8802
G1 X122.236 Y156.758 E19.8962
G1 X121.355 Y157.025 E19.9480
G1 X120.966 Y157.115 E19.9705
G1 X119.792 Y157.301 E20.0374
G1 X119.351 Y157.336 E20.0622
G1 X115.728 Y157.353 E20.2662
G1 X115.544 Y157.348 E20.2765
G1 X114.702 Y157.298 E20.3239
G1 X114.363 Y157.258 E20.3432
G1 X113.485 Y157.101 E20.3933
G1 X113.208 Y157.038 E20.4094
G1 X112.565 Y156.856 E20.4469
G1 X112.295 Y156.766 E20.4630
G1 X111.491 Y156.451 E20.5116
G1 X111.231 Y156.334 E20.5276
G1 X110.636 Y156.031 E20.5652
G1 X110.389 Y155.890 E20.5812
G1 X109.614 Y155.393 E20.6330
G1 X109.293 Y155.155 E20.6555
G1 X108.470 Y154.452 E20.7164
G1 X108.303 Y154.298 E20.7292
G1 X95.560 Y141.555 E21.7433
G1 X95.413 Y141.396 E21.7555
G1 X94.740 Y140.615 E21.8136
G1 X94.512 Y140.311 E21.8350
G1 X94.031 Y139.577 E21.8843
G1 X93.893 Y139.343 E21.8996
G1 X93.596 Y138.781 E21.9354
G1 X93.481 Y138.536 E21.9506
G1 X93.166 Y137.776 E21.9969
G1 X93.074 Y137.521 E22.0122
G1 X92.910 Y136.989 E22.0435
G1 X92.880 Y136.885 E22.0496
G1 X86.036 Y111.357 E23.5370
G1 X18.865 Y93.327 E27.4509
G1 X18.699 Y93.277 E27.4606
G1 X17.898 Y93.010 E27.5081
G1 X17.578 Y92.882 E27.5276
G1 X16.712 Y92.473 E27.5814
G1 X16.361 Y92.277 E27.6041
G1 X15.376 Y91.632 E27.6703
G1 X15.055 Y91.389 E27.6930
G1 X14.312 Y90.739 E27.7486
G1 X14.028 Y90.454 E27.7712
G1 X13.257 Y89.564 E27.8375
G1 X13.015 Y89.242 E27.8601
G1 X12.510 Y88.462 E27.9124
G1 X12.365 Y88.213 E27.9286
G1 X12.069 Y87.639 E27.9650
G1 X11.972 Y87.431 E27.9779
G1 X11.723 Y86.834 E28.0143
G1 X11.625 Y86.564 E28.0305
G1 X11.361 Y85.704 E28.0811
G1 X11.280 Y85.368 E28.1005
G1 X11.120 Y84.483 E28.1512
G1 X11.083 Y84.198 E28.1673
G1 X11.032 Y83.554 E28.2037
G1 X11.023 Y83.324 E28.2166
G1 X11.019 Y56.011 E29.7537
G1 X11.024 Y55.837 E29.7635
G1 X11.075 Y54.990 E29.8113
G1 X11.116 Y54.646 E29.8308
G1 X11.277 Y53.756 E29.8817
G1 X11.343 Y53.474 E29.8979
G1 X11.530 Y52.823 E29.9361
G1 X11.623 Y52.550 E29.9523
G1 X11.957 Y51.709 E30.0032
G1 X12.104 Y51.396 E30.0227
G1 X12.549 Y50.577 E30.0752
G1 X12.733 Y50.282 E30.0947
G1 X13.290 Y49.498 E30.1488
G1 X13.547 Y49.185 E30.1716
G1 X14.360 Y48.326 E30.2382
G1 X14.657 Y48.052 E30.2609
G1 X15.387 Y47.468 E30.3135
G1 X15.621 Y47.300 E30.3298
G1 X16.190 Y46.931 E30.3679
G1 X16.440 Y46.787 E30.3842
G1 X17.244 Y46.373 E30.4350
G1 X17.562 Y46.233 E30.4546
G1 X18.436 Y45.909 E30.5070
G1 X18.666 Y46.591 F18000
G92 E0.0000
G1 X18.956 Y46.503 E0.0171 F1800
G1 X19.821 Y46.295 E0.0671
G1 X20.120 Y46.242 E0.0842
G1 X20.979 Y46.141 E0.1329
G1 X21.231 Y46.125 E0.1471
G1 X21.873 Y46.114 E0.1832
G1 X22.126 Y46.122 E0.1975
G1 X22.987 Y46.194 E0.2461
G1 X23.286 Y46.237 E0.2631
G1 X24.078 Y46.399 E0.3086
G1 X24.227 Y46.434 E0.3172
G1 X80.346 Y61.497 E3.5872
G1 X74.889 Y55.434 E4.0462
G1 X74.731 Y55.239 E4.0603
G1 X74.239 Y54.572 E4.1070
G1 X74.102 Y54.364 E4.1210
G1 X73.766 Y53.798 E4.1580
G1 X73.628 Y53.532 E4.1749
G1 X73.174 Y52.510 E4.2378
G1 X73.041 Y52.134 E4.2603
G1 X72.740 Y51.005 E4.3260
G1 X72.667 Y50.613 E4.3485
G1 X72.547 Y49.457 E4.4139
G1 X72.536 Y49.069 E4.4357
G1 X72.709 Y45.512 E4.6361
G1 X72.717 Y45.401 E4.6424
G1 X72.769 Y44.838 E4.6742
G1 X72.804 Y44.591 E4.6883
G1 X72.961 Y43.777 E4.7349
G1 X73.020 Y43.535 E4.7489
G1 X73.207 Y42.904 E4.7859
G1 X73.309 Y42.623 E4.8028
G1 X73.741 Y41.620 E4.8643
G1 X73.901 Y41.309 E4.8839
G1 X74.368 Y40.537 E4.9347
G1 X74.538 Y40.291 E4.9515
G1 X75.092 Y39.579 E5.0023
G1 X75.325 Y39.319 E5.0219
G1 X76.125 Y38.541 E5.0848
G1 X76.392 Y38.315 E5.1044
G1 X77.119 Y37.780 E5.1552
G1 X77.370 Y37.617 E5.1720
G1 X78.132 Y37.185 E5.2213
G1 X78.400 Y37.053 E5.2382
G1 X79.208 Y36.713 E5.2875
G1 X79.490 Y36.613 E5.3043
G1 X80.332 Y36.370 E5.3536
G1 X80.624 Y36.304 E5.3705
G1 X81.465 Y36.166 E5.4185
G1 X81.713 Y36.138 E5.4325
G1 X82.369 Y36.095 E5.4695
G1 X82.668 Y36.094 E5.4863
G1 X132.732 Y38.741 E8.3077
G1 X132.880 Y38.753 E8.3160
G1 X133.682 Y38.843 E8.3614
G1 X134.017 Y38.903 E8.3806
G1 X135.078 Y39.169 E8.4422
G1 X135.404 Y39.274 E8.4614
G1 X136.160 Y39.577 E8.5073
G1 X136.295 Y39.635 E8.5155
G1 X153.063 Y47.495 E9.5577
G1 X153.236 Y47.584 E9.5686
G1 X153.754 Y47.878 E9.6022
G1 X153.961 Y48.008 E9.6159
G1 X154.645 Y48.488 E9.6629
G1 X154.875 Y48.670 E9.6794
G1 X155.499 Y49.224 E9.7264
G1 X155.674 Y49.396 E9.7402
G1 X156.079 Y49.833 E9.7738
G1 X156.207 Y49.981 E9.7848
G1 X156.577 Y50.448 E9.8183
G1 X156.720 Y50.646 E9.8320
G1 X157.174 Y51.347 E9.8790
G1 X157.319 Y51.602 E9.8955
G1 X157.689 Y52.351 E9.9426
G1 X157.787 Y52.575 E9.9563
G1 X158.007 Y53.154 E9.9912
G1 X158.082 Y53.386 E10.0049
G1 X158.284 Y54.124 E10.0480
G1 X158.319 Y54.267 E10.0562
G1 X177.784 Y146.013 E15.3343
G1 X177.829 Y146.313 E15.3514
G1 X177.929 Y147.417 E15.4137
G1 X177.936 Y147.772 E15.4337
G1 X177.889 Y148.712 E15.4867
G1 X177.846 Y149.064 E15.5066
G1 X177.633 Y150.176 E15.5704
G1 X177.542 Y150.519 E15.5903
G1 X177.238 Y151.411 E15.6433
G1 X177.101 Y151.737 E15.6633
G1 X176.600 Y152.726 E15.7256
G1 X176.447 Y152.988 E15.7427
G1 X176.090 Y153.524 E15.7789
G1 X175.972 Y153.688 E15.7903
G1 X175.573 Y154.193 E15.8265
G1 X175.371 Y154.420 E15.8436
G1 X174.587 Y155.202 E15.9060
G1 X174.319 Y155.434 E15.9259
G1 X173.606 Y155.970 E15.9761
G1 X173.396 Y156.111 E15.9903
G1 X172.825 Y156.457 E16.0279
G1 X172.557 Y156.599 E16.0450
G1 X171.547 Y157.056 E16.1074
G1 X171.215 Y157.179 E16.1273
G1 X170.359 Y157.430 E16.1775
G1 X170.113 Y157.489 E16.1917
G1 X169.507 Y157.603 E16.2265
G1 X169.307 Y157.633 E16.2378
G1 X168.693 Y157.698 E16.2726
G1 X168.440 Y157.713 E16.2868
G1 X167.648 Y157.718 E16.3314
G1 X167.496 Y157.714 E16.3400
G1 X140.222 Y156.260 E17.8770
G1 X139.972 Y156.234 E17.8912
G1 X139.145 Y156.107 E17.9382
