; G-Code generated by Simplify3D(R) Version 4.1.2
; Nov 25, 2019 at 10:06:06 PM
; Settings Summary
;   processName,Process1
;   applyToModels,trigger
;   profileName,HBot
;   profileVersion,2019-10-26 23:38:43
;   baseProfile,Default
;   printMaterial,PLA
;   printQuality,Medium
;   printExtruders,
;   extruderName,Extruder 1
;   extruderToolheadNumber,0
;   extruderDiameter,0.4
;   extruderAutoWidth,1
;   extruderWidth,0.48
;   extrusionMultiplier,0.94
;   extruderUseRetract,1
;   extruderRetractionDistance,3
;   extruderExtraRestartDistance,0
;   extruderRetractionZLift,0
;   extruderRetractionSpeed,3600
;   extruderUseCoasting,1
;   extruderCoastingDistance,0.2
;   extruderUseWipe,1
;   extruderWipeDistance,5
;   primaryExtruder,0
;   layerHeight,0.2
;   topSolidLayers,3
;   bottomSolidLayers,3
;   perimeterOutlines,3
;   printPerimetersInsideOut,1
;   startPointOption,2
;   startPointOriginX,0
;   startPointOriginY,0
;   sequentialIslands,0
;   spiralVaseMode,0
;   firstLayerHeightPercentage,100
;   firstLayerWidthPercentage,150
;   firstLayerUnderspeed,0.5
;   useRaft,0
;   raftExtruder,0
;   raftTopLayers,3
;   raftBaseLayers,2
;   raftOffset,3
;   raftSeparationDistance,0.18
;   raftTopInfill,100
;   aboveRaftSpeedMultiplier,0.3
;   useSkirt,1
;   skirtExtruder,0
;   skirtLayers,1
;   skirtOutlines,3
;   skirtOffset,4
;   usePrimePillar,0
;   primePillarExtruder,999
;   primePillarWidth,12
;   primePillarLocation,7
;   primePillarSpeedMultiplier,1
;   useOozeShield,0
;   oozeShieldExtruder,999
;   oozeShieldOffset,2
;   oozeShieldOutlines,1
;   oozeShieldSidewallShape,1
;   oozeShieldSidewallAngle,30
;   oozeShieldSpeedMultiplier,1
;   infillExtruder,0
;   internalInfillPattern,Rectilinear
;   externalInfillPattern,Rectilinear
;   infillPercentage,20
;   outlineOverlapPercentage,25
;   infillExtrusionWidthPercentage,150
;   minInfillLength,5
;   infillLayerInterval,1
;   internalInfillAngles,45,-45
;   overlapInternalInfillAngles,0
;   externalInfillAngles,45,-45
;   generateSupport,1
;   supportExtruder,0
;   supportInfillPercentage,30
;   supportExtraInflation,0
;   supportBaseLayers,1
;   denseSupportExtruder,0
;   denseSupportLayers,0
;   denseSupportInfillPercentage,70
;   supportLayerInterval,1
;   supportHorizontalPartOffset,0.3
;   supportUpperSeparationLayers,1
;   supportLowerSeparationLayers,1
;   supportType,0
;   supportGridSpacing,4
;   maxOverhangAngle,45
;   supportAngles,0
;   temperatureName,Extruder 1,Heated Bed
;   temperatureNumber,0,1
;   temperatureSetpointCount,2,1
;   temperatureSetpointLayers,1,2,1
;   temperatureSetpointTemperatures,217,210,55
;   temperatureStabilizeAtStartup,1,1
;   temperatureHeatedBed,0,1
;   fanLayers,1,3,5
;   fanSpeeds,0,15,20
;   blipFanToFullPower,1
;   adjustSpeedForCooling,1
;   minSpeedLayerTime,15
;   minCoolingSpeedSlowdown,20
;   increaseFanForCooling,0
;   minFanLayerTime,45
;   maxCoolingFanSpeed,40
;   increaseFanForBridging,0
;   bridgingFanSpeed,80
;   use5D,1
;   relativeEdistances,0
;   allowEaxisZeroing,1
;   independentExtruderAxes,0
;   includeM10123,0
;   stickySupport,1
;   applyToolheadOffsets,0
;   gcodeXoffset,0
;   gcodeYoffset,0
;   gcodeZoffset,0
;   overrideMachineDefinition,1
;   machineTypeOverride,0
;   strokeXoverride,200
;   strokeYoverride,200
;   strokeZoverride,150
;   originOffsetXoverride,0
;   originOffsetYoverride,0
;   originOffsetZoverride,0
;   homeXdirOverride,-1
;   homeYdirOverride,-1
;   homeZdirOverride,-1
;   flipXoverride,1
;   flipYoverride,-1
;   flipZoverride,1
;   toolheadOffsets,0,0|0,0|0,0|0,0|0,0|0,0
;   overrideFirmwareConfiguration,1
;   firmwareTypeOverride,RepRap (Marlin/Repetier/Sprinter)
;   GPXconfigOverride,r2
;   baudRateOverride,115200
;   overridePrinterModels,0
;   printerModelsOverride
;   startingGcode,G28 ; home all axes,G32 ; run bed.g -- probe bed and enable compensation
;   layerChangeGcode,
;   retractionGcode,
;   toolChangeGcode,
;   endingGcode,M0 ; call stop.g
;   exportFileFormat,gcode
;   celebration,0
;   celebrationSong,Random Song
;   postProcessing,
;   defaultSpeed,3600
;   outlineUnderspeed,0.5
;   solidInfillUnderspeed,0.8
;   supportUnderspeed,0.8
;   rapidXYspeed,18000
;   rapidZspeed,1200
;   minBridgingArea,50
;   bridgingExtraInflation,0
;   bridgingExtrusionMultiplier,0.96
;   bridgingSpeedMultiplier,1
;   useFixedBridgingAngle,0
;   fixedBridgingAngle,0
;   applyBridgingToPerimeters,0
;   filamentDiameters,1.75|1.75|1.75|1.75|1.75|1.75
;   filamentPricesPerKg,46|46|46|46|46|46
;   filamentDensities,1.25|1.25|1.25|1.25|1.25|1.25
;   useMinPrintHeight,0
;   minPrintHeight,0
;   useMaxPrintHeight,0
;   maxPrintHeight,0
;   useDiaphragm,1
;   diaphragmLayerInterval,20
;   robustSlicing,1
;   mergeAllIntoSolid,0
;   onlyRetractWhenCrossingOutline,1
;   retractBetweenLayers,0
;   useRetractionMinTravel,1
;   retractionMinTravel,3
;   retractWhileWiping,1
;   onlyWipeOutlines,1
;   avoidCrossingOutline,1
;   maxMovementDetourFactor,3
;   toolChangeRetractionDistance,12
;   toolChangeExtraRestartDistance,-0.5
;   toolChangeRetractionSpeed,600
;   externalThinWallType,1
;   internalThinWallType,1
;   thinWallAllowedOverlapPercentage,10
;   singleExtrusionMinLength,1
;   singleExtrusionMinPrintingWidthPercentage,50
;   singleExtrusionMaxPrintingWidthPercentage,200
;   singleExtrusionEndpointExtension,0.2
;   horizontalSizeCompensation,-0.1
G90
M82
M106 S0
M140 S55
M190 S55
M104 S217 T0
M109 S217 T0
G28 ; home all axes
G32 ; run bed.g -- probe bed and enable compensation
; process Process1
; layer 1, Z = 0.200
T0
G92 E0.0000
G1 E-3.0000 F3600
; feature skirt
; tool H0.200 W0.720
G1 Z0.200 F1200
G1 X82.696 Y88.550 F18000
G1 E0.0000 F3600
G92 E0.0000
G1 X117.302 Y88.550 E1.9475 F1618
G1 X120.700 Y91.948 E2.2179
G1 X120.700 Y101.843 E2.7748
G1 X120.694 Y102.036 E2.7856
G1 X120.642 Y102.812 E2.8294
G1 X120.603 Y103.131 E2.8475
G1 X120.492 Y103.754 E2.8831
G1 X120.435 Y104.004 E2.8975
G1 X120.269 Y104.615 E2.9332
G1 X120.168 Y104.919 E2.9512
G1 X119.859 Y105.701 E2.9985
G1 X119.725 Y105.992 E3.0166
G1 X119.429 Y106.552 E3.0522
G1 X119.299 Y106.773 E3.0666
G1 X118.937 Y107.331 E3.1041
G1 X118.707 Y107.640 E3.1257
G1 X117.988 Y108.480 E3.1879
G1 X117.670 Y108.798 E3.2132
G1 X116.983 Y109.386 E3.2642
G1 X116.728 Y109.581 E3.2822
G1 X116.205 Y109.937 E3.3178
G1 X115.986 Y110.072 E3.3323
G1 X115.434 Y110.380 E3.3679
G1 X115.145 Y110.520 E3.3859
G1 X114.371 Y110.846 E3.4332
G1 X114.068 Y110.954 E3.4513
G1 X113.400 Y111.152 E3.4905
G1 X113.025 Y111.236 E3.5122
G1 X111.933 Y111.407 E3.5744
G1 X111.484 Y111.442 E3.5997
G1 X110.580 Y111.442 E3.6506
G1 X110.259 Y111.424 E3.6686
G1 X109.600 Y111.351 E3.7060
G1 X109.283 Y111.298 E3.7240
G1 X108.433 Y111.106 E3.7731
G1 X108.064 Y110.997 E3.7948
G1 X107.217 Y110.684 E3.8455
G1 X106.866 Y110.527 E3.8672
G1 X106.068 Y110.105 E3.9180
G1 X105.741 Y109.903 E3.9397
G1 X105.006 Y109.379 E3.9904
G1 X104.708 Y109.135 E4.0121
G1 X104.049 Y108.519 E4.0629
G1 X103.786 Y108.237 E4.0846
G1 X103.234 Y107.563 E4.1336
G1 X103.045 Y107.304 E4.1517
G1 X102.684 Y106.747 E4.1890
G1 X102.524 Y106.468 E4.2071
G1 X102.148 Y105.717 E4.2544
G1 X102.020 Y105.423 E4.2724
G1 X101.779 Y104.769 E4.3116
G1 X101.669 Y104.400 E4.3333
G1 X101.456 Y103.450 E4.3881
G1 X97.387 Y103.450 E4.6170
G1 X97.127 Y103.829 E4.6429
G1 X96.895 Y104.123 E4.6640
G1 X96.406 Y104.667 E4.7051
G1 X96.139 Y104.929 E4.7262
G1 X95.314 Y105.639 E4.7874
G1 X95.015 Y105.864 E4.8085
G1 X94.430 Y106.248 E4.8479
G1 X94.160 Y106.405 E4.8654
G1 X93.404 Y106.792 E4.9132
G1 X93.119 Y106.919 E4.9308
G1 X92.496 Y107.158 E4.9683
G1 X92.199 Y107.254 E4.9859
G1 X91.317 Y107.487 E5.0372
G1 X90.887 Y107.566 E5.0618
G1 X89.776 Y107.686 E5.1248
G1 X89.402 Y107.702 E5.1458
G1 X88.703 Y107.687 E5.1852
G1 X88.391 Y107.664 E5.2027
G1 X87.549 Y107.554 E5.2506
G1 X87.242 Y107.497 E5.2681
G1 X86.562 Y107.333 E5.3075
G1 X86.205 Y107.222 E5.3285
G1 X85.189 Y106.833 E5.3898
G1 X84.848 Y106.677 E5.4109
G1 X84.233 Y106.345 E5.4502
G1 X83.966 Y106.182 E5.4678
G1 X83.215 Y105.665 E5.5191
G1 X82.874 Y105.391 E5.5437
G1 X82.037 Y104.606 E5.6083
G1 X81.741 Y104.284 E5.6329
G1 X81.138 Y103.518 E5.6878
G1 X80.894 Y103.155 E5.7124
G1 X80.327 Y102.157 E5.7770
G1 X80.141 Y101.761 E5.8016
G1 X79.815 Y100.910 E5.8529
G1 X79.719 Y100.613 E5.8705
G1 X79.540 Y99.936 E5.9098
G1 X79.468 Y99.568 E5.9310
G1 X79.328 Y98.489 E5.9922
G1 X79.304 Y98.119 E6.0131
G1 X79.298 Y91.952 E6.3601
G1 X82.696 Y88.550 E6.6307
G1 X82.994 Y89.270 F18000
G92 E0.0000
G1 X117.004 Y89.270 E1.9139 F1618
G1 X119.980 Y92.246 E2.1508
G1 X119.980 Y101.831 E2.6902
G1 X119.974 Y102.000 E2.6997
G1 X119.925 Y102.745 E2.7417
G1 X119.891 Y103.024 E2.7575
G1 X119.786 Y103.611 E2.7911
G1 X119.736 Y103.831 E2.8038
G1 X119.580 Y104.407 E2.8373
G1 X119.491 Y104.673 E2.8532
G1 X119.197 Y105.418 E2.8982
G1 X119.080 Y105.673 E2.9140
G1 X118.800 Y106.201 E2.9476
G1 X118.687 Y106.395 E2.9603
G1 X118.346 Y106.920 E2.9955
G1 X118.144 Y107.190 E3.0145
G1 X117.459 Y107.990 E3.0738
G1 X117.181 Y108.269 E3.0959
G1 X116.530 Y108.826 E3.1441
G1 X116.306 Y108.997 E3.1600
G1 X115.813 Y109.332 E3.1935
G1 X115.622 Y109.451 E3.2062
G1 X115.101 Y109.741 E3.2398
G1 X114.848 Y109.864 E3.2556
G1 X114.110 Y110.175 E3.3007
G1 X113.845 Y110.269 E3.3165
G1 X113.219 Y110.455 E3.3532
G1 X112.890 Y110.529 E3.3722
G1 X111.849 Y110.691 E3.4315
G1 X111.457 Y110.722 E3.4536
G1 X110.600 Y110.722 E3.5019
G1 X110.319 Y110.706 E3.5177
G1 X109.699 Y110.637 E3.5528
G1 X109.422 Y110.591 E3.5686
G1 X108.614 Y110.409 E3.6152
G1 X108.291 Y110.314 E3.6342
G1 X107.489 Y110.017 E3.6822
G1 X107.182 Y109.880 E3.7012
G1 X106.426 Y109.480 E3.7493
G1 X106.139 Y109.303 E3.7683
G1 X105.443 Y108.807 E3.8164
G1 X105.182 Y108.593 E3.8354
G1 X104.558 Y108.009 E3.8835
G1 X104.328 Y107.763 E3.9025
G1 X103.804 Y107.122 E3.9490
G1 X103.638 Y106.895 E3.9648
G1 X103.299 Y106.372 E4.0000
G1 X103.159 Y106.128 E4.0158
G1 X102.800 Y105.412 E4.0608
G1 X102.689 Y105.155 E4.0766
G1 X102.462 Y104.542 E4.1134
G1 X102.367 Y104.219 E4.1324
G1 X102.141 Y103.217 E4.1901
G1 X102.089 Y102.883 E4.2091
G1 X102.076 Y102.730 E4.2178
G1 X97.009 Y102.730 E4.5029
G1 X96.547 Y103.402 E4.5488
G1 X96.344 Y103.659 E4.5672
G1 X95.886 Y104.169 E4.6058
G1 X95.652 Y104.398 E4.6242
G1 X94.862 Y105.077 E4.6829
G1 X94.600 Y105.275 E4.7013
G1 X94.051 Y105.635 E4.7383
G1 X93.815 Y105.773 E4.7537
G1 X93.093 Y106.142 E4.7993
G1 X92.843 Y106.254 E4.8147
G1 X92.257 Y106.478 E4.8500
G1 X91.997 Y106.562 E4.8654
G1 X91.160 Y106.783 E4.9141
G1 X90.783 Y106.853 E4.9357
G1 X89.722 Y106.968 E4.9958
G1 X89.394 Y106.982 E5.0142
G1 X88.737 Y106.968 E5.0512
G1 X88.465 Y106.947 E5.0666
G1 X87.661 Y106.843 E5.1122
G1 X87.392 Y106.793 E5.1276
G1 X86.754 Y106.639 E5.1645
G1 X86.440 Y106.542 E5.1830
G1 X85.468 Y106.169 E5.2416
G1 X85.170 Y106.032 E5.2601
G1 X84.592 Y105.720 E5.2970
G1 X84.358 Y105.578 E5.3124
G1 X83.645 Y105.087 E5.3611
G1 X83.347 Y104.847 E5.3827
G1 X82.549 Y104.099 E5.4442
G1 X82.290 Y103.817 E5.4658
G1 X81.721 Y103.094 E5.5176
G1 X81.507 Y102.776 E5.5391
G1 X80.967 Y101.825 E5.6007
G1 X80.804 Y101.479 E5.6222
G1 X80.494 Y100.670 E5.6709
G1 X80.410 Y100.410 E5.6863
G1 X80.242 Y99.775 E5.7233
G1 X80.179 Y99.452 E5.7418
G1 X80.045 Y98.419 E5.8004
G1 X80.024 Y98.095 E5.8187
G1 X80.018 Y92.250 E6.1476
G1 X82.994 Y89.270 E6.3846
G1 X83.293 Y89.990 F18000
G92 E0.0000
G1 X116.706 Y89.990 E1.8804 F1618
G1 X119.260 Y92.545 E2.0836
G1 X119.260 Y101.820 E2.6056
G1 X119.255 Y101.964 E2.6137
G1 X119.208 Y102.677 E2.6540
G1 X119.179 Y102.917 E2.6675
G1 X119.080 Y103.469 E2.6991
G1 X119.037 Y103.657 E2.7100
G1 X118.890 Y104.199 E2.7415
G1 X118.814 Y104.427 E2.7551
G1 X118.535 Y105.135 E2.7979
G1 X118.434 Y105.354 E2.8115
G1 X118.171 Y105.850 E2.8431
G1 X118.074 Y106.016 E2.8539
G1 X117.755 Y106.508 E2.8869
G1 X117.582 Y106.740 E2.9032
G1 X116.930 Y107.501 E2.9596
G1 X116.691 Y107.740 E2.9786
G1 X116.077 Y108.266 E3.0241
G1 X115.885 Y108.413 E3.0377
G1 X115.421 Y108.728 E3.0693
G1 X115.257 Y108.829 E3.0801
G1 X114.767 Y109.103 E3.1117
G1 X114.550 Y109.208 E3.1253
G1 X113.849 Y109.504 E3.1681
G1 X113.622 Y109.585 E3.1817
G1 X113.038 Y109.757 E3.2159
G1 X112.755 Y109.821 E3.2322
G1 X111.766 Y109.976 E3.2886
G1 X111.429 Y110.002 E3.3076
G1 X110.620 Y110.002 E3.3531
G1 X110.379 Y109.988 E3.3667
G1 X109.798 Y109.924 E3.3996
G1 X109.560 Y109.884 E3.4132
G1 X108.796 Y109.712 E3.4573
G1 X108.518 Y109.630 E3.4736
G1 X107.761 Y109.350 E3.5190
G1 X107.497 Y109.232 E3.5353
G1 X106.784 Y108.855 E3.5807
G1 X106.538 Y108.703 E3.5969
G1 X105.881 Y108.234 E3.6423
G1 X105.657 Y108.051 E3.6586
G1 X105.068 Y107.500 E3.7040
G1 X104.870 Y107.288 E3.7203
G1 X104.374 Y106.682 E3.7644
G1 X104.231 Y106.487 E3.7780
G1 X103.914 Y105.997 E3.8109
G1 X103.794 Y105.787 E3.8245
G1 X103.453 Y105.108 E3.8673
G1 X103.357 Y104.886 E3.8808
G1 X103.146 Y104.315 E3.9151
G1 X103.064 Y104.037 E3.9314
G1 X102.849 Y103.082 E3.9865
G1 X102.804 Y102.796 E4.0028
G1 X102.753 Y102.213 E4.0357
G1 X102.744 Y102.022 E4.0465
G1 X102.744 Y102.010 E4.0471
G1 X96.617 Y102.010 E4.3920
G1 X96.543 Y102.136 E4.4002
G1 X95.967 Y102.974 E4.4574
G1 X95.793 Y103.196 E4.4733
G1 X95.366 Y103.671 E4.5092
G1 X95.165 Y103.868 E4.5250
G1 X94.410 Y104.516 E4.5810
G1 X94.185 Y104.686 E4.5969
G1 X93.672 Y105.023 E4.6314
G1 X93.469 Y105.141 E4.6446
G1 X92.782 Y105.493 E4.6881
G1 X92.568 Y105.588 E4.7013
G1 X92.017 Y105.799 E4.7345
G1 X91.794 Y105.871 E4.7477
G1 X91.002 Y106.080 E4.7938
G1 X90.679 Y106.140 E4.8123
G1 X89.667 Y106.249 E4.8695
G1 X89.386 Y106.261 E4.8854
G1 X88.772 Y106.248 E4.9199
G1 X88.538 Y106.231 E4.9331
G1 X87.773 Y106.131 E4.9766
G1 X87.542 Y106.088 E4.9898
G1 X86.945 Y105.944 E5.0243
G1 X86.676 Y105.861 E5.0402
G1 X85.747 Y105.505 E5.0962
G1 X85.491 Y105.388 E5.1120
G1 X84.951 Y105.096 E5.1466
G1 X84.750 Y104.974 E5.1598
G1 X84.076 Y104.509 E5.2059
G1 X83.820 Y104.303 E5.2244
G1 X83.061 Y103.592 E5.2829
G1 X82.839 Y103.350 E5.3014
G1 X82.303 Y102.670 E5.3501
G1 X82.120 Y102.397 E5.3686
G1 X81.606 Y101.493 E5.4271
G1 X81.466 Y101.196 E5.4456
G1 X81.173 Y100.431 E5.4917
G1 X81.101 Y100.208 E5.5049
G1 X80.944 Y99.614 E5.5395
G1 X80.890 Y99.337 E5.5554
G1 X80.762 Y98.349 E5.6114
G1 X80.744 Y98.071 E5.6271
G1 X80.738 Y92.548 E5.9379
G1 X83.293 Y89.990 E6.1413
G92 E0.0000
G1 E-3.0000 F3600
; feature inner perimeter
G1 X85.460 Y94.710 F18000
G1 X102.913 Y94.710
G1 X108.899 Y96.150
G1 E0.0000 F3600
G92 E0.0000
G1 X113.100 Y96.150 E0.2364 F1214
G1 X113.100 Y99.685 E0.4354
G1 X112.454 Y99.233 E0.4798
G1 X111.994 Y99.019 E0.5083
G1 X111.505 Y98.887 E0.5368
G1 X110.958 Y98.840 E0.5677
G1 X110.287 Y98.928 E0.6058
G1 X109.732 Y99.130 E0.6390
G1 X108.902 Y99.659 E0.6944
G1 X108.899 Y96.350 E0.8806
G1 X108.899 Y96.150 F1214
G1 X108.179 Y96.570 F18000
G92 E0.0000
G1 X92.370 Y96.570 E0.8897 F1214
G1 X92.310 Y97.954 E0.9676
G1 X91.701 Y97.965 E1.0019
G1 X91.652 Y97.346 E1.0368
G1 X91.503 Y96.817 E1.0677
G1 X91.234 Y96.338 E1.0987
G1 X90.956 Y96.012 E1.1228
G1 X90.771 Y95.866 E1.1360
G1 X90.922 Y95.430 E1.1620
G1 X113.820 Y95.430 E2.4506
G1 X113.820 Y101.895 E2.8144
G1 X113.214 Y101.934 E2.8485
G1 X113.119 Y101.210 E2.8897
G1 X112.980 Y100.827 E2.9126
G1 X112.776 Y100.475 E2.9355
G1 X112.425 Y100.092 E2.9647
G1 X112.092 Y99.859 E2.9876
G1 X111.747 Y99.698 E3.0090
G1 X111.379 Y99.599 E3.0304
G1 X110.974 Y99.564 E3.0533
G1 X110.459 Y99.632 E3.0826
G1 X110.052 Y99.780 E3.1069
G1 X109.614 Y100.059 E3.1362
G1 X109.327 Y100.346 E3.1591
G1 X109.108 Y100.658 E3.1805
G1 X108.947 Y101.003 E3.2019
G1 X108.849 Y101.371 E3.2233
G1 X108.803 Y101.890 E3.2526
G1 X108.184 Y101.863 E3.2875
G1 X108.179 Y96.770 E3.5741
G1 X108.179 Y96.570 F1214
G1 X87.729 Y95.866 F18000
G92 E0.0000
G1 X87.544 Y96.012 E0.0132 F1214
G1 X87.266 Y96.338 E0.0374
G1 X87.009 Y96.797 E0.0670
G1 X86.876 Y97.204 E0.0911
G1 X86.793 Y97.905 E0.1308
G1 X86.184 Y97.869 E0.1652
G1 X86.181 Y95.430 E0.3024
G1 X87.578 Y95.430 E0.3810
G1 X87.664 Y95.677 E0.3957
G1 X87.729 Y95.866 F1214
; feature outer perimeter
G1 X85.460 Y94.710 F18000
G92 E0.0000
G1 X114.540 Y94.710 E1.6365 F809
