; G-Code generated by Simplify3D(R) Version 4.1.2
; Nov 25, 2019 at 9:32:37 PM
; Settings Summary
;   processName,Process1
;   applyToModels,wheel-axel
;   profileName,HBot
;   profileVersion,2019-10-26 23:38:43
;   baseProfile,Default
;   printMaterial,PLA
;   printQuality,Fast
;   printExtruders,
;   extruderName,Extruder 1
;   extruderToolheadNumber,0
;   extruderDiameter,0.4
;   extruderAutoWidth,1
;   extruderWidth,0.48
;   extrusionMultiplier,0.94
;   extruderUseRetract,1
;   extruderRetractionDistance,3
;   extruderExtraRestartDistance,0
;   extruderRetractionZLift,0
;   extruderRetractionSpeed,3600
;   extruderUseCoasting,1
;   extruderCoastingDistance,0.2
;   extruderUseWipe,1
;   extruderWipeDistance,5
;   primaryExtruder,0
;   layerHeight,0.3
;   topSolidLayers,3
;   bottomSolidLayers,3
;   perimeterOutlines,3
;   printPerimetersInsideOut,1
;   startPointOption,2
;   startPointOriginX,0
;   startPointOriginY,0
;   sequentialIslands,0
;   spiralVaseMode,0
;   firstLayerHeightPercentage,100
;   firstLayerWidthPercentage,150
;   firstLayerUnderspeed,0.5
;   useRaft,0
;   raftExtruder,0
;   raftTopLayers,3
;   raftBaseLayers,2
;   raftOffset,3
;   raftSeparationDistance,0.18
;   raftTopInfill,100
;   aboveRaftSpeedMultiplier,0.3
;   useSkirt,1
;   skirtExtruder,0
;   skirtLayers,1
;   skirtOutlines,3
;   skirtOffset,4
;   usePrimePillar,0
;   primePillarExtruder,999
;   primePillarWidth,12
;   primePillarLocation,7
;   primePillarSpeedMultiplier,1
;   useOozeShield,0
;   oozeShieldExtruder,999
;   oozeShieldOffset,2
;   oozeShieldOutlines,1
;   oozeShieldSidewallShape,1
;   oozeShieldSidewallAngle,30
;   oozeShieldSpeedMultiplier,1
;   infillExtruder,0
;   internalInfillPattern,Rectilinear
;   externalInfillPattern,Rectilinear
;   infillPercentage,15
;   outlineOverlapPercentage,25
;   infillExtrusionWidthPercentage,150
;   minInfillLength,5
;   infillLayerInterval,1
;   internalInfillAngles,45,-45
;   overlapInternalInfillAngles,0
;   externalInfillAngles,45,-45
;   generateSupport,1
;   supportExtruder,0
;   supportInfillPercentage,25
;   supportExtraInflation,0
;   supportBaseLayers,1
;   denseSupportExtruder,0
;   denseSupportLayers,0
;   denseSupportInfillPercentage,70
;   supportLayerInterval,1
;   supportHorizontalPartOffset,0.3
;   supportUpperSeparationLayers,1
;   supportLowerSeparationLayers,1
;   supportType,0
;   supportGridSpacing,4
;   maxOverhangAngle,45
;   supportAngles,0
;   temperatureName,Extruder 1,Heated Bed
;   temperatureNumber,0,1
;   temperatureSetpointCount,2,1
;   temperatureSetpointLayers,1,2,1
;   temperatureSetpointTemperatures,217,210,55
;   temperatureStabilizeAtStartup,1,1
;   temperatureHeatedBed,0,1
;   fanLayers,1,3,5
;   fanSpeeds,0,15,20
;   blipFanToFullPower,1
;   adjustSpeedForCooling,1
;   minSpeedLayerTime,15
;   minCoolingSpeedSlowdown,20
;   increaseFanForCooling,0
;   minFanLayerTime,45
;   maxCoolingFanSpeed,40
;   increaseFanForBridging,0
;   bridgingFanSpeed,80
;   use5D,1
;   relativeEdistances,0
;   allowEaxisZeroing,1
;   independentExtruderAxes,0
;   includeM10123,0
;   stickySupport,1
;   applyToolheadOffsets,0
;   gcodeXoffset,0
;   gcodeYoffset,0
;   gcodeZoffset,0
;   overrideMachineDefinition,1
;   machineTypeOverride,0
;   strokeXoverride,200
;   strokeYoverride,200
;   strokeZoverride,150
;   originOffsetXoverride,0
;   originOffsetYoverride,0
;   originOffsetZoverride,0
;   homeXdirOverride,-1
;   homeYdirOverride,-1
;   homeZdirOverride,-1
;   flipXoverride,1
;   flipYoverride,-1
;   flipZoverride,1
;   toolheadOffsets,0,0|0,0|0,0|0,0|0,0|0,0
;   overrideFirmwareConfiguration,1
;   firmwareTypeOverride,RepRap (Marlin/Repetier/Sprinter)
;   GPXconfigOverride,r2
;   baudRateOverride,115200
;   overridePrinterModels,0
;   printerModelsOverride
;   startingGcode,G28 ; home all axes,G32 ; run bed.g -- probe bed and enable compensation
;   layerChangeGcode,
;   retractionGcode,
;   toolChangeGcode,
;   endingGcode,M0 ; call stop.g
;   exportFileFormat,gcode
;   celebration,0
;   celebrationSong,Random Song
;   postProcessing,
;   defaultSpeed,3600
;   outlineUnderspeed,0.5
;   solidInfillUnderspeed,0.8
;   supportUnderspeed,0.8
;   rapidXYspeed,18000
;   rapidZspeed,1200
;   minBridgingArea,50
;   bridgingExtraInflation,0
;   bridgingExtrusionMultiplier,0.96
;   bridgingSpeedMultiplier,1
;   useFixedBridgingAngle,0
;   fixedBridgingAngle,0
;   applyBridgingToPerimeters,0
;   filamentDiameters,1.75|1.75|1.75|1.75|1.75|1.75
;   filamentPricesPerKg,46|46|46|46|46|46
;   filamentDensities,1.25|1.25|1.25|1.25|1.25|1.25
;   useMinPrintHeight,0
;   minPrintHeight,0
;   useMaxPrintHeight,0
;   maxPrintHeight,0
;   useDiaphragm,1
;   diaphragmLayerInterval,20
;   robustSlicing,1
;   mergeAllIntoSolid,0
;   onlyRetractWhenCrossingOutline,1
;   retractBetweenLayers,0
;   useRetractionMinTravel,1
;   retractionMinTravel,3
;   retractWhileWiping,1
;   onlyWipeOutlines,1
;   avoidCrossingOutline,1
;   maxMovementDetourFactor,3
;   toolChangeRetractionDistance,12
;   toolChangeExtraRestartDistance,-0.5
;   toolChangeRetractionSpeed,600
;   externalThinWallType,1
;   internalThinWallType,1
;   thinWallAllowedOverlapPercentage,10
;   singleExtrusionMinLength,1
;   singleExtrusionMinPrintingWidthPercentage,50
;   singleExtrusionMaxPrintingWidthPercentage,200
;   singleExtrusionEndpointExtension,0.2
;   horizontalSizeCompensation,-0.1
G90
M82
M106 S0
M140 S55
M190 S55
M104 S217 T0
M109 S217 T0
G28 ; home all axes
G32 ; run bed.g -- probe bed and enable compensation
; process Process1
; layer 1, Z = 0.300
T0
G92 E0.0000
G1 E-3.0000 F3600
; feature skirt
; tool H0.300 W0.720
G1 Z0.300 F1200
G1 X92.923 Y93.366 F18000
G1 E0.0000 F3600
G92 E0.0000
G1 X93.524 Y92.778 E0.0709 F399
G1 X93.765 Y92.567 E0.0980
G1 X94.288 Y92.158 E0.1540
G1 X94.551 Y91.974 E0.1811
G1 X95.321 Y91.499 E0.2575
G1 X95.721 Y91.293 E0.2954
G1 X96.799 Y90.840 E0.3942
G1 X97.288 Y90.683 E0.4375
G1 X98.462 Y90.419 E0.5391
G1 X98.971 Y90.351 E0.5824
G1 X100.108 Y90.301 E0.6785
G1 X100.493 Y90.310 E0.7110
G1 X101.188 Y90.371 E0.7699
G1 X101.505 Y90.417 E0.7970
G1 X102.329 Y90.583 E0.8679
G1 X102.639 Y90.664 E0.8950
G1 X103.303 Y90.877 E0.9538
G1 X103.661 Y91.018 E0.9863
G1 X104.690 Y91.506 E1.0824
G1 X105.133 Y91.766 E1.1258
G1 X106.112 Y92.464 E1.2273
G1 X106.503 Y92.798 E1.2707
G1 X107.320 Y93.634 E1.3694
G1 X107.609 Y93.979 E1.4074
G1 X108.134 Y94.715 E1.4837
G1 X108.306 Y94.987 E1.5108
G1 X108.646 Y95.595 E1.5697
G1 X108.810 Y95.943 E1.6021
G1 X109.216 Y96.971 E1.6954
G1 X109.349 Y97.401 E1.7334
G1 X109.547 Y98.283 E1.8098
G1 X109.600 Y98.600 E1.8369
G1 X109.677 Y99.292 E1.8957
G1 X109.694 Y99.677 E1.9282
G1 X109.669 Y100.816 E2.0243
G1 X109.612 Y101.326 E2.0677
G1 X109.374 Y102.505 E2.1692
G1 X109.229 Y102.998 E2.2126
G1 X108.810 Y104.057 E2.3087
G1 X108.646 Y104.405 E2.3412
G1 X108.306 Y105.013 E2.4000
G1 X108.134 Y105.285 E2.4271
G1 X107.609 Y106.021 E2.5035
G1 X107.320 Y106.366 E2.5414
G1 X106.503 Y107.202 E2.6402
G1 X106.113 Y107.536 E2.6835
G1 X105.161 Y108.215 E2.7822
G1 X104.775 Y108.447 E2.8202
G1 X103.967 Y108.852 E2.8965
G1 X103.672 Y108.980 E2.9236
G1 X103.050 Y109.210 E2.9797
G1 X102.743 Y109.304 E3.0067
G1 X101.927 Y109.507 E3.0777
G1 X101.612 Y109.567 E3.1048
G1 X100.954 Y109.655 E3.1608
G1 X100.635 Y109.680 E3.1879
G1 X99.794 Y109.698 E3.2588
G1 X99.474 Y109.687 E3.2859
G1 X98.812 Y109.629 E3.3419
G1 X98.495 Y109.583 E3.3690
G1 X97.608 Y109.404 E3.4454
G1 X97.176 Y109.281 E3.4833
G1 X96.139 Y108.898 E3.5767
G1 X95.787 Y108.741 E3.6092
G1 X95.171 Y108.415 E3.6680
G1 X94.897 Y108.249 E3.6950
G1 X94.149 Y107.741 E3.7714
G1 X93.798 Y107.460 E3.8094
G1 X92.944 Y106.660 E3.9081
G1 X92.601 Y106.278 E3.9514
G1 X91.901 Y105.341 E4.0501
G1 X91.661 Y104.961 E4.0881
G1 X91.238 Y104.162 E4.1645
G1 X91.104 Y103.870 E4.1916
G1 X90.848 Y103.222 E4.2504
G1 X90.730 Y102.855 E4.2829
G1 X90.471 Y101.812 E4.3736
G1 X90.403 Y101.433 E4.4061
G1 X90.327 Y100.741 E4.4649
G1 X90.309 Y100.420 E4.4920
G1 X90.309 Y99.516 E4.5684
G1 X90.344 Y99.068 E4.6063
G1 X90.519 Y97.945 E4.7022
G1 X90.622 Y97.507 E4.7402
G1 X90.898 Y96.646 E4.8165
G1 X91.013 Y96.346 E4.8436
G1 X91.297 Y95.710 E4.9024
G1 X91.477 Y95.370 E4.9349
G1 X92.041 Y94.455 E5.0256
G1 X92.265 Y94.142 E5.0582
G1 X92.707 Y93.602 E5.1170
G1 X92.923 Y93.366 E5.1441
G1 X93.441 Y93.866 F18000
G92 E0.0000
G1 X94.013 Y93.307 E0.0676 F399
G1 X94.224 Y93.122 E0.0913
G1 X94.716 Y92.737 E0.1439
G1 X94.947 Y92.577 E0.1677
G1 X95.676 Y92.127 E0.2400
G1 X96.026 Y91.946 E0.2732
G1 X97.049 Y91.516 E0.3669
G1 X97.477 Y91.379 E0.4049
G1 X98.589 Y91.129 E0.5011
G1 X99.034 Y91.069 E0.5390
G1 X100.116 Y91.021 E0.6304
G1 X100.453 Y91.029 E0.6589
G1 X101.104 Y91.087 E0.7141
G1 X101.382 Y91.127 E0.7378
G1 X102.167 Y91.285 E0.8053
G1 X102.439 Y91.356 E0.8291
G1 X103.061 Y91.555 E0.8842
G1 X103.375 Y91.679 E0.9127
G1 X104.353 Y92.143 E1.0041
G1 X104.741 Y92.370 E1.0421
G1 X105.669 Y93.032 E1.1382
G1 X106.010 Y93.324 E1.1762
G1 X106.786 Y94.118 E1.2699
G1 X107.039 Y94.419 E1.3031
G1 X107.537 Y95.117 E1.3754
G1 X107.687 Y95.355 E1.3992
G1 X108.005 Y95.925 E1.4543
G1 X108.149 Y96.230 E1.4827
G1 X108.536 Y97.210 E1.5717
G1 X108.652 Y97.586 E1.6049
G1 X108.840 Y98.422 E1.6773
G1 X108.887 Y98.699 E1.7010
G1 X108.959 Y99.348 E1.7561
G1 X108.974 Y99.685 E1.7846
G1 X108.950 Y100.768 E1.8760
G1 X108.900 Y101.215 E1.9140
G1 X108.675 Y102.332 E2.0101
G1 X108.547 Y102.763 E2.0481
G1 X108.150 Y103.770 E2.1395
G1 X108.005 Y104.075 E2.1680
G1 X107.687 Y104.645 E2.2231
G1 X107.537 Y104.883 E2.2469
G1 X107.039 Y105.581 E2.3192
G1 X106.786 Y105.882 E2.3524
G1 X106.010 Y106.676 E2.4461
G1 X105.669 Y106.968 E2.4841
G1 X104.765 Y107.612 E2.5777
G1 X104.428 Y107.816 E2.6110
G1 X103.662 Y108.200 E2.6833
G1 X103.404 Y108.311 E2.7070
G1 X102.819 Y108.528 E2.7597
G1 X102.550 Y108.610 E2.7834
G1 X101.773 Y108.803 E2.8510
G1 X101.497 Y108.856 E2.8747
G1 X100.879 Y108.938 E2.9274
G1 X100.599 Y108.960 E2.9511
G1 X99.798 Y108.978 E3.0187
G1 X99.517 Y108.969 E3.0424
G1 X98.896 Y108.913 E3.0951
G1 X98.618 Y108.873 E3.1188
G1 X97.778 Y108.704 E3.1911
G1 X97.399 Y108.596 E3.2244
G1 X96.411 Y108.231 E3.3133
G1 X96.103 Y108.093 E3.3418
G1 X95.526 Y107.788 E3.3969
G1 X95.285 Y107.643 E3.4206
G1 X94.577 Y107.161 E3.4929
G1 X94.269 Y106.915 E3.5262
G1 X93.459 Y106.157 E3.6199
G1 X93.159 Y105.822 E3.6578
G1 X92.495 Y104.933 E3.7515
G1 X92.284 Y104.600 E3.7847
G1 X91.883 Y103.842 E3.8571
G1 X91.766 Y103.587 E3.8808
G1 X91.526 Y102.980 E3.9359
G1 X91.423 Y102.658 E3.9644
G1 X91.176 Y101.662 E4.0511
G1 X91.116 Y101.330 E4.0795
G1 X91.044 Y100.681 E4.1347
G1 X91.029 Y100.400 E4.1584
G1 X91.029 Y99.544 E4.2307
G1 X91.059 Y99.151 E4.2639
G1 X91.226 Y98.083 E4.3552
G1 X91.317 Y97.700 E4.3884
G1 X91.578 Y96.884 E4.4607
G1 X91.678 Y96.622 E4.4844
G1 X91.945 Y96.026 E4.5396
G1 X92.102 Y95.728 E4.5680
G1 X92.641 Y94.854 E4.6547
G1 X92.837 Y94.579 E4.6832
G1 X93.251 Y94.074 E4.7383
G1 X93.441 Y93.866 E4.7620
G1 X93.959 Y94.367 F18000
G92 E0.0000
G1 X94.502 Y93.835 E0.0642 F399
G1 X94.684 Y93.677 E0.0846
G1 X95.144 Y93.317 E0.1339
G1 X95.342 Y93.179 E0.1542
G1 X96.030 Y92.754 E0.2225
G1 X96.331 Y92.599 E0.2510
G1 X97.299 Y92.192 E0.3397
G1 X97.666 Y92.074 E0.3723
G1 X98.715 Y91.838 E0.4631
G1 X99.098 Y91.787 E0.4957
G1 X100.124 Y91.742 E0.5824
G1 X100.414 Y91.748 E0.6068
G1 X101.021 Y91.802 E0.6582
G1 X101.259 Y91.837 E0.6786
G1 X102.005 Y91.987 E0.7428
G1 X102.238 Y92.048 E0.7632
G1 X102.819 Y92.233 E0.8146
G1 X103.088 Y92.340 E0.8390
G1 X104.016 Y92.780 E0.9257
G1 X104.349 Y92.975 E0.9583
G1 X105.225 Y93.599 E1.0491
G1 X105.518 Y93.850 E1.0817
G1 X106.252 Y94.601 E1.1703
G1 X106.469 Y94.860 E1.1988
G1 X106.939 Y95.519 E1.2671
G1 X107.068 Y95.723 E1.2875
G1 X107.365 Y96.255 E1.3389
G1 X107.489 Y96.516 E1.3634
G1 X107.857 Y97.448 E1.4479
G1 X107.956 Y97.771 E1.4765
G1 X108.134 Y98.560 E1.5448
G1 X108.173 Y98.798 E1.5651
G1 X108.241 Y99.404 E1.6165
G1 X108.253 Y99.693 E1.6410
G1 X108.231 Y100.720 E1.7277
G1 X108.188 Y101.104 E1.7603
G1 X107.975 Y102.158 E1.8511
G1 X107.866 Y102.528 E1.8837
G1 X107.489 Y103.483 E1.9704
G1 X107.365 Y103.745 E1.9948
G1 X107.068 Y104.277 E2.0462
G1 X106.939 Y104.481 E2.0666
G1 X106.469 Y105.140 E2.1349
G1 X106.252 Y105.399 E2.1634
G1 X105.518 Y106.150 E2.2521
G1 X105.225 Y106.400 E2.2846
G1 X104.370 Y107.010 E2.3733
G1 X104.080 Y107.184 E2.4018
G1 X103.357 Y107.547 E2.4701
G1 X103.136 Y107.643 E2.4905
G1 X102.588 Y107.845 E2.5398
G1 X102.357 Y107.916 E2.5601
G1 X101.619 Y108.100 E2.6243
G1 X101.382 Y108.145 E2.6447
G1 X100.803 Y108.222 E2.6940
G1 X100.563 Y108.241 E2.7143
G1 X99.802 Y108.258 E2.7786
G1 X99.561 Y108.250 E2.7989
G1 X98.979 Y108.198 E2.8482
G1 X98.741 Y108.163 E2.8686
G1 X97.948 Y108.003 E2.9369
G1 X97.623 Y107.911 E2.9654
G1 X96.683 Y107.564 E3.0500
G1 X96.419 Y107.446 E3.0744
G1 X95.880 Y107.161 E3.1258
G1 X95.674 Y107.036 E3.1462
G1 X95.005 Y106.581 E3.2145
G1 X94.741 Y106.370 E3.2430
G1 X93.974 Y105.653 E3.3317
G1 X93.717 Y105.365 E3.3642
G1 X93.088 Y104.524 E3.4529
G1 X92.908 Y104.238 E3.4814
G1 X92.529 Y103.523 E3.5497
G1 X92.428 Y103.304 E3.5701
G1 X92.204 Y102.737 E3.6215
G1 X92.116 Y102.462 E3.6459
G1 X91.880 Y101.512 E3.7285
G1 X91.829 Y101.227 E3.7530
G1 X91.762 Y100.621 E3.8044
G1 X91.749 Y100.380 E3.8248
G1 X91.749 Y99.571 E3.8931
G1 X91.775 Y99.235 E3.9216
G1 X91.933 Y98.222 E4.0081
G1 X92.011 Y97.893 E4.0366
G1 X92.257 Y97.123 E4.1049
G1 X92.344 Y96.897 E4.1253
G1 X92.592 Y96.341 E4.1767
G1 X92.727 Y96.085 E4.2011
G1 X93.242 Y95.253 E4.2837
G1 X93.410 Y95.017 E4.3082
G1 X93.796 Y94.545 E4.3596
G1 X93.959 Y94.367 E4.3800
G92 E0.0000
G1 E-3.0000 F3600
; feature outer perimeter
G1 X97.359 Y97.643 F18000
G1 E0.0000 F3600
G92 E0.0000
G1 X97.702 Y97.308 E0.0405 F200
G1 X97.941 Y97.121 E0.0661
G1 X98.349 Y96.869 E0.1065
G1 X98.627 Y96.737 E0.1326
G1 X98.921 Y96.629 E0.1590
G1 X99.223 Y96.547 E0.1854
G1 X99.532 Y96.492 E0.2119
G1 X99.843 Y96.464 E0.2383
G1 X100.157 Y96.464 E0.2647
G1 X100.463 Y96.491 E0.2907
G1 X100.934 Y96.586 E0.3312
G1 X101.227 Y96.680 E0.3572
G1 X101.516 Y96.801 E0.3836
G1 X101.792 Y96.948 E0.4101
G1 X102.055 Y97.118 E0.4365
G1 X102.302 Y97.311 E0.4629
G1 X102.530 Y97.525 E0.4894
G1 X102.736 Y97.754 E0.5154
G1 X103.014 Y98.145 E0.5559
G1 X103.164 Y98.414 E0.5819
G1 X103.292 Y98.700 E0.6083
G1 X103.392 Y98.991 E0.6343
G1 X103.498 Y99.459 E0.6748
G1 X103.532 Y99.765 E0.7008
G1 X103.539 Y100.078 E0.7272
G1 X103.518 Y100.391 E0.7537
G1 X103.470 Y100.700 E0.7801
G1 X103.394 Y101.004 E0.8065
G1 X103.292 Y101.300 E0.8330
G1 X103.164 Y101.586 E0.8594
G1 X103.014 Y101.855 E0.8854
G1 X102.736 Y102.246 E0.9259
G1 X102.530 Y102.475 E0.9519
G1 X102.302 Y102.689 E0.9783
G1 X102.055 Y102.882 E1.0047
G1 X101.797 Y103.049 E1.0308
G1 X101.368 Y103.264 E1.0712
G1 X101.084 Y103.369 E1.0968
G1 X100.618 Y103.485 E1.1373
G1 X100.318 Y103.525 E1.1629
G1 X99.838 Y103.536 E1.2034
G1 X99.537 Y103.509 E1.2289
G1 X99.066 Y103.414 E1.2694
G1 X98.773 Y103.320 E1.2954
G1 X98.484 Y103.199 E1.3219
G1 X98.212 Y103.055 E1.3479
G1 X97.816 Y102.785 E1.3883
G1 X97.582 Y102.585 E1.4143
G1 X97.363 Y102.361 E1.4408
G1 X97.164 Y102.118 E1.4672
G1 X96.991 Y101.864 E1.4932
G1 X96.767 Y101.440 E1.5337
G1 X96.654 Y101.153 E1.5597
G1 X96.565 Y100.853 E1.5861
G1 X96.503 Y100.546 E1.6126
G1 X96.469 Y100.240 E1.6386
G1 X96.469 Y99.760 E1.6791
G1 X96.503 Y99.454 E1.7051
G1 X96.564 Y99.152 E1.7311
G1 X96.710 Y98.695 E1.7716
G1 X96.836 Y98.414 E1.7976
G1 X96.988 Y98.141 E1.8240
G1 X97.164 Y97.882 E1.8504
G1 X97.233 Y97.798 E1.8595
G1 X97.359 Y97.643 F200
G1 X97.702 Y97.308 F200
G1 X97.941 Y97.121
G1 X98.349 Y96.869
G1 X98.627 Y96.737
G1 X98.921 Y96.629
G1 X99.223 Y96.547
G1 X99.532 Y96.492
G1 X99.843 Y96.464
G1 X100.157 Y96.464
G1 X100.463 Y96.491
G1 X100.934 Y96.586
G1 X101.227 Y96.680
G1 X101.516 Y96.801
G1 X101.792 Y96.948
G1 X101.912 Y97.025
G1 X100.790 Y98.425 F18000
G92 E0.0000
G1 X100.523 Y98.317 E0.0243 F200
G1 X100.144 Y98.244 E0.0569
G1 X99.856 Y98.244 E0.0812
G1 X99.477 Y98.317 E0.1138
G1 X99.210 Y98.425 E0.1381
G1 X98.886 Y98.635 E0.1707
G1 X98.679 Y98.834 E0.1949
