; G-Code generated by Simplify3D(R) Version 4.1.2
; Jun 6, 2020 at 6:16:51 PM
; Settings Summary
;   processName,Process1
;   applyToModels,planet
;   profileName,HBot (modified)
;   profileVersion,2019-10-26 23:38:43
;   baseProfile,Default
;   printMaterial,PETG - SUNLU
;   printQuality,Medium
;   printExtruders,
;   extruderName,Extruder 1
;   extruderToolheadNumber,0
;   extruderDiameter,0.4
;   extruderAutoWidth,1
;   extruderWidth,0.48
;   extrusionMultiplier,0.98
;   extruderUseRetract,1
;   extruderRetractionDistance,4
;   extruderExtraRestartDistance,0
;   extruderRetractionZLift,0
;   extruderRetractionSpeed,3600
;   extruderUseCoasting,1
;   extruderCoastingDistance,0.2
;   extruderUseWipe,1
;   extruderWipeDistance,5
;   primaryExtruder,0
;   layerHeight,0.2
;   topSolidLayers,4
;   bottomSolidLayers,4
;   perimeterOutlines,4
;   printPerimetersInsideOut,1
;   startPointOption,3
;   startPointOriginX,200
;   startPointOriginY,100
;   sequentialIslands,0
;   spiralVaseMode,0
;   firstLayerHeightPercentage,100
;   firstLayerWidthPercentage,100
;   firstLayerUnderspeed,0.5
;   useRaft,0
;   raftExtruder,0
;   raftTopLayers,3
;   raftBaseLayers,2
;   raftOffset,3
;   raftSeparationDistance,0.18
;   raftTopInfill,100
;   aboveRaftSpeedMultiplier,0.3
;   useSkirt,1
;   skirtExtruder,0
;   skirtLayers,1
;   skirtOutlines,5
;   skirtOffset,10
;   usePrimePillar,0
;   primePillarExtruder,999
;   primePillarWidth,12
;   primePillarLocation,7
;   primePillarSpeedMultiplier,1
;   useOozeShield,0
;   oozeShieldExtruder,999
;   oozeShieldOffset,0.9
;   oozeShieldOutlines,2
;   oozeShieldSidewallShape,0
;   oozeShieldSidewallAngle,30
;   oozeShieldSpeedMultiplier,1.5
;   infillExtruder,0
;   internalInfillPattern,Rectilinear
;   externalInfillPattern,Rectilinear
;   infillPercentage,20
;   outlineOverlapPercentage,25
;   infillExtrusionWidthPercentage,100
;   minInfillLength,5
;   infillLayerInterval,1
;   internalInfillAngles,45,-45
;   overlapInternalInfillAngles,0
;   externalInfillAngles,45,-45
;   generateSupport,0
;   supportExtruder,0
;   supportInfillPercentage,30
;   supportExtraInflation,0
;   supportBaseLayers,1
;   denseSupportExtruder,0
;   denseSupportLayers,0
;   denseSupportInfillPercentage,70
;   supportLayerInterval,1
;   supportHorizontalPartOffset,0.3
;   supportUpperSeparationLayers,1
;   supportLowerSeparationLayers,1
;   supportType,0
;   supportGridSpacing,4
;   maxOverhangAngle,25
;   supportAngles,0
;   temperatureName,Extruder 1,Heated Bed
;   temperatureNumber,0,1
;   temperatureSetpointCount,2,1
;   temperatureSetpointLayers,1,2,1
;   temperatureSetpointTemperatures,235,225,75
;   temperatureStabilizeAtStartup,1,1
;   temperatureHeatedBed,0,1
;   fanLayers,1,5,10
;   fanSpeeds,0,5,20
;   blipFanToFullPower,1
;   adjustSpeedForCooling,1
;   minSpeedLayerTime,15
;   minCoolingSpeedSlowdown,20
;   increaseFanForCooling,0
;   minFanLayerTime,45
;   maxCoolingFanSpeed,35
;   increaseFanForBridging,1
;   bridgingFanSpeed,85
;   use5D,1
;   relativeEdistances,0
;   allowEaxisZeroing,1
;   independentExtruderAxes,0
;   includeM10123,0
;   stickySupport,1
;   applyToolheadOffsets,0
;   gcodeXoffset,0
;   gcodeYoffset,0
;   gcodeZoffset,0
;   overrideMachineDefinition,1
;   machineTypeOverride,0
;   strokeXoverride,200
;   strokeYoverride,200
;   strokeZoverride,150
;   originOffsetXoverride,0
;   originOffsetYoverride,0
;   originOffsetZoverride,0
;   homeXdirOverride,-1
;   homeYdirOverride,-1
;   homeZdirOverride,-1
;   flipXoverride,1
;   flipYoverride,-1
;   flipZoverride,1
;   toolheadOffsets,0,0|0,0|0,0|0,0|0,0|0,0
;   overrideFirmwareConfiguration,1
;   firmwareTypeOverride,RepRap (Marlin/Repetier/Sprinter)
;   GPXconfigOverride,r2
;   baudRateOverride,115200
;   overridePrinterModels,0
;   printerModelsOverride
;   startingGcode,G28 ; home all axes,G32 ; run bed.g -- probe bed and enable compensation
;   layerChangeGcode,
;   retractionGcode,
;   toolChangeGcode,
;   endingGcode,M0 ; call stop.g
;   exportFileFormat,gcode
;   celebration,0
;   celebrationSong,Random Song
;   postProcessing,
;   defaultSpeed,3600
;   outlineUnderspeed,0.5
;   solidInfillUnderspeed,0.8
;   supportUnderspeed,0.8
;   rapidXYspeed,18000
;   rapidZspeed,1200
;   minBridgingArea,50
;   bridgingExtraInflation,0
;   bridgingExtrusionMultiplier,0.96
;   bridgingSpeedMultiplier,1
;   useFixedBridgingAngle,0
;   fixedBridgingAngle,0
;   applyBridgingToPerimeters,0
;   filamentDiameters,1.75|1.75|1.75|1.75|1.75|1.75
;   filamentPricesPerKg,46|46|46|46|46|46
;   filamentDensities,1.25|1.25|1.25|1.25|1.25|1.25
;   useMinPrintHeight,0
;   minPrintHeight,20
;   useMaxPrintHeight,0
;   maxPrintHeight,15
;   useDiaphragm,0
;   diaphragmLayerInterval,20
;   robustSlicing,1
;   mergeAllIntoSolid,0
;   onlyRetractWhenCrossingOutline,1
;   retractBetweenLayers,0
;   useRetractionMinTravel,1
;   retractionMinTravel,3
;   retractWhileWiping,1
;   onlyWipeOutlines,1
;   avoidCrossingOutline,1
;   maxMovementDetourFactor,5
;   toolChangeRetractionDistance,12
;   toolChangeExtraRestartDistance,-0.5
;   toolChangeRetractionSpeed,600
;   externalThinWallType,0
;   internalThinWallType,2
;   thinWallAllowedOverlapPercentage,10
;   singleExtrusionMinLength,1
;   singleExtrusionMinPrintingWidthPercentage,50
;   singleExtrusionMaxPrintingWidthPercentage,150
;   singleExtrusionEndpointExtension,0.2
;   horizontalSizeCompensation,-0.1
G90
M82
M106 S0
M140 S75
M190 S75
M104 S235 T0
M109 S235 T0
G28 ; home all axes
G32 ; run bed.g -- probe bed and enable compensation
; process Process1
; layer 1, Z = 0.200
T0
G92 E0.0000
G1 E-4.0000 F3600
; feature skirt
; tool H0.200 W0.480
G1 Z0.200 F1200
G1 X131.682 Y96.495 F18000
G1 E0.0000 F3600
G92 E0.0000
G1 X131.608 Y98.160 E0.0652 F1800
G1 X131.289 Y99.907 E0.1346
G1 X131.254 Y100.023 E0.1394
G1 X131.463 Y100.905 E0.1748
G1 X131.625 Y102.156 E0.2242
G1 X131.670 Y103.922 E0.2932
G1 X131.472 Y105.623 E0.3603
G1 X130.970 Y107.542 E0.4378
G1 X130.332 Y109.081 E0.5030
G1 X129.434 Y110.614 E0.5725
G1 X129.376 Y110.693 E0.5763
G1 X129.206 Y111.888 E0.6235
G1 X128.855 Y113.287 E0.6799
G1 X128.413 Y114.492 E0.7302
G1 X127.719 Y115.904 E0.7917
G1 X127.020 Y117.008 E0.8428
G1 X126.122 Y118.137 E0.8992
G1 X125.240 Y119.037 E0.9485
G1 X124.028 Y120.041 E1.0101
G1 X123.947 Y120.095 E1.0139
G1 X123.379 Y121.160 E1.0611
G1 X122.571 Y122.355 E1.1175
G1 X121.743 Y123.336 E1.1678
G1 X120.468 Y124.559 E1.2368
G1 X119.096 Y125.550 E1.3030
G1 X117.343 Y126.478 E1.3806
G1 X115.758 Y127.054 E1.4466
G1 X115.607 Y127.086 E1.4526
G1 X115.352 Y127.356 E1.4672
G1 X114.096 Y128.374 E1.5304
G1 X112.438 Y129.388 E1.6064
G1 X110.866 Y130.067 E1.6734
G1 X108.954 Y130.591 E1.7509
G1 X107.301 Y130.809 E1.8161
G1 X105.525 Y130.798 E1.8856
G1 X105.404 Y130.784 E1.8904
G1 X104.392 Y131.220 E1.9335
G1 X102.799 Y131.663 E1.9982
G1 X100.719 Y131.946 E2.0803
G1 X98.991 Y131.935 E2.1478
G1 X97.353 Y131.691 E2.2126
G1 X96.133 Y131.377 E2.2619
G1 X94.658 Y130.830 E2.3234
G1 X94.571 Y130.786 E2.3272
G1 X93.364 Y130.827 E2.3745
G1 X91.926 Y130.724 E2.4309
G1 X90.662 Y130.498 E2.4811
G1 X89.151 Y130.059 E2.5426
G1 X87.942 Y129.563 E2.5938
G1 X86.487 Y128.773 E2.6585
G1 X85.135 Y127.777 E2.7242
G1 X84.436 Y127.094 E2.7624
G1 X83.221 Y126.699 E2.8124
G1 X81.905 Y126.110 E2.8688
G1 X80.794 Y125.465 E2.9190
G1 X79.524 Y124.536 E2.9806
G1 X78.558 Y123.656 E3.0317
G1 X77.461 Y122.416 E3.0964
G1 X76.531 Y121.017 E3.1621
G1 X76.095 Y120.111 E3.2015
G1 X75.316 Y119.531 E3.2395
G1 X74.387 Y118.676 E3.2888
G1 X73.219 Y117.353 E3.3579
G1 X72.276 Y115.922 E3.4249
G1 X71.428 Y114.130 E3.5025
G1 X70.927 Y112.540 E3.5676
G1 X70.630 Y110.789 E3.6371
G1 X70.624 Y110.691 E3.6409
G1 X69.985 Y109.667 E3.6881
G1 X69.355 Y108.370 E3.7446
G1 X68.919 Y107.162 E3.7948
G1 X68.543 Y105.634 E3.8564
G1 X68.369 Y104.338 E3.9075
G1 X68.331 Y102.896 E3.9639
G1 X68.428 Y101.640 E4.0132
G1 X68.711 Y100.093 E4.0747
G1 X68.739 Y99.999 E4.0785
G1 X68.489 Y98.818 E4.1258
G1 X68.341 Y97.383 E4.1822
G1 X68.344 Y96.099 E4.2324
G1 X68.534 Y94.344 E4.3015
G1 X68.948 Y92.702 E4.3677
G1 X69.695 Y90.864 E4.4453
G1 X70.539 Y89.404 E4.5112
G1 X70.626 Y89.293 E4.5168
G1 X70.850 Y87.716 E4.5791
G1 X71.475 Y85.773 E4.6589
G1 X72.057 Y84.495 E4.7138
G1 X72.921 Y83.060 E4.7794
G1 X73.936 Y81.793 E4.8429
G1 X75.591 Y80.215 E4.9323
G1 X76.071 Y79.895 E4.9548
G1 X76.480 Y79.082 E4.9904
G1 X77.160 Y78.019 E5.0398
G1 X78.261 Y76.639 E5.1089
G1 X79.505 Y75.462 E5.1759
G1 X81.124 Y74.316 E5.2534
G1 X82.602 Y73.547 E5.3186
G1 X84.275 Y72.949 E5.3881
G1 X84.370 Y72.927 E5.3919
G1 X85.268 Y72.120 E5.4391
G1 X86.436 Y71.274 E5.4956
G1 X87.550 Y70.634 E5.5458
G1 X88.989 Y69.999 E5.6073
G1 X90.235 Y69.603 E5.6584
G1 X91.857 Y69.273 E5.7232
G1 X93.532 Y69.167 E5.7889
G1 X94.507 Y69.240 E5.8271
G1 X95.693 Y68.762 E5.8771
G1 X97.080 Y68.367 E5.9335
G1 X98.345 Y68.147 E5.9837
G1 X99.914 Y68.043 E6.0452
G1 X101.220 Y68.096 E6.0963
G1 X102.857 Y68.340 E6.1611
G1 X104.468 Y68.814 E6.2268
G1 X105.385 Y69.228 E6.2661
G1 X106.355 Y69.172 E6.3041
G1 X107.616 Y69.230 E6.3535
G1 X109.362 Y69.493 E6.4226
G1 X111.003 Y69.982 E6.4895
G1 X112.805 Y70.810 E6.5671
G1 X114.210 Y71.706 E6.6323
G1 X115.564 Y72.856 E6.7018
G1 X115.631 Y72.927 E6.7056
G1 X116.779 Y73.301 E6.7528
G1 X118.095 Y73.890 E6.8092
G1 X119.206 Y74.535 E6.8595
G1 X120.632 Y75.578 E6.9285
G1 X121.846 Y76.757 E6.9948
G1 X123.065 Y78.323 E7.0724
G1 X123.907 Y79.784 E7.1383
G1 X123.968 Y79.936 E7.1447
G1 X124.684 Y80.469 E7.1797
G1 X125.613 Y81.324 E7.2290
G1 X126.781 Y82.647 E7.2981
G1 X127.724 Y84.078 E7.3651
G1 X128.572 Y85.870 E7.4427
G1 X129.073 Y87.460 E7.5078
G1 X129.370 Y89.211 E7.5773
G1 X129.378 Y89.332 E7.5821
G1 X129.875 Y90.090 E7.6175
G1 X130.456 Y91.210 E7.6669
G1 X131.101 Y92.854 E7.7359
G1 X131.498 Y94.520 E7.8029
G1 X131.682 Y96.495 E7.8805
G1 X131.201 Y96.507 F18000
G92 E0.0000
G1 X131.130 Y98.106 E0.0626 F1800
G1 X130.822 Y99.795 E0.1298
G1 X130.758 Y100.009 E0.1385
G1 X130.990 Y100.991 E0.1780
G1 X131.146 Y102.193 E0.2254
G1 X131.189 Y103.900 E0.2922
G1 X130.999 Y105.535 E0.3565
G1 X130.514 Y107.389 E0.4315
G1 X129.901 Y108.867 E0.4941
G1 X129.033 Y110.349 E0.5612
G1 X128.910 Y110.515 E0.5693
G1 X128.907 Y110.576 E0.5717
G1 X128.735 Y111.795 E0.6199
G1 X128.396 Y113.145 E0.6743
G1 X127.971 Y114.303 E0.7226
G1 X127.299 Y115.669 E0.7821
G1 X126.628 Y116.729 E0.8312
G1 X125.762 Y117.819 E0.8856
G1 X124.915 Y118.684 E0.9330
G1 X123.742 Y119.655 E0.9925
G1 X123.570 Y119.769 E1.0006
G1 X123.547 Y119.825 E1.0030
G1 X122.968 Y120.912 E1.0512
G1 X122.187 Y122.064 E1.1056
G1 X121.392 Y123.008 E1.1539
G1 X120.160 Y124.190 E1.2207
G1 X118.842 Y125.142 E1.2843
G1 X117.148 Y126.039 E1.3592
G1 X115.625 Y126.591 E1.4226
G1 X115.360 Y126.648 E1.4332
G1 X115.025 Y127.003 E1.4523
G1 X113.819 Y127.981 E1.5130
G1 X112.217 Y128.960 E1.5865
G1 X110.707 Y129.613 E1.6508
G1 X108.858 Y130.120 E1.7258
G1 X107.271 Y130.328 E1.7884
G1 X105.554 Y130.318 E1.8556
G1 X105.332 Y130.292 E1.8643
G1 X104.232 Y130.766 E1.9112
G1 X102.702 Y131.192 E1.9733
G1 X100.687 Y131.466 E2.0528
G1 X99.028 Y131.456 E2.1177
G1 X97.449 Y131.220 E2.1802
G1 X96.277 Y130.918 E2.2275
G1 X94.850 Y130.389 E2.2870
G1 X94.665 Y130.296 E2.2951
G1 X94.604 Y130.305 E2.2975
G1 X93.373 Y130.346 E2.3457
G1 X91.985 Y130.247 E2.4001
G1 X90.771 Y130.030 E2.4484
G1 X89.309 Y129.606 E2.5079
G1 X88.148 Y129.129 E2.5570
G1 X86.745 Y128.367 E2.6194
G1 X85.447 Y127.410 E2.6825
G1 X84.672 Y126.655 E2.7249
G1 X84.565 Y126.632 E2.7291
G1 X83.394 Y126.250 E2.7773
G1 X82.124 Y125.682 E2.8318
G1 X81.057 Y125.062 E2.8800
G1 X79.828 Y124.164 E2.9395
G1 X78.900 Y123.318 E2.9886
G1 X77.842 Y122.123 E3.0511
G1 X76.949 Y120.779 E3.1142
G1 X76.476 Y119.797 E3.1568
G1 X75.623 Y119.161 E3.1985
G1 X74.731 Y118.340 E3.2459
G1 X73.601 Y117.060 E3.3127
G1 X72.696 Y115.686 E3.3770
G1 X71.876 Y113.954 E3.4520
G1 X71.395 Y112.428 E3.5146
G1 X71.107 Y110.735 E3.5817
G1 X71.095 Y110.528 E3.5898
G1 X71.058 Y110.480 E3.5922
G1 X70.406 Y109.435 E3.6404
G1 X69.798 Y108.183 E3.6948
G1 X69.379 Y107.023 E3.7431
G1 X69.015 Y105.544 E3.8026
G1 X68.848 Y104.300 E3.8517
G1 X68.811 Y102.908 E3.9062
G1 X68.905 Y101.702 E3.9535
G1 X69.178 Y100.205 E4.0130
G1 X69.237 Y100.007 E4.0211
G1 X69.219 Y99.949 E4.0235
G1 X68.964 Y98.743 E4.0717
G1 X68.821 Y97.359 E4.1261
G1 X68.824 Y96.126 E4.1744
G1 X69.008 Y94.428 E4.2412
G1 X69.405 Y92.852 E4.3048
G1 X70.127 Y91.075 E4.3798
G1 X70.938 Y89.674 E4.4431
G1 X71.084 Y89.487 E4.4524
G1 X71.319 Y87.824 E4.5181
G1 X71.924 Y85.947 E4.5952
G1 X72.482 Y84.719 E4.6479
G1 X73.316 Y83.335 E4.7111
G1 X74.291 Y82.118 E4.7721
G1 X75.892 Y80.591 E4.8587
G1 X76.443 Y80.225 E4.8845
G1 X76.897 Y79.320 E4.9242
G1 X77.551 Y78.299 E4.9716
G1 X78.615 Y76.964 E5.0383
G1 X79.811 Y75.834 E5.1027
G1 X81.374 Y74.726 E5.1776
G1 X82.794 Y73.988 E5.2402
G1 X84.411 Y73.410 E5.3074
G1 X84.613 Y73.362 E5.3155
G1 X84.653 Y73.317 E5.3179
G1 X85.570 Y72.494 E5.3661
G1 X86.697 Y71.677 E5.4205
G1 X87.767 Y71.063 E5.4688
G1 X89.160 Y70.449 E5.5283
G1 X90.356 Y70.068 E5.5774
G1 X91.920 Y69.750 E5.6398
G1 X93.529 Y69.648 E5.7029
G1 X94.608 Y69.729 E5.7452
G1 X94.705 Y69.677 E5.7495
G1 X95.849 Y69.217 E5.7977
G1 X97.187 Y68.836 E5.8522
G1 X98.402 Y68.625 E5.9004
G1 X99.920 Y68.523 E5.9599
G1 X101.174 Y68.575 E6.0090
G1 X102.753 Y68.810 E6.0715
G1 X104.301 Y69.266 E6.1346
G1 X105.295 Y69.714 E6.1772
G1 X106.358 Y69.653 E6.2189
G1 X107.569 Y69.708 E6.2663
G1 X109.257 Y69.962 E6.3330
G1 X110.833 Y70.433 E6.3974
G1 X112.575 Y71.233 E6.4723
G1 X113.924 Y72.093 E6.5350
G1 X115.233 Y73.205 E6.6021
G1 X115.375 Y73.356 E6.6102
G1 X115.435 Y73.368 E6.6126
G1 X116.606 Y73.750 E6.6608
G1 X117.876 Y74.318 E6.7152
G1 X118.943 Y74.938 E6.7635
G1 X120.321 Y75.946 E6.8302
G1 X121.488 Y77.078 E6.8938
G1 X122.665 Y78.591 E6.9688
G1 X123.474 Y79.995 E7.0322
G1 X123.573 Y80.240 E7.0426
G1 X124.377 Y80.839 E7.0818
G1 X125.269 Y81.660 E7.1292
G1 X126.399 Y82.940 E7.1960
G1 X127.304 Y84.314 E7.2603
G1 X128.124 Y86.046 E7.3353
G1 X128.605 Y87.572 E7.3979
G1 X128.893 Y89.265 E7.4650
G1 X128.906 Y89.489 E7.4738
G1 X129.461 Y90.332 E7.5133
G1 X130.018 Y91.409 E7.5607
G1 X130.642 Y92.998 E7.6275
G1 X131.023 Y94.599 E7.6918
G1 X131.201 Y96.507 E7.7668
G1 X130.720 Y96.519 F18000
G92 E0.0000
G1 X130.652 Y98.052 E0.0600 F1800
G1 X130.354 Y99.683 E0.1249
G1 X130.261 Y99.995 E0.1376
G1 X130.518 Y101.077 E0.1811
G1 X130.667 Y102.230 E0.2266
G1 X130.708 Y103.878 E0.2911
G1 X130.526 Y105.446 E0.3528
G1 X130.058 Y107.235 E0.4251
G1 X129.470 Y108.653 E0.4852
G1 X128.632 Y110.084 E0.5500
G1 X128.435 Y110.349 E0.5629
G1 X128.429 Y110.534 E0.5702
G1 X128.263 Y111.703 E0.6164
G1 X127.936 Y113.004 E0.6688
G1 X127.529 Y114.114 E0.7151
G1 X126.880 Y115.434 E0.7726
G1 X126.236 Y116.451 E0.8197
G1 X125.402 Y117.501 E0.8721
G1 X124.589 Y118.330 E0.9176
G1 X123.456 Y119.268 E0.9751
G1 X123.181 Y119.450 E0.9880
G1 X123.111 Y119.622 E0.9952
G1 X122.556 Y120.664 E1.0414
G1 X121.804 Y121.774 E1.0939
G1 X121.041 Y122.679 E1.1402
G1 X119.852 Y123.820 E1.2047
G1 X118.588 Y124.733 E1.2656
G1 X116.953 Y125.599 E1.3380
G1 X115.493 Y126.129 E1.3988
G1 X115.114 Y126.209 E1.4139
G1 X114.697 Y126.650 E1.4376
G1 X113.541 Y127.588 E1.4959
G1 X111.995 Y128.533 E1.5667
G1 X110.548 Y129.159 E1.6284
G1 X108.763 Y129.648 E1.7008
G1 X107.242 Y129.848 E1.7608
G1 X105.584 Y129.838 E1.8257
G1 X105.260 Y129.800 E1.8384
G1 X104.072 Y130.313 E1.8890
G1 X102.605 Y130.721 E1.9486
G1 X100.656 Y130.986 E2.0255
G1 X99.066 Y130.976 E2.0877
G1 X97.544 Y130.749 E2.1479
G1 X96.420 Y130.460 E2.1933
G1 X95.041 Y129.948 E2.2508
G1 X94.746 Y129.800 E2.2637
G1 X94.563 Y129.826 E2.2710
G1 X93.382 Y129.866 E2.3172
G1 X92.045 Y129.770 E2.3696
G1 X90.881 Y129.562 E2.4159
G1 X89.468 Y129.152 E2.4734
G1 X88.355 Y128.694 E2.5205
G1 X87.003 Y127.961 E2.5806
G1 X85.758 Y127.043 E2.6411
G1 X84.908 Y126.214 E2.6876
G1 X84.690 Y126.168 E2.6963
G1 X83.567 Y125.801 E2.7425
G1 X82.343 Y125.254 E2.7949
G1 X81.320 Y124.660 E2.8412
G1 X80.133 Y123.792 E2.8988
G1 X79.243 Y122.981 E2.9458
G1 X78.224 Y121.829 E3.0060
G1 X77.368 Y120.541 E3.0665
