; G-Code generated by Simplify3D(R) Version 4.1.2
; Jun 6, 2020 at 6:16:36 PM
; Settings Summary
;   processName,Process1
;   applyToModels,sun
;   profileName,HBot (modified)
;   profileVersion,2019-10-26 23:38:43
;   baseProfile,Default
;   printMaterial,PETG - SUNLU
;   printQuality,Medium
;   printExtruders,
;   extruderName,Extruder 1
;   extruderToolheadNumber,0
;   extruderDiameter,0.4
;   extruderAutoWidth,1
;   extruderWidth,0.48
;   extrusionMultiplier,0.98
;   extruderUseRetract,1
;   extruderRetractionDistance,4
;   extruderExtraRestartDistance,0
;   extruderRetractionZLift,0
;   extruderRetractionSpeed,3600
;   extruderUseCoasting,1
;   extruderCoastingDistance,0.2
;   extruderUseWipe,1
;   extruderWipeDistance,5
;   primaryExtruder,0
;   layerHeight,0.2
;   topSolidLayers,4
;   bottomSolidLayers,4
;   perimeterOutlines,4
;   printPerimetersInsideOut,1
;   startPointOption,3
;   startPointOriginX,200
;   startPointOriginY,100
;   sequentialIslands,0
;   spiralVaseMode,0
;   firstLayerHeightPercentage,100
;   firstLayerWidthPercentage,100
;   firstLayerUnderspeed,0.5
;   useRaft,0
;   raftExtruder,0
;   raftTopLayers,3
;   raftBaseLayers,2
;   raftOffset,3
;   raftSeparationDistance,0.18
;   raftTopInfill,100
;   aboveRaftSpeedMultiplier,0.3
;   useSkirt,1
;   skirtExtruder,0
;   skirtLayers,1
;   skirtOutlines,5
;   skirtOffset,10
;   usePrimePillar,0
;   primePillarExtruder,999
;   primePillarWidth,12
;   primePillarLocation,7
;   primePillarSpeedMultiplier,1
;   useOozeShield,0
;   oozeShieldExtruder,999
;   oozeShieldOffset,0.9
;   oozeShieldOutlines,2
;   oozeShieldSidewallShape,0
;   oozeShieldSidewallAngle,30
;   oozeShieldSpeedMultiplier,1.5
;   infillExtruder,0
;   internalInfillPattern,Rectilinear
;   externalInfillPattern,Rectilinear
;   infillPercentage,20
;   outlineOverlapPercentage,25
;   infillExtrusionWidthPercentage,100
;   minInfillLength,5
;   infillLayerInterval,1
;   internalInfillAngles,45,-45
;   overlapInternalInfillAngles,0
;   externalInfillAngles,45,-45
;   generateSupport,0
;   supportExtruder,0
;   supportInfillPercentage,30
;   supportExtraInflation,0
;   supportBaseLayers,1
;   denseSupportExtruder,0
;   denseSupportLayers,0
;   denseSupportInfillPercentage,70
;   supportLayerInterval,1
;   supportHorizontalPartOffset,0.3
;   supportUpperSeparationLayers,1
;   supportLowerSeparationLayers,1
;   supportType,0
;   supportGridSpacing,4
;   maxOverhangAngle,25
;   supportAngles,0
;   temperatureName,Extruder 1,Heated Bed
;   temperatureNumber,0,1
;   temperatureSetpointCount,2,1
;   temperatureSetpointLayers,1,2,1
;   temperatureSetpointTemperatures,235,225,75
;   temperatureStabilizeAtStartup,1,1
;   temperatureHeatedBed,0,1
;   fanLayers,1,5,10
;   fanSpeeds,0,5,20
;   blipFanToFullPower,1
;   adjustSpeedForCooling,1
;   minSpeedLayerTime,15
;   minCoolingSpeedSlowdown,20
;   increaseFanForCooling,0
;   minFanLayerTime,45
;   maxCoolingFanSpeed,35
;   increaseFanForBridging,1
;   bridgingFanSpeed,85
;   use5D,1
;   relativeEdistances,0
;   allowEaxisZeroing,1
;   independentExtruderAxes,0
;   includeM10123,0
;   stickySupport,1
;   applyToolheadOffsets,0
;   gcodeXoffset,0
;   gcodeYoffset,0
;   gcodeZoffset,0
;   overrideMachineDefinition,1
;   machineTypeOverride,0
;   strokeXoverride,200
;   strokeYoverride,200
;   strokeZoverride,150
;   originOffsetXoverride,0
;   originOffsetYoverride,0
;   originOffsetZoverride,0
;   homeXdirOverride,-1
;   homeYdirOverride,-1
;   homeZdirOverride,-1
;   flipXoverride,1
;   flipYoverride,-1
;   flipZoverride,1
;   toolheadOffsets,0,0|0,0|0,0|0,0|0,0|0,0
;   overrideFirmwareConfiguration,1
;   firmwareTypeOverride,RepRap (Marlin/Repetier/Sprinter)
;   GPXconfigOverride,r2
;   baudRateOverride,115200
;   overridePrinterModels,0
;   printerModelsOverride
;   startingGcode,G28 ; home all axes,G32 ; run bed.g -- probe bed and enable compensation
;   layerChangeGcode,
;   retractionGcode,
;   toolChangeGcode,
;   endingGcode,M0 ; call stop.g
;   exportFileFormat,gcode
;   celebration,0
;   celebrationSong,Random Song
;   postProcessing,
;   defaultSpeed,3600
;   outlineUnderspeed,0.5
;   solidInfillUnderspeed,0.8
;   supportUnderspeed,0.8
;   rapidXYspeed,18000
;   rapidZspeed,1200
;   minBridgingArea,50
;   bridgingExtraInflation,0
;   bridgingExtrusionMultiplier,0.96
;   bridgingSpeedMultiplier,1
;   useFixedBridgingAngle,0
;   fixedBridgingAngle,0
;   applyBridgingToPerimeters,0
;   filamentDiameters,1.75|1.75|1.75|1.75|1.75|1.75
;   filamentPricesPerKg,46|46|46|46|46|46
;   filamentDensities,1.25|1.25|1.25|1.25|1.25|1.25
;   useMinPrintHeight,0
;   minPrintHeight,20
;   useMaxPrintHeight,0
;   maxPrintHeight,15
;   useDiaphragm,0
;   diaphragmLayerInterval,20
;   robustSlicing,1
;   mergeAllIntoSolid,0
;   onlyRetractWhenCrossingOutline,1
;   retractBetweenLayers,0
;   useRetractionMinTravel,1
;   retractionMinTravel,3
;   retractWhileWiping,1
;   onlyWipeOutlines,1
;   avoidCrossingOutline,1
;   maxMovementDetourFactor,5
;   toolChangeRetractionDistance,12
;   toolChangeExtraRestartDistance,-0.5
;   toolChangeRetractionSpeed,600
;   externalThinWallType,0
;   internalThinWallType,2
;   thinWallAllowedOverlapPercentage,10
;   singleExtrusionMinLength,1
;   singleExtrusionMinPrintingWidthPercentage,50
;   singleExtrusionMaxPrintingWidthPercentage,150
;   singleExtrusionEndpointExtension,0.2
;   horizontalSizeCompensation,-0.1
G90
M82
M106 S0
M140 S75
M190 S75
M104 S235 T0
M109 S235 T0
G28 ; home all axes
G32 ; run bed.g -- probe bed and enable compensation
; process Process1
; layer 1, Z = 0.200
T0
G92 E0.0000
G1 E-4.0000 F3600
; feature skirt
; tool H0.200 W0.480
G1 Z0.200 F1200
G1 X125.714 Y99.911 F18000
G1 E0.0000 F3600
G92 E0.0000
G1 X125.659 Y101.228 E0.0516 F1800
G1 X125.441 Y102.674 E0.1088
G1 X125.122 Y103.904 E0.1585
G1 X124.499 Y105.566 E0.2279
G1 X124.015 Y106.452 E0.2674
G1 X123.978 Y107.643 E0.3140
G1 X123.691 Y109.313 E0.3803
G1 X123.066 Y111.269 E0.4606
G1 X122.268 Y112.891 E0.5313
G1 X120.985 Y114.742 E0.6194
G1 X119.519 Y116.232 E0.7012
G1 X117.584 Y117.619 E0.7943
G1 X117.572 Y117.642 E0.7953
G1 X116.846 Y118.716 E0.8460
G1 X115.684 Y120.094 E0.9165
G1 X114.417 Y121.229 E0.9830
G1 X112.774 Y122.332 E1.0604
G1 X111.235 Y123.076 E1.1273
G1 X109.271 Y123.706 E1.2080
G1 X107.487 Y123.997 E1.2787
G1 X106.443 Y124.011 E1.3195
G1 X105.547 Y124.492 E1.3593
G1 X104.349 Y124.979 E1.4099
G1 X102.944 Y125.384 E1.4671
G1 X101.667 Y125.608 E1.5178
G1 X100.089 Y125.714 E1.5796
G1 X98.772 Y125.659 E1.6312
G1 X97.326 Y125.441 E1.6884
G1 X96.096 Y125.122 E1.7381
G1 X94.434 Y124.499 E1.8075
G1 X93.548 Y124.015 E1.8470
G1 X92.357 Y123.978 E1.8936
G1 X90.687 Y123.691 E1.9599
G1 X88.731 Y123.066 E2.0402
G1 X87.109 Y122.268 E2.1109
G1 X85.258 Y120.985 E2.1990
G1 X83.768 Y119.519 E2.2808
G1 X82.381 Y117.584 E2.3739
G1 X82.358 Y117.572 E2.3749
G1 X81.284 Y116.846 E2.4256
G1 X79.906 Y115.684 E2.4961
G1 X78.771 Y114.417 E2.5626
G1 X77.668 Y112.774 E2.6401
G1 X76.924 Y111.235 E2.7069
G1 X76.294 Y109.271 E2.7876
G1 X76.003 Y107.487 E2.8583
G1 X75.989 Y106.443 E2.8991
G1 X75.508 Y105.547 E2.9389
G1 X75.021 Y104.349 E2.9895
G1 X74.616 Y102.944 E3.0467
G1 X74.392 Y101.667 E3.0974
G1 X74.286 Y100.089 E3.1592
G1 X74.341 Y98.772 E3.2108
G1 X74.559 Y97.326 E3.2680
G1 X74.878 Y96.096 E3.3177
G1 X75.501 Y94.434 E3.3871
G1 X75.982 Y93.553 E3.4264
G1 X76.032 Y92.277 E3.4763
G1 X76.319 Y90.655 E3.5408
G1 X76.936 Y88.725 E3.6200
G1 X77.733 Y87.107 E3.6906
G1 X79.015 Y85.258 E3.7786
G1 X80.481 Y83.768 E3.8604
G1 X82.466 Y82.345 E3.9558
G1 X82.950 Y81.563 E3.9918
G1 X83.744 Y80.542 E4.0424
G1 X84.758 Y79.489 E4.0996
G1 X85.752 Y78.657 E4.1503
G1 X87.227 Y77.668 E4.2198
G1 X88.766 Y76.924 E4.2866
G1 X90.677 Y76.311 E4.3651
G1 X92.351 Y76.023 E4.4316
G1 X93.565 Y75.985 E4.4791
G1 X94.453 Y75.508 E4.5185
G1 X95.651 Y75.021 E4.5691
G1 X97.056 Y74.616 E4.6263
G1 X98.333 Y74.392 E4.6770
G1 X99.911 Y74.286 E4.7388
G1 X101.228 Y74.341 E4.7904
G1 X102.876 Y74.589 E4.8556
G1 X104.486 Y75.065 E4.9213
G1 X106.522 Y75.987 E5.0087
G1 X107.643 Y76.022 E5.0525
G1 X109.313 Y76.309 E5.1188
G1 X111.269 Y76.934 E5.1992
G1 X112.891 Y77.732 E5.2698
G1 X114.742 Y79.015 E5.3579
G1 X116.232 Y80.481 E5.4397
G1 X117.619 Y82.416 E5.5328
G1 X117.642 Y82.428 E5.5338
G1 X118.716 Y83.154 E5.5845
G1 X120.094 Y84.316 E5.6550
G1 X121.229 Y85.583 E5.7216
G1 X122.332 Y87.226 E5.7990
G1 X123.076 Y88.765 E5.8659
G1 X123.706 Y90.729 E5.9465
G1 X123.997 Y92.513 E6.0172
G1 X124.011 Y93.557 E6.0580
G1 X124.492 Y94.453 E6.0978
G1 X124.979 Y95.651 E6.1484
G1 X125.384 Y97.056 E6.2056
G1 X125.608 Y98.333 E6.2563
G1 X125.714 Y99.911 E6.3182
G1 X125.233 Y99.917 F18000
G92 E0.0000
G1 X125.181 Y101.183 E0.0495 F1800
G1 X124.970 Y102.578 E0.1047
G1 X124.664 Y103.760 E0.1525
G1 X124.062 Y105.365 E0.2196
G1 X123.539 Y106.323 E0.2622
G1 X123.499 Y107.594 E0.3120
G1 X123.224 Y109.198 E0.3757
G1 X122.620 Y111.089 E0.4533
G1 X121.853 Y112.647 E0.5212
G1 X120.614 Y114.435 E0.6063
G1 X119.206 Y115.866 E0.6848
G1 X117.228 Y117.284 E0.7800
G1 X117.216 Y117.290 E0.7805
G1 X117.160 Y117.395 E0.7852
G1 X116.463 Y118.427 E0.8339
G1 X115.339 Y119.759 E0.9021
G1 X114.122 Y120.849 E0.9660
G1 X112.534 Y121.914 E1.0408
G1 X111.056 Y122.629 E1.1050
G1 X109.158 Y123.238 E1.1829
G1 X107.445 Y123.517 E1.2508
G1 X106.320 Y123.532 E1.2949
G1 X105.343 Y124.057 E1.3382
G1 X104.192 Y124.525 E1.3868
G1 X102.836 Y124.915 E1.4420
G1 X101.609 Y125.130 E1.4907
G1 X100.083 Y125.233 E1.5506
G1 X98.817 Y125.181 E1.6001
G1 X97.422 Y124.970 E1.6553
G1 X96.240 Y124.664 E1.7031
G1 X94.635 Y124.062 E1.7701
G1 X93.677 Y123.539 E1.8128
G1 X92.406 Y123.499 E1.8626
G1 X90.802 Y123.224 E1.9262
G1 X88.911 Y122.620 E2.0039
G1 X87.353 Y121.853 E2.0718
G1 X85.565 Y120.614 E2.1569
G1 X84.134 Y119.206 E2.2354
G1 X82.716 Y117.228 E2.3306
G1 X82.710 Y117.216 E2.3311
G1 X82.605 Y117.160 E2.3358
G1 X81.573 Y116.463 E2.3845
G1 X80.241 Y115.339 E2.4527
G1 X79.151 Y114.122 E2.5166
G1 X78.086 Y112.534 E2.5913
G1 X77.371 Y111.056 E2.6556
G1 X76.762 Y109.158 E2.7335
G1 X76.483 Y107.445 E2.8014
G1 X76.468 Y106.320 E2.8454
G1 X75.943 Y105.343 E2.8888
G1 X75.475 Y104.192 E2.9374
G1 X75.085 Y102.836 E2.9926
G1 X74.870 Y101.609 E3.0413
G1 X74.767 Y100.083 E3.1011
G1 X74.819 Y98.817 E3.1507
G1 X75.030 Y97.422 E3.2059
G1 X75.336 Y96.240 E3.2536
G1 X75.938 Y94.635 E3.3207
G1 X76.458 Y93.684 E3.3631
G1 X76.511 Y92.329 E3.4161
G1 X76.786 Y90.770 E3.4780
G1 X77.383 Y88.905 E3.5546
G1 X78.148 Y87.352 E3.6224
G1 X79.386 Y85.565 E3.7074
G1 X80.794 Y84.134 E3.7859
G1 X82.772 Y82.716 E3.8811
G1 X82.812 Y82.697 E3.8828
G1 X83.345 Y81.838 E3.9224
G1 X84.107 Y80.857 E3.9710
G1 X85.086 Y79.841 E4.0262
G1 X86.041 Y79.041 E4.0749
G1 X87.467 Y78.085 E4.1420
G1 X88.944 Y77.371 E4.2062
G1 X90.792 Y76.778 E4.2821
G1 X92.399 Y76.501 E4.3459
G1 X93.693 Y76.461 E4.3965
G1 X94.657 Y75.943 E4.4393
G1 X95.808 Y75.475 E4.4879
G1 X97.164 Y75.085 E4.5431
G1 X98.391 Y74.870 E4.5918
G1 X99.917 Y74.767 E4.6517
G1 X101.183 Y74.819 E4.7012
G1 X102.772 Y75.059 E4.7641
G1 X104.318 Y75.516 E4.8271
G1 X106.354 Y76.438 E4.9146
G1 X106.391 Y76.464 E4.9163
G1 X107.594 Y76.501 E4.9634
G1 X109.198 Y76.776 E5.0271
G1 X111.089 Y77.380 E5.1047
G1 X112.647 Y78.147 E5.1726
G1 X114.435 Y79.386 E5.2577
G1 X115.866 Y80.794 E5.3362
G1 X117.284 Y82.772 E5.4314
G1 X117.290 Y82.784 E5.4320
G1 X117.395 Y82.840 E5.4366
G1 X118.427 Y83.537 E5.4853
G1 X119.759 Y84.661 E5.5535
G1 X120.849 Y85.878 E5.6174
G1 X121.914 Y87.466 E5.6922
G1 X122.629 Y88.944 E5.7564
G1 X123.238 Y90.842 E5.8343
G1 X123.517 Y92.555 E5.9023
G1 X123.532 Y93.680 E5.9463
G1 X124.057 Y94.657 E5.9896
G1 X124.525 Y95.808 E6.0382
G1 X124.915 Y97.164 E6.0934
G1 X125.130 Y98.391 E6.1421
G1 X125.233 Y99.917 E6.2020
G1 X124.752 Y99.923 F18000
G92 E0.0000
G1 X124.702 Y101.137 E0.0475 F1800
G1 X124.499 Y102.481 E0.1007
G1 X124.205 Y103.615 E0.1465
G1 X123.624 Y105.165 E0.2113
G1 X123.062 Y106.193 E0.2571
G1 X123.020 Y107.546 E0.3100
G1 X122.756 Y109.084 E0.3711
G1 X122.173 Y110.909 E0.4460
G1 X121.438 Y112.403 E0.5111
G1 X120.243 Y114.128 E0.5932
G1 X118.892 Y115.500 E0.6685
G1 X116.983 Y116.869 E0.7604
G1 X116.865 Y116.925 E0.7655
G1 X116.748 Y117.147 E0.7753
G1 X116.079 Y118.137 E0.8220
G1 X114.994 Y119.424 E0.8879
G1 X113.827 Y120.469 E0.9492
G1 X112.295 Y121.497 E1.0213
G1 X110.877 Y122.183 E1.0829
G1 X109.046 Y122.770 E1.1581
G1 X107.403 Y123.038 E1.2233
G1 X106.196 Y123.054 E1.2705
G1 X105.138 Y123.622 E1.3174
G1 X104.035 Y124.071 E1.3640
G1 X102.728 Y124.447 E1.4172
G1 X101.551 Y124.653 E1.4639
G1 X100.077 Y124.752 E1.5217
G1 X98.863 Y124.702 E1.5693
G1 X97.519 Y124.499 E1.6224
G1 X96.385 Y124.205 E1.6682
G1 X94.835 Y123.624 E1.7330
G1 X93.807 Y123.062 E1.7788
G1 X92.454 Y123.020 E1.8318
G1 X90.916 Y122.756 E1.8928
G1 X89.091 Y122.173 E1.9678
G1 X87.597 Y121.438 E2.0329
G1 X85.872 Y120.243 E2.1149
G1 X84.500 Y118.892 E2.1903
G1 X83.131 Y116.983 E2.2822
G1 X83.075 Y116.865 E2.2873
G1 X82.853 Y116.748 E2.2971
G1 X81.863 Y116.079 E2.3438
G1 X80.576 Y114.994 E2.4097
G1 X79.531 Y113.827 E2.4709
G1 X78.503 Y112.295 E2.5431
G1 X77.817 Y110.877 E2.6047
G1 X77.230 Y109.046 E2.6799
G1 X76.962 Y107.403 E2.7450
G1 X76.946 Y106.196 E2.7922
G1 X76.378 Y105.138 E2.8392
G1 X75.929 Y104.035 E2.8858
G1 X75.553 Y102.728 E2.9390
G1 X75.347 Y101.551 E2.9857
G1 X75.248 Y100.077 E3.0435
G1 X75.298 Y98.863 E3.0910
G1 X75.501 Y97.519 E3.1442
G1 X75.795 Y96.385 E3.1900
G1 X76.376 Y94.835 E3.2547
G1 X76.933 Y93.816 E3.3002
G1 X76.989 Y92.380 E3.3564
G1 X77.253 Y90.885 E3.4157
G1 X77.829 Y89.086 E3.4897
G1 X78.563 Y87.596 E3.5546
G1 X79.757 Y85.872 E3.6366
G1 X81.108 Y84.500 E3.7119
G1 X83.017 Y83.131 E3.8039
G1 X83.147 Y83.069 E3.8095
G1 X83.739 Y82.112 E3.8535
G1 X84.470 Y81.172 E3.9001
G1 X85.414 Y80.193 E3.9533
G1 X86.329 Y79.426 E4.0000
G1 X87.706 Y78.503 E4.0648
G1 X89.123 Y77.817 E4.1264
G1 X90.906 Y77.246 E4.1996
G1 X92.448 Y76.980 E4.2608
G1 X93.821 Y76.937 E4.3145
G1 X94.862 Y76.378 E4.3607
G1 X95.965 Y75.929 E4.4073
G1 X97.272 Y75.553 E4.4605
G1 X98.449 Y75.347 E4.5072
G1 X99.923 Y75.248 E4.5650
G1 X101.137 Y75.298 E4.6126
G1 X102.667 Y75.528 E4.6731
G1 X104.150 Y75.967 E4.7336
G1 X106.118 Y76.858 E4.8181
G1 X106.236 Y76.939 E4.8237
G1 X107.546 Y76.980 E4.8749
G1 X109.084 Y77.244 E4.9360
G1 X110.909 Y77.827 E5.0109
G1 X112.403 Y78.562 E5.0760
G1 X114.128 Y79.757 E5.1581
G1 X115.500 Y81.108 E5.2334
G1 X116.869 Y83.017 E5.3253
G1 X116.925 Y83.135 E5.3304
G1 X117.147 Y83.252 E5.3402
G1 X118.137 Y83.921 E5.3869
G1 X119.424 Y85.006 E5.4528
G1 X120.469 Y86.173 E5.5141
G1 X121.497 Y87.705 E5.5862
G1 X122.183 Y89.123 E5.6478
G1 X122.770 Y90.954 E5.7231
G1 X123.038 Y92.597 E5.7882
G1 X123.054 Y93.804 E5.8354
G1 X123.622 Y94.862 E5.8823
G1 X124.071 Y95.965 E5.9289
G1 X124.447 Y97.272 E5.9821
G1 X124.653 Y98.449 E6.0288
G1 X124.752 Y99.923 E6.0867
G1 X124.272 Y99.929 F18000
G92 E0.0000
G1 X124.224 Y101.091 E0.0455 F1800
G1 X124.029 Y102.385 E0.0967
G1 X123.747 Y103.470 E0.1405
G1 X123.187 Y104.965 E0.2029
G1 X122.586 Y106.063 E0.2519
G1 X122.542 Y107.498 E0.3080
G1 X122.289 Y108.970 E0.3665
G1 X121.727 Y110.729 E0.4387
G1 X121.023 Y112.159 E0.5010
G1 X119.872 Y113.820 E0.5801
G1 X118.579 Y115.134 E0.6522
G1 X116.737 Y116.455 E0.7408
G1 X116.515 Y116.561 E0.7505
G1 X116.336 Y116.900 E0.7655
G1 X115.696 Y117.847 E0.8102
G1 X114.648 Y119.089 E0.8737
G1 X113.532 Y120.089 E0.9324
G1 X112.056 Y121.079 E1.0019
G1 X110.699 Y121.736 E1.0608
G1 X108.933 Y122.302 E1.1333
G1 X107.361 Y122.558 E1.1957
G1 X106.072 Y122.576 E1.2461
G1 X104.934 Y123.187 E1.2966
G1 X103.877 Y123.617 E1.3412
G1 X102.620 Y123.978 E1.3924
G1 X101.494 Y124.176 E1.4371
G1 X100.071 Y124.272 E1.4929
G1 X98.909 Y124.224 E1.5384
G1 X97.615 Y124.029 E1.5896
G1 X96.530 Y123.747 E1.6334
G1 X95.035 Y123.187 E1.6959
G1 X93.937 Y122.586 E1.7448
G1 X92.502 Y122.542 E1.8010
G1 X91.030 Y122.289 E1.8594
G1 X89.271 Y121.727 E1.9316
G1 X87.841 Y121.023 E1.9940
G1 X86.180 Y119.872 E2.0730
G1 X84.866 Y118.579 E2.1451
G1 X83.545 Y116.737 E2.2338
G1 X83.439 Y116.515 E2.2434
G1 X83.100 Y116.336 E2.2584
G1 X82.153 Y115.696 E2.3031
