; G-Code generated by Simplify3D(R) Version 4.1.2
; Mar 25, 2021 at 12:02:35 PM
; Settings Summary
;   processName,Process1
;   applyToModels,umlenkrolle-halterung-v2,umlenkrolle-halterung-v2(2)
;   profileName,HBot (modified)
;   profileVersion,2019-10-26 23:38:43
;   baseProfile,Default
;   printMaterial,PETG - ERYONE
;   printQuality,Medium
;   printExtruders,
;   extruderName,Extruder 1
;   extruderToolheadNumber,0
;   extruderDiameter,0.4
;   extruderAutoWidth,1
;   extruderWidth,0.48
;   extrusionMultiplier,1
;   extruderUseRetract,1
;   extruderRetractionDistance,3
;   extruderExtraRestartDistance,0
;   extruderRetractionZLift,0
;   extruderRetractionSpeed,5400
;   extruderUseCoasting,0
;   extruderCoastingDistance,0.2
;   extruderUseWipe,1
;   extruderWipeDistance,2
;   primaryExtruder,0
;   layerHeight,0.2
;   topSolidLayers,4
;   bottomSolidLayers,4
;   perimeterOutlines,3
;   printPerimetersInsideOut,1
;   startPointOption,3
;   startPointOriginX,110
;   startPointOriginY,300
;   sequentialIslands,0
;   spiralVaseMode,0
;   firstLayerHeightPercentage,100
;   firstLayerWidthPercentage,100
;   firstLayerUnderspeed,0.5
;   useRaft,0
;   raftExtruder,0
;   raftTopLayers,3
;   raftBaseLayers,2
;   raftOffset,3
;   raftSeparationDistance,0.18
;   raftTopInfill,100
;   aboveRaftSpeedMultiplier,0.3
;   useSkirt,0
;   skirtExtruder,0
;   skirtLayers,1
;   skirtOutlines,5
;   skirtOffset,0
;   usePrimePillar,0
;   primePillarExtruder,999
;   primePillarWidth,12
;   primePillarLocation,7
;   primePillarSpeedMultiplier,1
;   useOozeShield,0
;   oozeShieldExtruder,999
;   oozeShieldOffset,0.9
;   oozeShieldOutlines,2
;   oozeShieldSidewallShape,0
;   oozeShieldSidewallAngle,30
;   oozeShieldSpeedMultiplier,1.5
;   infillExtruder,0
;   internalInfillPattern,Fast Honeycomb
;   externalInfillPattern,Rectilinear
;   infillPercentage,15
;   outlineOverlapPercentage,25
;   infillExtrusionWidthPercentage,100
;   minInfillLength,5
;   infillLayerInterval,1
;   internalInfillAngles,0
;   overlapInternalInfillAngles,0
;   externalInfillAngles,45,-45
;   generateSupport,0
;   supportExtruder,0
;   supportInfillPercentage,25
;   supportExtraInflation,0
;   supportBaseLayers,1
;   denseSupportExtruder,0
;   denseSupportLayers,0
;   denseSupportInfillPercentage,70
;   supportLayerInterval,1
;   supportHorizontalPartOffset,0.3
;   supportUpperSeparationLayers,1
;   supportLowerSeparationLayers,1
;   supportType,0
;   supportGridSpacing,2
;   maxOverhangAngle,25
;   supportAngles,0
;   temperatureName,Extruder 1,Heated Bed
;   temperatureNumber,0,1
;   temperatureSetpointCount,2,1
;   temperatureSetpointLayers,1,2,1
;   temperatureSetpointTemperatures,215,215,85
;   temperatureStabilizeAtStartup,1,1
;   temperatureHeatedBed,0,1
;   fanLayers,1,10
;   fanSpeeds,0,20
;   blipFanToFullPower,1
;   adjustSpeedForCooling,0
;   minSpeedLayerTime,15
;   minCoolingSpeedSlowdown,20
;   increaseFanForCooling,1
;   minFanLayerTime,15
;   maxCoolingFanSpeed,40
;   increaseFanForBridging,1
;   bridgingFanSpeed,85
;   use5D,1
;   relativeEdistances,0
;   allowEaxisZeroing,1
;   independentExtruderAxes,0
;   includeM10123,0
;   stickySupport,1
;   applyToolheadOffsets,0
;   gcodeXoffset,0
;   gcodeYoffset,0
;   gcodeZoffset,0
;   overrideMachineDefinition,1
;   machineTypeOverride,0
;   strokeXoverride,210
;   strokeYoverride,210
;   strokeZoverride,150
;   originOffsetXoverride,0
;   originOffsetYoverride,0
;   originOffsetZoverride,0
;   homeXdirOverride,-1
;   homeYdirOverride,-1
;   homeZdirOverride,-1
;   flipXoverride,1
;   flipYoverride,-1
;   flipZoverride,1
;   toolheadOffsets,0,0|0,0|0,0|0,0|0,0|0,0
;   overrideFirmwareConfiguration,1
;   firmwareTypeOverride,RepRap (Marlin/Repetier/Sprinter)
;   GPXconfigOverride,r2
;   baudRateOverride,115200
;   overridePrinterModels,0
;   printerModelsOverride
;   startingGcode,G28 ; home all axes,G32 ; run bed.g -- probe bed and enable compensation
;   layerChangeGcode,
;   retractionGcode,
;   toolChangeGcode,
;   endingGcode,M0 ; call stop.g
;   exportFileFormat,gcode
;   celebration,0
;   celebrationSong,Random Song
;   postProcessing,
;   defaultSpeed,3600
;   outlineUnderspeed,0.5
;   solidInfillUnderspeed,0.8
;   supportUnderspeed,0.8
;   rapidXYspeed,18000
;   rapidZspeed,1200
;   minBridgingArea,50
;   bridgingExtraInflation,0
;   bridgingExtrusionMultiplier,0.96
;   bridgingSpeedMultiplier,1
;   useFixedBridgingAngle,0
;   fixedBridgingAngle,0
;   applyBridgingToPerimeters,0
;   filamentDiameters,1.75|1.75|1.75|1.75|1.75|1.75
;   filamentPricesPerKg,46|46|46|46|46|46
;   filamentDensities,1.25|1.25|1.25|1.25|1.25|1.25
;   useMinPrintHeight,0
;   minPrintHeight,17.2
;   useMaxPrintHeight,0
;   maxPrintHeight,4
;   useDiaphragm,0
;   diaphragmLayerInterval,20
;   robustSlicing,1
;   mergeAllIntoSolid,0
;   onlyRetractWhenCrossingOutline,1
;   retractBetweenLayers,0
;   useRetractionMinTravel,1
;   retractionMinTravel,3
;   retractWhileWiping,1
;   onlyWipeOutlines,1
;   avoidCrossingOutline,1
;   maxMovementDetourFactor,5
;   toolChangeRetractionDistance,12
;   toolChangeExtraRestartDistance,-0.5
;   toolChangeRetractionSpeed,600
;   externalThinWallType,1
;   internalThinWallType,1
;   thinWallAllowedOverlapPercentage,10
;   singleExtrusionMinLength,1
;   singleExtrusionMinPrintingWidthPercentage,50
;   singleExtrusionMaxPrintingWidthPercentage,150
;   singleExtrusionEndpointExtension,0.2
;   horizontalSizeCompensation,0
G90
M82
M106 S0
M140 S85
M190 S85
M104 S215 T0
M109 S215 T0
G28 ; home all axes
G32 ; run bed.g -- probe bed and enable compensation
; process Process1
; layer 1, Z = 0.200
T0
G92 E0.0000
G1 E-3.0000 F5400
; feature inner perimeter
; tool H0.200 W0.480
G1 Z0.200 F1200
G1 X94.242 Y122.764 F18000
G1 E0.0000 F5400
G92 E0.0000
G1 X93.871 Y122.791 E0.0148 F1350
G1 X93.486 Y122.800 E0.0302
G1 X80.814 Y122.800 E0.5360
G1 X80.429 Y122.791 E0.5513
G1 X80.058 Y122.764 E0.5662
G1 X79.690 Y122.720 E0.5810
G1 X79.324 Y122.659 E0.5958
G1 X78.961 Y122.580 E0.6106
G1 X78.603 Y122.484 E0.6254
G1 X78.249 Y122.371 E0.6402
G1 X77.901 Y122.241 E0.6551
G1 X77.560 Y122.095 E0.6699
G1 X77.226 Y121.933 E0.6847
G1 X76.900 Y121.755 E0.6995
G1 X76.583 Y121.561 E0.7143
G1 X76.276 Y121.353 E0.7291
G1 X75.979 Y121.131 E0.7440
G1 X75.692 Y120.895 E0.7588
G1 X75.418 Y120.645 E0.7736
G1 X75.155 Y120.382 E0.7884
G1 X74.905 Y120.108 E0.8032
G1 X74.669 Y119.822 E0.8180
G1 X74.447 Y119.524 E0.8329
G1 X74.239 Y119.217 E0.8477
G1 X74.045 Y118.900 E0.8625
G1 X73.867 Y118.574 E0.8773
G1 X73.705 Y118.240 E0.8921
G1 X73.559 Y117.899 E0.9069
G1 X73.429 Y117.551 E0.9218
G1 X73.316 Y117.198 E0.9366
G1 X73.220 Y116.839 E0.9514
G1 X73.141 Y116.476 E0.9662
G1 X73.080 Y116.110 E0.9810
G1 X73.036 Y115.742 E0.9958
G1 X73.010 Y115.377 E1.0104
G1 X73.000 Y87.200 E2.1350
G1 X101.300 Y87.200 E3.2645
G1 X101.300 Y114.986 E4.3735
G1 X101.291 Y115.371 E4.3889
G1 X101.264 Y115.742 E4.4037
G1 X101.220 Y116.110 E4.4185
G1 X101.159 Y116.476 E4.4333
G1 X101.080 Y116.839 E4.4482
G1 X100.984 Y117.197 E4.4630
G1 X100.871 Y117.551 E4.4778
G1 X100.741 Y117.899 E4.4926
G1 X100.595 Y118.240 E4.5074
G1 X100.433 Y118.574 E4.5223
G1 X100.255 Y118.900 E4.5371
G1 X100.061 Y119.217 E4.5519
G1 X99.853 Y119.524 E4.5667
G1 X99.631 Y119.822 E4.5815
G1 X99.395 Y120.108 E4.5963
G1 X99.145 Y120.382 E4.6111
G1 X98.882 Y120.645 E4.6260
G1 X98.608 Y120.895 E4.6408
G1 X98.321 Y121.131 E4.6556
G1 X98.024 Y121.353 E4.6704
G1 X97.717 Y121.562 E4.6852
G1 X97.400 Y121.755 E4.7000
G1 X97.074 Y121.933 E4.7149
G1 X96.740 Y122.095 E4.7297
G1 X96.399 Y122.241 E4.7445
G1 X96.051 Y122.371 E4.7593
G1 X95.697 Y122.484 E4.7741
G1 X95.339 Y122.580 E4.7889
G1 X94.976 Y122.659 E4.8038
G1 X94.610 Y122.720 E4.8186
G1 X94.242 Y122.764 E4.8334
G1 X94.287 Y123.242 F18000
G92 E0.0000
G1 X93.894 Y123.270 E0.0157 F1350
G1 X93.492 Y123.280 E0.0318
G1 X80.808 Y123.280 E0.5380
G1 X80.406 Y123.270 E0.5541
G1 X80.013 Y123.242 E0.5698
G1 X79.622 Y123.196 E0.5855
G1 X79.233 Y123.130 E0.6013
G1 X78.848 Y123.046 E0.6170
G1 X78.467 Y122.944 E0.6327
G1 X78.092 Y122.824 E0.6484
G1 X77.723 Y122.687 E0.6642
G1 X77.360 Y122.531 E0.6799
G1 X77.006 Y122.359 E0.6956
G1 X76.660 Y122.170 E0.7114
G1 X76.324 Y121.965 E0.7271
G1 X75.997 Y121.745 E0.7428
G1 X75.682 Y121.508 E0.7586
G1 X75.378 Y121.258 E0.7743
G1 X75.086 Y120.992 E0.7900
G1 X74.807 Y120.713 E0.8057
G1 X74.543 Y120.422 E0.8215
G1 X74.292 Y120.118 E0.8372
G1 X74.055 Y119.803 E0.8529
G1 X73.835 Y119.476 E0.8686
G1 X73.629 Y119.140 E0.8844
G1 X73.441 Y118.794 E0.9001
G1 X73.268 Y118.440 E0.9158
G1 X73.113 Y118.077 E0.9316
G1 X72.976 Y117.708 E0.9473
G1 X72.856 Y117.333 E0.9630
G1 X72.754 Y116.952 E0.9787
G1 X72.670 Y116.567 E0.9945
G1 X72.605 Y116.179 E1.0102
G1 X72.558 Y115.787 E1.0259
G1 X72.530 Y115.394 E1.0417
G1 X72.520 Y86.720 E2.1861
G1 X101.780 Y86.720 E3.3539
G1 X101.780 Y114.992 E4.4823
G1 X101.770 Y115.394 E4.4984
G1 X101.742 Y115.787 E4.5141
G1 X101.696 Y116.178 E4.5298
G1 X101.630 Y116.567 E4.5455
G1 X101.546 Y116.952 E4.5613
G1 X101.444 Y117.333 E4.5770
G1 X101.324 Y117.708 E4.5927
G1 X101.187 Y118.077 E4.6085
G1 X101.032 Y118.439 E4.6242
G1 X100.859 Y118.794 E4.6399
G1 X100.671 Y119.140 E4.6557
G1 X100.465 Y119.476 E4.6714
G1 X100.245 Y119.803 E4.6871
G1 X100.008 Y120.118 E4.7028
G1 X99.757 Y120.422 E4.7186
G1 X99.492 Y120.714 E4.7343
G1 X99.214 Y120.992 E4.7500
G1 X98.922 Y121.257 E4.7658
G1 X98.618 Y121.508 E4.7815
G1 X98.303 Y121.744 E4.7972
G1 X97.976 Y121.966 E4.8129
G1 X97.640 Y122.171 E4.8287
G1 X97.294 Y122.359 E4.8444
G1 X96.940 Y122.532 E4.8601
G1 X96.577 Y122.687 E4.8759
G1 X96.208 Y122.824 E4.8916
G1 X95.833 Y122.944 E4.9073
G1 X95.452 Y123.046 E4.9230
G1 X95.067 Y123.130 E4.9388
G1 X94.678 Y123.196 E4.9545
G1 X94.287 Y123.242 E4.9702
; feature outer perimeter
G1 X94.333 Y123.720 F18000
G92 E0.0000
G1 X93.917 Y123.750 E0.0166 F900
G1 X93.497 Y123.760 E0.0334
G1 X80.803 Y123.760 E0.5401
G1 X80.383 Y123.750 E0.5568
G1 X79.967 Y123.720 E0.5735
G1 X79.553 Y123.671 E0.5901
G1 X79.142 Y123.602 E0.6067
G1 X78.735 Y123.513 E0.6234
G1 X78.332 Y123.405 E0.6400
G1 X77.935 Y123.278 E0.6567
G1 X77.544 Y123.132 E0.6733
G1 X77.161 Y122.968 E0.6899
G1 X76.786 Y122.786 E0.7066
G1 X76.420 Y122.586 E0.7232
G1 X76.064 Y122.369 E0.7399
G1 X75.719 Y122.136 E0.7565
G1 X75.385 Y121.886 E0.7731
G1 X75.064 Y121.620 E0.7898
G1 X74.755 Y121.340 E0.8064
G1 X74.460 Y121.045 E0.8231
G1 X74.180 Y120.737 E0.8397
G1 X73.914 Y120.415 E0.8563
G1 X73.664 Y120.081 E0.8730
G1 X73.431 Y119.736 E0.8896
G1 X73.214 Y119.380 E0.9063
G1 X73.014 Y119.014 E0.9229
G1 X72.832 Y118.639 E0.9395
G1 X72.668 Y118.256 E0.9562
G1 X72.522 Y117.865 E0.9728
G1 X72.395 Y117.468 E0.9895
G1 X72.287 Y117.065 E1.0061
G1 X72.198 Y116.658 E1.0228
G1 X72.129 Y116.247 E1.0394
G1 X72.080 Y115.833 E1.0560
G1 X72.050 Y115.411 E1.0729
G1 X72.040 Y86.240 E2.2372
G1 X102.260 Y86.240 E3.4433
G1 X102.260 Y114.997 E4.5911
G1 X102.250 Y115.417 E4.6078
G1 X102.220 Y115.833 E4.6245
G1 X102.171 Y116.247 E4.6411
G1 X102.102 Y116.658 E4.6578
G1 X102.013 Y117.065 E4.6744
G1 X101.905 Y117.468 E4.6910
G1 X101.778 Y117.865 E4.7077
G1 X101.632 Y118.256 E4.7243
G1 X101.468 Y118.639 E4.7410
G1 X101.286 Y119.014 E4.7576
G1 X101.086 Y119.380 E4.7742
G1 X100.869 Y119.736 E4.7909
G1 X100.636 Y120.081 E4.8075
G1 X100.386 Y120.415 E4.8242
G1 X100.120 Y120.737 E4.8408
G1 X99.840 Y121.045 E4.8574
G1 X99.545 Y121.340 E4.8741
G1 X99.237 Y121.620 E4.8907
G1 X98.915 Y121.886 E4.9074
G1 X98.581 Y122.136 E4.9240
G1 X98.236 Y122.369 E4.9407
G1 X97.880 Y122.586 E4.9573
G1 X97.514 Y122.786 E4.9739
G1 X97.139 Y122.968 E4.9906
G1 X96.756 Y123.132 E5.0072
G1 X96.365 Y123.278 E5.0239
G1 X95.968 Y123.405 E5.0405
G1 X95.565 Y123.513 E5.0571
G1 X95.158 Y123.602 E5.0738
G1 X94.747 Y123.671 E5.0904
G1 X94.333 Y123.720 E5.1071
G1 X93.917 Y123.750 F900
G1 X93.497 Y123.760
G1 X92.334 Y123.760
; feature inner perimeter
G1 X93.031 Y117.661 F18000
G92 E0.0000
G1 X93.343 Y117.697 E0.0125 F1350
G1 X93.657 Y117.697 E0.0251
G1 X93.969 Y117.661 E0.0376
G1 X94.275 Y117.588 E0.0502
G1 X94.570 Y117.481 E0.0627
G1 X94.851 Y117.340 E0.0752
G1 X95.114 Y117.167 E0.0878
G1 X95.354 Y116.965 E0.1003
G1 X95.570 Y116.737 E0.1129
G1 X95.757 Y116.485 E0.1254
G1 X95.915 Y116.213 E0.1380
G1 X96.039 Y115.924 E0.1505
G1 X96.129 Y115.623 E0.1630
G1 X96.184 Y115.314 E0.1756
G1 X96.202 Y115.000 E0.1881
G1 X96.184 Y114.686 E0.2007
G1 X96.129 Y114.377 E0.2132
G1 X96.039 Y114.076 E0.2257
G1 X95.915 Y113.787 E0.2383
G1 X95.758 Y113.515 E0.2508
G1 X95.570 Y113.263 E0.2634
G1 X95.354 Y113.035 E0.2759
G1 X95.114 Y112.833 E0.2884
G1 X94.851 Y112.660 E0.3010
G1 X94.570 Y112.519 E0.3135
G1 X94.275 Y112.412 E0.3261
G1 X93.969 Y112.339 E0.3386
G1 X93.657 Y112.303 E0.3512
G1 X93.343 Y112.303 E0.3637
G1 X93.031 Y112.339 E0.3762
G1 X92.725 Y112.412 E0.3888
G1 X92.430 Y112.519 E0.4013
G1 X92.149 Y112.660 E0.4139
G1 X91.886 Y112.833 E0.4264
G1 X91.646 Y113.035 E0.4389
G1 X91.430 Y113.263 E0.4515
G1 X91.243 Y113.514 E0.4640
G1 X91.086 Y113.785 E0.4765
G1 X90.961 Y114.075 E0.4891
G1 X90.871 Y114.377 E0.5016
G1 X90.816 Y114.686 E0.5142
G1 X90.798 Y115.000 E0.5267
G1 X90.816 Y115.314 E0.5393
G1 X90.871 Y115.623 E0.5518
G1 X90.961 Y115.924 E0.5643
G1 X91.085 Y116.213 E0.5769
G1 X91.243 Y116.485 E0.5894
G1 X91.430 Y116.737 E0.6020
G1 X91.646 Y116.965 E0.6145
G1 X91.886 Y117.167 E0.6271
G1 X92.149 Y117.340 E0.6396
G1 X92.430 Y117.481 E0.6521
G1 X92.725 Y117.588 E0.6647
G1 X93.031 Y117.661 E0.6772
G1 X93.114 Y117.187 F18000
G92 E0.0000
G1 X93.371 Y117.217 E0.0103 F1350
G1 X93.629 Y117.217 E0.0206
G1 X93.886 Y117.187 E0.0309
G1 X94.137 Y117.128 E0.0412
G1 X94.380 Y117.040 E0.0515
G1 X94.611 Y116.924 E0.0619
G1 X94.826 Y116.782 E0.0722
G1 X95.024 Y116.616 E0.0825
G1 X95.202 Y116.428 E0.0928
G1 X95.356 Y116.221 E0.1031
G1 X95.485 Y115.997 E0.1134
G1 X95.587 Y115.760 E0.1237
G1 X95.661 Y115.512 E0.1340
G1 X95.706 Y115.258 E0.1443
G1 X95.721 Y115.000 E0.1546
G1 X95.706 Y114.742 E0.1649
G1 X95.661 Y114.488 E0.1753
G1 X95.587 Y114.240 E0.1856
G1 X95.485 Y114.003 E0.1959
G1 X95.356 Y113.779 E0.2062
G1 X95.202 Y113.572 E0.2165
G1 X95.024 Y113.384 E0.2268
G1 X94.826 Y113.218 E0.2371
G1 X94.611 Y113.076 E0.2474
G1 X94.380 Y112.960 E0.2577
G1 X94.137 Y112.872 E0.2680
G1 X93.886 Y112.813 E0.2784
G1 X93.629 Y112.783 E0.2887
G1 X93.371 Y112.783 E0.2990
G1 X93.114 Y112.813 E0.3093
G1 X92.863 Y112.872 E0.3196
G1 X92.620 Y112.960 E0.3299
G1 X92.389 Y113.076 E0.3402
G1 X92.174 Y113.218 E0.3505
G1 X91.976 Y113.384 E0.3608
G1 X91.798 Y113.572 E0.3711
G1 X91.645 Y113.778 E0.3814
G1 X91.516 Y114.002 E0.3917
G1 X91.413 Y114.240 E0.4021
G1 X91.339 Y114.488 E0.4124
G1 X91.294 Y114.742 E0.4227
G1 X91.279 Y115.000 E0.4330
G1 X91.294 Y115.258 E0.4433
G1 X91.339 Y115.512 E0.4536
G1 X91.413 Y115.760 E0.4639
G1 X91.515 Y115.997 E0.4742
G1 X91.644 Y116.221 E0.4845
G1 X91.798 Y116.428 E0.4949
G1 X91.976 Y116.616 E0.5052
G1 X92.174 Y116.782 E0.5155
G1 X92.389 Y116.924 E0.5258
G1 X92.620 Y117.040 E0.5361
G1 X92.863 Y117.128 E0.5464
G1 X93.114 Y117.187 E0.5567
; feature outer perimeter
G1 X93.198 Y116.714 F18000
G92 E0.0000
G1 X93.399 Y116.737 E0.0081 F900
G1 X93.601 Y116.737 E0.0162
G1 X93.802 Y116.714 E0.0242
G1 X93.999 Y116.667 E0.0323
G1 X94.189 Y116.598 E0.0404
G1 X94.370 Y116.507 E0.0485
G1 X94.539 Y116.396 E0.0565
G1 X94.694 Y116.266 E0.0646
G1 X94.833 Y116.119 E0.0727
G1 X94.954 Y115.956 E0.0808
G1 X95.055 Y115.781 E0.0889
G1 X95.135 Y115.595 E0.0969
G1 X95.194 Y115.401 E0.1050
G1 X95.229 Y115.202 E0.1131
G1 X95.240 Y115.000 E0.1212
G1 X95.229 Y114.798 E0.1292
G1 X95.194 Y114.599 E0.1373
G1 X95.135 Y114.405 E0.1454
G1 X95.055 Y114.219 E0.1535
G1 X94.954 Y114.044 E0.1616
G1 X94.833 Y113.881 E0.1696
G1 X94.694 Y113.734 E0.1777
G1 X94.539 Y113.604 E0.1858
G1 X94.370 Y113.493 E0.1939
G1 X94.189 Y113.402 E0.2019
G1 X93.999 Y113.333 E0.2100
G1 X93.802 Y113.286 E0.2181
G1 X93.601 Y113.263 E0.2262
G1 X93.399 Y113.263 E0.2343
G1 X93.198 Y113.286 E0.2423
G1 X93.001 Y113.333 E0.2504
G1 X92.811 Y113.402 E0.2585
G1 X92.630 Y113.493 E0.2666
G1 X92.461 Y113.604 E0.2746
G1 X92.306 Y113.734 E0.2827
