; G-Code generated by Simplify3D(R) Version 4.1.2
; Mar 25, 2021 at 9:26:53 PM
; Settings Summary
;   processName,Process1
;   applyToModels,umlenkrolle-halterung-v2,umlenkrolle-halterung-v2(2),umlenkrolle-halterung-v2(3)
;   profileName,HBot (modified)
;   profileVersion,2019-10-26 23:38:43
;   baseProfile,Default
;   printMaterial,PETG - ERYONE
;   printQuality,Medium
;   printExtruders,
;   extruderName,Extruder 1
;   extruderToolheadNumber,0
;   extruderDiameter,0.4
;   extruderAutoWidth,1
;   extruderWidth,0.48
;   extrusionMultiplier,1
;   extruderUseRetract,1
;   extruderRetractionDistance,3
;   extruderExtraRestartDistance,0
;   extruderRetractionZLift,0
;   extruderRetractionSpeed,5400
;   extruderUseCoasting,0
;   extruderCoastingDistance,0.2
;   extruderUseWipe,1
;   extruderWipeDistance,2
;   primaryExtruder,0
;   layerHeight,0.2
;   topSolidLayers,4
;   bottomSolidLayers,4
;   perimeterOutlines,3
;   printPerimetersInsideOut,1
;   startPointOption,3
;   startPointOriginX,110
;   startPointOriginY,300
;   sequentialIslands,0
;   spiralVaseMode,0
;   firstLayerHeightPercentage,100
;   firstLayerWidthPercentage,100
;   firstLayerUnderspeed,0.5
;   useRaft,0
;   raftExtruder,0
;   raftTopLayers,3
;   raftBaseLayers,2
;   raftOffset,3
;   raftSeparationDistance,0.18
;   raftTopInfill,100
;   aboveRaftSpeedMultiplier,0.3
;   useSkirt,0
;   skirtExtruder,0
;   skirtLayers,1
;   skirtOutlines,5
;   skirtOffset,0
;   usePrimePillar,0
;   primePillarExtruder,999
;   primePillarWidth,12
;   primePillarLocation,7
;   primePillarSpeedMultiplier,1
;   useOozeShield,0
;   oozeShieldExtruder,999
;   oozeShieldOffset,0.9
;   oozeShieldOutlines,2
;   oozeShieldSidewallShape,0
;   oozeShieldSidewallAngle,30
;   oozeShieldSpeedMultiplier,1.5
;   infillExtruder,0
;   internalInfillPattern,Fast Honeycomb
;   externalInfillPattern,Rectilinear
;   infillPercentage,15
;   outlineOverlapPercentage,25
;   infillExtrusionWidthPercentage,100
;   minInfillLength,5
;   infillLayerInterval,1
;   internalInfillAngles,0
;   overlapInternalInfillAngles,0
;   externalInfillAngles,45,-45
;   generateSupport,0
;   supportExtruder,0
;   supportInfillPercentage,25
;   supportExtraInflation,0
;   supportBaseLayers,1
;   denseSupportExtruder,0
;   denseSupportLayers,0
;   denseSupportInfillPercentage,70
;   supportLayerInterval,1
;   supportHorizontalPartOffset,0.3
;   supportUpperSeparationLayers,1
;   supportLowerSeparationLayers,1
;   supportType,0
;   supportGridSpacing,2
;   maxOverhangAngle,25
;   supportAngles,0
;   temperatureName,Extruder 1,Heated Bed
;   temperatureNumber,0,1
;   temperatureSetpointCount,2,1
;   temperatureSetpointLayers,1,2,1
;   temperatureSetpointTemperatures,215,215,85
;   temperatureStabilizeAtStartup,1,1
;   temperatureHeatedBed,0,1
;   fanLayers,1,10
;   fanSpeeds,0,20
;   blipFanToFullPower,1
;   adjustSpeedForCooling,0
;   minSpeedLayerTime,15
;   minCoolingSpeedSlowdown,20
;   increaseFanForCooling,1
;   minFanLayerTime,15
;   maxCoolingFanSpeed,40
;   increaseFanForBridging,1
;   bridgingFanSpeed,85
;   use5D,1
;   relativeEdistances,0
;   allowEaxisZeroing,1
;   independentExtruderAxes,0
;   includeM10123,0
;   stickySupport,1
;   applyToolheadOffsets,0
;   gcodeXoffset,0
;   gcodeYoffset,0
;   gcodeZoffset,0
;   overrideMachineDefinition,1
;   machineTypeOverride,0
;   strokeXoverride,210
;   strokeYoverride,210
;   strokeZoverride,150
;   originOffsetXoverride,0
;   originOffsetYoverride,0
;   originOffsetZoverride,0
;   homeXdirOverride,-1
;   homeYdirOverride,-1
;   homeZdirOverride,-1
;   flipXoverride,1
;   flipYoverride,-1
;   flipZoverride,1
;   toolheadOffsets,0,0|0,0|0,0|0,0|0,0|0,0
;   overrideFirmwareConfiguration,1
;   firmwareTypeOverride,RepRap (Marlin/Repetier/Sprinter)
;   GPXconfigOverride,r2
;   baudRateOverride,115200
;   overridePrinterModels,0
;   printerModelsOverride
;   startingGcode,G28 ; home all axes,G32 ; run bed.g -- probe bed and enable compensation
;   layerChangeGcode,
;   retractionGcode,
;   toolChangeGcode,
;   endingGcode,M0 ; call stop.g
;   exportFileFormat,gcode
;   celebration,0
;   celebrationSong,Random Song
;   postProcessing,
;   defaultSpeed,3600
;   outlineUnderspeed,0.5
;   solidInfillUnderspeed,0.8
;   supportUnderspeed,0.8
;   rapidXYspeed,18000
;   rapidZspeed,1200
;   minBridgingArea,50
;   bridgingExtraInflation,0
;   bridgingExtrusionMultiplier,0.96
;   bridgingSpeedMultiplier,1
;   useFixedBridgingAngle,0
;   fixedBridgingAngle,0
;   applyBridgingToPerimeters,0
;   filamentDiameters,1.75|1.75|1.75|1.75|1.75|1.75
;   filamentPricesPerKg,46|46|46|46|46|46
;   filamentDensities,1.25|1.25|1.25|1.25|1.25|1.25
;   useMinPrintHeight,0
;   minPrintHeight,17.2
;   useMaxPrintHeight,0
;   maxPrintHeight,4
;   useDiaphragm,0
;   diaphragmLayerInterval,20
;   robustSlicing,1
;   mergeAllIntoSolid,0
;   onlyRetractWhenCrossingOutline,1
;   retractBetweenLayers,0
;   useRetractionMinTravel,1
;   retractionMinTravel,3
;   retractWhileWiping,1
;   onlyWipeOutlines,1
;   avoidCrossingOutline,1
;   maxMovementDetourFactor,5
;   toolChangeRetractionDistance,12
;   toolChangeExtraRestartDistance,-0.5
;   toolChangeRetractionSpeed,600
;   externalThinWallType,1
;   internalThinWallType,1
;   thinWallAllowedOverlapPercentage,10
;   singleExtrusionMinLength,1
;   singleExtrusionMinPrintingWidthPercentage,50
;   singleExtrusionMaxPrintingWidthPercentage,150
;   singleExtrusionEndpointExtension,0.2
;   horizontalSizeCompensation,0
G90
M82
M106 S0
M140 S85
M190 S85
M104 S215 T0
M109 S215 T0
G28 ; home all axes
G32 ; run bed.g -- probe bed and enable compensation
; process Process1
; layer 1, Z = 0.200
T0
G92 E0.0000
G1 E-3.0000 F5400
; feature inner perimeter
; tool H0.200 W0.480
G1 Z0.200 F1200
G1 X94.242 Y101.264 F18000
G1 E0.0000 F5400
G92 E0.0000
G1 X93.871 Y101.291 E0.0148 F1350
G1 X93.486 Y101.300 E0.0302
G1 X80.814 Y101.300 E0.5360
G1 X80.429 Y101.291 E0.5513
G1 X80.058 Y101.264 E0.5662
G1 X79.690 Y101.220 E0.5810
G1 X79.324 Y101.159 E0.5958
G1 X78.961 Y101.080 E0.6106
G1 X78.603 Y100.984 E0.6254
G1 X78.249 Y100.871 E0.6402
G1 X77.901 Y100.741 E0.6551
G1 X77.560 Y100.595 E0.6699
G1 X77.226 Y100.433 E0.6847
G1 X76.900 Y100.255 E0.6995
G1 X76.583 Y100.061 E0.7143
G1 X76.276 Y99.853 E0.7291
G1 X75.979 Y99.631 E0.7440
G1 X75.692 Y99.395 E0.7588
G1 X75.418 Y99.145 E0.7736
G1 X75.155 Y98.882 E0.7884
G1 X74.905 Y98.608 E0.8032
G1 X74.669 Y98.322 E0.8180
G1 X74.447 Y98.024 E0.8329
G1 X74.239 Y97.717 E0.8477
G1 X74.045 Y97.400 E0.8625
G1 X73.867 Y97.074 E0.8773
G1 X73.705 Y96.740 E0.8921
G1 X73.559 Y96.399 E0.9069
G1 X73.429 Y96.051 E0.9218
G1 X73.316 Y95.698 E0.9366
G1 X73.220 Y95.339 E0.9514
G1 X73.141 Y94.976 E0.9662
G1 X73.080 Y94.610 E0.9810
G1 X73.036 Y94.242 E0.9958
G1 X73.010 Y93.877 E1.0104
G1 X73.000 Y65.700 E2.1350
G1 X101.300 Y65.700 E3.2645
G1 X101.300 Y93.486 E4.3735
G1 X101.291 Y93.871 E4.3889
G1 X101.264 Y94.242 E4.4037
G1 X101.220 Y94.610 E4.4185
G1 X101.159 Y94.976 E4.4333
G1 X101.080 Y95.339 E4.4482
G1 X100.984 Y95.697 E4.4630
G1 X100.871 Y96.051 E4.4778
G1 X100.741 Y96.399 E4.4926
G1 X100.595 Y96.740 E4.5074
G1 X100.433 Y97.074 E4.5223
G1 X100.255 Y97.400 E4.5371
G1 X100.061 Y97.717 E4.5519
G1 X99.853 Y98.024 E4.5667
G1 X99.631 Y98.322 E4.5815
G1 X99.395 Y98.608 E4.5963
G1 X99.145 Y98.882 E4.6111
G1 X98.882 Y99.145 E4.6260
G1 X98.608 Y99.395 E4.6408
G1 X98.321 Y99.631 E4.6556
G1 X98.024 Y99.853 E4.6704
G1 X97.717 Y100.062 E4.6852
G1 X97.400 Y100.255 E4.7000
G1 X97.074 Y100.433 E4.7149
G1 X96.740 Y100.595 E4.7297
G1 X96.399 Y100.741 E4.7445
G1 X96.051 Y100.871 E4.7593
G1 X95.697 Y100.984 E4.7741
G1 X95.339 Y101.080 E4.7889
G1 X94.976 Y101.159 E4.8038
G1 X94.610 Y101.220 E4.8186
G1 X94.242 Y101.264 E4.8334
G1 X94.287 Y101.742 F18000
G92 E0.0000
G1 X93.894 Y101.770 E0.0157 F1350
G1 X93.492 Y101.780 E0.0318
G1 X80.808 Y101.780 E0.5380
G1 X80.406 Y101.770 E0.5541
G1 X80.013 Y101.742 E0.5698
G1 X79.622 Y101.696 E0.5855
G1 X79.233 Y101.630 E0.6013
G1 X78.848 Y101.546 E0.6170
G1 X78.467 Y101.444 E0.6327
G1 X78.092 Y101.324 E0.6484
G1 X77.723 Y101.187 E0.6642
G1 X77.360 Y101.031 E0.6799
G1 X77.006 Y100.859 E0.6956
G1 X76.660 Y100.670 E0.7114
G1 X76.324 Y100.465 E0.7271
G1 X75.997 Y100.245 E0.7428
G1 X75.682 Y100.008 E0.7586
G1 X75.378 Y99.758 E0.7743
G1 X75.086 Y99.492 E0.7900
G1 X74.807 Y99.213 E0.8057
G1 X74.543 Y98.922 E0.8215
G1 X74.292 Y98.618 E0.8372
G1 X74.055 Y98.303 E0.8529
G1 X73.835 Y97.976 E0.8686
G1 X73.629 Y97.640 E0.8844
G1 X73.441 Y97.294 E0.9001
G1 X73.268 Y96.940 E0.9158
G1 X73.113 Y96.577 E0.9316
G1 X72.976 Y96.208 E0.9473
G1 X72.856 Y95.833 E0.9630
G1 X72.754 Y95.452 E0.9787
G1 X72.670 Y95.067 E0.9945
G1 X72.605 Y94.679 E1.0102
G1 X72.558 Y94.287 E1.0259
G1 X72.530 Y93.894 E1.0417
G1 X72.520 Y65.220 E2.1861
G1 X101.780 Y65.220 E3.3539
G1 X101.780 Y93.492 E4.4823
G1 X101.770 Y93.894 E4.4984
G1 X101.742 Y94.287 E4.5141
G1 X101.696 Y94.678 E4.5298
G1 X101.630 Y95.067 E4.5455
G1 X101.546 Y95.452 E4.5613
G1 X101.444 Y95.833 E4.5770
G1 X101.324 Y96.208 E4.5927
G1 X101.187 Y96.577 E4.6085
G1 X101.032 Y96.939 E4.6242
G1 X100.859 Y97.294 E4.6399
G1 X100.671 Y97.640 E4.6557
G1 X100.465 Y97.976 E4.6714
G1 X100.245 Y98.303 E4.6871
G1 X100.008 Y98.618 E4.7028
G1 X99.757 Y98.922 E4.7186
G1 X99.492 Y99.214 E4.7343
G1 X99.214 Y99.492 E4.7500
G1 X98.922 Y99.757 E4.7658
G1 X98.618 Y100.008 E4.7815
G1 X98.303 Y100.244 E4.7972
G1 X97.976 Y100.466 E4.8129
G1 X97.640 Y100.671 E4.8287
G1 X97.294 Y100.859 E4.8444
G1 X96.940 Y101.032 E4.8601
G1 X96.577 Y101.187 E4.8759
G1 X96.208 Y101.324 E4.8916
G1 X95.833 Y101.444 E4.9073
G1 X95.452 Y101.546 E4.9230
G1 X95.067 Y101.630 E4.9388
G1 X94.678 Y101.696 E4.9545
G1 X94.287 Y101.742 E4.9702
; feature outer perimeter
G1 X94.333 Y102.220 F18000
G92 E0.0000
G1 X93.917 Y102.250 E0.0166 F900
G1 X93.497 Y102.260 E0.0334
G1 X80.803 Y102.260 E0.5401
G1 X80.383 Y102.250 E0.5568
G1 X79.967 Y102.220 E0.5735
G1 X79.553 Y102.171 E0.5901
G1 X79.142 Y102.102 E0.6067
G1 X78.735 Y102.013 E0.6234
G1 X78.332 Y101.905 E0.6400
G1 X77.935 Y101.778 E0.6567
G1 X77.544 Y101.632 E0.6733
G1 X77.161 Y101.468 E0.6899
G1 X76.786 Y101.286 E0.7066
G1 X76.420 Y101.086 E0.7232
G1 X76.064 Y100.869 E0.7399
G1 X75.719 Y100.636 E0.7565
G1 X75.385 Y100.386 E0.7731
G1 X75.064 Y100.120 E0.7898
G1 X74.755 Y99.840 E0.8064
G1 X74.460 Y99.545 E0.8231
G1 X74.180 Y99.237 E0.8397
G1 X73.914 Y98.915 E0.8563
G1 X73.664 Y98.581 E0.8730
G1 X73.431 Y98.236 E0.8896
G1 X73.214 Y97.880 E0.9063
G1 X73.014 Y97.514 E0.9229
G1 X72.832 Y97.139 E0.9395
G1 X72.668 Y96.756 E0.9562
G1 X72.522 Y96.365 E0.9728
G1 X72.395 Y95.968 E0.9895
G1 X72.287 Y95.565 E1.0061
G1 X72.198 Y95.158 E1.0228
G1 X72.129 Y94.747 E1.0394
G1 X72.080 Y94.333 E1.0560
G1 X72.050 Y93.911 E1.0729
G1 X72.040 Y64.740 E2.2372
G1 X102.260 Y64.740 E3.4433
G1 X102.260 Y93.497 E4.5911
G1 X102.250 Y93.917 E4.6078
G1 X102.220 Y94.333 E4.6245
G1 X102.171 Y94.747 E4.6411
G1 X102.102 Y95.158 E4.6578
G1 X102.013 Y95.565 E4.6744
G1 X101.905 Y95.968 E4.6910
G1 X101.778 Y96.365 E4.7077
G1 X101.632 Y96.756 E4.7243
G1 X101.468 Y97.139 E4.7410
G1 X101.286 Y97.514 E4.7576
G1 X101.086 Y97.880 E4.7742
G1 X100.869 Y98.236 E4.7909
G1 X100.636 Y98.581 E4.8075
G1 X100.386 Y98.915 E4.8242
G1 X100.120 Y99.237 E4.8408
G1 X99.840 Y99.545 E4.8574
G1 X99.545 Y99.840 E4.8741
G1 X99.237 Y100.120 E4.8907
G1 X98.915 Y100.386 E4.9074
G1 X98.581 Y100.636 E4.9240
G1 X98.236 Y100.869 E4.9407
G1 X97.880 Y101.086 E4.9573
G1 X97.514 Y101.286 E4.9739
G1 X97.139 Y101.468 E4.9906
G1 X96.756 Y101.632 E5.0072
G1 X96.365 Y101.778 E5.0239
G1 X95.968 Y101.905 E5.0405
G1 X95.565 Y102.013 E5.0571
G1 X95.158 Y102.102 E5.0738
G1 X94.747 Y102.171 E5.0904
G1 X94.333 Y102.220 E5.1071
G1 X93.917 Y102.250 F900
G1 X93.497 Y102.260
G1 X92.334 Y102.260
; feature inner perimeter
G1 X93.031 Y96.161 F18000
G92 E0.0000
G1 X93.343 Y96.197 E0.0125 F1350
G1 X93.657 Y96.197 E0.0251
G1 X93.969 Y96.161 E0.0376
G1 X94.275 Y96.088 E0.0502
G1 X94.570 Y95.981 E0.0627
G1 X94.851 Y95.840 E0.0752
G1 X95.114 Y95.667 E0.0878
G1 X95.354 Y95.465 E0.1003
G1 X95.570 Y95.237 E0.1129
G1 X95.757 Y94.985 E0.1254
G1 X95.915 Y94.713 E0.1380
G1 X96.039 Y94.424 E0.1505
G1 X96.129 Y94.123 E0.1630
G1 X96.184 Y93.814 E0.1756
G1 X96.202 Y93.500 E0.1881
G1 X96.184 Y93.186 E0.2007
G1 X96.129 Y92.877 E0.2132
G1 X96.039 Y92.576 E0.2257
G1 X95.915 Y92.287 E0.2383
G1 X95.758 Y92.015 E0.2508
G1 X95.570 Y91.763 E0.2634
G1 X95.354 Y91.535 E0.2759
G1 X95.114 Y91.333 E0.2884
G1 X94.851 Y91.160 E0.3010
G1 X94.570 Y91.019 E0.3135
G1 X94.275 Y90.912 E0.3261
G1 X93.969 Y90.839 E0.3386
G1 X93.657 Y90.803 E0.3512
G1 X93.343 Y90.803 E0.3637
G1 X93.031 Y90.839 E0.3762
G1 X92.725 Y90.912 E0.3888
G1 X92.430 Y91.019 E0.4013
G1 X92.149 Y91.160 E0.4139
G1 X91.886 Y91.333 E0.4264
G1 X91.646 Y91.535 E0.4389
G1 X91.430 Y91.763 E0.4515
G1 X91.243 Y92.014 E0.4640
G1 X91.086 Y92.285 E0.4765
G1 X90.961 Y92.575 E0.4891
G1 X90.871 Y92.877 E0.5016
G1 X90.816 Y93.186 E0.5142
G1 X90.798 Y93.500 E0.5267
G1 X90.816 Y93.814 E0.5393
G1 X90.871 Y94.123 E0.5518
G1 X90.961 Y94.424 E0.5643
G1 X91.085 Y94.713 E0.5769
G1 X91.243 Y94.985 E0.5894
G1 X91.430 Y95.237 E0.6020
G1 X91.646 Y95.465 E0.6145
G1 X91.886 Y95.667 E0.6271
G1 X92.149 Y95.840 E0.6396
G1 X92.430 Y95.981 E0.6521
G1 X92.725 Y96.088 E0.6647
G1 X93.031 Y96.161 E0.6772
G1 X93.114 Y95.687 F18000
G92 E0.0000
G1 X93.371 Y95.717 E0.0103 F1350
G1 X93.629 Y95.717 E0.0206
G1 X93.886 Y95.687 E0.0309
G1 X94.137 Y95.628 E0.0412
G1 X94.380 Y95.540 E0.0515
G1 X94.611 Y95.424 E0.0619
G1 X94.826 Y95.282 E0.0722
G1 X95.024 Y95.116 E0.0825
G1 X95.202 Y94.928 E0.0928
G1 X95.356 Y94.721 E0.1031
G1 X95.485 Y94.497 E0.1134
G1 X95.587 Y94.260 E0.1237
G1 X95.661 Y94.012 E0.1340
G1 X95.706 Y93.758 E0.1443
G1 X95.721 Y93.500 E0.1546
G1 X95.706 Y93.242 E0.1649
G1 X95.661 Y92.988 E0.1753
G1 X95.587 Y92.740 E0.1856
G1 X95.485 Y92.503 E0.1959
G1 X95.356 Y92.279 E0.2062
G1 X95.202 Y92.072 E0.2165
G1 X95.024 Y91.884 E0.2268
G1 X94.826 Y91.718 E0.2371
G1 X94.611 Y91.576 E0.2474
G1 X94.380 Y91.460 E0.2577
G1 X94.137 Y91.372 E0.2680
G1 X93.886 Y91.313 E0.2784
G1 X93.629 Y91.283 E0.2887
G1 X93.371 Y91.283 E0.2990
G1 X93.114 Y91.313 E0.3093
G1 X92.863 Y91.372 E0.3196
G1 X92.620 Y91.460 E0.3299
G1 X92.389 Y91.576 E0.3402
G1 X92.174 Y91.718 E0.3505
G1 X91.976 Y91.884 E0.3608
G1 X91.798 Y92.072 E0.3711
G1 X91.645 Y92.278 E0.3814
G1 X91.516 Y92.502 E0.3917
G1 X91.413 Y92.740 E0.4021
G1 X91.339 Y92.988 E0.4124
G1 X91.294 Y93.242 E0.4227
G1 X91.279 Y93.500 E0.4330
G1 X91.294 Y93.758 E0.4433
G1 X91.339 Y94.012 E0.4536
G1 X91.413 Y94.260 E0.4639
G1 X91.515 Y94.497 E0.4742
G1 X91.644 Y94.721 E0.4845
G1 X91.798 Y94.928 E0.4949
G1 X91.976 Y95.116 E0.5052
G1 X92.174 Y95.282 E0.5155
G1 X92.389 Y95.424 E0.5258
G1 X92.620 Y95.540 E0.5361
G1 X92.863 Y95.628 E0.5464
G1 X93.114 Y95.687 E0.5567
; feature outer perimeter
G1 X93.198 Y95.214 F18000
G92 E0.0000
G1 X93.399 Y95.237 E0.0081 F900
G1 X93.601 Y95.237 E0.0162
G1 X93.802 Y95.214 E0.0242
G1 X93.999 Y95.167 E0.0323
G1 X94.189 Y95.098 E0.0404
G1 X94.370 Y95.007 E0.0485
G1 X94.539 Y94.896 E0.0565
G1 X94.694 Y94.766 E0.0646
G1 X94.833 Y94.619 E0.0727
G1 X94.954 Y94.456 E0.0808
G1 X95.055 Y94.281 E0.0889
G1 X95.135 Y94.095 E0.0969
G1 X95.194 Y93.901 E0.1050
G1 X95.229 Y93.702 E0.1131
G1 X95.240 Y93.500 E0.1212
G1 X95.229 Y93.298 E0.1292
G1 X95.194 Y93.099 E0.1373
G1 X95.135 Y92.905 E0.1454
G1 X95.055 Y92.719 E0.1535
G1 X94.954 Y92.544 E0.1616
G1 X94.833 Y92.381 E0.1696
G1 X94.694 Y92.234 E0.1777
G1 X94.539 Y92.104 E0.1858
G1 X94.370 Y91.993 E0.1939
G1 X94.189 Y91.902 E0.2019
G1 X93.999 Y91.833 E0.2100
G1 X93.802 Y91.786 E0.2181
G1 X93.601 Y91.763 E0.2262
G1 X93.399 Y91.763 E0.2343
G1 X93.198 Y91.786 E0.2423
G1 X93.001 Y91.833 E0.2504
G1 X92.811 Y91.902 E0.2585
G1 X92.630 Y91.993 E0.2666
G1 X92.461 Y92.104 E0.2746
G1 X92.306 Y92.234 E0.2827
G1 X92.167 Y92.381 E0.2908
G1 X92.047 Y92.543 E0.2988
G1 X91.945 Y92.718 E0.3069
G1 X91.865 Y92.905 E0.3150
G1 X91.807 Y93.099 E0.3231
G1 X91.771 Y93.298 E0.3312
G1 X91.760 Y93.500 E0.3393
G1 X91.771 Y93.702 E0.3473
G1 X91.806 Y93.901 E0.3554
