; G-Code generated by Simplify3D(R) Version 4.1.2
; Jan 22, 2021 at 5:29:12 PM
; Settings Summary
;   processName,Process1
;   applyToModels,bohr-vorlage
;   profileName,HBot (modified)
;   profileVersion,2019-10-26 23:38:43
;   baseProfile,Default
;   printMaterial,PETG - SUNLU
;   printQuality,Fast
;   printExtruders,
;   extruderName,Extruder 1
;   extruderToolheadNumber,0
;   extruderDiameter,0.4
;   extruderAutoWidth,1
;   extruderWidth,0.48
;   extrusionMultiplier,1.02
;   extruderUseRetract,0
;   extruderRetractionDistance,3
;   extruderExtraRestartDistance,0
;   extruderRetractionZLift,0
;   extruderRetractionSpeed,5400
;   extruderUseCoasting,0
;   extruderCoastingDistance,0.2
;   extruderUseWipe,1
;   extruderWipeDistance,2
;   primaryExtruder,0
;   layerHeight,0.2
;   topSolidLayers,4
;   bottomSolidLayers,4
;   perimeterOutlines,3
;   printPerimetersInsideOut,1
;   startPointOption,3
;   startPointOriginX,110
;   startPointOriginY,300
;   sequentialIslands,0
;   spiralVaseMode,0
;   firstLayerHeightPercentage,100
;   firstLayerWidthPercentage,100
;   firstLayerUnderspeed,0.5
;   useRaft,0
;   raftExtruder,0
;   raftTopLayers,3
;   raftBaseLayers,2
;   raftOffset,3
;   raftSeparationDistance,0.18
;   raftTopInfill,100
;   aboveRaftSpeedMultiplier,0.3
;   useSkirt,0
;   skirtExtruder,0
;   skirtLayers,1
;   skirtOutlines,5
;   skirtOffset,0
;   usePrimePillar,0
;   primePillarExtruder,999
;   primePillarWidth,12
;   primePillarLocation,7
;   primePillarSpeedMultiplier,1
;   useOozeShield,0
;   oozeShieldExtruder,999
;   oozeShieldOffset,0.9
;   oozeShieldOutlines,2
;   oozeShieldSidewallShape,0
;   oozeShieldSidewallAngle,30
;   oozeShieldSpeedMultiplier,1.5
;   infillExtruder,0
;   internalInfillPattern,Fast Honeycomb
;   externalInfillPattern,Rectilinear
;   infillPercentage,15
;   outlineOverlapPercentage,25
;   infillExtrusionWidthPercentage,100
;   minInfillLength,5
;   infillLayerInterval,1
;   internalInfillAngles,0
;   overlapInternalInfillAngles,0
;   externalInfillAngles,45,-45
;   generateSupport,0
;   supportExtruder,0
;   supportInfillPercentage,25
;   supportExtraInflation,0
;   supportBaseLayers,0
;   denseSupportExtruder,0
;   denseSupportLayers,0
;   denseSupportInfillPercentage,70
;   supportLayerInterval,1
;   supportHorizontalPartOffset,0.3
;   supportUpperSeparationLayers,1
;   supportLowerSeparationLayers,1
;   supportType,0
;   supportGridSpacing,2
;   maxOverhangAngle,25
;   supportAngles,0
;   temperatureName,Extruder 1,Heated Bed
;   temperatureNumber,0,1
;   temperatureSetpointCount,2,1
;   temperatureSetpointLayers,1,2,1
;   temperatureSetpointTemperatures,215,215,85
;   temperatureStabilizeAtStartup,1,1
;   temperatureHeatedBed,0,1
;   fanLayers,1,5,10
;   fanSpeeds,0,5,20
;   blipFanToFullPower,1
;   adjustSpeedForCooling,0
;   minSpeedLayerTime,15
;   minCoolingSpeedSlowdown,20
;   increaseFanForCooling,1
;   minFanLayerTime,15
;   maxCoolingFanSpeed,40
;   increaseFanForBridging,1
;   bridgingFanSpeed,85
;   use5D,1
;   relativeEdistances,0
;   allowEaxisZeroing,1
;   independentExtruderAxes,0
;   includeM10123,0
;   stickySupport,1
;   applyToolheadOffsets,0
;   gcodeXoffset,0
;   gcodeYoffset,0
;   gcodeZoffset,0
;   overrideMachineDefinition,1
;   machineTypeOverride,0
;   strokeXoverride,210
;   strokeYoverride,210
;   strokeZoverride,150
;   originOffsetXoverride,0
;   originOffsetYoverride,0
;   originOffsetZoverride,0
;   homeXdirOverride,-1
;   homeYdirOverride,-1
;   homeZdirOverride,-1
;   flipXoverride,1
;   flipYoverride,-1
;   flipZoverride,1
;   toolheadOffsets,0,0|0,0|0,0|0,0|0,0|0,0
;   overrideFirmwareConfiguration,1
;   firmwareTypeOverride,RepRap (Marlin/Repetier/Sprinter)
;   GPXconfigOverride,r2
;   baudRateOverride,115200
;   overridePrinterModels,0
;   printerModelsOverride
;   startingGcode,G28 ; home all axes,G32 ; run bed.g -- probe bed and enable compensation
;   layerChangeGcode,
;   retractionGcode,
;   toolChangeGcode,
;   endingGcode,M0 ; call stop.g
;   exportFileFormat,gcode
;   celebration,0
;   celebrationSong,Random Song
;   postProcessing,
;   defaultSpeed,3600
;   outlineUnderspeed,0.5
;   solidInfillUnderspeed,0.8
;   supportUnderspeed,0.8
;   rapidXYspeed,18000
;   rapidZspeed,1200
;   minBridgingArea,50
;   bridgingExtraInflation,0
;   bridgingExtrusionMultiplier,0.96
;   bridgingSpeedMultiplier,1
;   useFixedBridgingAngle,0
;   fixedBridgingAngle,0
;   applyBridgingToPerimeters,0
;   filamentDiameters,1.75|1.75|1.75|1.75|1.75|1.75
;   filamentPricesPerKg,46|46|46|46|46|46
;   filamentDensities,1.25|1.25|1.25|1.25|1.25|1.25
;   useMinPrintHeight,0
;   minPrintHeight,17.2
;   useMaxPrintHeight,0
;   maxPrintHeight,7.5
;   useDiaphragm,0
;   diaphragmLayerInterval,20
;   robustSlicing,1
;   mergeAllIntoSolid,0
;   onlyRetractWhenCrossingOutline,1
;   retractBetweenLayers,0
;   useRetractionMinTravel,1
;   retractionMinTravel,3
;   retractWhileWiping,1
;   onlyWipeOutlines,1
;   avoidCrossingOutline,1
;   maxMovementDetourFactor,5
;   toolChangeRetractionDistance,12
;   toolChangeExtraRestartDistance,-0.5
;   toolChangeRetractionSpeed,600
;   externalThinWallType,0
;   internalThinWallType,2
;   thinWallAllowedOverlapPercentage,10
;   singleExtrusionMinLength,1
;   singleExtrusionMinPrintingWidthPercentage,50
;   singleExtrusionMaxPrintingWidthPercentage,150
;   singleExtrusionEndpointExtension,0.2
;   horizontalSizeCompensation,0
G90
M82
M106 S0
M140 S85
M190 S85
M104 S215 T0
M109 S215 T0
G28 ; home all axes
G32 ; run bed.g -- probe bed and enable compensation
; process Process1
; layer 1, Z = 0.200
T0
; feature inner perimeter
; tool H0.200 W0.480
G1 Z0.200 F1200
G1 X117.850 Y114.850 F18000
G92 E0.0000
G1 X92.150 Y114.850 E1.0463 F1350
G1 X92.150 Y95.150 E1.8483
G1 X117.850 Y95.150 E2.8945
G1 X117.850 Y114.850 E3.6965
G1 X118.330 Y115.330 F18000
G92 E0.0000
G1 X91.670 Y115.330 E1.0853 F1350
G1 X91.670 Y94.670 E1.9264
G1 X118.330 Y94.670 E3.0118
G1 X118.330 Y115.330 E3.8528
; feature outer perimeter
G1 X118.810 Y115.810 F18000
G92 E0.0000
G1 X91.190 Y115.810 E1.1244 F900
G1 X91.190 Y94.190 E2.0046
G1 X118.810 Y94.190 E3.1290
G1 X118.810 Y115.810 E4.0092
G1 X116.810 Y115.810 F900
; feature inner perimeter
G1 X108.536 Y109.027 F18000
G92 E0.0000
G1 X108.764 Y108.738 E0.0150 F1350
G1 X108.968 Y108.433 E0.0299
G1 X109.141 Y108.123 E0.0444
G1 X109.295 Y107.792 E0.0593
G1 X109.424 Y107.447 E0.0742
G1 X109.524 Y107.093 E0.0892
G1 X109.596 Y106.733 E0.1042
G1 X109.640 Y106.367 E0.1191
G1 X109.654 Y106.000 E0.1341
G1 X109.640 Y105.633 E0.1491
G1 X109.598 Y105.280 E0.1635
G1 X109.525 Y104.909 E0.1789
G1 X109.428 Y104.567 E0.1934
G1 X109.301 Y104.222 E0.2083
G1 X109.148 Y103.888 E0.2233
G1 X108.968 Y103.567 E0.2383
G1 X108.764 Y103.262 E0.2533
G1 X108.536 Y102.974 E0.2682
G1 X108.296 Y102.714 E0.2826
G1 X108.027 Y102.464 E0.2976
G1 X107.738 Y102.236 E0.3125
G1 X107.432 Y102.032 E0.3275
G1 X107.112 Y101.852 E0.3424
G1 X106.790 Y101.704 E0.3569
G1 X106.447 Y101.576 E0.3718
G1 X106.093 Y101.476 E0.3868
G1 X105.733 Y101.404 E0.4017
G1 X105.367 Y101.360 E0.4167
G1 X105.000 Y101.346 E0.4317
G1 X104.633 Y101.360 E0.4466
G1 X104.268 Y101.404 E0.4616
G1 X103.897 Y101.478 E0.4770
G1 X103.244 Y101.689 E0.5049
G1 X102.888 Y101.852 E0.5209
G1 X102.568 Y102.032 E0.5358
G1 X102.262 Y102.236 E0.5508
G1 X101.984 Y102.456 E0.5652
G1 X101.714 Y102.704 E0.5801
G1 X101.464 Y102.973 E0.5951
G1 X101.236 Y103.262 E0.6101
G1 X101.032 Y103.567 E0.6250
G1 X100.852 Y103.888 E0.6400
G1 X100.704 Y104.210 E0.6544
G1 X100.576 Y104.553 E0.6693
G1 X100.476 Y104.907 E0.6843
G1 X100.404 Y105.267 E0.6993
G1 X100.360 Y105.633 E0.7142
G1 X100.346 Y106.000 E0.7292
G1 X100.360 Y106.367 E0.7442
G1 X100.402 Y106.719 E0.7586
G1 X100.472 Y107.078 E0.7735
G1 X100.572 Y107.432 E0.7885
G1 X100.699 Y107.778 E0.8034
G1 X100.852 Y108.112 E0.8184
G1 X101.032 Y108.432 E0.8334
G1 X101.229 Y108.728 E0.8478
G1 X101.463 Y109.025 E0.8632
G1 X101.705 Y109.286 E0.8777
G1 X101.973 Y109.536 E0.8926
G1 X102.262 Y109.764 E0.9076
G1 X102.567 Y109.968 E0.9226
G1 X102.888 Y110.147 E0.9375
G1 X103.210 Y110.296 E0.9520
G1 X103.553 Y110.424 E0.9669
G1 X103.907 Y110.524 E0.9818
G1 X104.267 Y110.596 E0.9968
G1 X104.633 Y110.640 E1.0118
G1 X105.000 Y110.654 E1.0268
G1 X105.367 Y110.640 E1.0417
G1 X105.732 Y110.596 E1.0567
G1 X106.080 Y110.527 E1.0711
G1 X106.432 Y110.428 E1.0860
G1 X106.778 Y110.301 E1.1010
G1 X107.112 Y110.148 E1.1160
G1 X107.433 Y109.968 E1.1309
G1 X107.738 Y109.764 E1.1459
G1 X108.016 Y109.544 E1.1603
G1 X108.286 Y109.296 E1.1752
G1 X108.536 Y109.027 E1.1902
G1 X108.171 Y108.714 F18000
G92 E0.0000
G1 X108.375 Y108.456 E0.0134 F1350
G1 X108.558 Y108.181 E0.0268
G1 X108.714 Y107.904 E0.0398
G1 X108.852 Y107.607 E0.0531
G1 X108.967 Y107.297 E0.0666
G1 X109.057 Y106.980 E0.0800
G1 X109.122 Y106.657 E0.0934
G1 X109.161 Y106.329 E0.1068
G1 X109.174 Y106.000 E0.1203
G1 X109.161 Y105.671 E0.1337
G1 X109.124 Y105.355 E0.1466
G1 X109.057 Y105.021 E0.1605
G1 X108.971 Y104.715 E0.1734
G1 X108.857 Y104.406 E0.1868
G1 X108.720 Y104.106 E0.2003
G1 X108.559 Y103.819 E0.2137
G1 X108.375 Y103.544 E0.2271
G1 X108.171 Y103.286 E0.2405
G1 X107.956 Y103.053 E0.2534
G1 X107.714 Y102.829 E0.2668
G1 X107.456 Y102.625 E0.2803
G1 X107.181 Y102.441 E0.2937
G1 X106.894 Y102.280 E0.3071
G1 X106.606 Y102.148 E0.3200
G1 X106.297 Y102.033 E0.3334
G1 X105.980 Y101.943 E0.3468
G1 X105.657 Y101.878 E0.3603
G1 X105.330 Y101.839 E0.3737
G1 X105.000 Y101.826 E0.3871
G1 X104.670 Y101.839 E0.4005
G1 X104.344 Y101.878 E0.4139
G1 X104.018 Y101.943 E0.4275
G1 X103.419 Y102.137 E0.4531
G1 X103.106 Y102.280 E0.4671
G1 X102.819 Y102.441 E0.4805
G1 X102.545 Y102.625 E0.4939
G1 X102.295 Y102.821 E0.5069
G1 X102.053 Y103.044 E0.5202
G1 X101.829 Y103.286 E0.5337
G1 X101.625 Y103.544 E0.5471
G1 X101.442 Y103.819 E0.5605
G1 X101.281 Y104.106 E0.5739
G1 X101.147 Y104.395 E0.5869
G1 X101.033 Y104.703 E0.6002
G1 X100.943 Y105.020 E0.6137
G1 X100.878 Y105.343 E0.6271
G1 X100.839 Y105.670 E0.6405
G1 X100.826 Y106.000 E0.6539
G1 X100.839 Y106.329 E0.6673
G1 X100.876 Y106.645 E0.6803
G1 X100.940 Y106.967 E0.6937
G1 X101.029 Y107.285 E0.7071
G1 X101.143 Y107.594 E0.7205
G1 X101.280 Y107.894 E0.7339
G1 X101.441 Y108.181 E0.7473
G1 X101.618 Y108.446 E0.7603
G1 X101.828 Y108.713 E0.7741
G1 X102.044 Y108.947 E0.7871
G1 X102.286 Y109.171 E0.8005
G1 X102.544 Y109.375 E0.8139
G1 X102.819 Y109.558 E0.8274
G1 X103.106 Y109.719 E0.8408
G1 X103.395 Y109.853 E0.8537
G1 X103.703 Y109.967 E0.8671
G1 X104.020 Y110.057 E0.8805
G1 X104.343 Y110.122 E0.8939
G1 X104.670 Y110.161 E0.9073
G1 X105.000 Y110.174 E0.9208
G1 X105.329 Y110.161 E0.9342
G1 X105.656 Y110.122 E0.9476
G1 X105.968 Y110.060 E0.9605
G1 X106.285 Y109.971 E0.9739
G1 X106.594 Y109.857 E0.9874
G1 X106.894 Y109.720 E1.0008
G1 X107.181 Y109.558 E1.0142
G1 X107.455 Y109.375 E1.0276
G1 X107.705 Y109.179 E1.0405
G1 X107.947 Y108.956 E1.0539
G1 X108.171 Y108.714 E1.0673
; feature outer perimeter
G1 X107.806 Y108.402 F18000
G92 E0.0000
G1 X107.987 Y108.173 E0.0119 F900
G1 X108.149 Y107.930 E0.0238
G1 X108.286 Y107.686 E0.0352
G1 X108.409 Y107.421 E0.0470
G1 X108.510 Y107.148 E0.0589
G1 X108.590 Y106.867 E0.0708
G1 X108.647 Y106.581 E0.0827
G1 X108.682 Y106.292 E0.0945
G1 X108.694 Y106.000 E0.1064
G1 X108.682 Y105.709 E0.1183
G1 X108.649 Y105.430 E0.1297
G1 X108.590 Y105.133 E0.1420
G1 X108.514 Y104.863 E0.1535
G1 X108.413 Y104.589 E0.1653
G1 X108.291 Y104.324 E0.1772
G1 X108.149 Y104.070 E0.1891
G1 X107.987 Y103.827 E0.2010
G1 X107.806 Y103.598 E0.2128
G1 X107.616 Y103.392 E0.2243
G1 X107.402 Y103.194 E0.2361
G1 X107.173 Y103.013 E0.2480
G1 X106.930 Y102.851 E0.2599
G1 X106.676 Y102.709 E0.2718
G1 X106.421 Y102.591 E0.2832
G1 X106.148 Y102.490 E0.2950
G1 X105.867 Y102.410 E0.3069
G1 X105.581 Y102.352 E0.3188
G1 X105.292 Y102.318 E0.3307
G1 X105.000 Y102.306 E0.3426
G1 X104.708 Y102.318 E0.3544
G1 X104.419 Y102.352 E0.3663
G1 X104.139 Y102.408 E0.3779
G1 X103.594 Y102.585 E0.4013
G1 X103.324 Y102.708 E0.4133
G1 X103.070 Y102.851 E0.4252
G1 X102.827 Y103.013 E0.4371
G1 X102.607 Y103.187 E0.4485
G1 X102.392 Y103.384 E0.4604
G1 X102.194 Y103.598 E0.4722
G1 X102.013 Y103.827 E0.4841
G1 X101.851 Y104.070 E0.4960
G1 X101.709 Y104.324 E0.5079
G1 X101.591 Y104.579 E0.5193
G1 X101.490 Y104.852 E0.5312
G1 X101.410 Y105.133 E0.5430
G1 X101.353 Y105.419 E0.5549
G1 X101.318 Y105.708 E0.5668
G1 X101.306 Y106.000 E0.5787
G1 X101.318 Y106.291 E0.5905
G1 X101.351 Y106.570 E0.6020
G1 X101.407 Y106.856 E0.6138
G1 X101.486 Y107.137 E0.6257
G1 X101.587 Y107.411 E0.6376
G1 X101.708 Y107.676 E0.6495
G1 X101.851 Y107.930 E0.6613
G1 X102.007 Y108.164 E0.6728
G1 X102.194 Y108.401 E0.6851
G1 X102.384 Y108.608 E0.6965
G1 X102.598 Y108.806 E0.7084
G1 X102.827 Y108.987 E0.7202
G1 X103.070 Y109.149 E0.7321
G1 X103.324 Y109.291 E0.7440
G1 X103.579 Y109.409 E0.7554
G1 X103.852 Y109.510 E0.7673
G1 X104.133 Y109.590 E0.7792
G1 X104.419 Y109.647 E0.7910
G1 X104.708 Y109.682 E0.8029
G1 X105.000 Y109.694 E0.8148
G1 X105.292 Y109.682 E0.8267
G1 X105.581 Y109.647 E0.8385
G1 X105.856 Y109.593 E0.8500
G1 X106.137 Y109.514 E0.8618
G1 X106.411 Y109.413 E0.8737
G1 X106.676 Y109.291 E0.8856
G1 X106.930 Y109.149 E0.8975
G1 X107.173 Y108.987 E0.9093
G1 X107.393 Y108.813 E0.9208
G1 X107.608 Y108.616 E0.9326
G1 X107.806 Y108.402 E0.9445
G1 X107.987 Y108.173 F900
G1 X108.149 Y107.930
G1 X108.286 Y107.686
G1 X108.409 Y107.421
G1 X108.510 Y107.148
G1 X108.590 Y106.867
G1 X108.641 Y106.611
; feature solid layer
G1 X109.704 Y104.273 F18000
G92 E0.0000
G1 X117.490 Y112.059 E0.4483 F1440
G1 X117.490 Y112.738 E0.4759
G1 X109.949 Y105.197 E0.9101
G1 X109.954 Y105.224 E0.9112
G1 X109.999 Y105.605 E0.9269
G1 X110.012 Y105.939 E0.9405
G1 X117.490 Y113.417 E1.3710
G1 X117.490 Y114.096 E1.3986
G1 X109.977 Y106.583 E1.8312
G1 X109.952 Y106.789 E1.8397
G1 X109.877 Y107.162 E1.8552
G1 X117.205 Y114.490 E2.2770
G1 X116.526 Y114.490 E2.3047
G1 X109.720 Y107.683 E2.6966
G1 X109.628 Y107.930 E2.7073
G1 X109.520 Y108.162 E2.7177
G1 X115.848 Y114.490 E3.0820
G1 X115.169 Y114.490 E3.1097
G1 X109.284 Y108.605 E3.4485
G1 X109.275 Y108.621 E3.4492
G1 X109.055 Y108.950 E3.4653
G1 X109.009 Y109.009 E3.4684
G1 X114.490 Y114.490 E3.7839
G1 X113.811 Y114.490 E3.8116
G1 X108.700 Y109.379 E4.1058
G1 X108.540 Y109.552 E4.1154
G1 X108.360 Y109.717 E4.1254
G1 X113.132 Y114.490 E4.4002
G1 X112.454 Y114.490 E4.4278
G1 X107.988 Y110.025 E4.6849
G1 X107.950 Y110.055 E4.6869
G1 X107.621 Y110.275 E4.7030
G1 X107.582 Y110.297 E4.7048
G1 X111.775 Y114.490 E4.9462
G1 X111.096 Y114.490 E4.9738
G1 X107.138 Y110.532 E5.2017
G1 X106.915 Y110.634 E5.2117
G1 X106.657 Y110.729 E5.2229
G1 X110.417 Y114.490 E5.4394
G1 X109.738 Y114.490 E5.4671
G1 X106.132 Y110.884 E5.6747
G1 X105.788 Y110.952 E5.6890
G1 X105.550 Y110.981 E5.6987
G1 X109.059 Y114.490 E5.9008
G1 X108.381 Y114.490 E5.9284
G1 X104.901 Y111.011 E6.1287
G1 X104.604 Y110.999 E6.1408
G1 X104.211 Y110.952 E6.1570
G1 X104.152 Y110.940 E6.1594
G1 X107.702 Y114.490 E6.3638
G1 X107.023 Y114.490 E6.3914
G1 X103.215 Y110.682 E6.6106
G1 X92.768 Y114.490 F18000
G92 E0.0000
G1 X92.510 Y114.232 E0.0148 F1440
G1 X92.510 Y113.553 E0.0425
G1 X93.447 Y114.490 E0.0964
G1 X94.125 Y114.490 E0.1240
G1 X92.510 Y112.875 E0.2170
G1 X92.510 Y112.196 E0.2447
G1 X94.804 Y114.490 E0.3767
G1 X95.483 Y114.490 E0.4044
G1 X92.510 Y111.517 E0.5755
G1 X92.510 Y110.838 E0.6032
G1 X96.162 Y114.490 E0.8134
G1 X96.841 Y114.490 E0.8411
G1 X92.510 Y110.159 E1.0904
G1 X92.510 Y109.481 E1.1180
G1 X97.519 Y114.490 E1.4064
G1 X98.198 Y114.490 E1.4341
G1 X92.510 Y108.802 E1.7616
G1 X92.510 Y108.123 E1.7892
G1 X98.877 Y114.490 E2.1558
G1 X99.556 Y114.490 E2.1834
G1 X92.510 Y107.444 E2.5891
G1 X92.510 Y106.765 E2.6167
G1 X100.235 Y114.490 E3.0614
G1 X100.914 Y114.490 E3.0891
G1 X92.510 Y106.086 E3.5729
G1 X92.510 Y105.408 E3.6005
G1 X101.592 Y114.490 E4.1234
G1 X102.271 Y114.490 E4.1511
G1 X92.510 Y104.729 E4.7130
G1 X92.510 Y104.050 E4.7407
G1 X102.950 Y114.490 E5.3417
G1 X103.629 Y114.490 E5.3694
G1 X92.510 Y103.371 E6.0095
G1 X92.510 Y102.692 E6.0372
G1 X104.308 Y114.490 E6.7164
