; G-Code generated by Simplify3D(R) Version 4.1.2
; Mar 31, 2021 at 8:18:23 PM
; Settings Summary
;   processName,Process1
;   applyToModels,dock-abstandshalterung,dock-abstandshalterung(2)
;   profileName,HBot (modified)
;   profileVersion,2019-10-26 23:38:43
;   baseProfile,Default
;   printMaterial,PETG - SUNLU
;   printQuality,Fast
;   printExtruders,
;   extruderName,Extruder 1,Extruder 2 - support
;   extruderToolheadNumber,0,1
;   extruderDiameter,0.4,0.4
;   extruderAutoWidth,1,1
;   extruderWidth,0.48,0.48
;   extrusionMultiplier,1.02,0.9
;   extruderUseRetract,1,0
;   extruderRetractionDistance,3,1
;   extruderExtraRestartDistance,0,0
;   extruderRetractionZLift,0,0
;   extruderRetractionSpeed,5400,1800
;   extruderUseCoasting,1,0
;   extruderCoastingDistance,0.2,0.2
;   extruderUseWipe,1,0
;   extruderWipeDistance,2,5
;   primaryExtruder,0
;   layerHeight,0.2
;   topSolidLayers,3
;   bottomSolidLayers,3
;   perimeterOutlines,3
;   printPerimetersInsideOut,1
;   startPointOption,3
;   startPointOriginX,110
;   startPointOriginY,300
;   sequentialIslands,0
;   spiralVaseMode,0
;   firstLayerHeightPercentage,100
;   firstLayerWidthPercentage,100
;   firstLayerUnderspeed,0.5
;   useRaft,0
;   raftExtruder,0
;   raftTopLayers,3
;   raftBaseLayers,2
;   raftOffset,3
;   raftSeparationDistance,0.18
;   raftTopInfill,100
;   aboveRaftSpeedMultiplier,0.3
;   useSkirt,1
;   skirtExtruder,0
;   skirtLayers,1
;   skirtOutlines,3
;   skirtOffset,10
;   usePrimePillar,0
;   primePillarExtruder,999
;   primePillarWidth,12
;   primePillarLocation,7
;   primePillarSpeedMultiplier,1
;   useOozeShield,0
;   oozeShieldExtruder,999
;   oozeShieldOffset,0.9
;   oozeShieldOutlines,2
;   oozeShieldSidewallShape,0
;   oozeShieldSidewallAngle,30
;   oozeShieldSpeedMultiplier,1.5
;   infillExtruder,0
;   internalInfillPattern,Fast Honeycomb
;   externalInfillPattern,Rectilinear
;   infillPercentage,15
;   outlineOverlapPercentage,25
;   infillExtrusionWidthPercentage,100
;   minInfillLength,5
;   infillLayerInterval,1
;   internalInfillAngles,0
;   overlapInternalInfillAngles,0
;   externalInfillAngles,45,-45
;   generateSupport,1
;   supportExtruder,0
;   supportInfillPercentage,20
;   supportExtraInflation,0
;   supportBaseLayers,1
;   denseSupportExtruder,0
;   denseSupportLayers,0
;   denseSupportInfillPercentage,70
;   supportLayerInterval,1
;   supportHorizontalPartOffset,0.3
;   supportUpperSeparationLayers,1
;   supportLowerSeparationLayers,1
;   supportType,0
;   supportGridSpacing,2
;   maxOverhangAngle,25
;   supportAngles,0
;   temperatureName,Extruder 1,Heated Bed,Extruder 2 - support
;   temperatureNumber,0,1,2
;   temperatureSetpointCount,2,1,1
;   temperatureSetpointLayers,1,2,1,1
;   temperatureSetpointTemperatures,215,215,85,0
;   temperatureStabilizeAtStartup,1,1,0
;   temperatureHeatedBed,0,1,0
;   fanLayers,1,5,10
;   fanSpeeds,0,5,20
;   blipFanToFullPower,1
;   adjustSpeedForCooling,0
;   minSpeedLayerTime,15
;   minCoolingSpeedSlowdown,20
;   increaseFanForCooling,1
;   minFanLayerTime,15
;   maxCoolingFanSpeed,40
;   increaseFanForBridging,1
;   bridgingFanSpeed,85
;   use5D,1
;   relativeEdistances,0
;   allowEaxisZeroing,1
;   independentExtruderAxes,0
;   includeM10123,0
;   stickySupport,1
;   applyToolheadOffsets,0
;   gcodeXoffset,0
;   gcodeYoffset,0
;   gcodeZoffset,0
;   overrideMachineDefinition,1
;   machineTypeOverride,0
;   strokeXoverride,210
;   strokeYoverride,210
;   strokeZoverride,150
;   originOffsetXoverride,0
;   originOffsetYoverride,0
;   originOffsetZoverride,0
;   homeXdirOverride,1
;   homeYdirOverride,-1
;   homeZdirOverride,-1
;   flipXoverride,1
;   flipYoverride,-1
;   flipZoverride,1
;   toolheadOffsets,0,0|0,0|0,0|0,0|0,0|0,0
;   overrideFirmwareConfiguration,0
;   firmwareTypeOverride,RepRap (Marlin/Repetier/Sprinter)
;   GPXconfigOverride,r2
;   baudRateOverride,115200
;   overridePrinterModels,0
;   printerModelsOverride
;   startingGcode,;G28 is now included in bed.g G28 ; home all axes,G32 ; run bed.g -- probe bed and enable compensation
;   layerChangeGcode,
;   retractionGcode,
;   toolChangeGcode,
;   endingGcode,M0 ; call stop.g
;   exportFileFormat,gcode
;   celebration,0
;   celebrationSong,Random Song
;   postProcessing,
;   defaultSpeed,3600
;   outlineUnderspeed,0.5
;   solidInfillUnderspeed,0.8
;   supportUnderspeed,0.8
;   rapidXYspeed,18000
;   rapidZspeed,1200
;   minBridgingArea,50
;   bridgingExtraInflation,0
;   bridgingExtrusionMultiplier,0.96
;   bridgingSpeedMultiplier,1
;   useFixedBridgingAngle,0
;   fixedBridgingAngle,0
;   applyBridgingToPerimeters,0
;   filamentDiameters,1.75|1.75|1.75|1.75|1.75|1.75
;   filamentPricesPerKg,46|46|46|46|46|46
;   filamentDensities,1.25|1.25|1.25|1.25|1.25|1.25
;   useMinPrintHeight,0
;   minPrintHeight,17.2
;   useMaxPrintHeight,0
;   maxPrintHeight,4
;   useDiaphragm,0
;   diaphragmLayerInterval,20
;   robustSlicing,1
;   mergeAllIntoSolid,0
;   onlyRetractWhenCrossingOutline,1
;   retractBetweenLayers,0
;   useRetractionMinTravel,1
;   retractionMinTravel,3
;   retractWhileWiping,1
;   onlyWipeOutlines,1
;   avoidCrossingOutline,1
;   maxMovementDetourFactor,5
;   toolChangeRetractionDistance,12
;   toolChangeExtraRestartDistance,-0.5
;   toolChangeRetractionSpeed,600
;   externalThinWallType,1
;   internalThinWallType,1
;   thinWallAllowedOverlapPercentage,10
;   singleExtrusionMinLength,1
;   singleExtrusionMinPrintingWidthPercentage,50
;   singleExtrusionMaxPrintingWidthPercentage,150
;   singleExtrusionEndpointExtension,0.2
;   horizontalSizeCompensation,0
G90
M82
M106 S0
M140 S85
M190 S85
G10 P0 S215 R{215-50}
G10 P2 S0 R{0-50}
M116 P0
;G28 is now included in bed.g G28 ; home all axes
G32 ; run bed.g -- probe bed and enable compensation
; process Process1
; layer 1, Z = 0.200
T0
G92 E0.0000
G1 E-3.0000 F5400
; feature skirt
; tool H0.200 W0.480
G1 Z0.200 F1200
G1 X132.139 Y151.200 F18000
G1 E0.0000 F5400
G92 E0.0000
G1 X77.861 Y151.200 E2.2097 F1800
G1 X71.300 Y144.639 E2.5874
G1 X71.300 Y65.361 E5.8149
G1 X77.861 Y58.800 E6.1926
G1 X132.139 Y58.800 E8.4023
G1 X138.700 Y65.361 E8.7800
G1 X138.700 Y144.639 E12.0075
G1 X132.139 Y151.200 E12.3852
G1 X131.940 Y150.720 F18000
G92 E0.0000
G1 X78.060 Y150.720 E2.1935 F1800
G1 X71.780 Y144.440 E2.5550
G1 X71.780 Y65.560 E5.7663
G1 X78.060 Y59.280 E6.1279
G1 X131.940 Y59.280 E8.3214
G1 X138.220 Y65.560 E8.6829
G1 X138.220 Y144.440 E11.8942
G1 X131.940 Y150.720 E12.2557
G1 X131.742 Y150.240 F18000
G92 E0.0000
G1 X78.258 Y150.240 E2.1773 F1800
G1 X72.260 Y144.242 E2.5227
G1 X72.260 Y65.758 E5.7177
G1 X78.258 Y59.760 E6.0631
G1 X131.742 Y59.760 E8.2404
G1 X137.740 Y65.758 E8.5858
G1 X137.740 Y144.242 E11.7808
G1 X131.742 Y150.240 E12.1262
G92 E0.0000
G1 E-3.0000 F5400
; feature inner perimeter
G1 X102.260 Y139.760 F18000
G1 X102.260 Y139.161
G1 X101.300 Y138.800
G1 E0.0000 F5400
G92 E0.0000
G1 X83.700 Y138.800 E0.7165 F1350
G1 X83.700 Y71.200 E3.4685
G1 X101.300 Y71.200 E4.1850
G1 X101.300 Y138.600 E6.9289
G1 X101.300 Y138.800 F1350
G1 X101.780 Y139.280 F18000
G92 E0.0000
G1 X83.220 Y139.280 E0.7556 F1350
G1 X83.220 Y70.720 E3.5467
G1 X101.780 Y70.720 E4.3023
G1 X101.780 Y139.080 E7.0852
G1 X101.780 Y139.280 F1350
; feature outer perimeter
G1 X102.260 Y139.760 F18000
G92 E0.0000
G1 X82.740 Y139.760 E0.7947 F900
G1 X82.740 Y70.240 E3.6249
G1 X102.260 Y70.240 E4.4195
G1 X102.260 Y139.560 E7.2416
G1 X102.260 Y139.760 F900
G1 X100.260 Y139.760 F900
; feature inner perimeter
G1 X94.915 Y136.517 F18000
G92 E0.0000
G1 X95.069 Y136.237 E0.0130 F1350
G1 X95.192 Y135.942 E0.0260
G1 X95.280 Y135.635 E0.0391
G1 X95.334 Y135.319 E0.0521
G1 X95.352 Y135.000 E0.0651
G1 X95.334 Y134.681 E0.0781
G1 X95.280 Y134.365 E0.0911
G1 X95.192 Y134.058 E0.1042
G1 X95.070 Y133.763 E0.1172
G1 X94.915 Y133.483 E0.1302
G1 X94.730 Y133.222 E0.1432
G1 X94.517 Y132.983 E0.1562
G1 X94.278 Y132.770 E0.1693
G1 X94.017 Y132.585 E0.1823
G1 X93.737 Y132.430 E0.1953
G1 X93.442 Y132.308 E0.2083
G1 X93.135 Y132.220 E0.2213
G1 X92.819 Y132.166 E0.2344
G1 X92.500 Y132.148 E0.2474
G1 X92.181 Y132.166 E0.2604
G1 X91.865 Y132.220 E0.2734
G1 X91.558 Y132.308 E0.2864
G1 X91.263 Y132.430 E0.2995
G1 X90.983 Y132.585 E0.3125
G1 X90.722 Y132.770 E0.3255
G1 X90.483 Y132.983 E0.3385
G1 X90.270 Y133.222 E0.3515
G1 X90.085 Y133.483 E0.3646
G1 X89.930 Y133.763 E0.3776
G1 X89.808 Y134.058 E0.3906
G1 X89.720 Y134.365 E0.4036
G1 X89.666 Y134.681 E0.4166
G1 X89.648 Y135.000 E0.4297
G1 X89.666 Y135.319 E0.4427
G1 X89.720 Y135.635 E0.4557
G1 X89.808 Y135.942 E0.4687
G1 X89.930 Y136.237 E0.4817
G1 X90.085 Y136.517 E0.4948
G1 X90.270 Y136.778 E0.5078
G1 X90.483 Y137.017 E0.5208
G1 X90.722 Y137.230 E0.5338
G1 X90.983 Y137.415 E0.5468
G1 X91.263 Y137.570 E0.5599
G1 X91.558 Y137.692 E0.5729
G1 X91.865 Y137.780 E0.5859
G1 X92.181 Y137.834 E0.5989
G1 X92.500 Y137.852 E0.6119
G1 X92.819 Y137.834 E0.6249
G1 X93.135 Y137.780 E0.6380
G1 X93.442 Y137.692 E0.6510
G1 X93.737 Y137.570 E0.6640
G1 X94.017 Y137.415 E0.6770
G1 X94.278 Y137.230 E0.6900
G1 X94.517 Y137.017 E0.7031
G1 X94.730 Y136.778 E0.7161
G1 X94.799 Y136.680 E0.7210
G1 X94.915 Y136.517 F1350
G1 X94.508 Y136.261 F18000
G92 E0.0000
G1 X94.636 Y136.029 E0.0108 F1350
G1 X94.738 Y135.783 E0.0216
G1 X94.812 Y135.528 E0.0325
G1 X94.856 Y135.265 E0.0433
G1 X94.871 Y135.000 E0.0541
G1 X94.856 Y134.735 E0.0649
G1 X94.812 Y134.472 E0.0758
G1 X94.738 Y134.217 E0.0866
G1 X94.636 Y133.971 E0.0974
G1 X94.508 Y133.739 E0.1082
G1 X94.354 Y133.522 E0.1191
G1 X94.177 Y133.323 E0.1299
G1 X93.978 Y133.146 E0.1407
G1 X93.762 Y132.992 E0.1515
G1 X93.529 Y132.864 E0.1624
G1 X93.283 Y132.762 E0.1732
G1 X93.028 Y132.688 E0.1840
G1 X92.766 Y132.644 E0.1948
G1 X92.500 Y132.629 E0.2057
G1 X92.234 Y132.644 E0.2165
G1 X91.972 Y132.688 E0.2273
G1 X91.717 Y132.762 E0.2381
G1 X91.471 Y132.864 E0.2490
G1 X91.238 Y132.992 E0.2598
G1 X91.022 Y133.146 E0.2706
G1 X90.823 Y133.323 E0.2814
G1 X90.646 Y133.522 E0.2923
G1 X90.492 Y133.739 E0.3031
G1 X90.364 Y133.971 E0.3139
G1 X90.262 Y134.217 E0.3247
G1 X90.188 Y134.472 E0.3356
G1 X90.144 Y134.735 E0.3464
G1 X90.129 Y135.000 E0.3572
G1 X90.144 Y135.265 E0.3680
G1 X90.188 Y135.528 E0.3789
G1 X90.262 Y135.783 E0.3897
G1 X90.364 Y136.029 E0.4005
G1 X90.492 Y136.261 E0.4113
G1 X90.646 Y136.478 E0.4222
G1 X90.823 Y136.677 E0.4330
G1 X91.022 Y136.854 E0.4438
G1 X91.238 Y137.008 E0.4546
G1 X91.471 Y137.136 E0.4655
G1 X91.717 Y137.238 E0.4763
G1 X91.972 Y137.312 E0.4871
G1 X92.235 Y137.356 E0.4979
G1 X92.500 Y137.371 E0.5088
G1 X92.765 Y137.356 E0.5196
G1 X93.028 Y137.312 E0.5304
G1 X93.283 Y137.238 E0.5412
G1 X93.529 Y137.136 E0.5521
G1 X93.762 Y137.008 E0.5629
G1 X93.978 Y136.854 E0.5737
G1 X94.177 Y136.677 E0.5845
G1 X94.354 Y136.478 E0.5954
G1 X94.392 Y136.425 E0.5981
G1 X94.508 Y136.261 F1350
; feature outer perimeter
G1 X94.101 Y136.006 F18000
G92 E0.0000
G1 X94.203 Y135.820 E0.0086 F900
G1 X94.284 Y135.624 E0.0173
G1 X94.343 Y135.421 E0.0259
G1 X94.378 Y135.212 E0.0345
G1 X94.390 Y135.000 E0.0431
G1 X94.378 Y134.788 E0.0518
G1 X94.343 Y134.579 E0.0604
G1 X94.284 Y134.376 E0.0690
G1 X94.203 Y134.180 E0.0777
G1 X94.101 Y133.994 E0.0863
G1 X93.978 Y133.821 E0.0949
G1 X93.837 Y133.663 E0.1036
G1 X93.679 Y133.522 E0.1122
G1 X93.506 Y133.399 E0.1208
G1 X93.320 Y133.297 E0.1295
G1 X93.124 Y133.216 E0.1381
G1 X92.921 Y133.157 E0.1467
G1 X92.712 Y133.121 E0.1553
G1 X92.500 Y133.110 E0.1640
G1 X92.288 Y133.121 E0.1726
G1 X92.079 Y133.157 E0.1812
G1 X91.876 Y133.216 E0.1899
G1 X91.680 Y133.297 E0.1985
G1 X91.494 Y133.399 E0.2071
G1 X91.321 Y133.522 E0.2158
G1 X91.163 Y133.663 E0.2244
G1 X91.022 Y133.821 E0.2330
G1 X90.899 Y133.994 E0.2416
G1 X90.797 Y134.180 E0.2503
G1 X90.716 Y134.376 E0.2589
G1 X90.657 Y134.579 E0.2675
G1 X90.621 Y134.788 E0.2762
G1 X90.610 Y135.000 E0.2848
G1 X90.621 Y135.212 E0.2934
G1 X90.657 Y135.421 E0.3021
G1 X90.716 Y135.624 E0.3107
G1 X90.797 Y135.820 E0.3193
G1 X90.899 Y136.006 E0.3279
G1 X91.022 Y136.179 E0.3366
G1 X91.163 Y136.337 E0.3452
G1 X91.321 Y136.478 E0.3538
G1 X91.494 Y136.601 E0.3625
G1 X91.680 Y136.703 E0.3711
G1 X91.876 Y136.784 E0.3797
G1 X92.079 Y136.843 E0.3884
G1 X92.288 Y136.879 E0.3970
G1 X92.500 Y136.890 E0.4056
G1 X92.712 Y136.879 E0.4142
G1 X92.921 Y136.843 E0.4229
G1 X93.124 Y136.784 E0.4315
G1 X93.320 Y136.703 E0.4401
G1 X93.506 Y136.601 E0.4488
G1 X93.679 Y136.478 E0.4574
G1 X93.837 Y136.337 E0.4660
G1 X93.978 Y136.179 E0.4747
G1 X93.985 Y136.169 E0.4751
G1 X94.101 Y136.006 F900
G1 X94.203 Y135.820 F900
G1 X94.284 Y135.624
G1 X94.343 Y135.421
G1 X94.378 Y135.212
G1 X94.390 Y135.000
G1 X94.378 Y134.788
G1 X94.343 Y134.579
G1 X94.284 Y134.376
G1 X94.203 Y134.180
G1 X94.159 Y134.099
; feature inner perimeter
G1 X92.820 Y122.633 F18000
G92 E0.0000
G1 X93.135 Y122.575 E0.0130 F1350
G1 X93.440 Y122.480 E0.0261
G1 X93.733 Y122.348 E0.0391
G1 X94.007 Y122.183 E0.0522
G1 X94.259 Y121.985 E0.0652
G1 X94.485 Y121.759 E0.0782
G1 X94.683 Y121.507 E0.0913
G1 X94.848 Y121.233 E0.1043
G1 X94.980 Y120.940 E0.1173
G1 X95.075 Y120.635 E0.1304
G1 X95.133 Y120.320 E0.1434
G1 X95.152 Y120.000 E0.1565
G1 X95.133 Y119.680 E0.1695
G1 X95.075 Y119.365 E0.1825
G1 X94.980 Y119.060 E0.1956
G1 X94.848 Y118.767 E0.2086
G1 X94.683 Y118.493 E0.2216
G1 X94.485 Y118.241 E0.2347
G1 X94.259 Y118.015 E0.2477
G1 X94.007 Y117.817 E0.2608
G1 X93.733 Y117.652 E0.2738
G1 X93.440 Y117.520 E0.2868
G1 X93.135 Y117.425 E0.2999
G1 X92.820 Y117.367 E0.3129
G1 X92.501 Y117.348 E0.3259
G1 X92.182 Y117.367 E0.3389
G1 X91.866 Y117.425 E0.3520
G1 X91.560 Y117.520 E0.3651
G1 X91.267 Y117.652 E0.3781
G1 X90.993 Y117.817 E0.3911
G1 X90.741 Y118.015 E0.4042
G1 X90.515 Y118.241 E0.4172
G1 X90.317 Y118.493 E0.4303
G1 X90.152 Y118.767 E0.4433
G1 X90.020 Y119.060 E0.4563
G1 X89.925 Y119.365 E0.4694
G1 X89.867 Y119.680 E0.4824
G1 X89.848 Y120.000 E0.4955
G1 X89.867 Y120.320 E0.5085
G1 X89.925 Y120.635 E0.5215
G1 X90.020 Y120.940 E0.5346
G1 X90.152 Y121.233 E0.5476
G1 X90.317 Y121.507 E0.5606
G1 X90.515 Y121.759 E0.5737
G1 X90.741 Y121.985 E0.5867
G1 X90.993 Y122.183 E0.5998
G1 X91.267 Y122.348 E0.6128
G1 X91.560 Y122.480 E0.6258
G1 X91.865 Y122.575 E0.6389
G1 X92.180 Y122.633 E0.6519
G1 X92.500 Y122.652 E0.6650
G1 X92.620 Y122.645 E0.6699
G1 X92.820 Y122.633 F1350
G1 X92.762 Y122.155 F18000
G92 E0.0000
G1 X93.020 Y122.108 E0.0107 F1350
G1 X93.270 Y122.030 E0.0213
G1 X93.509 Y121.923 E0.0320
G1 X93.733 Y121.787 E0.0427
G1 X93.940 Y121.625 E0.0534
G1 X94.125 Y121.440 E0.0640
G1 X94.287 Y121.233 E0.0747
G1 X94.423 Y121.009 E0.0854
G1 X94.530 Y120.770 E0.0961
G1 X94.608 Y120.520 E0.1067
G1 X94.655 Y120.262 E0.1174
G1 X94.671 Y120.000 E0.1281
G1 X94.655 Y119.738 E0.1388
G1 X94.608 Y119.480 E0.1494
G1 X94.530 Y119.230 E0.1601
G1 X94.423 Y118.991 E0.1708
G1 X94.287 Y118.767 E0.1815
G1 X94.125 Y118.560 E0.1921
G1 X93.940 Y118.375 E0.2028
G1 X93.733 Y118.213 E0.2135
G1 X93.509 Y118.077 E0.2242
G1 X93.270 Y117.970 E0.2348
G1 X93.020 Y117.892 E0.2455
G1 X92.762 Y117.845 E0.2562
G1 X92.501 Y117.829 E0.2668
G1 X92.240 Y117.844 E0.2775
G1 X91.981 Y117.892 E0.2882
G1 X91.730 Y117.970 E0.2989
G1 X91.491 Y118.077 E0.3096
G1 X91.267 Y118.213 E0.3202
G1 X91.060 Y118.375 E0.3309
G1 X90.875 Y118.560 E0.3416
G1 X90.713 Y118.767 E0.3523
G1 X90.577 Y118.991 E0.3629
G1 X90.470 Y119.230 E0.3736
G1 X90.392 Y119.480 E0.3843
G1 X90.345 Y119.738 E0.3949
G1 X90.329 Y120.000 E0.4056
G1 X90.345 Y120.262 E0.4163
G1 X90.392 Y120.520 E0.4270
G1 X90.470 Y120.770 E0.4376
G1 X90.577 Y121.009 E0.4483
G1 X90.713 Y121.233 E0.4590
G1 X90.875 Y121.440 E0.4697
G1 X91.060 Y121.625 E0.4803
G1 X91.267 Y121.787 E0.4910
G1 X91.491 Y121.923 E0.5017
G1 X91.730 Y122.030 E0.5124
G1 X91.980 Y122.108 E0.5230
G1 X92.238 Y122.155 E0.5337
G1 X92.500 Y122.171 E0.5444
G1 X92.562 Y122.168 E0.5469
G1 X92.762 Y122.155 F1350
; feature outer perimeter
G1 X92.704 Y121.678 F18000
G92 E0.0000
G1 X92.905 Y121.641 E0.0083 F900
G1 X93.099 Y121.581 E0.0166
G1 X93.286 Y121.497 E0.0249
G1 X93.460 Y121.391 E0.0332
G1 X93.621 Y121.265 E0.0415
G1 X93.765 Y121.121 E0.0499
G1 X93.891 Y120.960 E0.0582
G1 X93.997 Y120.786 E0.0665
