; G-Code generated by Simplify3D(R) Version 4.1.2
; Jan 4, 2021 at 5:45:03 PM
; Settings Summary
;   processName,Process1
;   applyToModels,duex5-halterung-2020
;   profileName,HBot (modified)
;   profileVersion,2019-10-26 23:38:43
;   baseProfile,Default
;   printMaterial,PLA - ERYONE
;   printQuality,Fast
;   printExtruders,
;   extruderName,Extruder 1
;   extruderToolheadNumber,0
;   extruderDiameter,0.4
;   extruderAutoWidth,1
;   extruderWidth,0.48
;   extrusionMultiplier,1
;   extruderUseRetract,1
;   extruderRetractionDistance,4
;   extruderExtraRestartDistance,0
;   extruderRetractionZLift,0
;   extruderRetractionSpeed,5400
;   extruderUseCoasting,0
;   extruderCoastingDistance,0.2
;   extruderUseWipe,1
;   extruderWipeDistance,5
;   primaryExtruder,0
;   layerHeight,0.3
;   topSolidLayers,3
;   bottomSolidLayers,3
;   perimeterOutlines,3
;   printPerimetersInsideOut,1
;   startPointOption,3
;   startPointOriginX,110
;   startPointOriginY,300
;   sequentialIslands,0
;   spiralVaseMode,0
;   firstLayerHeightPercentage,100
;   firstLayerWidthPercentage,100
;   firstLayerUnderspeed,0.5
;   useRaft,0
;   raftExtruder,0
;   raftTopLayers,3
;   raftBaseLayers,2
;   raftOffset,3
;   raftSeparationDistance,0.18
;   raftTopInfill,100
;   aboveRaftSpeedMultiplier,0.3
;   useSkirt,1
;   skirtExtruder,0
;   skirtLayers,1
;   skirtOutlines,10
;   skirtOffset,0
;   usePrimePillar,0
;   primePillarExtruder,999
;   primePillarWidth,12
;   primePillarLocation,7
;   primePillarSpeedMultiplier,1
;   useOozeShield,0
;   oozeShieldExtruder,999
;   oozeShieldOffset,0.9
;   oozeShieldOutlines,2
;   oozeShieldSidewallShape,0
;   oozeShieldSidewallAngle,30
;   oozeShieldSpeedMultiplier,1.5
;   infillExtruder,0
;   internalInfillPattern,Fast Honeycomb
;   externalInfillPattern,Rectilinear
;   infillPercentage,10
;   outlineOverlapPercentage,25
;   infillExtrusionWidthPercentage,100
;   minInfillLength,5
;   infillLayerInterval,1
;   internalInfillAngles,0
;   overlapInternalInfillAngles,0
;   externalInfillAngles,45,-45
;   generateSupport,0
;   supportExtruder,0
;   supportInfillPercentage,25
;   supportExtraInflation,0
;   supportBaseLayers,0
;   denseSupportExtruder,0
;   denseSupportLayers,0
;   denseSupportInfillPercentage,70
;   supportLayerInterval,1
;   supportHorizontalPartOffset,0.3
;   supportUpperSeparationLayers,1
;   supportLowerSeparationLayers,1
;   supportType,0
;   supportGridSpacing,2
;   maxOverhangAngle,25
;   supportAngles,0
;   temperatureName,Extruder 1,Heated Bed
;   temperatureNumber,0,1
;   temperatureSetpointCount,2,1
;   temperatureSetpointLayers,1,2,1
;   temperatureSetpointTemperatures,215,215,65
;   temperatureStabilizeAtStartup,1,1
;   temperatureHeatedBed,0,1
;   fanLayers,1,5,10
;   fanSpeeds,0,15,30
;   blipFanToFullPower,1
;   adjustSpeedForCooling,0
;   minSpeedLayerTime,15
;   minCoolingSpeedSlowdown,20
;   increaseFanForCooling,1
;   minFanLayerTime,15
;   maxCoolingFanSpeed,40
;   increaseFanForBridging,1
;   bridgingFanSpeed,85
;   use5D,1
;   relativeEdistances,0
;   allowEaxisZeroing,1
;   independentExtruderAxes,0
;   includeM10123,0
;   stickySupport,1
;   applyToolheadOffsets,0
;   gcodeXoffset,0
;   gcodeYoffset,0
;   gcodeZoffset,0
;   overrideMachineDefinition,1
;   machineTypeOverride,0
;   strokeXoverride,210
;   strokeYoverride,210
;   strokeZoverride,150
;   originOffsetXoverride,0
;   originOffsetYoverride,0
;   originOffsetZoverride,0
;   homeXdirOverride,-1
;   homeYdirOverride,-1
;   homeZdirOverride,-1
;   flipXoverride,1
;   flipYoverride,-1
;   flipZoverride,1
;   toolheadOffsets,0,0|0,0|0,0|0,0|0,0|0,0
;   overrideFirmwareConfiguration,1
;   firmwareTypeOverride,RepRap (Marlin/Repetier/Sprinter)
;   GPXconfigOverride,r2
;   baudRateOverride,115200
;   overridePrinterModels,0
;   printerModelsOverride
;   startingGcode,G28 ; home all axes,G32 ; run bed.g -- probe bed and enable compensation
;   layerChangeGcode,
;   retractionGcode,
;   toolChangeGcode,
;   endingGcode,M0 ; call stop.g
;   exportFileFormat,gcode
;   celebration,0
;   celebrationSong,Random Song
;   postProcessing,
;   defaultSpeed,4800
;   outlineUnderspeed,0.5
;   solidInfillUnderspeed,0.8
;   supportUnderspeed,0.8
;   rapidXYspeed,18000
;   rapidZspeed,1200
;   minBridgingArea,50
;   bridgingExtraInflation,0
;   bridgingExtrusionMultiplier,0.96
;   bridgingSpeedMultiplier,1
;   useFixedBridgingAngle,0
;   fixedBridgingAngle,0
;   applyBridgingToPerimeters,0
;   filamentDiameters,1.75|1.75|1.75|1.75|1.75|1.75
;   filamentPricesPerKg,46|46|46|46|46|46
;   filamentDensities,1.25|1.25|1.25|1.25|1.25|1.25
;   useMinPrintHeight,0
;   minPrintHeight,17.2
;   useMaxPrintHeight,0
;   maxPrintHeight,15
;   useDiaphragm,0
;   diaphragmLayerInterval,20
;   robustSlicing,1
;   mergeAllIntoSolid,0
;   onlyRetractWhenCrossingOutline,1
;   retractBetweenLayers,0
;   useRetractionMinTravel,1
;   retractionMinTravel,3
;   retractWhileWiping,1
;   onlyWipeOutlines,1
;   avoidCrossingOutline,1
;   maxMovementDetourFactor,5
;   toolChangeRetractionDistance,12
;   toolChangeExtraRestartDistance,-0.5
;   toolChangeRetractionSpeed,600
;   externalThinWallType,0
;   internalThinWallType,2
;   thinWallAllowedOverlapPercentage,10
;   singleExtrusionMinLength,1
;   singleExtrusionMinPrintingWidthPercentage,50
;   singleExtrusionMaxPrintingWidthPercentage,150
;   singleExtrusionEndpointExtension,0.2
;   horizontalSizeCompensation,-0.1
G90
M82
M106 S0
M140 S65
M190 S65
M104 S215 T0
M109 S215 T0
G28 ; home all axes
G32 ; run bed.g -- probe bed and enable compensation
; process Process1
; layer 1, Z = 0.300
T0
G92 E0.0000
G1 E-4.0000 F5400
; feature skirt
; tool H0.300 W0.480
G1 Z0.300 F1200
G1 X156.107 Y173.960 F18000
G1 E0.0000 F5400
G92 E0.0000
G1 X53.893 Y173.960 E6.1194 F2400
G1 X53.669 Y173.949 E6.1328
G1 X52.960 Y173.879 E6.1755
G1 X52.520 Y173.792 E6.2023
G1 X51.678 Y173.536 E6.2550
G1 X51.163 Y173.308 E6.2887
G1 X50.161 Y172.705 E6.3588
G1 X49.644 Y172.282 E6.3987
G1 X48.857 Y171.415 E6.4688
G1 X48.533 Y170.955 E6.5025
G1 X48.118 Y170.179 E6.5552
G1 X47.946 Y169.765 E6.5820
G1 X47.708 Y168.980 E6.6312
G1 X47.621 Y168.540 E6.6580
G1 X47.551 Y167.831 E6.7007
G1 X47.540 Y167.607 E6.7141
G1 X47.540 Y42.393 E14.2104
G1 X47.551 Y42.169 E14.2238
G1 X47.621 Y41.460 E14.2665
G1 X47.708 Y41.020 E14.2934
G1 X47.946 Y40.235 E14.3425
G1 X48.118 Y39.821 E14.3693
G1 X48.505 Y39.097 E14.4184
G1 X48.754 Y38.725 E14.4453
G1 X49.274 Y38.091 E14.4943
G1 X49.590 Y37.774 E14.5211
G1 X50.225 Y37.254 E14.5703
G1 X50.597 Y37.005 E14.5971
G1 X51.370 Y36.592 E14.6496
G1 X51.892 Y36.390 E14.6831
G1 X52.975 Y36.118 E14.7499
G1 X53.532 Y36.049 E14.7835
G1 X156.107 Y36.040 E20.9245
G1 X156.331 Y36.051 E20.9379
G1 X157.039 Y36.121 E20.9805
G1 X157.479 Y36.208 E21.0073
G1 X158.264 Y36.446 E21.0565
G1 X158.678 Y36.617 E21.0833
G1 X159.455 Y37.033 E21.1361
G1 X159.915 Y37.357 E21.1697
G1 X160.782 Y38.144 E21.2398
G1 X161.205 Y38.661 E21.2798
G1 X161.808 Y39.663 E21.3498
G1 X162.036 Y40.177 E21.3835
G1 X162.292 Y41.021 E21.4363
G1 X162.379 Y41.460 E21.4631
G1 X162.449 Y42.171 E21.5059
G1 X162.460 Y42.395 E21.5193
G1 X162.460 Y167.606 E29.0154
G1 X162.449 Y167.829 E29.0288
G1 X162.379 Y168.539 E29.0716
G1 X162.292 Y168.979 E29.0984
G1 X162.036 Y169.822 E29.1512
G1 X161.808 Y170.337 E29.1848
G1 X161.233 Y171.293 E29.2516
G1 X160.890 Y171.733 E29.2850
G1 X160.232 Y172.390 E29.3407
G1 X159.792 Y172.734 E29.3741
G1 X158.837 Y173.308 E29.4408
G1 X158.323 Y173.536 E29.4745
G1 X157.480 Y173.792 E29.5273
G1 X157.040 Y173.879 E29.5541
G1 X156.331 Y173.949 E29.5968
G1 X156.107 Y173.960 E29.6102
G1 X156.096 Y173.480 F18000
G92 E0.0000
G1 X53.904 Y173.480 E6.1180 F2400
G1 X53.704 Y173.470 E6.1300
G1 X53.030 Y173.404 E6.1706
G1 X52.637 Y173.326 E6.1946
G1 X51.845 Y173.085 E6.2441
G1 X51.385 Y172.881 E6.2742
G1 X50.438 Y172.312 E6.3404
G1 X49.976 Y171.933 E6.3762
G1 X49.232 Y171.114 E6.4424
G1 X48.942 Y170.703 E6.4725
G1 X48.552 Y169.973 E6.5220
G1 X48.399 Y169.603 E6.5460
G1 X48.174 Y168.863 E6.5923
G1 X48.096 Y168.470 E6.6163
G1 X48.030 Y167.796 E6.6569
G1 X48.020 Y167.596 E6.6689
G1 X48.020 Y42.404 E14.1638
G1 X48.030 Y42.204 E14.1758
G1 X48.096 Y41.530 E14.2164
G1 X48.174 Y41.137 E14.2404
G1 X48.399 Y40.397 E14.2867
G1 X48.552 Y40.027 E14.3107
G1 X48.917 Y39.344 E14.3570
G1 X49.140 Y39.011 E14.3810
G1 X49.630 Y38.414 E14.4272
G1 X49.913 Y38.130 E14.4512
G1 X50.511 Y37.640 E14.4975
G1 X50.844 Y37.417 E14.5216
G1 X51.571 Y37.029 E14.5709
G1 X52.037 Y36.849 E14.6008
G1 X53.063 Y36.591 E14.6641
G1 X53.562 Y36.529 E14.6942
G1 X156.095 Y36.520 E20.8327
G1 X156.295 Y36.530 E20.8447
G1 X156.969 Y36.596 E20.8852
G1 X157.362 Y36.674 E20.9092
G1 X158.102 Y36.899 E20.9555
G1 X158.473 Y37.052 E20.9795
G1 X159.203 Y37.442 E21.0291
G1 X159.614 Y37.732 E21.0592
G1 X160.433 Y38.476 E21.1255
G1 X160.812 Y38.938 E21.1612
G1 X161.381 Y39.885 E21.2274
G1 X161.585 Y40.345 E21.2575
G1 X161.826 Y41.138 E21.3071
G1 X161.904 Y41.531 E21.3311
G1 X161.970 Y42.206 E21.3717
G1 X161.980 Y42.406 E21.3837
G1 X161.980 Y167.594 E28.8785
G1 X161.970 Y167.794 E28.8905
G1 X161.904 Y168.469 E28.9311
G1 X161.826 Y168.862 E28.9551
G1 X161.585 Y169.655 E29.0047
G1 X161.381 Y170.115 E29.0348
G1 X160.837 Y171.021 E29.0981
G1 X160.529 Y171.414 E29.1279
G1 X159.913 Y172.030 E29.1801
G1 X159.520 Y172.337 E29.2100
G1 X158.615 Y172.881 E29.2732
G1 X158.155 Y173.085 E29.3033
G1 X157.363 Y173.326 E29.3529
G1 X156.970 Y173.404 E29.3769
G1 X156.296 Y173.470 E29.4174
G1 X156.096 Y173.480 E29.4294
G1 X156.084 Y173.000 F18000
G92 E0.0000
G1 X53.916 Y173.000 E6.1166 F2400
G1 X53.740 Y172.991 E6.1272
G1 X53.101 Y172.928 E6.1656
G1 X52.754 Y172.859 E6.1868
G1 X52.013 Y172.635 E6.2331
G1 X51.607 Y172.454 E6.2597
G1 X50.715 Y171.919 E6.3220
G1 X50.308 Y171.584 E6.3536
G1 X49.608 Y170.813 E6.4159
G1 X49.352 Y170.450 E6.4425
G1 X48.987 Y169.768 E6.4888
G1 X48.851 Y169.441 E6.5100
G1 X48.641 Y168.746 E6.5535
G1 X48.572 Y168.399 E6.5747
G1 X48.509 Y167.760 E6.6131
G1 X48.500 Y167.584 E6.6237
G1 X48.500 Y42.416 E14.1172
G1 X48.509 Y42.240 E14.1278
G1 X48.572 Y41.601 E14.1663
G1 X48.641 Y41.254 E14.1875
G1 X48.851 Y40.559 E14.2309
G1 X48.987 Y40.232 E14.2521
G1 X49.329 Y39.591 E14.2956
G1 X49.526 Y39.297 E14.3168
G1 X49.986 Y38.737 E14.3602
G1 X50.236 Y38.487 E14.3814
G1 X50.797 Y38.026 E14.4248
G1 X51.091 Y37.829 E14.4460
G1 X51.771 Y37.466 E14.4921
G1 X52.183 Y37.307 E14.5186
G1 X53.152 Y37.064 E14.5784
G1 X53.591 Y37.009 E14.6049
G1 X156.083 Y37.000 E20.7409
G1 X156.260 Y37.009 E20.7515
G1 X156.898 Y37.072 E20.7899
G1 X157.245 Y37.140 E20.8111
G1 X157.940 Y37.351 E20.8546
G1 X158.267 Y37.486 E20.8757
G1 X158.950 Y37.852 E20.9221
G1 X159.314 Y38.108 E20.9487
G1 X160.084 Y38.808 E21.0111
G1 X160.419 Y39.215 E21.0426
G1 X160.954 Y40.107 E21.1049
G1 X161.135 Y40.513 E21.1315
G1 X161.360 Y41.254 E21.1779
G1 X161.428 Y41.601 E21.1991
G1 X161.491 Y42.241 E21.2375
G1 X161.500 Y42.418 E21.2481
G1 X161.500 Y167.582 E28.7415
G1 X161.491 Y167.759 E28.7521
G1 X161.428 Y168.399 E28.7906
G1 X161.360 Y168.746 E28.8118
G1 X161.135 Y169.487 E28.8581
G1 X160.954 Y169.893 E28.8847
G1 X160.441 Y170.748 E28.9445
G1 X160.169 Y171.095 E28.9708
G1 X159.595 Y171.670 E29.0195
G1 X159.248 Y171.941 E29.0459
G1 X158.393 Y172.454 E29.1055
G1 X157.987 Y172.635 E29.1321
G1 X157.246 Y172.859 E29.1785
G1 X156.899 Y172.928 E29.1997
G1 X156.260 Y172.991 E29.2381
G1 X156.084 Y173.000 E29.2487
G1 X156.072 Y172.520 F18000
G92 E0.0000
G1 X53.928 Y172.520 E6.1152 F2400
G1 X53.775 Y172.512 E6.1243
G1 X53.171 Y172.453 E6.1607
G1 X52.870 Y172.393 E6.1790
G1 X52.181 Y172.184 E6.2222
G1 X51.829 Y172.028 E6.2452
G1 X50.992 Y171.525 E6.3036
G1 X50.639 Y171.235 E6.3310
G1 X49.983 Y170.513 E6.3894
G1 X49.761 Y170.198 E6.4125
G1 X49.421 Y169.562 E6.4556
G1 X49.304 Y169.279 E6.4740
G1 X49.107 Y168.630 E6.5146
G1 X49.047 Y168.329 E6.5330
G1 X48.988 Y167.725 E6.5693
G1 X48.980 Y167.572 E6.5785
G1 X48.980 Y42.428 E14.0706
G1 X48.988 Y42.275 E14.0798
G1 X49.047 Y41.671 E14.1161
G1 X49.107 Y41.370 E14.1345
G1 X49.304 Y40.721 E14.1751
G1 X49.421 Y40.438 E14.1935
G1 X49.741 Y39.838 E14.2342
G1 X49.912 Y39.584 E14.2525
G1 X50.342 Y39.059 E14.2931
G1 X50.559 Y38.843 E14.3115
G1 X51.084 Y38.412 E14.3521
G1 X51.339 Y38.241 E14.3705
G1 X51.971 Y37.903 E14.4134
G1 X52.328 Y37.765 E14.4363
G1 X53.240 Y37.537 E14.4926
G1 X53.621 Y37.489 E14.5156
G1 X156.072 Y37.480 E20.6491
G1 X156.225 Y37.488 E20.6583
G1 X156.828 Y37.547 E20.6946
G1 X157.129 Y37.607 E20.7130
G1 X157.779 Y37.804 E20.7536
G1 X158.062 Y37.921 E20.7720
G1 X158.698 Y38.261 E20.8152
G1 X159.013 Y38.483 E20.8382
G1 X159.736 Y39.139 E20.8967
G1 X160.025 Y39.493 E20.9240
G1 X160.528 Y40.329 E20.9824
G1 X160.684 Y40.681 E21.0055
G1 X160.893 Y41.371 E21.0487
G1 X160.953 Y41.672 E21.0670
G1 X161.013 Y42.276 E21.1034
G1 X161.020 Y42.429 E21.1126
G1 X161.020 Y167.571 E28.6046
G1 X161.013 Y167.724 E28.6137
G1 X160.953 Y168.328 E28.6501
G1 X160.893 Y168.629 E28.6684
G1 X160.684 Y169.319 E28.7116
G1 X160.528 Y169.671 E28.7347
G1 X160.044 Y170.476 E28.7909
G1 X159.809 Y170.776 E28.8137
G1 X159.276 Y171.310 E28.8589
G1 X158.975 Y171.545 E28.8817
G1 X158.171 Y172.028 E28.9379
G1 X157.819 Y172.184 E28.9609
G1 X157.130 Y172.393 E29.0041
G1 X156.829 Y172.453 E29.0224
G1 X156.225 Y172.512 E29.0588
G1 X156.072 Y172.520 E29.0679
G1 X156.060 Y172.040 F18000
G92 E0.0000
G1 X53.940 Y172.040 E6.1138 F2400
G1 X53.810 Y172.034 E6.1215
G1 X53.242 Y171.978 E6.1557
G1 X52.987 Y171.927 E6.1713
G1 X52.348 Y171.733 E6.2112
G1 X52.051 Y171.601 E6.2307
G1 X51.270 Y171.132 E6.2853
G1 X50.971 Y170.887 E6.3084
G1 X50.358 Y170.212 E6.3630
G1 X50.170 Y169.946 E6.3825
G1 X49.856 Y169.357 E6.4225
G1 X49.756 Y169.117 E6.4380
G1 X49.573 Y168.513 E6.4758
G1 X49.522 Y168.258 E6.4913
G1 X49.466 Y167.689 E6.5256
G1 X49.460 Y167.560 E6.5333
G1 X49.460 Y42.440 E14.0240
G1 X49.466 Y42.311 E14.0318
G1 X49.522 Y41.742 E14.0660
G1 X49.573 Y41.487 E14.0815
G1 X49.756 Y40.883 E14.1194
G1 X49.856 Y40.643 E14.1349
G1 X50.154 Y40.086 E14.1727
G1 X50.298 Y39.870 E14.1883
G1 X50.698 Y39.382 E14.2261
G1 X50.881 Y39.199 E14.2416
G1 X51.370 Y38.798 E14.2794
G1 X51.586 Y38.654 E14.2949
G1 X52.171 Y38.340 E14.3347
G1 X52.474 Y38.224 E14.3541
G1 X53.328 Y38.009 E14.4068
G1 X53.650 Y37.969 E14.4263
G1 X156.060 Y37.960 E20.5574
G1 X156.189 Y37.966 E20.5651
G1 X156.758 Y38.022 E20.5993
G1 X157.012 Y38.073 E20.6148
G1 X157.617 Y38.256 E20.6527
G1 X157.856 Y38.355 E20.6682
G1 X158.446 Y38.670 E20.7082
G1 X158.712 Y38.858 E20.7277
G1 X159.387 Y39.471 E20.7823
G1 X159.632 Y39.770 E20.8054
G1 X160.101 Y40.551 E20.8600
G1 X160.233 Y40.848 E20.8795
G1 X160.427 Y41.488 E20.9195
G1 X160.478 Y41.742 E20.9350
G1 X160.534 Y42.311 E20.9692
G1 X160.540 Y42.441 E20.9770
G1 X160.540 Y167.559 E28.4676
G1 X160.534 Y167.689 E28.4754
G1 X160.478 Y168.258 E28.5096
G1 X160.427 Y168.512 E28.5251
G1 X160.233 Y169.152 E28.5651
G1 X160.101 Y169.449 E28.5846
G1 X159.648 Y170.203 E28.6373
G1 X159.449 Y170.458 E28.6566
G1 X158.957 Y170.949 E28.6983
G1 X158.703 Y171.148 E28.7176
G1 X157.949 Y171.601 E28.7702
G1 X157.652 Y171.733 E28.7897
G1 X157.013 Y171.927 E28.8297
G1 X156.758 Y171.978 E28.8452
G1 X156.190 Y172.034 E28.8794
G1 X156.060 Y172.040 E28.8872
G1 X156.048 Y171.560 F18000
G92 E0.0000
G1 X53.952 Y171.560 E6.1123 F2400
G1 X53.846 Y171.555 E6.1187
G1 X53.312 Y171.502 E6.1508
G1 X53.104 Y171.461 E6.1635
G1 X52.516 Y171.283 E6.2003
G1 X52.272 Y171.174 E6.2162
G1 X51.547 Y170.738 E6.2669
G1 X51.302 Y170.538 E6.2858
G1 X50.733 Y169.911 E6.3365
G1 X50.580 Y169.693 E6.3525
G1 X50.290 Y169.151 E6.3893
G1 X50.209 Y168.955 E6.4020
G1 X50.039 Y168.396 E6.4370
G1 X49.998 Y168.188 E6.4497
G1 X49.945 Y167.654 E6.4818
G1 X49.940 Y167.548 E6.4881
G1 X49.940 Y42.452 E13.9774
G1 X49.945 Y42.346 E13.9838
G1 X49.998 Y41.812 E14.0159
G1 X50.039 Y41.604 E14.0286
G1 X50.209 Y41.045 E14.0636
G1 X50.290 Y40.849 E14.0763
G1 X50.566 Y40.333 E14.1113
G1 X50.684 Y40.156 E14.1240
G1 X51.054 Y39.705 E14.1590
G1 X51.204 Y39.555 E14.1717
G1 X51.656 Y39.184 E14.2067
G1 X51.833 Y39.066 E14.2194
G1 X52.372 Y38.778 E14.2560
