; G-Code generated by Simplify3D(R) Version 4.1.2
; Dec 31, 2020 at 5:24:29 PM
; Settings Summary
;   processName,Process1
;   applyToModels,fuss,fuss(2),fuss(3),fuss(4)
;   profileName,HBot
;   profileVersion,2019-10-26 23:38:43
;   baseProfile,Default
;   printMaterial,PETG - SUNLU
;   printQuality,Fast
;   printExtruders,
;   extruderName,Extruder 1
;   extruderToolheadNumber,0
;   extruderDiameter,0.4
;   extruderAutoWidth,1
;   extruderWidth,0.48
;   extrusionMultiplier,1.02
;   extruderUseRetract,1
;   extruderRetractionDistance,4
;   extruderExtraRestartDistance,0
;   extruderRetractionZLift,0
;   extruderRetractionSpeed,5400
;   extruderUseCoasting,0
;   extruderCoastingDistance,0.2
;   extruderUseWipe,1
;   extruderWipeDistance,5
;   primaryExtruder,0
;   layerHeight,0.3
;   topSolidLayers,3
;   bottomSolidLayers,3
;   perimeterOutlines,3
;   printPerimetersInsideOut,1
;   startPointOption,3
;   startPointOriginX,110
;   startPointOriginY,300
;   sequentialIslands,0
;   spiralVaseMode,0
;   firstLayerHeightPercentage,100
;   firstLayerWidthPercentage,100
;   firstLayerUnderspeed,0.5
;   useRaft,0
;   raftExtruder,0
;   raftTopLayers,3
;   raftBaseLayers,2
;   raftOffset,3
;   raftSeparationDistance,0.18
;   raftTopInfill,100
;   aboveRaftSpeedMultiplier,0.3
;   useSkirt,0
;   skirtExtruder,0
;   skirtLayers,1
;   skirtOutlines,10
;   skirtOffset,0
;   usePrimePillar,0
;   primePillarExtruder,999
;   primePillarWidth,12
;   primePillarLocation,7
;   primePillarSpeedMultiplier,1
;   useOozeShield,0
;   oozeShieldExtruder,999
;   oozeShieldOffset,0.9
;   oozeShieldOutlines,2
;   oozeShieldSidewallShape,0
;   oozeShieldSidewallAngle,30
;   oozeShieldSpeedMultiplier,1.5
;   infillExtruder,0
;   internalInfillPattern,Fast Honeycomb
;   externalInfillPattern,Rectilinear
;   infillPercentage,10
;   outlineOverlapPercentage,25
;   infillExtrusionWidthPercentage,100
;   minInfillLength,5
;   infillLayerInterval,1
;   internalInfillAngles,0
;   overlapInternalInfillAngles,0
;   externalInfillAngles,45,-45
;   generateSupport,0
;   supportExtruder,0
;   supportInfillPercentage,25
;   supportExtraInflation,0
;   supportBaseLayers,0
;   denseSupportExtruder,0
;   denseSupportLayers,0
;   denseSupportInfillPercentage,70
;   supportLayerInterval,1
;   supportHorizontalPartOffset,0.3
;   supportUpperSeparationLayers,1
;   supportLowerSeparationLayers,1
;   supportType,0
;   supportGridSpacing,2
;   maxOverhangAngle,25
;   supportAngles,0
;   temperatureName,Extruder 1,Heated Bed
;   temperatureNumber,0,1
;   temperatureSetpointCount,2,1
;   temperatureSetpointLayers,1,2,1
;   temperatureSetpointTemperatures,215,215,85
;   temperatureStabilizeAtStartup,1,1
;   temperatureHeatedBed,0,1
;   fanLayers,1,5,10
;   fanSpeeds,0,5,20
;   blipFanToFullPower,1
;   adjustSpeedForCooling,0
;   minSpeedLayerTime,15
;   minCoolingSpeedSlowdown,20
;   increaseFanForCooling,1
;   minFanLayerTime,15
;   maxCoolingFanSpeed,40
;   increaseFanForBridging,1
;   bridgingFanSpeed,85
;   use5D,1
;   relativeEdistances,0
;   allowEaxisZeroing,1
;   independentExtruderAxes,0
;   includeM10123,0
;   stickySupport,1
;   applyToolheadOffsets,0
;   gcodeXoffset,0
;   gcodeYoffset,0
;   gcodeZoffset,0
;   overrideMachineDefinition,1
;   machineTypeOverride,0
;   strokeXoverride,210
;   strokeYoverride,210
;   strokeZoverride,150
;   originOffsetXoverride,0
;   originOffsetYoverride,0
;   originOffsetZoverride,0
;   homeXdirOverride,-1
;   homeYdirOverride,-1
;   homeZdirOverride,-1
;   flipXoverride,1
;   flipYoverride,-1
;   flipZoverride,1
;   toolheadOffsets,0,0|0,0|0,0|0,0|0,0|0,0
;   overrideFirmwareConfiguration,1
;   firmwareTypeOverride,RepRap (Marlin/Repetier/Sprinter)
;   GPXconfigOverride,r2
;   baudRateOverride,115200
;   overridePrinterModels,0
;   printerModelsOverride
;   startingGcode,G28 ; home all axes,G32 ; run bed.g -- probe bed and enable compensation
;   layerChangeGcode,
;   retractionGcode,
;   toolChangeGcode,
;   endingGcode,M0 ; call stop.g
;   exportFileFormat,gcode
;   celebration,0
;   celebrationSong,Random Song
;   postProcessing,
;   defaultSpeed,4800
;   outlineUnderspeed,0.5
;   solidInfillUnderspeed,0.8
;   supportUnderspeed,0.8
;   rapidXYspeed,18000
;   rapidZspeed,1200
;   minBridgingArea,50
;   bridgingExtraInflation,0
;   bridgingExtrusionMultiplier,0.96
;   bridgingSpeedMultiplier,1
;   useFixedBridgingAngle,0
;   fixedBridgingAngle,0
;   applyBridgingToPerimeters,0
;   filamentDiameters,1.75|1.75|1.75|1.75|1.75|1.75
;   filamentPricesPerKg,46|46|46|46|46|46
;   filamentDensities,1.25|1.25|1.25|1.25|1.25|1.25
;   useMinPrintHeight,0
;   minPrintHeight,20
;   useMaxPrintHeight,0
;   maxPrintHeight,15
;   useDiaphragm,0
;   diaphragmLayerInterval,20
;   robustSlicing,1
;   mergeAllIntoSolid,0
;   onlyRetractWhenCrossingOutline,1
;   retractBetweenLayers,0
;   useRetractionMinTravel,1
;   retractionMinTravel,3
;   retractWhileWiping,1
;   onlyWipeOutlines,1
;   avoidCrossingOutline,1
;   maxMovementDetourFactor,5
;   toolChangeRetractionDistance,12
;   toolChangeExtraRestartDistance,-0.5
;   toolChangeRetractionSpeed,600
;   externalThinWallType,0
;   internalThinWallType,2
;   thinWallAllowedOverlapPercentage,10
;   singleExtrusionMinLength,1
;   singleExtrusionMinPrintingWidthPercentage,50
;   singleExtrusionMaxPrintingWidthPercentage,150
;   singleExtrusionEndpointExtension,0.2
;   horizontalSizeCompensation,-0.1
G90
M82
M106 S0
M140 S85
M190 S85
M104 S215 T0
M109 S215 T0
G28 ; home all axes
G32 ; run bed.g -- probe bed and enable compensation
; process Process1
; layer 1, Z = 0.300
T0
G92 E0.0000
G1 E-4.0000 F5400
; feature inner perimeter
; tool H0.300 W0.480
G1 Z0.300 F1200
G1 X100.850 Y100.850 F18000
G1 E0.0000 F5400
G92 E0.0000
G1 X84.150 Y100.850 E1.0198 F1800
G1 X84.150 Y84.150 E2.0396
G1 X100.850 Y84.153 E3.0594
G1 X100.850 Y100.850 E4.0790
G1 X100.946 Y101.330 F18000
G92 E0.0000
G1 X84.038 Y101.330 E1.0325 F1800
G1 X83.962 Y101.323 E1.0371
G1 X83.835 Y101.283 E1.0453
G1 X83.768 Y101.232 E1.0504
G1 X83.692 Y101.113 E1.0590
G1 X83.670 Y100.946 E1.0693
G1 X83.670 Y84.038 E2.1018
G1 X83.677 Y83.962 E2.1065
G1 X83.723 Y83.815 E2.1158
G1 X83.865 Y83.695 E2.1272
G1 X84.054 Y83.670 E2.1389
G1 X100.980 Y83.673 E3.1725
G1 X101.146 Y83.701 E3.1828
G1 X101.270 Y83.814 E3.1929
G1 X101.308 Y83.888 E3.1981
G1 X101.330 Y84.054 E3.2083
G1 X101.330 Y100.962 E4.2408
G1 X101.323 Y101.038 E4.2454
G1 X101.277 Y101.185 E4.2548
G1 X101.135 Y101.305 E4.2662
G1 X100.946 Y101.330 E4.2778
; feature outer perimeter
G1 X100.977 Y101.810 F18000
G92 E0.0000
G1 X84.016 Y101.810 E1.0358 F1200
G1 X83.867 Y101.796 E1.0449
G1 X83.648 Y101.728 E1.0589
G1 X83.569 Y101.685 E1.0644
G1 X83.451 Y101.593 E1.0735
G1 X83.388 Y101.528 E1.0791
G1 X83.265 Y101.335 E1.0930
G1 X83.222 Y101.216 E1.1008
G1 X83.190 Y100.977 E1.1155
G1 X83.190 Y84.016 E2.1513
G1 X83.204 Y83.867 E2.1604
G1 X83.272 Y83.648 E2.1744
G1 X83.315 Y83.569 E2.1799
G1 X83.400 Y83.460 E2.1883
G1 X83.575 Y83.312 E2.2023
G1 X83.654 Y83.269 E2.2078
G1 X83.784 Y83.222 E2.2162
G1 X84.023 Y83.190 E2.2309
G1 X101.021 Y83.193 E3.2690
G1 X101.255 Y83.233 E3.2834
G1 X101.338 Y83.265 E3.2889
G1 X101.456 Y83.335 E3.2973
G1 X101.627 Y83.490 E3.3114
G1 X101.680 Y83.562 E3.3168
G1 X101.748 Y83.694 E3.3259
G1 X101.778 Y83.781 E3.3315
G1 X101.810 Y84.023 E3.3464
G1 X101.810 Y100.984 E4.3822
G1 X101.796 Y101.133 E4.3913
G1 X101.728 Y101.352 E4.4053
G1 X101.685 Y101.431 E4.4108
G1 X101.600 Y101.540 E4.4192
G1 X101.425 Y101.688 E4.4332
G1 X101.346 Y101.731 E4.4387
G1 X101.216 Y101.778 E4.4472
G1 X100.977 Y101.810 E4.4619
G1 X95.977 Y101.810 F1200
; feature solid layer
G1 X84.877 Y100.490 F18000
G92 E0.0000
G1 X84.510 Y100.123 E0.0317 F1920
G1 X84.510 Y99.444 E0.0732
G1 X85.556 Y100.490 E0.1635
G1 X86.235 Y100.490 E0.2049
G1 X84.510 Y98.765 E0.3539
G1 X84.510 Y98.086 E0.3953
G1 X86.914 Y100.490 E0.6029
G1 X87.592 Y100.490 E0.6444
G1 X84.510 Y97.408 E0.9106
G1 X84.510 Y96.729 E0.9520
G1 X88.271 Y100.490 E1.2768
G1 X88.950 Y100.490 E1.3183
G1 X84.510 Y96.050 E1.7017
G1 X84.510 Y95.371 E1.7432
G1 X89.629 Y100.490 E2.1852
G1 X90.308 Y100.490 E2.2267
G1 X84.510 Y94.692 E2.7274
G1 X84.510 Y94.013 E2.7688
G1 X90.986 Y100.490 E3.3281
G1 X91.665 Y100.490 E3.3696
G1 X84.510 Y93.335 E3.9875
G1 X84.510 Y92.656 E4.0290
G1 X92.344 Y100.490 E4.7055
G1 X93.023 Y100.490 E4.7470
G1 X84.510 Y91.977 E5.4822
G1 X84.510 Y91.298 E5.5236
G1 X93.702 Y100.490 E6.3174
G1 X94.381 Y100.490 E6.3589
G1 X84.510 Y90.619 E7.2113
G1 X84.510 Y89.941 E7.2528
G1 X95.059 Y100.490 E8.1638
G1 X95.738 Y100.490 E8.2053
G1 X84.510 Y89.262 E9.1749
G1 X84.510 Y88.583 E9.2164
G1 X96.417 Y100.490 E10.2447
G1 X97.096 Y100.490 E10.2861
G1 X84.510 Y87.904 E11.3730
G1 X84.510 Y87.225 E11.4145
G1 X97.775 Y100.490 E12.5600
G1 X98.454 Y100.490 E12.6015
G1 X84.510 Y86.546 E13.8056
G1 X84.510 Y85.868 E13.8471
G1 X99.132 Y100.490 E15.1099
G1 X99.811 Y100.490 E15.1513
G1 X84.510 Y85.189 E16.4727
G1 X84.510 Y84.510 E16.5142
G1 X100.490 Y100.490 E17.8942
G1 X100.490 Y99.811 E17.9357
G1 X85.189 Y84.510 E19.2571
G1 X85.868 Y84.510 E19.2985
G1 X100.490 Y99.132 E20.5613
G1 X100.490 Y98.454 E20.6027
G1 X86.547 Y84.510 E21.8069
G1 X87.226 Y84.511 E21.8483
G1 X100.490 Y97.775 E22.9938
G1 X100.490 Y97.096 E23.0353
G1 X87.905 Y84.511 E24.1221
G1 X88.584 Y84.511 E24.1636
G1 X100.490 Y96.417 E25.1918
G1 X100.490 Y95.738 E25.2333
G1 X89.263 Y84.511 E26.2029
G1 X89.942 Y84.511 E26.2443
G1 X100.490 Y95.059 E27.1553
G1 X100.490 Y94.381 E27.1967
G1 X90.620 Y84.511 E28.0491
G1 X91.299 Y84.511 E28.0905
G1 X100.490 Y93.702 E28.8842
G1 X100.490 Y93.023 E28.9257
G1 X91.978 Y84.511 E29.6607
G1 X92.657 Y84.511 E29.7022
G1 X100.490 Y92.344 E30.3786
G1 X100.490 Y91.665 E30.4201
G1 X93.336 Y84.512 E31.0379
G1 X94.015 Y84.512 E31.0793
G1 X100.490 Y90.986 E31.6385
G1 X100.490 Y90.308 E31.6799
G1 X94.694 Y84.512 E32.1805
G1 X95.373 Y84.512 E32.2219
G1 X100.490 Y89.629 E32.6638
G1 X100.490 Y88.950 E32.7053
G1 X96.052 Y84.512 E33.0886
G1 X96.731 Y84.512 E33.1300
G1 X100.490 Y88.271 E33.4546
G1 X100.490 Y87.592 E33.4961
G1 X97.410 Y84.512 E33.7621
G1 X98.089 Y84.512 E33.8036
G1 X100.490 Y86.914 E34.0109
G1 X100.490 Y86.235 E34.0524
G1 X98.768 Y84.512 E34.2011
G1 X99.447 Y84.513 E34.2426
G1 X100.490 Y85.556 E34.3327
G1 X100.490 Y84.877 E34.3741
G1 X100.126 Y84.513 E34.4056
G92 E0.0000
G1 E-4.0000 F5400
; feature inner perimeter
G1 X101.810 Y87.562 F18000
G1 X101.810 Y100.984
G1 X108.190 Y100.977
G1 X108.190 Y99.112
G1 X109.150 Y100.850
G1 E0.0000 F5400
G92 E0.0000
G1 X109.150 Y84.150 E1.0198 F1800
G1 X125.850 Y84.153 E2.0396
G1 X125.850 Y100.850 E3.0592
G1 X109.150 Y100.850 E4.0790
G1 X108.670 Y100.946 F18000
G92 E0.0000
G1 X108.670 Y84.038 E1.0325 F1800
G1 X108.677 Y83.962 E1.0371
G1 X108.723 Y83.815 E1.0465
G1 X108.865 Y83.695 E1.0579
G1 X109.054 Y83.670 E1.0695
G1 X125.980 Y83.673 E2.1031
G1 X126.146 Y83.701 E2.1134
G1 X126.270 Y83.814 E2.1236
G1 X126.308 Y83.888 E2.1287
G1 X126.330 Y84.054 E2.1390
G1 X126.330 Y100.962 E3.1715
G1 X126.323 Y101.038 E3.1761
G1 X126.277 Y101.185 E3.1855
G1 X126.135 Y101.305 E3.1969
G1 X125.946 Y101.330 E3.2085
G1 X109.038 Y101.330 E4.2410
G1 X108.962 Y101.323 E4.2457
G1 X108.835 Y101.283 E4.2538
G1 X108.768 Y101.232 E4.2589
G1 X108.692 Y101.113 E4.2676
G1 X108.670 Y100.946 E4.2778
; feature outer perimeter
G1 X108.190 Y100.977 F18000
G92 E0.0000
G1 X108.190 Y84.016 E1.0358 F1200
G1 X108.204 Y83.867 E1.0449
G1 X108.272 Y83.648 E1.0589
G1 X108.315 Y83.569 E1.0644
G1 X108.400 Y83.460 E1.0728
G1 X108.575 Y83.312 E1.0869
G1 X108.654 Y83.269 E1.0924
G1 X108.784 Y83.222 E1.1008
G1 X109.023 Y83.190 E1.1155
G1 X126.021 Y83.193 E2.1535
G1 X126.255 Y83.233 E2.1680
G1 X126.338 Y83.265 E2.1734
G1 X126.456 Y83.335 E2.1818
G1 X126.627 Y83.490 E2.1959
G1 X126.680 Y83.562 E2.2013
G1 X126.748 Y83.694 E2.2104
G1 X126.778 Y83.781 E2.2161
G1 X126.810 Y84.023 E2.2309
G1 X126.810 Y100.984 E3.2667
G1 X126.796 Y101.133 E3.2758
G1 X126.728 Y101.352 E3.2899
G1 X126.685 Y101.431 E3.2953
G1 X126.600 Y101.540 E3.3037
G1 X126.425 Y101.688 E3.3178
G1 X126.346 Y101.731 E3.3233
G1 X126.216 Y101.778 E3.3317
G1 X125.977 Y101.810 E3.3464
G1 X109.016 Y101.810 E4.3822
G1 X108.867 Y101.796 E4.3913
G1 X108.648 Y101.728 E4.4053
G1 X108.569 Y101.685 E4.4108
G1 X108.451 Y101.593 E4.4199
G1 X108.388 Y101.528 E4.4255
G1 X108.265 Y101.335 E4.4394
G1 X108.222 Y101.216 E4.4472
G1 X108.190 Y100.977 E4.4619
G1 X108.190 Y95.977 F1200
; feature solid layer
G1 X109.994 Y100.490 F18000
G92 E0.0000
G1 X109.510 Y100.006 E0.0418 F1920
G1 X109.510 Y99.328 E0.0832
G1 X110.672 Y100.490 E0.1836
G1 X111.351 Y100.490 E0.2250
G1 X109.510 Y98.649 E0.3840
G1 X109.510 Y97.970 E0.4255
G1 X112.030 Y100.490 E0.6431
G1 X112.709 Y100.490 E0.6846
G1 X109.510 Y97.291 E0.9608
G1 X109.510 Y96.612 E1.0023
G1 X113.388 Y100.490 E1.3372
G1 X114.066 Y100.490 E1.3786
G1 X109.510 Y95.934 E1.7721
G1 X109.510 Y95.255 E1.8136
G1 X114.745 Y100.490 E2.2657
G1 X115.424 Y100.490 E2.3071
G1 X109.510 Y94.576 E2.8179
G1 X109.510 Y93.897 E2.8593
G1 X116.103 Y100.490 E3.4287
G1 X116.782 Y100.490 E3.4701
G1 X109.510 Y93.218 E4.0981
G1 X109.510 Y92.539 E4.1396
G1 X117.461 Y100.490 E4.8262
G1 X118.139 Y100.490 E4.8676
G1 X109.510 Y91.861 E5.6129
G1 X109.510 Y91.182 E5.6543
G1 X118.818 Y100.490 E6.4582
G1 X119.497 Y100.490 E6.4996
G1 X109.510 Y90.503 E7.3621
G1 X109.510 Y89.824 E7.4036
G1 X120.176 Y100.490 E8.3247
G1 X120.855 Y100.490 E8.3661
G1 X109.510 Y89.145 E9.3459
G1 X109.510 Y88.466 E9.3873
G1 X121.534 Y100.490 E10.4257
G1 X122.212 Y100.490 E10.4671
G1 X109.510 Y87.788 E11.5641
G1 X109.510 Y87.109 E11.6055
G1 X122.891 Y100.490 E12.7611
G1 X123.570 Y100.490 E12.8026
G1 X109.510 Y86.430 E14.0168
G1 X109.510 Y85.751 E14.0583
G1 X124.249 Y100.490 E15.3311
G1 X124.928 Y100.490 E15.3726
G1 X109.510 Y85.072 E16.7040
G1 X109.510 Y84.510 E16.7384
G1 X109.627 Y84.510 E16.7455
G1 X125.490 Y100.374 E18.1154
G1 X125.490 Y99.695 E18.1569
G1 X110.305 Y84.510 E19.4682
G1 X110.984 Y84.510 E19.5097
G1 X125.490 Y99.016 E20.7624
G1 X125.490 Y98.337 E20.8038
G1 X111.663 Y84.510 E21.9979
G1 X112.342 Y84.511 E22.0394
G1 X125.490 Y97.658 E23.1748
G1 X125.490 Y96.979 E23.2162
G1 X113.021 Y84.511 E24.2931
G1 X113.700 Y84.511 E24.3345
G1 X125.490 Y96.301 E25.3527
G1 X125.490 Y95.622 E25.3941
G1 X114.379 Y84.511 E26.3537
G1 X115.058 Y84.511 E26.3951
G1 X125.490 Y94.943 E27.2960
G1 X125.490 Y94.264 E27.3375
G1 X115.737 Y84.511 E28.1798
G1 X116.416 Y84.511 E28.2212
G1 X125.490 Y93.585 E29.0049
G1 X125.490 Y92.907 E29.0463
G1 X117.095 Y84.511 E29.7713
G1 X117.774 Y84.511 E29.8128
G1 X125.490 Y92.228 E30.4791
G1 X125.490 Y91.549 E30.5206
G1 X118.453 Y84.512 E31.1283
G1 X119.132 Y84.512 E31.1698
G1 X125.490 Y90.870 E31.7189
G1 X125.490 Y90.191 E31.7604
G1 X119.811 Y84.512 E32.2508
G1 X120.489 Y84.512 E32.2923
G1 X125.490 Y89.512 E32.7241
G1 X125.490 Y88.834 E32.7656
G1 X121.168 Y84.512 E33.1388
G1 X121.847 Y84.512 E33.1803
G1 X125.490 Y88.155 E33.4948
G1 X125.490 Y87.476 E33.5363
G1 X122.526 Y84.512 E33.7922
G1 X123.205 Y84.512 E33.8337
G1 X125.490 Y86.797 E34.0310
G1 X125.490 Y86.118 E34.0725
G1 X123.884 Y84.512 E34.2111
G1 X124.563 Y84.513 E34.2526
G1 X125.490 Y85.439 E34.3326
G1 X125.490 Y84.761 E34.3741
G1 X125.242 Y84.513 E34.3955
G92 E0.0000
G1 E-4.0000 F5400
; feature inner perimeter
G1 X109.150 Y125.850 F18000
G1 E0.0000 F5400
G92 E0.0000
G1 X109.150 Y109.150 E1.0198 F1800
G1 X125.850 Y109.153 E2.0396
G1 X125.850 Y125.850 E3.0592
G1 X109.150 Y125.850 E4.0790
G1 X108.670 Y125.946 F18000
G92 E0.0000
G1 X108.670 Y109.038 E1.0325 F1800
G1 X108.677 Y108.962 E1.0371
G1 X108.723 Y108.815 E1.0465
G1 X108.865 Y108.695 E1.0579
G1 X109.054 Y108.670 E1.0695
G1 X125.980 Y108.673 E2.1031
G1 X126.146 Y108.701 E2.1134
G1 X126.270 Y108.814 E2.1236
G1 X126.308 Y108.888 E2.1287
G1 X126.330 Y109.054 E2.1390
G1 X126.330 Y125.962 E3.1715
G1 X126.323 Y126.038 E3.1761
G1 X126.277 Y126.185 E3.1855
G1 X126.135 Y126.305 E3.1969
G1 X125.946 Y126.330 E3.2085
G1 X109.038 Y126.330 E4.2410
G1 X108.962 Y126.323 E4.2457
G1 X108.815 Y126.277 E4.2550
G1 X108.695 Y126.135 E4.2664
