; G-Code generated by Simplify3D(R) Version 4.1.2
; Dec 30, 2020 at 7:00:58 PM
; Settings Summary
;   processName,Process1
;   applyToModels,Tool-Changer Cover Body
;   profileName,HBot (modified)
;   profileVersion,2019-10-26 23:38:43
;   baseProfile,Default
;   printMaterial,PETG - SUNLU
;   printQuality,Medium
;   printExtruders,
;   extruderName,Extruder 1
;   extruderToolheadNumber,0
;   extruderDiameter,0.4
;   extruderAutoWidth,1
;   extruderWidth,0.48
;   extrusionMultiplier,1.02
;   extruderUseRetract,1
;   extruderRetractionDistance,4
;   extruderExtraRestartDistance,0
;   extruderRetractionZLift,0
;   extruderRetractionSpeed,5400
;   extruderUseCoasting,0
;   extruderCoastingDistance,0.2
;   extruderUseWipe,1
;   extruderWipeDistance,5
;   primaryExtruder,0
;   layerHeight,0.2
;   topSolidLayers,4
;   bottomSolidLayers,4
;   perimeterOutlines,4
;   printPerimetersInsideOut,1
;   startPointOption,3
;   startPointOriginX,110
;   startPointOriginY,300
;   sequentialIslands,0
;   spiralVaseMode,0
;   firstLayerHeightPercentage,100
;   firstLayerWidthPercentage,100
;   firstLayerUnderspeed,0.5
;   useRaft,0
;   raftExtruder,0
;   raftTopLayers,3
;   raftBaseLayers,2
;   raftOffset,3
;   raftSeparationDistance,0.18
;   raftTopInfill,100
;   aboveRaftSpeedMultiplier,0.3
;   useSkirt,1
;   skirtExtruder,0
;   skirtLayers,1
;   skirtOutlines,10
;   skirtOffset,0
;   usePrimePillar,0
;   primePillarExtruder,999
;   primePillarWidth,12
;   primePillarLocation,7
;   primePillarSpeedMultiplier,1
;   useOozeShield,0
;   oozeShieldExtruder,999
;   oozeShieldOffset,0.9
;   oozeShieldOutlines,2
;   oozeShieldSidewallShape,0
;   oozeShieldSidewallAngle,30
;   oozeShieldSpeedMultiplier,1.5
;   infillExtruder,0
;   internalInfillPattern,Fast Honeycomb
;   externalInfillPattern,Rectilinear
;   infillPercentage,20
;   outlineOverlapPercentage,25
;   infillExtrusionWidthPercentage,100
;   minInfillLength,5
;   infillLayerInterval,1
;   internalInfillAngles,0
;   overlapInternalInfillAngles,0
;   externalInfillAngles,45,-45
;   generateSupport,1
;   supportExtruder,0
;   supportInfillPercentage,25
;   supportExtraInflation,0
;   supportBaseLayers,0
;   denseSupportExtruder,0
;   denseSupportLayers,0
;   denseSupportInfillPercentage,70
;   supportLayerInterval,1
;   supportHorizontalPartOffset,0.3
;   supportUpperSeparationLayers,1
;   supportLowerSeparationLayers,1
;   supportType,0
;   supportGridSpacing,2
;   maxOverhangAngle,25
;   supportAngles,0
;   temperatureName,Extruder 1,Heated Bed
;   temperatureNumber,0,1
;   temperatureSetpointCount,2,1
;   temperatureSetpointLayers,1,2,1
;   temperatureSetpointTemperatures,215,215,85
;   temperatureStabilizeAtStartup,1,1
;   temperatureHeatedBed,0,1
;   fanLayers,1,5,10
;   fanSpeeds,0,5,20
;   blipFanToFullPower,1
;   adjustSpeedForCooling,0
;   minSpeedLayerTime,15
;   minCoolingSpeedSlowdown,20
;   increaseFanForCooling,1
;   minFanLayerTime,15
;   maxCoolingFanSpeed,40
;   increaseFanForBridging,1
;   bridgingFanSpeed,85
;   use5D,1
;   relativeEdistances,0
;   allowEaxisZeroing,1
;   independentExtruderAxes,0
;   includeM10123,0
;   stickySupport,1
;   applyToolheadOffsets,0
;   gcodeXoffset,0
;   gcodeYoffset,0
;   gcodeZoffset,0
;   overrideMachineDefinition,1
;   machineTypeOverride,0
;   strokeXoverride,210
;   strokeYoverride,210
;   strokeZoverride,150
;   originOffsetXoverride,0
;   originOffsetYoverride,0
;   originOffsetZoverride,0
;   homeXdirOverride,-1
;   homeYdirOverride,-1
;   homeZdirOverride,-1
;   flipXoverride,1
;   flipYoverride,-1
;   flipZoverride,1
;   toolheadOffsets,0,0|0,0|0,0|0,0|0,0|0,0
;   overrideFirmwareConfiguration,1
;   firmwareTypeOverride,RepRap (Marlin/Repetier/Sprinter)
;   GPXconfigOverride,r2
;   baudRateOverride,115200
;   overridePrinterModels,0
;   printerModelsOverride
;   startingGcode,G28 ; home all axes,G32 ; run bed.g -- probe bed and enable compensation
;   layerChangeGcode,
;   retractionGcode,
;   toolChangeGcode,
;   endingGcode,M0 ; call stop.g
;   exportFileFormat,gcode
;   celebration,0
;   celebrationSong,Random Song
;   postProcessing,
;   defaultSpeed,3600
;   outlineUnderspeed,0.5
;   solidInfillUnderspeed,0.8
;   supportUnderspeed,0.8
;   rapidXYspeed,18000
;   rapidZspeed,1200
;   minBridgingArea,50
;   bridgingExtraInflation,0
;   bridgingExtrusionMultiplier,0.96
;   bridgingSpeedMultiplier,1
;   useFixedBridgingAngle,0
;   fixedBridgingAngle,0
;   applyBridgingToPerimeters,0
;   filamentDiameters,1.75|1.75|1.75|1.75|1.75|1.75
;   filamentPricesPerKg,46|46|46|46|46|46
;   filamentDensities,1.25|1.25|1.25|1.25|1.25|1.25
;   useMinPrintHeight,0
;   minPrintHeight,20
;   useMaxPrintHeight,0
;   maxPrintHeight,15
;   useDiaphragm,0
;   diaphragmLayerInterval,20
;   robustSlicing,1
;   mergeAllIntoSolid,0
;   onlyRetractWhenCrossingOutline,1
;   retractBetweenLayers,0
;   useRetractionMinTravel,1
;   retractionMinTravel,3
;   retractWhileWiping,1
;   onlyWipeOutlines,1
;   avoidCrossingOutline,1
;   maxMovementDetourFactor,5
;   toolChangeRetractionDistance,12
;   toolChangeExtraRestartDistance,-0.5
;   toolChangeRetractionSpeed,600
;   externalThinWallType,0
;   internalThinWallType,2
;   thinWallAllowedOverlapPercentage,10
;   singleExtrusionMinLength,1
;   singleExtrusionMinPrintingWidthPercentage,50
;   singleExtrusionMaxPrintingWidthPercentage,150
;   singleExtrusionEndpointExtension,0.2
;   horizontalSizeCompensation,-0.1
G90
M82
M106 S0
M140 S85
M190 S85
M104 S215 T0
M109 S215 T0
G28 ; home all axes
G32 ; run bed.g -- probe bed and enable compensation
; process Process1
; layer 1, Z = 0.200
T0
G92 E0.0000
G1 E-4.0000 F5400
; feature skirt
; tool H0.200 W0.480
G1 Z0.200 F1200
G1 X125.319 Y88.460 F18000
G1 E0.0000 F5400
G92 E0.0000
G1 X84.681 Y88.460 E1.6544 F1800
G1 X84.540 Y88.319 E1.6625
G1 X84.540 Y79.681 E2.0142
G1 X84.681 Y79.540 E2.0223
G1 X89.319 Y79.540 E2.2111
G1 X89.460 Y79.681 E2.2192
G1 X89.460 Y82.319 E2.3267
G1 X89.319 Y82.460 E2.3348
G1 X87.460 Y82.460 E2.4105
G1 X87.460 Y85.540 E2.5359
G1 X92.540 Y85.540 E2.7427
G1 X92.540 Y82.460 E2.8680
G1 X90.681 Y82.460 E2.9437
G1 X90.540 Y82.319 E2.9518
G1 X90.540 Y79.681 E3.0593
G1 X90.681 Y79.540 E3.0674
G1 X119.319 Y79.540 E4.2333
G1 X119.460 Y79.681 E4.2414
G1 X119.460 Y82.319 E4.3488
G1 X119.319 Y82.460 E4.3569
G1 X117.460 Y82.460 E4.4326
G1 X117.460 Y85.540 E4.5580
G1 X122.540 Y85.540 E4.7648
G1 X122.540 Y82.460 E4.8902
G1 X120.681 Y82.460 E4.9659
G1 X120.540 Y82.319 E4.9739
G1 X120.540 Y79.681 E5.0814
G1 X120.681 Y79.540 E5.0895
G1 X125.319 Y79.540 E5.2783
G1 X125.460 Y79.681 E5.2864
G1 X125.460 Y88.319 E5.6381
G1 X125.319 Y88.460 E5.6462
G92 E0.0000
G1 E-4.0000 F5400
G1 X125.004 Y135.060 F18000
G1 E0.0000 F5400
G92 E0.0000
G1 X84.996 Y135.060 E1.6287 F1800
G1 X83.320 Y134.366 E1.7026
G1 X81.384 Y132.429 E1.8140
G1 X80.690 Y130.753 E1.8879
G1 X80.690 Y90.579 E3.5234
G1 X80.220 Y90.109 E3.5505
G1 X80.220 Y77.891 E4.0479
G1 X82.891 Y75.220 E4.2016
G1 X127.109 Y75.220 E6.0018
G1 X129.780 Y77.891 E6.1555
G1 X129.780 Y90.109 E6.6529
G1 X129.310 Y90.579 E6.6800
G1 X129.310 Y130.753 E8.3155
G1 X128.616 Y132.429 E8.3894
G1 X126.679 Y134.366 E8.5009
G1 X125.004 Y135.060 E8.5747
G1 X124.908 Y134.580 F18000
G92 E0.0000
G1 X85.092 Y134.580 E1.6209 F1800
G1 X83.592 Y133.959 E1.6870
G1 X81.791 Y132.158 E1.7907
G1 X81.170 Y130.658 E1.8568
G1 X81.170 Y90.380 E3.4965
G1 X80.700 Y89.910 E3.5236
G1 X80.700 Y78.090 E4.0048
G1 X83.090 Y75.700 E4.1424
G1 X126.910 Y75.700 E5.9263
G1 X129.300 Y78.090 E6.0639
G1 X129.300 Y89.910 E6.5451
G1 X128.830 Y90.380 E6.5722
G1 X128.830 Y130.658 E8.2119
G1 X128.209 Y132.158 E8.2780
G1 X126.408 Y133.959 E8.3817
G1 X124.908 Y134.580 E8.4478
G1 X124.813 Y134.100 F18000
G92 E0.0000
G1 X85.187 Y134.100 E1.6132 F1800
G1 X83.864 Y133.552 E1.6715
G1 X82.198 Y131.886 E1.7674
G1 X81.650 Y130.563 E1.8257
G1 X81.650 Y90.181 E3.4696
G1 X81.180 Y89.711 E3.4967
G1 X81.180 Y78.289 E3.9617
G1 X83.289 Y76.180 E4.0831
G1 X126.711 Y76.180 E5.8509
G1 X128.820 Y78.289 E5.9723
G1 X128.820 Y89.711 E6.4373
G1 X128.350 Y90.181 E6.4643
G1 X128.350 Y130.563 E8.1083
G1 X127.802 Y131.886 E8.1666
G1 X126.136 Y133.552 E8.2625
G1 X124.813 Y134.100 E8.3208
G1 X124.717 Y133.620 F18000
G92 E0.0000
G1 X85.283 Y133.620 E1.6054 F1800
G1 X84.136 Y133.145 E1.6559
G1 X82.605 Y131.614 E1.7441
G1 X82.130 Y130.467 E1.7946
G1 X82.130 Y89.982 E3.4427
G1 X81.660 Y89.512 E3.4698
G1 X81.660 Y78.488 E3.9186
G1 X83.488 Y76.660 E4.0238
G1 X126.512 Y76.660 E5.7754
G1 X128.340 Y78.488 E5.8806
G1 X128.340 Y89.512 E6.3294
G1 X127.870 Y89.982 E6.3565
G1 X127.870 Y130.467 E8.0047
G1 X127.395 Y131.614 E8.0552
G1 X125.864 Y133.145 E8.1433
G1 X124.717 Y133.620 E8.1939
G1 X124.622 Y133.140 F18000
G92 E0.0000
G1 X85.378 Y133.140 E1.5976 F1800
G1 X84.408 Y132.738 E1.6404
G1 X83.012 Y131.342 E1.7207
G1 X82.610 Y130.372 E1.7635
G1 X82.610 Y89.783 E3.4159
G1 X82.140 Y89.314 E3.4429
G1 X82.140 Y78.686 E3.8755
G1 X83.687 Y77.140 E3.9646
G1 X126.314 Y77.140 E5.6999
G1 X127.860 Y78.686 E5.7890
G1 X127.860 Y89.314 E6.2216
G1 X127.390 Y89.784 E6.2487
G1 X127.390 Y130.372 E7.9010
G1 X126.988 Y131.342 E7.9438
G1 X125.592 Y132.738 E8.0242
G1 X124.622 Y133.140 E8.0669
G1 X124.526 Y132.660 F18000
G92 E0.0000
G1 X85.474 Y132.660 E1.5898 F1800
G1 X84.680 Y132.331 E1.6248
G1 X83.419 Y131.070 E1.6974
G1 X83.090 Y130.276 E1.7324
G1 X83.090 Y89.585 E3.3890
G1 X82.620 Y89.115 E3.4160
G1 X82.620 Y78.885 E3.8325
G1 X83.885 Y77.620 E3.9053
G1 X126.115 Y77.620 E5.6245
G1 X127.380 Y78.885 E5.6973
G1 X127.380 Y89.115 E6.1138
G1 X126.910 Y89.585 E6.1408
G1 X126.910 Y130.276 E7.7974
G1 X126.581 Y131.070 E7.8324
G1 X125.320 Y132.331 E7.9050
G1 X124.526 Y132.660 E7.9400
G1 X124.431 Y132.180 F18000
G92 E0.0000
G1 X85.569 Y132.180 E1.5821 F1800
G1 X84.952 Y131.924 E1.6093
G1 X83.826 Y130.798 E1.6741
G1 X83.570 Y130.181 E1.7013
G1 X83.570 Y89.386 E3.3621
G1 X83.100 Y88.916 E3.3891
G1 X83.100 Y79.084 E3.7894
G1 X84.084 Y78.100 E3.8461
G1 X89.916 Y78.100 E4.0835
G1 X90.000 Y78.184 E4.0883
G1 X90.084 Y78.100 E4.0932
G1 X119.916 Y78.100 E5.3076
G1 X120.000 Y78.184 E5.3125
G1 X120.084 Y78.100 E5.3173
G1 X125.916 Y78.100 E5.5547
G1 X126.900 Y79.084 E5.6114
G1 X126.900 Y88.916 E6.0116
G1 X126.430 Y89.386 E6.0387
G1 X126.430 Y130.181 E7.6995
G1 X126.174 Y130.798 E7.7267
G1 X125.048 Y131.924 E7.7915
G1 X124.431 Y132.180 E7.8187
G1 X124.335 Y131.700 F18000
G92 E0.0000
G1 X85.665 Y131.700 E1.5743 F1800
G1 X85.224 Y131.517 E1.5937
G1 X84.233 Y130.526 E1.6508
G1 X84.050 Y130.085 E1.6702
G1 X84.050 Y89.187 E3.3352
G1 X83.580 Y88.717 E3.3623
G1 X83.580 Y79.283 E3.7463
G1 X84.283 Y78.580 E3.7868
G1 X89.717 Y78.580 E4.0080
G1 X90.000 Y78.863 E4.0243
G1 X90.283 Y78.580 E4.0406
G1 X119.717 Y78.580 E5.2389
G1 X120.000 Y78.863 E5.2552
G1 X120.283 Y78.580 E5.2714
G1 X125.717 Y78.580 E5.4927
G1 X126.420 Y79.283 E5.5331
G1 X126.420 Y88.717 E5.9172
G1 X125.950 Y89.187 E5.9443
G1 X125.950 Y130.085 E7.6092
G1 X125.767 Y130.526 E7.6287
G1 X124.776 Y131.517 E7.6857
G1 X124.335 Y131.700 E7.7052
G1 X124.240 Y131.220 F18000
G92 E0.0000
G1 X85.760 Y131.220 E1.5665 F1800
G1 X85.496 Y131.110 E1.5782
G1 X84.640 Y130.254 E1.6275
G1 X84.530 Y129.990 E1.6391
G1 X84.530 Y88.952 E3.3098
G1 X84.542 Y88.940 E3.3105
G1 X84.482 Y88.940 E3.3129
G1 X84.060 Y88.518 E3.3372
G1 X84.060 Y79.482 E3.7051
G1 X84.482 Y79.060 E3.7294
G1 X89.518 Y79.060 E3.9344
G1 X89.940 Y79.482 E3.9587
G1 X89.940 Y82.518 E4.0823
G1 X89.518 Y82.940 E4.1066
G1 X87.940 Y82.940 E4.1708
G1 X87.940 Y85.060 E4.2571
G1 X92.060 Y85.060 E4.4249
G1 X92.060 Y82.940 E4.5112
G1 X90.482 Y82.940 E4.5754
G1 X90.060 Y82.518 E4.5997
G1 X90.060 Y79.482 E4.7233
G1 X90.482 Y79.060 E4.7476
G1 X119.518 Y79.060 E5.9297
G1 X119.940 Y79.482 E5.9540
G1 X119.940 Y82.518 E6.0776
G1 X119.518 Y82.940 E6.1019
G1 X117.940 Y82.940 E6.1661
G1 X117.940 Y85.060 E6.2524
G1 X122.060 Y85.060 E6.4201
G1 X122.060 Y82.940 E6.5064
G1 X120.482 Y82.940 E6.5707
G1 X120.060 Y82.518 E6.5950
G1 X120.060 Y79.482 E6.7186
G1 X120.482 Y79.060 E6.7429
G1 X125.518 Y79.060 E6.9479
G1 X125.940 Y79.482 E6.9722
G1 X125.940 Y88.518 E7.3401
G1 X125.518 Y88.940 E7.3644
G1 X125.458 Y88.940 E7.3668
G1 X125.470 Y88.952 E7.3675
G1 X125.470 Y129.990 E9.0381
G1 X125.360 Y130.254 E9.0498
G1 X124.504 Y131.110 E9.0991
G1 X124.240 Y131.220 E9.1108
G1 X124.144 Y130.740 F18000
G92 E0.0000
G1 X85.856 Y130.740 E1.5587 F1800
G1 X85.768 Y130.703 E1.5626
G1 X85.047 Y129.982 E1.6041
G1 X85.010 Y129.894 E1.6080
G1 X85.010 Y89.151 E3.2667
G1 X85.151 Y89.010 E3.2748
G1 X124.849 Y89.010 E4.8910
G1 X124.990 Y89.151 E4.8991
G1 X124.990 Y129.894 E6.5577
G1 X124.953 Y129.982 E6.5616
G1 X124.232 Y130.703 E6.6031
G1 X124.144 Y130.740 E6.6070
G92 E0.0000
G1 E-4.0000 F5400
G1 X123.997 Y130.260 F18000
G1 X124.081 Y130.176
G1 X118.900 Y84.100
G1 E0.0000 F5400
G92 E0.0000
G1 X121.100 Y84.100 E0.0896 F1800
G1 X121.100 Y83.900 E0.0977
G1 X120.084 Y83.900 E0.1391
G1 X120.000 Y83.816 E0.1439
G1 X119.916 Y83.900 E0.1487
G1 X118.900 Y83.900 E0.1901
G1 X118.900 Y84.100 E0.1982
G1 X118.420 Y84.580 F18000
G92 E0.0000
G1 X121.580 Y84.580 E0.1286 F1800
G1 X121.580 Y83.420 E0.1759
G1 X120.283 Y83.420 E0.2287
G1 X120.000 Y83.137 E0.2450
G1 X119.717 Y83.420 E0.2613
G1 X118.420 Y83.420 E0.3141
G1 X118.420 Y84.580 E0.3613
G92 E0.0000
G1 E-4.0000 F5400
G1 X91.100 Y84.100 F18000
G1 E0.0000 F5400
G92 E0.0000
G1 X91.100 Y83.900 E0.0081 F1800
G1 X90.084 Y83.900 E0.0495
G1 X90.000 Y83.816 E0.0543
G1 X89.916 Y83.900 E0.0592
G1 X88.900 Y83.900 E0.1005
G1 X88.900 Y84.100 E0.1087
G1 X91.100 Y84.100 E0.1982
G1 X91.580 Y84.580 F18000
G92 E0.0000
G1 X91.580 Y83.420 E0.0472 F1800
G1 X90.283 Y83.420 E0.1000
G1 X90.000 Y83.137 E0.1163
G1 X89.717 Y83.420 E0.1326
G1 X88.420 Y83.420 E0.1854
G1 X88.420 Y84.580 E0.2326
G1 X91.580 Y84.580 E0.3613
G92 E0.0000
G1 E-4.0000 F5400
; feature inner perimeter
G1 X105.439 Y101.327 F18000
G1 X105.521 Y101.334
G1 X105.829 Y101.410
G1 X106.111 Y101.568
G1 X106.278 Y101.723
G1 X106.547 Y102.055
G1 X106.707 Y102.535
G1 X106.812 Y102.987
G1 X115.184 Y113.103
G1 X117.689 Y117.441
G1 X117.740 Y117.550
G1 X117.770 Y117.651
G1 X117.783 Y117.757
G1 X117.778 Y117.863
G1 X117.757 Y117.967
G1 X119.812 Y118.696
G1 X123.070 Y122.632
G1 E0.0000 F5400
G92 E0.0000
G1 X122.599 Y122.308 E0.0233 F1350
G1 X122.194 Y122.083 E0.0422
G1 X121.769 Y121.896 E0.0610
G1 X121.301 Y121.741 E0.0811
G1 X120.620 Y121.608 E0.1093
G1 X120.137 Y121.572 E0.1291
G1 X119.694 Y121.580 E0.1471
G1 X119.589 Y121.290 E0.1596
G1 X119.990 Y120.966 E0.1806
G1 X120.307 Y120.649 E0.1989
G1 X120.589 Y120.300 E0.2171
G1 X120.833 Y119.925 E0.2354
G1 X121.037 Y119.525 E0.2536
G1 X121.197 Y119.107 E0.2719
G1 X121.313 Y118.674 E0.2901
G1 X121.383 Y118.231 E0.3084
G1 X121.407 Y117.783 E0.3266
G1 X121.383 Y117.336 E0.3449
G1 X121.313 Y116.893 E0.3631
G1 X121.197 Y116.460 E0.3814
G1 X121.037 Y116.041 E0.3996
G1 X120.854 Y115.684 E0.4160
G1 X108.683 Y94.603 E1.4069
G1 X108.465 Y94.266 E1.4233
G1 X108.182 Y93.918 E1.4415
G1 X107.865 Y93.601 E1.4598
G1 X107.517 Y93.319 E1.4780
G1 X107.141 Y93.075 E1.4963
G1 X106.742 Y92.871 E1.5145
G1 X106.323 Y92.710 E1.5328
G1 X105.890 Y92.594 E1.5510
G1 X105.448 Y92.524 E1.5693
G1 X105.000 Y92.501 E1.5875
G1 X104.552 Y92.524 E1.6058
G1 X104.110 Y92.594 E1.6240
G1 X103.677 Y92.710 E1.6423
G1 X103.258 Y92.871 E1.6605
G1 X102.859 Y93.075 E1.6788
G1 X102.483 Y93.319 E1.6970
G1 X102.135 Y93.601 E1.7153
G1 X101.817 Y93.918 E1.7335
G1 X101.535 Y94.266 E1.7518
G1 X101.345 Y94.559 E1.7660
G1 X89.146 Y115.684 E2.7591
G1 X88.963 Y116.041 E2.7754
G1 X88.803 Y116.460 E2.7937
G1 X88.687 Y116.893 E2.8119
G1 X88.617 Y117.336 E2.8302
G1 X88.593 Y117.783 E2.8484
G1 X88.617 Y118.231 E2.8667
G1 X88.687 Y118.674 E2.8849
G1 X88.803 Y119.107 E2.9032
G1 X88.963 Y119.525 E2.9214
G1 X89.167 Y119.925 E2.9397
G1 X89.411 Y120.300 E2.9579
G1 X89.693 Y120.649 E2.9762
G1 X90.010 Y120.966 E2.9944
G1 X90.410 Y121.290 E3.0154
G1 X90.301 Y121.582 E3.0281
G1 X89.954 Y121.568 E3.0422
G1 X89.491 Y121.595 E3.0611
G1 X89.033 Y121.664 E3.0799
G1 X88.583 Y121.776 E3.0988
G1 X88.146 Y121.931 E3.1177
G1 X87.702 Y122.135 E3.1376
