; G-Code generated by Simplify3D(R) Version 4.1.2
; Jan 23, 2021 at 4:05:26 PM
; Settings Summary
;   processName,Process1
;   applyToModels,umlenkrolle-halterung-v2-winkel-links
;   profileName,HBot (modified)
;   profileVersion,2019-10-26 23:38:43
;   baseProfile,Default
;   printMaterial,PETG - SUNLU
;   printQuality,Fast
;   printExtruders,
;   extruderName,Extruder 1
;   extruderToolheadNumber,0
;   extruderDiameter,0.4
;   extruderAutoWidth,1
;   extruderWidth,0.48
;   extrusionMultiplier,1.02
;   extruderUseRetract,0
;   extruderRetractionDistance,3
;   extruderExtraRestartDistance,0
;   extruderRetractionZLift,0
;   extruderRetractionSpeed,5400
;   extruderUseCoasting,0
;   extruderCoastingDistance,0.2
;   extruderUseWipe,1
;   extruderWipeDistance,2
;   primaryExtruder,0
;   layerHeight,0.2
;   topSolidLayers,4
;   bottomSolidLayers,4
;   perimeterOutlines,3
;   printPerimetersInsideOut,1
;   startPointOption,3
;   startPointOriginX,110
;   startPointOriginY,300
;   sequentialIslands,0
;   spiralVaseMode,0
;   firstLayerHeightPercentage,100
;   firstLayerWidthPercentage,100
;   firstLayerUnderspeed,0.5
;   useRaft,0
;   raftExtruder,0
;   raftTopLayers,3
;   raftBaseLayers,2
;   raftOffset,3
;   raftSeparationDistance,0.18
;   raftTopInfill,100
;   aboveRaftSpeedMultiplier,0.3
;   useSkirt,0
;   skirtExtruder,0
;   skirtLayers,1
;   skirtOutlines,5
;   skirtOffset,0
;   usePrimePillar,0
;   primePillarExtruder,999
;   primePillarWidth,12
;   primePillarLocation,7
;   primePillarSpeedMultiplier,1
;   useOozeShield,0
;   oozeShieldExtruder,999
;   oozeShieldOffset,0.9
;   oozeShieldOutlines,2
;   oozeShieldSidewallShape,0
;   oozeShieldSidewallAngle,30
;   oozeShieldSpeedMultiplier,1.5
;   infillExtruder,0
;   internalInfillPattern,Fast Honeycomb
;   externalInfillPattern,Rectilinear
;   infillPercentage,15
;   outlineOverlapPercentage,25
;   infillExtrusionWidthPercentage,100
;   minInfillLength,5
;   infillLayerInterval,1
;   internalInfillAngles,0
;   overlapInternalInfillAngles,0
;   externalInfillAngles,45,-45
;   generateSupport,1
;   supportExtruder,0
;   supportInfillPercentage,20
;   supportExtraInflation,0
;   supportBaseLayers,0
;   denseSupportExtruder,0
;   denseSupportLayers,0
;   denseSupportInfillPercentage,70
;   supportLayerInterval,1
;   supportHorizontalPartOffset,0.3
;   supportUpperSeparationLayers,1
;   supportLowerSeparationLayers,1
;   supportType,0
;   supportGridSpacing,2
;   maxOverhangAngle,25
;   supportAngles,0
;   temperatureName,Extruder 1,Heated Bed
;   temperatureNumber,0,1
;   temperatureSetpointCount,2,1
;   temperatureSetpointLayers,1,2,1
;   temperatureSetpointTemperatures,215,215,85
;   temperatureStabilizeAtStartup,1,1
;   temperatureHeatedBed,0,1
;   fanLayers,1,5,10
;   fanSpeeds,0,5,20
;   blipFanToFullPower,1
;   adjustSpeedForCooling,0
;   minSpeedLayerTime,15
;   minCoolingSpeedSlowdown,20
;   increaseFanForCooling,1
;   minFanLayerTime,15
;   maxCoolingFanSpeed,40
;   increaseFanForBridging,1
;   bridgingFanSpeed,85
;   use5D,1
;   relativeEdistances,0
;   allowEaxisZeroing,1
;   independentExtruderAxes,0
;   includeM10123,0
;   stickySupport,1
;   applyToolheadOffsets,0
;   gcodeXoffset,0
;   gcodeYoffset,0
;   gcodeZoffset,0
;   overrideMachineDefinition,1
;   machineTypeOverride,0
;   strokeXoverride,210
;   strokeYoverride,210
;   strokeZoverride,150
;   originOffsetXoverride,0
;   originOffsetYoverride,0
;   originOffsetZoverride,0
;   homeXdirOverride,-1
;   homeYdirOverride,-1
;   homeZdirOverride,-1
;   flipXoverride,1
;   flipYoverride,-1
;   flipZoverride,1
;   toolheadOffsets,0,0|0,0|0,0|0,0|0,0|0,0
;   overrideFirmwareConfiguration,1
;   firmwareTypeOverride,RepRap (Marlin/Repetier/Sprinter)
;   GPXconfigOverride,r2
;   baudRateOverride,115200
;   overridePrinterModels,0
;   printerModelsOverride
;   startingGcode,G28 ; home all axes,G32 ; run bed.g -- probe bed and enable compensation
;   layerChangeGcode,
;   retractionGcode,
;   toolChangeGcode,
;   endingGcode,M0 ; call stop.g
;   exportFileFormat,gcode
;   celebration,0
;   celebrationSong,Random Song
;   postProcessing,
;   defaultSpeed,3600
;   outlineUnderspeed,0.5
;   solidInfillUnderspeed,0.8
;   supportUnderspeed,0.8
;   rapidXYspeed,18000
;   rapidZspeed,1200
;   minBridgingArea,50
;   bridgingExtraInflation,0
;   bridgingExtrusionMultiplier,0.96
;   bridgingSpeedMultiplier,1
;   useFixedBridgingAngle,0
;   fixedBridgingAngle,0
;   applyBridgingToPerimeters,0
;   filamentDiameters,1.75|1.75|1.75|1.75|1.75|1.75
;   filamentPricesPerKg,46|46|46|46|46|46
;   filamentDensities,1.25|1.25|1.25|1.25|1.25|1.25
;   useMinPrintHeight,0
;   minPrintHeight,17.2
;   useMaxPrintHeight,0
;   maxPrintHeight,7.5
;   useDiaphragm,0
;   diaphragmLayerInterval,20
;   robustSlicing,1
;   mergeAllIntoSolid,0
;   onlyRetractWhenCrossingOutline,1
;   retractBetweenLayers,0
;   useRetractionMinTravel,1
;   retractionMinTravel,3
;   retractWhileWiping,1
;   onlyWipeOutlines,1
;   avoidCrossingOutline,1
;   maxMovementDetourFactor,5
;   toolChangeRetractionDistance,12
;   toolChangeExtraRestartDistance,-0.5
;   toolChangeRetractionSpeed,600
;   externalThinWallType,0
;   internalThinWallType,2
;   thinWallAllowedOverlapPercentage,10
;   singleExtrusionMinLength,1
;   singleExtrusionMinPrintingWidthPercentage,50
;   singleExtrusionMaxPrintingWidthPercentage,150
;   singleExtrusionEndpointExtension,0.2
;   horizontalSizeCompensation,0
G90
M82
M106 S0
M140 S85
M190 S85
M104 S215 T0
M109 S215 T0
G28 ; home all axes
G32 ; run bed.g -- probe bed and enable compensation
; process Process1
; layer 1, Z = 0.200
T0
; feature inner perimeter
; tool H0.200 W0.480
G1 Z0.200 F1200
G1 X123.989 Y88.800 F18000
G92 E0.0000
G1 X85.733 Y88.800 E1.5574 F1350
G1 X85.733 Y88.100 E1.5859
G1 X123.989 Y88.100 E3.1434
G1 X123.989 Y88.800 E3.1719
G1 X124.469 Y89.280 F18000
G92 E0.0000
G1 X85.253 Y89.280 E1.5965 F1350
G1 X85.253 Y87.620 E1.6641
G1 X124.469 Y87.620 E3.2606
G1 X124.469 Y89.280 E3.3282
; feature outer perimeter
G1 X124.949 Y89.760 F18000
G92 E0.0000
G1 X84.773 Y89.760 E1.6356 F900
G1 X84.773 Y87.140 E1.7423
G1 X124.949 Y87.140 E3.3778
G1 X124.949 Y89.760 E3.4845
G1 X122.949 Y89.760 F900
; feature inner perimeter
G1 X123.989 Y103.200 F18000
G92 E0.0000
G1 X123.989 Y103.900 E0.0285 F1350
G1 X85.733 Y103.900 E1.5859
G1 X85.733 Y103.200 E1.6144
G1 X123.989 Y103.200 E3.1718
G1 X124.469 Y102.720 F18000
G92 E0.0000
G1 X124.469 Y104.380 E0.0676 F1350
G1 X85.253 Y104.380 E1.6641
G1 X85.253 Y102.720 E1.7317
G1 X124.469 Y102.720 E3.3282
; feature outer perimeter
G1 X124.949 Y102.240 F18000
G92 E0.0000
G1 X124.949 Y104.860 E0.1067 F900
G1 X84.773 Y104.860 E1.7423
G1 X84.773 Y102.240 E1.8489
G1 X124.949 Y102.240 E3.4845
G1 X124.949 Y104.240 F900
; feature support
G1 X124.189 Y101.200 F18000
G92 E0.0000
G1 X101.030 Y101.200 E0.9428 F1440
G1 X101.030 Y98.800 E1.0405
G1 X124.189 Y98.800 E1.9833
G1 X124.189 Y96.400 E2.0810
G1 X123.030 Y96.400 E2.1282
G1 X123.030 Y98.030 E2.1945
G1 X118.970 Y98.030 E2.3598
G1 X118.970 Y96.400 E2.4262
G1 X107.030 Y96.400 E2.9123
G1 X107.030 Y98.030 E2.9786
G1 X102.970 Y98.030 E3.1439
G1 X102.970 Y96.400 E3.2103
G1 X101.030 Y96.400 E3.2892
G1 X101.030 Y94.000 E3.3869
G1 X102.970 Y94.000 E3.4659
G1 X102.970 Y93.970 E3.4671
G1 X107.030 Y93.970 E3.6324
G1 X107.030 Y94.000 E3.6336
G1 X118.970 Y94.000 E4.1197
G1 X118.970 Y93.970 E4.1209
G1 X123.030 Y93.970 E4.2862
G1 X123.030 Y94.000 E4.2875
G1 X124.189 Y94.000 E4.3346
G1 X124.189 Y91.600 E4.4323
G1 X101.030 Y91.600 E5.3751
G1 X109.505 Y104.860 F18000
G1 X124.949 Y104.860
G1 X120.970 Y122.800
G92 E0.0000
G1 X105.030 Y122.800 E0.6489 F1440
G1 X105.030 Y121.970 E0.6827
G1 X103.030 Y121.970 E0.7641
G1 X103.030 Y120.400 E0.8280
G1 X122.970 Y120.400 E1.6398
G1 X122.970 Y119.970 E1.6573
G1 X124.970 Y119.970 E1.7387
G1 X124.970 Y118.511 E1.7981
G1 X124.189 Y118.358 E1.8305
G1 X124.189 Y118.000 E1.8451
G1 X101.030 Y118.000 E2.7879
G1 X101.030 Y115.600 E2.8856
G1 X106.970 Y115.600 E3.1275
G1 X106.970 Y113.970 E3.1938
G1 X109.030 Y113.970 E3.2777
G1 X109.030 Y115.600 E3.3440
G1 X116.970 Y115.600 E3.6673
G1 X116.970 Y113.970 E3.7336
G1 X119.030 Y113.970 E3.8175
G1 X119.030 Y115.600 E3.8839
G1 X124.189 Y115.600 E4.0939
G1 X124.189 Y113.200 E4.1916
G1 X101.030 Y113.200 E5.1344
G1 X101.030 Y110.800 E5.2321
G1 X124.189 Y110.800 E6.1749
G1 X124.189 Y108.400 E6.2726
G1 X99.030 Y108.400 E7.2968
G1 X83.738 Y103.600 F18000
G92 E0.0000
G1 X81.030 Y103.600 E0.1103 F1440
G1 X81.030 Y101.200 E0.2080
G1 X83.738 Y101.200 E0.3182
G1 X83.738 Y98.800 E0.4159
G1 X81.030 Y98.800 E0.5262
G1 X81.030 Y96.400 E0.6239
G1 X83.738 Y96.400 E0.7341
G1 X83.738 Y94.000 E0.8318
G1 X81.030 Y94.000 E0.9421
G1 X81.030 Y91.600 E1.0398
G1 X83.738 Y91.600 E1.1500
G1 X83.738 Y89.200 E1.2477
G1 X81.030 Y89.200 E1.3580
; layer 2, Z = 0.400
; feature inner perimeter
G1 Z0.400 F1200
G1 X124.146 Y88.800 F18000
G92 E0.0000
G1 X85.478 Y88.800 E1.5742 F2700
G1 X85.478 Y87.900 E1.6108
G1 X124.146 Y87.900 E3.1850
G1 X124.146 Y88.800 E3.2216
G1 X124.146 Y89.760 F18000
G1 X124.969 Y89.760
G1 X124.969 Y102.240
G1 X124.146 Y102.240
G1 X124.146 Y103.200
G92 E0.0000
G1 X124.146 Y104.100 E0.0366 F2700
G1 X85.478 Y104.100 E1.6108
G1 X85.478 Y103.200 E1.6475
G1 X124.146 Y103.200 E3.2216
G1 X124.626 Y102.720 F18000
G92 E0.0000
G1 X124.626 Y104.580 E0.0757 F2700
G1 X84.998 Y104.580 E1.6890
G1 X84.998 Y102.720 E1.7647
G1 X124.626 Y102.720 E3.3780
G1 X124.626 Y102.240 F18000
G1 X124.969 Y102.240
G1 X124.969 Y89.760
G1 X124.626 Y89.760
G1 X124.626 Y89.280
G92 E0.0000
G1 X84.998 Y89.280 E1.6133 F2700
G1 X84.998 Y87.420 E1.6890
G1 X124.626 Y87.420 E3.3023
G1 X124.626 Y89.280 E3.3780
; feature outer perimeter
G1 X125.106 Y87.117 F18000
G92 E0.0000
G1 X125.106 Y114.996 E1.1350 F1800
G1 X125.093 Y115.414 E1.1520
G1 X125.056 Y115.826 E1.1689
G1 X124.993 Y116.238 E1.1858
G1 X124.969 Y116.353 E1.1906
G1 X124.969 Y105.060 E1.6504
G1 X84.832 Y105.060 E3.2844
G1 X84.518 Y104.866 E3.2994
G1 X84.518 Y87.134 E4.0213
G1 X84.832 Y86.940 E4.0363
G1 X124.881 Y86.940 E5.6667
G1 X125.106 Y87.117 E5.6783
G1 X125.106 Y89.117 F1800
G1 X124.969 Y89.760 F18000
G92 E0.0000
G1 X84.656 Y89.760 E1.6412 F1800
G1 X84.656 Y102.240 E2.1492
G1 X124.969 Y102.240 E3.7904
G1 X124.969 Y89.760 E4.2984
G1 X122.969 Y89.760 F1800
; feature solid layer
G1 X123.597 Y88.440 F18000
G92 E0.0000
G1 X123.777 Y88.260 E0.0104 F2880
G1 X123.098 Y88.260 E0.0380
G1 X122.918 Y88.440 E0.0484
G1 X122.239 Y88.440 E0.0760
G1 X122.419 Y88.260 E0.0864
G1 X121.740 Y88.260 E0.1140
G1 X121.560 Y88.440 E0.1244
G1 X120.881 Y88.440 E0.1520
G1 X121.061 Y88.260 E0.1624
G1 X120.382 Y88.260 E0.1900
G1 X120.202 Y88.440 E0.2004
G1 X119.524 Y88.440 E0.2280
G1 X119.704 Y88.260 E0.2384
G1 X119.025 Y88.260 E0.2660
G1 X118.845 Y88.440 E0.2764
G1 X118.166 Y88.440 E0.3040
G1 X118.346 Y88.260 E0.3143
G1 X117.667 Y88.260 E0.3420
G1 X117.487 Y88.440 E0.3523
G1 X116.808 Y88.440 E0.3800
G1 X116.988 Y88.260 E0.3903
G1 X116.309 Y88.260 E0.4180
G1 X116.129 Y88.440 E0.4283
G1 X115.451 Y88.440 E0.4560
G1 X115.631 Y88.260 E0.4663
G1 X114.952 Y88.260 E0.4940
G1 X114.772 Y88.440 E0.5043
G1 X114.093 Y88.440 E0.5320
G1 X114.273 Y88.260 E0.5423
G1 X113.594 Y88.260 E0.5700
G1 X113.414 Y88.440 E0.5803
G1 X112.735 Y88.440 E0.6080
G1 X112.915 Y88.260 E0.6183
G1 X112.237 Y88.260 E0.6460
G1 X112.057 Y88.440 E0.6563
G1 X111.378 Y88.440 E0.6840
G1 X111.558 Y88.260 E0.6943
G1 X110.879 Y88.260 E0.7220
G1 X110.699 Y88.440 E0.7323
G1 X110.020 Y88.440 E0.7600
G1 X110.200 Y88.260 E0.7703
G1 X109.521 Y88.260 E0.7980
G1 X109.341 Y88.440 E0.8083
G1 X108.662 Y88.440 E0.8360
G1 X108.842 Y88.260 E0.8463
G1 X108.164 Y88.260 E0.8740
G1 X107.984 Y88.440 E0.8843
G1 X107.305 Y88.440 E0.9120
G1 X107.485 Y88.260 E0.9223
G1 X106.806 Y88.260 E0.9500
G1 X106.626 Y88.440 E0.9603
G1 X105.947 Y88.440 E0.9880
G1 X106.127 Y88.260 E0.9983
G1 X105.448 Y88.260 E1.0260
G1 X105.268 Y88.440 E1.0363
G1 X104.589 Y88.440 E1.0640
G1 X104.769 Y88.260 E1.0743
G1 X104.091 Y88.260 E1.1020
G1 X103.911 Y88.440 E1.1123
G1 X103.232 Y88.440 E1.1399
G1 X103.412 Y88.260 E1.1503
G1 X102.733 Y88.260 E1.1779
G1 X102.553 Y88.440 E1.1883
G1 X101.874 Y88.440 E1.2159
G1 X102.054 Y88.260 E1.2263
G1 X101.375 Y88.260 E1.2539
G1 X101.195 Y88.440 E1.2643
G1 X100.517 Y88.440 E1.2919
G1 X100.697 Y88.260 E1.3023
G1 X100.018 Y88.260 E1.3299
G1 X99.838 Y88.440 E1.3403
G1 X99.159 Y88.440 E1.3679
G1 X99.339 Y88.260 E1.3783
G1 X98.660 Y88.260 E1.4059
G1 X98.480 Y88.440 E1.4163
G1 X97.801 Y88.440 E1.4439
G1 X97.981 Y88.260 E1.4543
G1 X97.302 Y88.260 E1.4819
G1 X97.122 Y88.440 E1.4923
G1 X96.444 Y88.440 E1.5199
G1 X96.624 Y88.260 E1.5303
G1 X95.945 Y88.260 E1.5579
G1 X95.765 Y88.440 E1.5683
G1 X95.086 Y88.440 E1.5959
G1 X95.266 Y88.260 E1.6063
G1 X94.587 Y88.260 E1.6339
G1 X94.407 Y88.440 E1.6443
G1 X93.728 Y88.440 E1.6719
G1 X93.908 Y88.260 E1.6823
G1 X93.229 Y88.260 E1.7099
G1 X93.049 Y88.440 E1.7203
G1 X92.371 Y88.440 E1.7479
G1 X92.551 Y88.260 E1.7583
G1 X91.872 Y88.260 E1.7859
G1 X91.692 Y88.440 E1.7963
G1 X91.013 Y88.440 E1.8239
G1 X91.193 Y88.260 E1.8343
G1 X90.514 Y88.260 E1.8619
G1 X90.334 Y88.440 E1.8723
G1 X89.655 Y88.440 E1.8999
G1 X89.835 Y88.260 E1.9103
G1 X89.157 Y88.260 E1.9379
G1 X88.977 Y88.440 E1.9483
G1 X88.298 Y88.440 E1.9759
G1 X88.478 Y88.260 E1.9863
G1 X87.799 Y88.260 E2.0139
G1 X87.619 Y88.440 E2.0243
G1 X86.940 Y88.440 E2.0519
G1 X87.120 Y88.260 E2.0623
G1 X86.441 Y88.260 E2.0899
G1 X86.261 Y88.440 E2.1003
G1 X86.230 Y89.760 F18000
G1 X84.656 Y89.760
G1 X84.656 Y102.240
G1 X85.931 Y102.240
G1 X85.895 Y103.740
G92 E0.0000
G1 X86.075 Y103.560 E0.0104 F2880
G1 X86.754 Y103.560 E0.0380
G1 X86.574 Y103.740 E0.0484
G1 X87.253 Y103.740 E0.0760
G1 X87.433 Y103.560 E0.0864
G1 X88.112 Y103.560 E0.1140
G1 X87.932 Y103.740 E0.1244
G1 X88.611 Y103.740 E0.1520
G1 X88.791 Y103.560 E0.1624
G1 X89.469 Y103.560 E0.1900
G1 X89.289 Y103.740 E0.2004
G1 X89.968 Y103.740 E0.2280
G1 X90.148 Y103.560 E0.2383
G1 X90.827 Y103.560 E0.2660
G1 X90.647 Y103.740 E0.2763
G1 X91.326 Y103.740 E0.3040
G1 X91.506 Y103.560 E0.3143
G1 X92.185 Y103.560 E0.3420
G1 X92.005 Y103.740 E0.3523
G1 X92.684 Y103.740 E0.3800
G1 X92.864 Y103.560 E0.3903
G1 X93.542 Y103.560 E0.4180
G1 X93.362 Y103.740 E0.4283
G1 X94.041 Y103.740 E0.4560
G1 X94.221 Y103.560 E0.4663
G1 X94.900 Y103.560 E0.4940
G1 X94.720 Y103.740 E0.5043
G1 X95.399 Y103.740 E0.5320
G1 X95.579 Y103.560 E0.5423
G1 X96.258 Y103.560 E0.5700
G1 X96.078 Y103.740 E0.5803
G1 X96.757 Y103.740 E0.6080
G1 X96.937 Y103.560 E0.6183
G1 X97.615 Y103.560 E0.6460
G1 X97.435 Y103.740 E0.6563
G1 X98.114 Y103.740 E0.6840
G1 X98.294 Y103.560 E0.6943
G1 X98.973 Y103.560 E0.7220
G1 X98.793 Y103.740 E0.7323
G1 X99.472 Y103.740 E0.7600
G1 X99.652 Y103.560 E0.7703
G1 X100.331 Y103.560 E0.7980
G1 X100.151 Y103.740 E0.8083
G1 X100.829 Y103.740 E0.8360
G1 X101.009 Y103.560 E0.8463
G1 X101.688 Y103.560 E0.8739
G1 X101.508 Y103.740 E0.8843
G1 X102.187 Y103.740 E0.9119
G1 X102.367 Y103.560 E0.9223
G1 X103.046 Y103.560 E0.9499
G1 X102.866 Y103.740 E0.9603
G1 X103.545 Y103.740 E0.9879
G1 X103.725 Y103.560 E0.9983
G1 X104.404 Y103.560 E1.0259
G1 X104.224 Y103.740 E1.0363
G1 X104.902 Y103.740 E1.0639
G1 X105.082 Y103.560 E1.0743
G1 X105.761 Y103.560 E1.1019
G1 X105.581 Y103.740 E1.1123
G1 X106.260 Y103.740 E1.1399
G1 X106.440 Y103.560 E1.1503
G1 X107.119 Y103.560 E1.1779
G1 X106.939 Y103.740 E1.1883
G1 X107.618 Y103.740 E1.2159
G1 X107.798 Y103.560 E1.2263
G1 X108.477 Y103.560 E1.2539
G1 X108.297 Y103.740 E1.2643
G1 X108.975 Y103.740 E1.2919
G1 X109.155 Y103.560 E1.3023
G1 X109.834 Y103.560 E1.3299
G1 X109.654 Y103.740 E1.3403
G1 X110.333 Y103.740 E1.3679
G1 X110.513 Y103.560 E1.3783
G1 X111.192 Y103.560 E1.4059
G1 X111.012 Y103.740 E1.4163
G1 X111.691 Y103.740 E1.4439
G1 X111.871 Y103.560 E1.4543
G1 X112.549 Y103.560 E1.4819
G1 X112.369 Y103.740 E1.4923
G1 X113.048 Y103.740 E1.5199
G1 X113.228 Y103.560 E1.5303
G1 X113.907 Y103.560 E1.5579
G1 X113.727 Y103.740 E1.5683
G1 X114.406 Y103.740 E1.5959
G1 X114.586 Y103.560 E1.6063
G1 X115.265 Y103.560 E1.6339
G1 X115.085 Y103.740 E1.6443
