; G-Code generated by Simplify3D(R) Version 4.1.2
; Jan 5, 2021 at 5:28:58 PM
; Settings Summary
;   processName,Process1
;   applyToModels,v6-mount
;   profileName,HBot (modified)
;   profileVersion,2019-10-26 23:38:43
;   baseProfile,Default
;   printMaterial,PETG - SUNLU
;   printQuality,Fast
;   printExtruders,
;   extruderName,Extruder 1
;   extruderToolheadNumber,0
;   extruderDiameter,0.4
;   extruderAutoWidth,1
;   extruderWidth,0.48
;   extrusionMultiplier,1.02
;   extruderUseRetract,1
;   extruderRetractionDistance,3
;   extruderExtraRestartDistance,0
;   extruderRetractionZLift,0
;   extruderRetractionSpeed,5400
;   extruderUseCoasting,0
;   extruderCoastingDistance,0.2
;   extruderUseWipe,1
;   extruderWipeDistance,5
;   primaryExtruder,0
;   layerHeight,0.3
;   topSolidLayers,3
;   bottomSolidLayers,3
;   perimeterOutlines,3
;   printPerimetersInsideOut,1
;   startPointOption,3
;   startPointOriginX,110
;   startPointOriginY,300
;   sequentialIslands,0
;   spiralVaseMode,0
;   firstLayerHeightPercentage,100
;   firstLayerWidthPercentage,100
;   firstLayerUnderspeed,0.5
;   useRaft,0
;   raftExtruder,0
;   raftTopLayers,3
;   raftBaseLayers,2
;   raftOffset,3
;   raftSeparationDistance,0.18
;   raftTopInfill,100
;   aboveRaftSpeedMultiplier,0.3
;   useSkirt,1
;   skirtExtruder,0
;   skirtLayers,1
;   skirtOutlines,10
;   skirtOffset,0
;   usePrimePillar,0
;   primePillarExtruder,999
;   primePillarWidth,12
;   primePillarLocation,7
;   primePillarSpeedMultiplier,1
;   useOozeShield,0
;   oozeShieldExtruder,999
;   oozeShieldOffset,0.9
;   oozeShieldOutlines,2
;   oozeShieldSidewallShape,0
;   oozeShieldSidewallAngle,30
;   oozeShieldSpeedMultiplier,1.5
;   infillExtruder,0
;   internalInfillPattern,Fast Honeycomb
;   externalInfillPattern,Rectilinear
;   infillPercentage,10
;   outlineOverlapPercentage,25
;   infillExtrusionWidthPercentage,100
;   minInfillLength,5
;   infillLayerInterval,1
;   internalInfillAngles,0
;   overlapInternalInfillAngles,0
;   externalInfillAngles,45,-45
;   generateSupport,1
;   supportExtruder,0
;   supportInfillPercentage,25
;   supportExtraInflation,0
;   supportBaseLayers,0
;   denseSupportExtruder,0
;   denseSupportLayers,0
;   denseSupportInfillPercentage,70
;   supportLayerInterval,1
;   supportHorizontalPartOffset,0.3
;   supportUpperSeparationLayers,1
;   supportLowerSeparationLayers,1
;   supportType,0
;   supportGridSpacing,2
;   maxOverhangAngle,25
;   supportAngles,0
;   temperatureName,Extruder 1,Heated Bed
;   temperatureNumber,0,1
;   temperatureSetpointCount,2,1
;   temperatureSetpointLayers,1,2,1
;   temperatureSetpointTemperatures,215,215,85
;   temperatureStabilizeAtStartup,1,1
;   temperatureHeatedBed,0,1
;   fanLayers,1,5,10
;   fanSpeeds,0,5,20
;   blipFanToFullPower,1
;   adjustSpeedForCooling,0
;   minSpeedLayerTime,15
;   minCoolingSpeedSlowdown,20
;   increaseFanForCooling,1
;   minFanLayerTime,15
;   maxCoolingFanSpeed,40
;   increaseFanForBridging,1
;   bridgingFanSpeed,85
;   use5D,1
;   relativeEdistances,0
;   allowEaxisZeroing,1
;   independentExtruderAxes,0
;   includeM10123,0
;   stickySupport,1
;   applyToolheadOffsets,0
;   gcodeXoffset,0
;   gcodeYoffset,0
;   gcodeZoffset,0
;   overrideMachineDefinition,1
;   machineTypeOverride,0
;   strokeXoverride,210
;   strokeYoverride,210
;   strokeZoverride,150
;   originOffsetXoverride,0
;   originOffsetYoverride,0
;   originOffsetZoverride,0
;   homeXdirOverride,-1
;   homeYdirOverride,-1
;   homeZdirOverride,-1
;   flipXoverride,1
;   flipYoverride,-1
;   flipZoverride,1
;   toolheadOffsets,0,0|0,0|0,0|0,0|0,0|0,0
;   overrideFirmwareConfiguration,1
;   firmwareTypeOverride,RepRap (Marlin/Repetier/Sprinter)
;   GPXconfigOverride,r2
;   baudRateOverride,115200
;   overridePrinterModels,0
;   printerModelsOverride
;   startingGcode,G28 ; home all axes,G32 ; run bed.g -- probe bed and enable compensation
;   layerChangeGcode,
;   retractionGcode,
;   toolChangeGcode,
;   endingGcode,M0 ; call stop.g
;   exportFileFormat,gcode
;   celebration,0
;   celebrationSong,Random Song
;   postProcessing,
;   defaultSpeed,4800
;   outlineUnderspeed,0.5
;   solidInfillUnderspeed,0.8
;   supportUnderspeed,0.8
;   rapidXYspeed,18000
;   rapidZspeed,1200
;   minBridgingArea,50
;   bridgingExtraInflation,0
;   bridgingExtrusionMultiplier,0.96
;   bridgingSpeedMultiplier,1
;   useFixedBridgingAngle,0
;   fixedBridgingAngle,0
;   applyBridgingToPerimeters,0
;   filamentDiameters,1.75|1.75|1.75|1.75|1.75|1.75
;   filamentPricesPerKg,46|46|46|46|46|46
;   filamentDensities,1.25|1.25|1.25|1.25|1.25|1.25
;   useMinPrintHeight,0
;   minPrintHeight,17.2
;   useMaxPrintHeight,0
;   maxPrintHeight,15
;   useDiaphragm,0
;   diaphragmLayerInterval,20
;   robustSlicing,1
;   mergeAllIntoSolid,0
;   onlyRetractWhenCrossingOutline,1
;   retractBetweenLayers,0
;   useRetractionMinTravel,1
;   retractionMinTravel,3
;   retractWhileWiping,1
;   onlyWipeOutlines,1
;   avoidCrossingOutline,1
;   maxMovementDetourFactor,5
;   toolChangeRetractionDistance,12
;   toolChangeExtraRestartDistance,-0.5
;   toolChangeRetractionSpeed,600
;   externalThinWallType,0
;   internalThinWallType,2
;   thinWallAllowedOverlapPercentage,10
;   singleExtrusionMinLength,1
;   singleExtrusionMinPrintingWidthPercentage,50
;   singleExtrusionMaxPrintingWidthPercentage,150
;   singleExtrusionEndpointExtension,0.2
;   horizontalSizeCompensation,-0.1
G90
M82
M106 S0
M140 S85
M190 S85
M104 S215 T0
M109 S215 T0
G28 ; home all axes
G32 ; run bed.g -- probe bed and enable compensation
; process Process1
; layer 1, Z = 0.300
T0
G92 E0.0000
G1 E-3.0000 F5400
; feature skirt
; tool H0.300 W0.480
G1 Z0.300 F1200
G1 X113.789 Y130.780 F18000
G1 E0.0000 F5400
G92 E0.0000
G1 X95.891 Y130.780 E1.0929 F2400
G1 X93.220 Y128.109 E1.3236
G1 X93.220 Y124.656 E1.5345
G1 X93.204 Y124.650 E1.5355
G1 X93.204 Y119.710 E1.8372
G1 X82.176 Y119.710 E2.5106
G1 X79.504 Y117.039 E2.7413
G1 X79.504 Y103.461 E3.5705
G1 X82.176 Y100.790 E3.8011
G1 X101.321 Y100.790 E4.9703
G1 X102.220 Y99.891 E5.0479
G1 X102.220 Y93.109 E5.4621
G1 X100.220 Y91.109 E5.6348
G1 X100.220 Y81.891 E6.1977
G1 X102.891 Y79.220 E6.4284
G1 X126.109 Y79.220 E7.8462
G1 X128.780 Y81.891 E8.0768
G1 X128.780 Y82.891 E8.1379
G1 X130.780 Y84.891 E8.3106
G1 X130.780 Y112.109 E9.9727
G1 X128.389 Y114.500 E10.1792
G1 X128.780 Y114.891 E10.2130
G1 X128.780 Y124.109 E10.7758
G1 X128.139 Y124.749 E10.8312
G1 X128.139 Y128.039 E11.0320
G1 X125.468 Y130.710 E11.2627
G1 X113.852 Y130.710 E11.9721
G1 X113.789 Y130.780 E11.9778
G1 X113.574 Y130.300 F18000
G92 E0.0000
G1 X96.090 Y130.300 E1.0677 F2400
G1 X93.700 Y127.910 E1.2741
G1 X93.700 Y124.329 E1.4928
G1 X93.684 Y124.323 E1.4938
G1 X93.684 Y119.230 E1.8048
G1 X82.374 Y119.230 E2.4954
G1 X79.984 Y116.840 E2.7018
G1 X79.984 Y103.660 E3.5067
G1 X82.374 Y101.270 E3.7131
G1 X101.520 Y101.270 E4.8822
G1 X102.700 Y100.090 E4.9841
G1 X102.700 Y92.910 E5.4226
G1 X100.700 Y90.910 E5.5953
G1 X100.700 Y82.090 E6.1339
G1 X103.090 Y79.700 E6.3403
G1 X125.910 Y79.700 E7.7338
G1 X128.300 Y82.090 E7.9402
G1 X128.300 Y83.090 E8.0013
G1 X130.300 Y85.090 E8.1740
G1 X130.300 Y111.910 E9.8118
G1 X127.710 Y114.500 E10.0354
G1 X128.300 Y115.090 E10.0864
G1 X128.300 Y123.910 E10.6250
G1 X127.659 Y124.551 E10.6803
G1 X127.659 Y127.840 E10.8812
G1 X125.269 Y130.230 E11.0876
G1 X113.636 Y130.230 E11.7980
G1 X113.574 Y130.300 E11.8037
G1 X113.359 Y129.820 F18000
G92 E0.0000
G1 X96.289 Y129.820 E1.0424 F2400
G1 X94.180 Y127.711 E1.2245
G1 X94.180 Y124.001 E1.4511
G1 X94.164 Y123.995 E1.4521
G1 X94.164 Y118.750 E1.7724
G1 X82.573 Y118.750 E2.4802
G1 X80.464 Y116.641 E2.6623
G1 X80.464 Y103.859 E3.4429
G1 X82.573 Y101.750 E3.6250
G1 X101.719 Y101.750 E4.7941
G1 X103.180 Y100.289 E4.9203
G1 X103.180 Y92.711 E5.3831
G1 X101.180 Y90.711 E5.5558
G1 X101.180 Y82.289 E6.0701
G1 X103.289 Y80.180 E6.2522
G1 X125.711 Y80.180 E7.6215
G1 X127.820 Y82.289 E7.8036
G1 X127.820 Y83.289 E7.8646
G1 X129.820 Y85.289 E8.0374
G1 X129.820 Y111.711 E9.6509
G1 X127.179 Y114.352 E9.8789
G1 X127.179 Y114.648 E9.8970
G1 X127.820 Y115.289 E9.9523
G1 X127.820 Y123.711 E10.4666
G1 X127.179 Y124.352 E10.5220
G1 X127.179 Y127.641 E10.7228
G1 X125.070 Y129.750 E10.9050
G1 X113.421 Y129.750 E11.6163
G1 X113.359 Y129.820 E11.6220
G1 X113.144 Y129.340 F18000
G92 E0.0000
G1 X96.488 Y129.340 E1.0171 F2400
G1 X94.660 Y127.512 E1.1749
G1 X94.660 Y123.674 E1.4093
G1 X94.644 Y123.668 E1.4104
G1 X94.644 Y118.270 E1.7400
G1 X82.772 Y118.270 E2.4650
G1 X80.944 Y116.442 E2.6228
G1 X80.944 Y104.058 E3.3791
G1 X82.772 Y102.230 E3.5369
G1 X101.918 Y102.230 E4.7061
G1 X103.488 Y100.660 E4.8417
G1 X103.660 Y100.660 E4.8522
G1 X103.660 Y92.512 E5.3497
G1 X101.660 Y90.512 E5.5224
G1 X101.660 Y82.488 E6.0125
G1 X103.488 Y80.660 E6.1703
G1 X125.512 Y80.660 E7.5153
G1 X127.340 Y82.488 E7.6731
G1 X127.340 Y83.488 E7.7342
G1 X129.340 Y85.488 E7.9069
G1 X129.340 Y111.512 E9.4961
G1 X126.699 Y114.153 E9.7241
G1 X126.699 Y114.847 E9.7665
G1 X127.340 Y115.488 E9.8219
G1 X127.340 Y123.512 E10.3119
G1 X126.699 Y124.153 E10.3672
G1 X126.699 Y127.442 E10.5681
G1 X124.872 Y129.270 E10.7259
G1 X113.206 Y129.270 E11.4383
G1 X113.144 Y129.340 E11.4440
G1 X112.929 Y128.860 F18000
G92 E0.0000
G1 X96.687 Y128.860 E0.9918 F2400
G1 X95.140 Y127.314 E1.1254
G1 X95.140 Y123.347 E1.3676
G1 X95.124 Y123.340 E1.3687
G1 X95.124 Y117.790 E1.7076
G1 X82.971 Y117.790 E2.4498
G1 X81.424 Y116.244 E2.5833
G1 X81.424 Y104.256 E3.3153
G1 X82.971 Y102.710 E3.4489
G1 X102.140 Y102.710 E4.6194
G1 X102.140 Y102.686 E4.6209
G1 X103.687 Y101.140 E4.7544
G1 X104.140 Y101.140 E4.7821
G1 X104.140 Y92.314 E5.3211
G1 X102.140 Y90.314 E5.4938
G1 X102.140 Y82.686 E5.9596
G1 X103.687 Y81.140 E6.0931
G1 X125.314 Y81.140 E7.4138
G1 X126.860 Y82.686 E7.5474
G1 X126.860 Y83.686 E7.6084
G1 X128.860 Y85.686 E7.7812
G1 X128.860 Y111.314 E9.3461
G1 X126.314 Y113.860 E9.5660
G1 X126.219 Y113.860 E9.5717
G1 X126.219 Y115.046 E9.6442
G1 X126.860 Y115.686 E9.6995
G1 X126.860 Y123.314 E10.1652
G1 X126.219 Y123.954 E10.2206
G1 X126.219 Y127.244 E10.4214
G1 X124.673 Y128.790 E10.5550
G1 X112.991 Y128.790 E11.2683
G1 X112.929 Y128.860 E11.2741
G1 X112.713 Y128.380 F18000
G92 E0.0000
G1 X96.885 Y128.380 E0.9666 F2400
G1 X95.620 Y127.115 E1.0758
G1 X95.620 Y123.019 E1.3259
G1 X95.604 Y123.013 E1.3269
G1 X95.604 Y117.310 E1.6752
G1 X83.170 Y117.310 E2.4345
G1 X81.904 Y116.045 E2.5438
G1 X81.904 Y104.455 E3.2515
G1 X83.170 Y103.190 E3.3608
G1 X102.620 Y103.190 E4.5485
G1 X102.620 Y102.885 E4.5671
G1 X103.885 Y101.620 E4.6764
G1 X104.620 Y101.620 E4.7213
G1 X104.620 Y92.115 E5.3017
G1 X102.620 Y90.115 E5.4745
G1 X102.620 Y82.885 E5.9159
G1 X103.885 Y81.620 E6.0252
G1 X125.115 Y81.620 E7.3216
G1 X126.380 Y82.885 E7.4308
G1 X126.380 Y83.885 E7.4919
G1 X128.380 Y85.885 E7.6646
G1 X128.380 Y111.115 E9.2053
G1 X126.115 Y113.380 E9.4009
G1 X125.739 Y113.380 E9.4238
G1 X125.739 Y115.245 E9.5377
G1 X126.380 Y115.885 E9.5930
G1 X126.380 Y123.115 E10.0345
G1 X125.739 Y123.755 E10.0898
G1 X125.739 Y127.045 E10.2907
G1 X124.474 Y128.310 E10.4000
G1 X112.776 Y128.310 E11.1143
G1 X112.713 Y128.380 E11.1200
G1 X112.498 Y127.900 F18000
G92 E0.0000
G1 X97.084 Y127.900 E0.9413 F2400
G1 X96.100 Y126.916 E1.0263
G1 X96.100 Y122.692 E1.2842
G1 X96.084 Y122.686 E1.2852
G1 X96.084 Y116.830 E1.6428
G1 X83.368 Y116.830 E2.4193
G1 X82.384 Y115.846 E2.5043
G1 X82.384 Y104.654 E3.1877
G1 X83.368 Y103.670 E3.2727
G1 X103.100 Y103.670 E4.4776
G1 X103.100 Y103.084 E4.5134
G1 X104.084 Y102.100 E4.5984
G1 X105.100 Y102.100 E4.6604
G1 X105.100 Y91.900 E5.2833
G1 X105.084 Y91.900 E5.2843
G1 X104.100 Y90.916 E5.3693
G1 X104.100 Y90.900 E5.3702
G1 X104.084 Y90.900 E5.3712
G1 X103.100 Y89.916 E5.4562
G1 X103.100 Y83.084 E5.8734
G1 X104.084 Y82.100 E5.9584
G1 X124.916 Y82.100 E7.2305
G1 X125.900 Y83.084 E7.3155
G1 X125.900 Y84.100 E7.3775
G1 X125.916 Y84.100 E7.3785
G1 X126.900 Y85.084 E7.4635
G1 X126.900 Y85.100 E7.4644
G1 X126.916 Y85.100 E7.4654
G1 X127.900 Y86.084 E7.5504
G1 X127.900 Y110.916 E9.0668
G1 X126.916 Y111.900 E9.1517
G1 X126.900 Y111.900 E9.1527
G1 X126.900 Y111.916 E9.1537
G1 X125.916 Y112.900 E9.2387
G1 X125.259 Y112.900 E9.2788
G1 X125.259 Y115.443 E9.4341
G1 X125.900 Y116.084 E9.4894
G1 X125.900 Y122.916 E9.9066
G1 X125.259 Y123.557 E9.9619
G1 X125.259 Y126.846 E10.1628
G1 X124.275 Y127.830 E10.2478
G1 X112.561 Y127.830 E10.9631
G1 X112.498 Y127.900 E10.9689
G1 X112.283 Y127.420 F18000
G92 E0.0000
G1 X97.283 Y127.420 E0.9160 F2400
G1 X96.580 Y126.717 E0.9767
G1 X96.580 Y122.364 E1.2425
G1 X96.564 Y122.358 E1.2435
G1 X96.564 Y116.350 E1.6104
G1 X83.567 Y116.350 E2.4041
G1 X82.864 Y115.647 E2.4648
G1 X82.864 Y104.853 E3.1240
G1 X83.567 Y104.150 E3.1847
G1 X103.580 Y104.150 E4.4067
G1 X103.580 Y103.283 E4.4597
G1 X104.283 Y102.580 E4.5204
G1 X105.580 Y102.580 E4.5996
G1 X105.580 Y91.420 E5.2811
G1 X105.283 Y91.420 E5.2992
G1 X104.580 Y90.717 E5.3599
G1 X104.580 Y90.420 E5.3781
G1 X104.283 Y90.420 E5.3962
G1 X103.580 Y89.717 E5.4569
G1 X103.580 Y83.283 E5.8498
G1 X104.283 Y82.580 E5.9105
G1 X124.717 Y82.580 E7.1584
G1 X125.420 Y83.283 E7.2191
G1 X125.420 Y84.580 E7.2983
G1 X125.717 Y84.580 E7.3164
G1 X126.420 Y85.283 E7.3771
G1 X126.420 Y85.580 E7.3953
G1 X126.717 Y85.580 E7.4134
G1 X127.420 Y86.283 E7.4741
G1 X127.420 Y110.717 E8.9662
G1 X126.717 Y111.420 E9.0269
G1 X126.420 Y111.420 E9.0450
G1 X126.420 Y111.717 E9.0632
G1 X125.717 Y112.420 E9.1239
G1 X124.779 Y112.420 E9.1811
G1 X124.779 Y115.642 E9.3779
G1 X125.420 Y116.283 E9.4332
G1 X125.420 Y122.717 E9.8261
G1 X124.779 Y123.358 E9.8815
G1 X124.779 Y126.647 E10.0823
G1 X124.076 Y127.350 E10.1430
G1 X112.346 Y127.350 E10.8594
G1 X112.283 Y127.420 E10.8651
G1 X112.068 Y126.940 F18000
G92 E0.0000
G1 X97.482 Y126.940 E0.8907 F2400
G1 X97.060 Y126.518 E0.9271
G1 X97.060 Y122.037 E1.2008
G1 X97.044 Y122.031 E1.2018
G1 X97.044 Y115.870 E1.5780
G1 X83.766 Y115.870 E2.3889
G1 X83.344 Y115.448 E2.4253
G1 X83.344 Y105.052 E3.0602
G1 X83.766 Y104.630 E3.0966
G1 X104.060 Y104.630 E4.3358
G1 X104.060 Y103.482 E4.4060
G1 X104.482 Y103.060 E4.4424
G1 X106.060 Y103.060 E4.5388
G1 X106.060 Y90.940 E5.2789
G1 X105.482 Y90.940 E5.3142
G1 X105.060 Y90.518 E5.3506
G1 X105.060 Y89.940 E5.3859
G1 X104.482 Y89.940 E5.4212
G1 X104.060 Y89.518 E5.4577
G1 X104.060 Y83.482 E5.8263
G1 X104.482 Y83.060 E5.8627
G1 X124.518 Y83.060 E7.0862
G1 X124.940 Y83.482 E7.1227
G1 X124.940 Y85.060 E7.2190
G1 X125.518 Y85.060 E7.2543
G1 X125.940 Y85.482 E7.2908
G1 X125.940 Y86.060 E7.3261
G1 X126.518 Y86.060 E7.3614
G1 X126.940 Y86.482 E7.3978
G1 X126.940 Y110.518 E8.8656
G1 X126.518 Y110.940 E8.9020
G1 X125.940 Y110.940 E8.9374
G1 X125.940 Y111.518 E8.9727
G1 X125.518 Y111.940 E9.0091
G1 X124.299 Y111.940 E9.0835
G1 X124.299 Y116.060 E9.3351
G1 X124.518 Y116.060 E9.3485
G1 X124.940 Y116.482 E9.3849
G1 X124.940 Y122.518 E9.7535
G1 X124.518 Y122.940 E9.7899
G1 X124.299 Y122.940 E9.8033
G1 X124.299 Y126.448 E10.0175
G1 X123.878 Y126.870 E10.0540
G1 X112.130 Y126.870 E10.7713
G1 X112.068 Y126.940 E10.7770
G1 X111.853 Y126.460 F18000
G92 E0.0000
G1 X97.681 Y126.460 E0.8654 F2400
G1 X97.540 Y126.319 E0.8776
G1 X97.540 Y121.950 E1.1444
G1 X97.572 Y121.867 E1.1498
G1 X97.668 Y121.760 E1.1586
G1 X97.524 Y121.704 E1.1680
G1 X97.524 Y115.390 E1.5535
G1 X83.965 Y115.390 E2.3816
G1 X83.824 Y115.249 E2.3937
G1 X83.824 Y105.251 E3.0043
G1 X83.965 Y105.110 E3.0164
G1 X104.540 Y105.110 E4.2729
G1 X104.540 Y103.681 E4.3601
G1 X104.681 Y103.540 E4.3723
G1 X106.540 Y103.540 E4.4858
G1 X106.540 Y90.460 E5.2846
G1 X105.681 Y90.460 E5.3370
G1 X105.540 Y90.319 E5.3492
G1 X105.540 Y89.460 E5.4017
G1 X104.681 Y89.460 E5.4541
G1 X104.540 Y89.319 E5.4663
G1 X104.540 Y83.681 E5.8106
G1 X104.681 Y83.540 E5.8228
G1 X124.319 Y83.540 E7.0220
G1 X124.460 Y83.681 E7.0342
G1 X124.460 Y85.540 E7.1477
G1 X125.319 Y85.540 E7.2002
G1 X125.460 Y85.681 E7.2123
G1 X125.460 Y86.540 E7.2648
G1 X126.319 Y86.540 E7.3173
G1 X126.460 Y86.681 E7.3294
G1 X126.460 Y110.319 E8.7730
G1 X126.319 Y110.460 E8.7851
G1 X125.460 Y110.460 E8.8376
G1 X125.460 Y111.319 E8.8901
