; G-Code generated by Simplify3D(R) Version 4.1.2
; Dec 30, 2020 at 11:51:45 PM
; Settings Summary
;   processName,Process1
;   applyToModels,X-Carriage Cable Bracket
;   profileName,HBot (modified)
;   profileVersion,2019-10-26 23:38:43
;   baseProfile,Default
;   printMaterial,PETG - SUNLU
;   printQuality,Medium
;   printExtruders,
;   extruderName,Extruder 1
;   extruderToolheadNumber,0
;   extruderDiameter,0.4
;   extruderAutoWidth,1
;   extruderWidth,0.48
;   extrusionMultiplier,1.02
;   extruderUseRetract,1
;   extruderRetractionDistance,4
;   extruderExtraRestartDistance,0
;   extruderRetractionZLift,0
;   extruderRetractionSpeed,5400
;   extruderUseCoasting,0
;   extruderCoastingDistance,0.2
;   extruderUseWipe,1
;   extruderWipeDistance,5
;   primaryExtruder,0
;   layerHeight,0.2
;   topSolidLayers,4
;   bottomSolidLayers,4
;   perimeterOutlines,4
;   printPerimetersInsideOut,1
;   startPointOption,3
;   startPointOriginX,110
;   startPointOriginY,300
;   sequentialIslands,0
;   spiralVaseMode,0
;   firstLayerHeightPercentage,100
;   firstLayerWidthPercentage,100
;   firstLayerUnderspeed,0.5
;   useRaft,0
;   raftExtruder,0
;   raftTopLayers,3
;   raftBaseLayers,2
;   raftOffset,3
;   raftSeparationDistance,0.18
;   raftTopInfill,100
;   aboveRaftSpeedMultiplier,0.3
;   useSkirt,0
;   skirtExtruder,0
;   skirtLayers,1
;   skirtOutlines,10
;   skirtOffset,0
;   usePrimePillar,0
;   primePillarExtruder,999
;   primePillarWidth,12
;   primePillarLocation,7
;   primePillarSpeedMultiplier,1
;   useOozeShield,0
;   oozeShieldExtruder,999
;   oozeShieldOffset,0.9
;   oozeShieldOutlines,2
;   oozeShieldSidewallShape,0
;   oozeShieldSidewallAngle,30
;   oozeShieldSpeedMultiplier,1.5
;   infillExtruder,0
;   internalInfillPattern,Fast Honeycomb
;   externalInfillPattern,Rectilinear
;   infillPercentage,20
;   outlineOverlapPercentage,25
;   infillExtrusionWidthPercentage,100
;   minInfillLength,5
;   infillLayerInterval,1
;   internalInfillAngles,0
;   overlapInternalInfillAngles,0
;   externalInfillAngles,45,-45
;   generateSupport,0
;   supportExtruder,0
;   supportInfillPercentage,25
;   supportExtraInflation,0
;   supportBaseLayers,0
;   denseSupportExtruder,0
;   denseSupportLayers,0
;   denseSupportInfillPercentage,70
;   supportLayerInterval,1
;   supportHorizontalPartOffset,0.3
;   supportUpperSeparationLayers,1
;   supportLowerSeparationLayers,1
;   supportType,0
;   supportGridSpacing,2
;   maxOverhangAngle,25
;   supportAngles,0
;   temperatureName,Extruder 1,Heated Bed
;   temperatureNumber,0,1
;   temperatureSetpointCount,2,1
;   temperatureSetpointLayers,1,2,1
;   temperatureSetpointTemperatures,215,215,85
;   temperatureStabilizeAtStartup,1,1
;   temperatureHeatedBed,0,1
;   fanLayers,1,5,10
;   fanSpeeds,0,5,20
;   blipFanToFullPower,1
;   adjustSpeedForCooling,0
;   minSpeedLayerTime,15
;   minCoolingSpeedSlowdown,20
;   increaseFanForCooling,1
;   minFanLayerTime,15
;   maxCoolingFanSpeed,40
;   increaseFanForBridging,1
;   bridgingFanSpeed,85
;   use5D,1
;   relativeEdistances,0
;   allowEaxisZeroing,1
;   independentExtruderAxes,0
;   includeM10123,0
;   stickySupport,1
;   applyToolheadOffsets,0
;   gcodeXoffset,0
;   gcodeYoffset,0
;   gcodeZoffset,0
;   overrideMachineDefinition,1
;   machineTypeOverride,0
;   strokeXoverride,210
;   strokeYoverride,210
;   strokeZoverride,150
;   originOffsetXoverride,0
;   originOffsetYoverride,0
;   originOffsetZoverride,0
;   homeXdirOverride,-1
;   homeYdirOverride,-1
;   homeZdirOverride,-1
;   flipXoverride,1
;   flipYoverride,-1
;   flipZoverride,1
;   toolheadOffsets,0,0|0,0|0,0|0,0|0,0|0,0
;   overrideFirmwareConfiguration,1
;   firmwareTypeOverride,RepRap (Marlin/Repetier/Sprinter)
;   GPXconfigOverride,r2
;   baudRateOverride,115200
;   overridePrinterModels,0
;   printerModelsOverride
;   startingGcode,G28 ; home all axes,G32 ; run bed.g -- probe bed and enable compensation
;   layerChangeGcode,
;   retractionGcode,
;   toolChangeGcode,
;   endingGcode,M0 ; call stop.g
;   exportFileFormat,gcode
;   celebration,0
;   celebrationSong,Random Song
;   postProcessing,
;   defaultSpeed,3600
;   outlineUnderspeed,0.5
;   solidInfillUnderspeed,0.8
;   supportUnderspeed,0.8
;   rapidXYspeed,18000
;   rapidZspeed,1200
;   minBridgingArea,50
;   bridgingExtraInflation,0
;   bridgingExtrusionMultiplier,0.96
;   bridgingSpeedMultiplier,1
;   useFixedBridgingAngle,0
;   fixedBridgingAngle,0
;   applyBridgingToPerimeters,0
;   filamentDiameters,1.75|1.75|1.75|1.75|1.75|1.75
;   filamentPricesPerKg,46|46|46|46|46|46
;   filamentDensities,1.25|1.25|1.25|1.25|1.25|1.25
;   useMinPrintHeight,0
;   minPrintHeight,20
;   useMaxPrintHeight,0
;   maxPrintHeight,15
;   useDiaphragm,0
;   diaphragmLayerInterval,20
;   robustSlicing,1
;   mergeAllIntoSolid,0
;   onlyRetractWhenCrossingOutline,1
;   retractBetweenLayers,0
;   useRetractionMinTravel,1
;   retractionMinTravel,3
;   retractWhileWiping,1
;   onlyWipeOutlines,1
;   avoidCrossingOutline,1
;   maxMovementDetourFactor,5
;   toolChangeRetractionDistance,12
;   toolChangeExtraRestartDistance,-0.5
;   toolChangeRetractionSpeed,600
;   externalThinWallType,0
;   internalThinWallType,2
;   thinWallAllowedOverlapPercentage,10
;   singleExtrusionMinLength,1
;   singleExtrusionMinPrintingWidthPercentage,50
;   singleExtrusionMaxPrintingWidthPercentage,150
;   singleExtrusionEndpointExtension,0.2
;   horizontalSizeCompensation,-0.1
G90
M82
M106 S0
M140 S85
M190 S85
M104 S215 T0
M109 S215 T0
G28 ; home all axes
G32 ; run bed.g -- probe bed and enable compensation
; process Process1
; layer 1, Z = 0.200
T0
G92 E0.0000
G1 E-4.0000 F5400
; feature inner perimeter
; tool H0.200 W0.480
G1 Z0.200 F1200
G1 X97.579 Y92.571 F18000
G1 E0.0000 F5400
G92 E0.0000
G1 X90.817 Y92.562 E0.2753 F1350
G1 X90.632 Y92.542 E0.2828
G1 X90.278 Y92.471 E0.2975
G1 X90.100 Y92.415 E0.3051
G1 X89.786 Y92.285 E0.3190
G1 X89.465 Y92.101 E0.3340
G1 X89.156 Y91.867 E0.3498
G1 X89.028 Y91.746 E0.3570
G1 X88.773 Y91.453 E0.3728
G1 X88.570 Y91.144 E0.3879
G1 X88.419 Y90.840 E0.4017
G1 X88.354 Y90.669 E0.4091
G1 X88.253 Y90.292 E0.4250
G1 X88.208 Y89.955 E0.4389
G1 X88.197 Y89.713 E0.4487
G1 X88.197 Y79.809 E0.8519
G1 X88.227 Y79.358 E0.8703
G1 X88.250 Y79.215 E0.8762
G1 X88.300 Y79.008 E0.8849
G1 X88.419 Y78.659 E0.8999
G1 X88.472 Y78.541 E0.9051
G1 X88.668 Y78.199 E0.9212
G1 X88.906 Y77.885 E0.9372
G1 X89.007 Y77.776 E0.9433
G1 X89.177 Y77.617 E0.9528
G1 X89.296 Y77.520 E0.9590
G1 X89.602 Y77.316 E0.9740
G1 X89.788 Y77.215 E0.9826
G1 X89.921 Y77.155 E0.9886
G1 X90.322 Y77.020 E1.0058
G1 X90.444 Y76.992 E1.0109
G1 X90.840 Y76.940 E1.0271
G1 X93.969 Y76.921 E1.1545
G1 X94.712 Y76.806 E1.1851
G1 X95.159 Y76.684 E1.2040
G1 X95.861 Y76.402 E1.2348
G1 X96.513 Y76.016 E1.2656
G1 X96.856 Y75.756 E1.2831
G1 X97.870 Y74.855 E1.3384
G1 X98.302 Y74.516 E1.3607
G1 X99.021 Y74.009 E1.3965
G1 X99.408 Y73.767 E1.4151
G1 X99.899 Y73.488 E1.4381
G1 X100.337 Y73.268 E1.4581
G1 X100.337 Y77.431 E1.6276
G1 X101.252 Y77.431 E1.6648
G1 X101.348 Y77.734 E1.6777
G1 X100.995 Y77.980 E1.6952
G1 X100.627 Y78.269 E1.7143
G1 X100.261 Y78.591 E1.7341
G1 X99.700 Y79.168 E1.7669
G1 X99.388 Y79.543 E1.7867
G1 X99.106 Y79.923 E1.8060
G1 X98.797 Y80.400 E1.8291
G1 X98.413 Y81.112 E1.8621
G1 X98.212 Y81.565 E1.8822
G1 X97.927 Y82.338 E1.9158
G1 X97.692 Y82.077 E1.9301
G1 X97.410 Y81.822 E1.9455
G1 X97.104 Y81.597 E1.9610
G1 X96.746 Y81.385 E1.9780
G1 X96.176 Y81.149 E2.0031
G1 X95.773 Y81.046 E2.0200
G1 X95.397 Y80.988 E2.0355
G1 X95.017 Y80.969 E2.0510
G1 X94.638 Y80.988 E2.0664
G1 X94.262 Y81.046 E2.0819
G1 X93.859 Y81.149 E2.0988
G1 X93.289 Y81.385 E2.1239
G1 X92.931 Y81.597 E2.1409
G1 X92.625 Y81.822 E2.1564
G1 X92.343 Y82.077 E2.1718
G1 X92.063 Y82.387 E2.1889
G1 X91.719 Y82.899 E2.2140
G1 X91.537 Y83.271 E2.2308
G1 X91.402 Y83.638 E2.2467
G1 X91.292 Y84.092 E2.2657
G1 X91.233 Y84.712 E2.2911
G1 X91.254 Y85.131 E2.3082
G1 X91.312 Y85.507 E2.3237
G1 X91.415 Y85.910 E2.3406
G1 X91.651 Y86.480 E2.3657
G1 X91.863 Y86.838 E2.3826
G1 X92.088 Y87.144 E2.3981
G1 X92.343 Y87.426 E2.4136
G1 X92.625 Y87.681 E2.4291
G1 X92.931 Y87.906 E2.4445
G1 X93.289 Y88.118 E2.4615
G1 X93.859 Y88.354 E2.4866
G1 X94.262 Y88.457 E2.5035
G1 X94.638 Y88.515 E2.5190
G1 X95.017 Y88.534 E2.5345
G1 X95.397 Y88.515 E2.5499
G1 X95.773 Y88.457 E2.5654
G1 X96.176 Y88.354 E2.5824
G1 X96.746 Y88.118 E2.6075
G1 X97.104 Y87.906 E2.6244
G1 X97.590 Y87.548 E2.6490
G1 X97.579 Y92.571 E2.8535
G1 X99.019 Y92.571 F18000
G1 X99.038 Y84.364
G1 X99.113 Y83.670
G1 X99.199 Y83.210
G1 X99.387 Y82.541
G1 X99.548 Y82.105
G1 X99.707 Y81.746
G1 X100.036 Y81.135
G1 X100.289 Y80.746
G1 X100.521 Y80.433
G1 X100.771 Y80.132
G1 X101.254 Y79.636
G1 X101.549 Y79.377
G1 X101.853 Y79.137
G1 X102.172 Y78.914
G1 X102.569 Y78.672
G1 X103.188 Y78.360
G1 X103.550 Y78.211
G1 X103.918 Y78.084
G1 X104.366 Y77.960
G1 X105.047 Y77.829
G1 X105.436 Y77.786
G1 X105.824 Y77.764
G1 X106.211 Y77.764
G1 X106.599 Y77.786
G1 X106.988 Y77.829
G1 X107.669 Y77.960
G1 X108.117 Y78.084
G1 X108.488 Y78.213
G1 X109.124 Y78.490
G1 X109.537 Y78.712
G1 X110.119 Y79.091
G1 X110.486 Y79.376
G1 X110.780 Y79.636
G1 X111.264 Y80.132
G1 X111.515 Y80.434
G1 X111.789 Y80.809
G1 X112.152 Y81.400
G1 X112.330 Y81.749
G1 X112.487 Y82.104
G1 X112.624 Y82.468
G1 X112.760 Y82.912
G1 X112.910 Y83.589
G1 X112.965 Y83.977
G1 X112.997 Y84.368
G1 X113.016 Y92.571
G1 X114.456 Y92.571
G92 E0.0000
G1 X114.445 Y87.548 E0.2045 F1350
G1 X114.931 Y87.906 E0.2291
G1 X115.289 Y88.118 E0.2460
G1 X115.859 Y88.354 E0.2711
G1 X116.262 Y88.457 E0.2881
G1 X116.638 Y88.515 E0.3036
G1 X117.017 Y88.534 E0.3190
G1 X117.397 Y88.515 E0.3345
G1 X117.773 Y88.457 E0.3500
G1 X118.176 Y88.354 E0.3669
G1 X118.746 Y88.118 E0.3920
G1 X119.104 Y87.906 E0.4090
G1 X119.410 Y87.681 E0.4244
G1 X119.692 Y87.426 E0.4399
G1 X119.947 Y87.144 E0.4554
G1 X120.172 Y86.838 E0.4709
G1 X120.384 Y86.480 E0.4878
G1 X120.620 Y85.910 E0.5129
G1 X120.723 Y85.507 E0.5298
G1 X120.781 Y85.131 E0.5453
G1 X120.800 Y84.751 E0.5608
G1 X120.781 Y84.372 E0.5763
G1 X120.723 Y83.996 E0.5917
G1 X120.620 Y83.593 E0.6087
G1 X120.384 Y83.023 E0.6338
G1 X120.172 Y82.665 E0.6507
G1 X119.947 Y82.359 E0.6662
G1 X119.692 Y82.077 E0.6817
G1 X119.410 Y81.822 E0.6971
G1 X119.104 Y81.597 E0.7126
G1 X118.746 Y81.385 E0.7296
G1 X118.176 Y81.149 E0.7547
G1 X117.773 Y81.046 E0.7716
G1 X117.397 Y80.988 E0.7871
G1 X117.017 Y80.969 E0.8026
G1 X116.638 Y80.988 E0.8180
G1 X116.262 Y81.046 E0.8335
G1 X115.859 Y81.149 E0.8504
G1 X115.289 Y81.385 E0.8755
G1 X114.931 Y81.597 E0.8925
G1 X114.625 Y81.822 E0.9080
G1 X114.343 Y82.077 E0.9234
G1 X114.112 Y82.332 E0.9374
G1 X113.820 Y81.558 E0.9711
G1 X113.631 Y81.130 E0.9902
G1 X113.409 Y80.696 E1.0100
G1 X112.986 Y80.006 E1.0430
G1 X112.650 Y79.547 E1.0661
G1 X112.335 Y79.168 E1.0862
G1 X111.774 Y78.591 E1.1189
G1 X111.404 Y78.266 E1.1390
G1 X110.955 Y77.917 E1.1621
G1 X110.683 Y77.740 E1.1753
G1 X110.775 Y77.431 E1.1884
G1 X111.697 Y77.431 E1.2260
G1 X111.697 Y73.268 E1.3955
G1 X112.136 Y73.488 E1.4155
G1 X112.627 Y73.767 E1.4385
G1 X113.014 Y74.009 E1.4570
G1 X113.733 Y74.516 E1.4929
G1 X114.165 Y74.855 E1.5152
G1 X115.179 Y75.756 E1.5704
G1 X115.522 Y76.016 E1.5880
G1 X116.173 Y76.402 E1.6188
G1 X116.886 Y76.688 E1.6500
G1 X117.382 Y76.817 E1.6709
G1 X118.072 Y76.921 E1.6993
G1 X120.957 Y76.931 E1.8168
G1 X121.411 Y76.961 E1.8353
G1 X121.554 Y76.984 E1.8412
G1 X121.761 Y77.034 E1.8498
G1 X122.110 Y77.153 E1.8649
G1 X122.227 Y77.206 E1.8701
G1 X122.570 Y77.402 E1.8862
G1 X122.879 Y77.636 E1.9020
G1 X123.007 Y77.757 E1.9091
G1 X123.261 Y78.050 E1.9249
G1 X123.463 Y78.355 E1.9398
G1 X123.623 Y78.683 E1.9547
G1 X123.739 Y79.029 E1.9695
G1 X123.810 Y79.387 E1.9844
G1 X123.837 Y79.808 E2.0016
G1 X123.828 Y89.953 E2.4146
G1 X123.808 Y90.136 E2.4221
G1 X123.737 Y90.491 E2.4368
G1 X123.681 Y90.669 E2.4444
G1 X123.551 Y90.983 E2.4582
G1 X123.367 Y91.304 E2.4733
G1 X123.132 Y91.613 E2.4891
G1 X123.012 Y91.741 E2.4962
G1 X122.719 Y91.995 E2.5120
G1 X122.410 Y92.199 E2.5271
G1 X122.106 Y92.350 E2.5409
G1 X121.935 Y92.415 E2.5484
G1 X121.558 Y92.515 E2.5642
G1 X121.221 Y92.561 E2.5781
G1 X120.979 Y92.571 E2.5880
G1 X114.456 Y92.571 E2.8535
G1 X114.314 Y93.051 F18000
G92 E0.0000
G1 X114.249 Y93.047 E0.0026 F1350
G1 X114.140 Y93.022 E0.0072
G1 X114.061 Y92.958 E0.0113
G1 X113.999 Y92.881 E0.0154
G1 X113.977 Y92.781 E0.0195
G1 X113.963 Y86.666 E0.2685
G1 X114.260 Y86.568 E0.2812
G1 X114.460 Y86.840 E0.2950
G1 X114.683 Y87.086 E0.3085
G1 X114.929 Y87.309 E0.3220
G1 X115.196 Y87.505 E0.3355
G1 X115.504 Y87.687 E0.3501
G1 X116.011 Y87.897 E0.3724
G1 X116.358 Y87.987 E0.3870
G1 X116.686 Y88.036 E0.4005
G1 X117.017 Y88.053 E0.4140
G1 X117.349 Y88.036 E0.4275
G1 X117.677 Y87.986 E0.4410
G1 X118.023 Y87.897 E0.4556
G1 X118.531 Y87.687 E0.4780
G1 X118.839 Y87.505 E0.4925
G1 X119.106 Y87.309 E0.5060
G1 X119.352 Y87.086 E0.5195
G1 X119.575 Y86.840 E0.5330
G1 X119.771 Y86.573 E0.5466
G1 X119.953 Y86.265 E0.5611
G1 X120.163 Y85.758 E0.5835
G1 X120.253 Y85.411 E0.5980
G1 X120.302 Y85.083 E0.6115
G1 X120.319 Y84.751 E0.6251
G1 X120.302 Y84.420 E0.6386
G1 X120.253 Y84.092 E0.6521
G1 X120.163 Y83.745 E0.6666
G1 X119.953 Y83.238 E0.6890
G1 X119.771 Y82.930 E0.7036
G1 X119.575 Y82.663 E0.7171
G1 X119.352 Y82.417 E0.7306
G1 X119.106 Y82.194 E0.7441
G1 X118.839 Y81.998 E0.7576
G1 X118.531 Y81.816 E0.7722
G1 X118.023 Y81.606 E0.7945
G1 X117.677 Y81.516 E0.8091
G1 X117.349 Y81.466 E0.8226
G1 X117.017 Y81.450 E0.8361
G1 X116.686 Y81.466 E0.8496
G1 X116.358 Y81.516 E0.8631
G1 X116.011 Y81.606 E0.8777
G1 X115.504 Y81.816 E0.9000
G1 X115.196 Y81.998 E0.9146
G1 X114.929 Y82.194 E0.9281
G1 X114.683 Y82.417 E0.9416
G1 X114.442 Y82.683 E0.9562
G1 X113.879 Y83.521 E0.9973
G1 X113.689 Y82.667 E1.0329
G1 X113.533 Y82.158 E1.0546
G1 X113.376 Y81.740 E1.0728
G1 X113.197 Y81.337 E1.0908
G1 X112.990 Y80.930 E1.1093
G1 X112.587 Y80.274 E1.1407
G1 X112.272 Y79.843 E1.1624
G1 X111.978 Y79.490 E1.1811
G1 X111.443 Y78.939 E1.2124
G1 X111.098 Y78.636 E1.2311
G1 X110.676 Y78.309 E1.2528
G1 X110.027 Y77.885 E1.2844
G1 X109.544 Y77.626 E1.3067
G1 X108.786 Y77.295 E1.3403
G1 X108.858 Y76.951 E1.3546
G1 X111.217 Y76.951 E1.4507
G1 X111.217 Y72.512 E1.6314
G1 X111.554 Y72.659 E1.6463
G1 X112.362 Y73.064 E1.6832
G1 X112.874 Y73.355 E1.7071
G1 X113.279 Y73.609 E1.7266
G1 X114.019 Y74.130 E1.7635
G1 X114.473 Y74.486 E1.7869
G1 X115.484 Y75.384 E1.8420
G1 X115.790 Y75.617 E1.8576
G1 X116.386 Y75.970 E1.8858
G1 X117.036 Y76.231 E1.9144
G1 X117.478 Y76.347 E1.9329
G1 X118.109 Y76.441 E1.9589
G1 X120.973 Y76.451 E2.0755
G1 X121.465 Y76.483 E2.0956
G1 X121.649 Y76.513 E2.1032
G1 X121.895 Y76.573 E2.1135
G1 X122.286 Y76.706 E2.1303
G1 X122.445 Y76.778 E2.1374
G1 X122.835 Y77.001 E2.1557
G1 X123.189 Y77.269 E2.1738
G1 X123.354 Y77.424 E2.1830
G1 X123.645 Y77.759 E2.2010
G1 X123.880 Y78.116 E2.2185
G1 X124.068 Y78.500 E2.2359
G1 X124.204 Y78.905 E2.2533
G1 X124.287 Y79.325 E2.2707
G1 X124.317 Y79.793 E2.2898
G1 X124.308 Y89.979 E2.7044
G1 X124.283 Y90.210 E2.7139
G1 X124.202 Y90.610 E2.7305
G1 X124.133 Y90.833 E2.7400
G1 X123.982 Y91.195 E2.7560
G1 X123.768 Y91.569 E2.7735
G1 X123.500 Y91.923 E2.7916
G1 X123.345 Y92.088 E2.8008
G1 X123.009 Y92.379 E2.8189
G1 X122.650 Y92.616 E2.8364
G1 X122.299 Y92.790 E2.8524
G1 X122.083 Y92.873 E2.8618
G1 X121.652 Y92.987 E2.8799
G1 X121.263 Y93.040 E2.8959
G1 X120.990 Y93.051 E2.9071
G1 X114.314 Y93.051 E3.1788
G1 X113.049 Y93.030 F18000
G1 X113.017 Y92.887
G1 X112.997 Y84.368
G1 X112.965 Y83.977
G1 X112.910 Y83.589
G1 X112.760 Y82.912
G1 X112.624 Y82.468
G1 X112.487 Y82.104
G1 X112.330 Y81.749
G1 X112.152 Y81.400
G1 X111.789 Y80.809
G1 X111.515 Y80.434
G1 X111.264 Y80.132
G1 X110.780 Y79.636
G1 X110.486 Y79.376
G1 X110.119 Y79.091
G1 X109.537 Y78.712
G1 X109.124 Y78.490
G1 X108.488 Y78.213
G1 X108.117 Y78.084
G1 X107.669 Y77.960
G1 X106.988 Y77.829
G1 X106.599 Y77.786
G1 X106.211 Y77.764
G1 X105.824 Y77.764
G1 X105.436 Y77.786
G1 X105.047 Y77.829
G1 X104.366 Y77.960
G1 X103.918 Y78.084
G1 X103.550 Y78.211
G1 X103.188 Y78.360
G1 X102.569 Y78.672
