; G-Code generated by Simplify3D(R) Version 4.1.2
; Dec 30, 2020 at 11:52:59 PM
; Settings Summary
;   processName,Process1
;   applyToModels,X-Carriage Cable Bracket
;   profileName,HBot (modified)
;   profileVersion,2019-10-26 23:38:43
;   baseProfile,Default
;   printMaterial,PETG - SUNLU
;   printQuality,Fast
;   printExtruders,
;   extruderName,Extruder 1
;   extruderToolheadNumber,0
;   extruderDiameter,0.4
;   extruderAutoWidth,1
;   extruderWidth,0.48
;   extrusionMultiplier,1.02
;   extruderUseRetract,1
;   extruderRetractionDistance,4
;   extruderExtraRestartDistance,0
;   extruderRetractionZLift,0
;   extruderRetractionSpeed,5400
;   extruderUseCoasting,0
;   extruderCoastingDistance,0.2
;   extruderUseWipe,1
;   extruderWipeDistance,5
;   primaryExtruder,0
;   layerHeight,0.3
;   topSolidLayers,3
;   bottomSolidLayers,3
;   perimeterOutlines,3
;   printPerimetersInsideOut,1
;   startPointOption,3
;   startPointOriginX,110
;   startPointOriginY,300
;   sequentialIslands,0
;   spiralVaseMode,0
;   firstLayerHeightPercentage,100
;   firstLayerWidthPercentage,100
;   firstLayerUnderspeed,0.5
;   useRaft,0
;   raftExtruder,0
;   raftTopLayers,3
;   raftBaseLayers,2
;   raftOffset,3
;   raftSeparationDistance,0.18
;   raftTopInfill,100
;   aboveRaftSpeedMultiplier,0.3
;   useSkirt,0
;   skirtExtruder,0
;   skirtLayers,1
;   skirtOutlines,10
;   skirtOffset,0
;   usePrimePillar,0
;   primePillarExtruder,999
;   primePillarWidth,12
;   primePillarLocation,7
;   primePillarSpeedMultiplier,1
;   useOozeShield,0
;   oozeShieldExtruder,999
;   oozeShieldOffset,0.9
;   oozeShieldOutlines,2
;   oozeShieldSidewallShape,0
;   oozeShieldSidewallAngle,30
;   oozeShieldSpeedMultiplier,1.5
;   infillExtruder,0
;   internalInfillPattern,Fast Honeycomb
;   externalInfillPattern,Rectilinear
;   infillPercentage,10
;   outlineOverlapPercentage,25
;   infillExtrusionWidthPercentage,100
;   minInfillLength,5
;   infillLayerInterval,1
;   internalInfillAngles,0
;   overlapInternalInfillAngles,0
;   externalInfillAngles,45,-45
;   generateSupport,0
;   supportExtruder,0
;   supportInfillPercentage,25
;   supportExtraInflation,0
;   supportBaseLayers,0
;   denseSupportExtruder,0
;   denseSupportLayers,0
;   denseSupportInfillPercentage,70
;   supportLayerInterval,1
;   supportHorizontalPartOffset,0.3
;   supportUpperSeparationLayers,1
;   supportLowerSeparationLayers,1
;   supportType,0
;   supportGridSpacing,2
;   maxOverhangAngle,25
;   supportAngles,0
;   temperatureName,Extruder 1,Heated Bed
;   temperatureNumber,0,1
;   temperatureSetpointCount,2,1
;   temperatureSetpointLayers,1,2,1
;   temperatureSetpointTemperatures,215,215,85
;   temperatureStabilizeAtStartup,1,1
;   temperatureHeatedBed,0,1
;   fanLayers,1,5,10
;   fanSpeeds,0,5,20
;   blipFanToFullPower,1
;   adjustSpeedForCooling,0
;   minSpeedLayerTime,15
;   minCoolingSpeedSlowdown,20
;   increaseFanForCooling,1
;   minFanLayerTime,15
;   maxCoolingFanSpeed,40
;   increaseFanForBridging,1
;   bridgingFanSpeed,85
;   use5D,1
;   relativeEdistances,0
;   allowEaxisZeroing,1
;   independentExtruderAxes,0
;   includeM10123,0
;   stickySupport,1
;   applyToolheadOffsets,0
;   gcodeXoffset,0
;   gcodeYoffset,0
;   gcodeZoffset,0
;   overrideMachineDefinition,1
;   machineTypeOverride,0
;   strokeXoverride,210
;   strokeYoverride,210
;   strokeZoverride,150
;   originOffsetXoverride,0
;   originOffsetYoverride,0
;   originOffsetZoverride,0
;   homeXdirOverride,-1
;   homeYdirOverride,-1
;   homeZdirOverride,-1
;   flipXoverride,1
;   flipYoverride,-1
;   flipZoverride,1
;   toolheadOffsets,0,0|0,0|0,0|0,0|0,0|0,0
;   overrideFirmwareConfiguration,1
;   firmwareTypeOverride,RepRap (Marlin/Repetier/Sprinter)
;   GPXconfigOverride,r2
;   baudRateOverride,115200
;   overridePrinterModels,0
;   printerModelsOverride
;   startingGcode,G28 ; home all axes,G32 ; run bed.g -- probe bed and enable compensation
;   layerChangeGcode,
;   retractionGcode,
;   toolChangeGcode,
;   endingGcode,M0 ; call stop.g
;   exportFileFormat,gcode
;   celebration,0
;   celebrationSong,Random Song
;   postProcessing,
;   defaultSpeed,4800
;   outlineUnderspeed,0.5
;   solidInfillUnderspeed,0.8
;   supportUnderspeed,0.8
;   rapidXYspeed,18000
;   rapidZspeed,1200
;   minBridgingArea,50
;   bridgingExtraInflation,0
;   bridgingExtrusionMultiplier,0.96
;   bridgingSpeedMultiplier,1
;   useFixedBridgingAngle,0
;   fixedBridgingAngle,0
;   applyBridgingToPerimeters,0
;   filamentDiameters,1.75|1.75|1.75|1.75|1.75|1.75
;   filamentPricesPerKg,46|46|46|46|46|46
;   filamentDensities,1.25|1.25|1.25|1.25|1.25|1.25
;   useMinPrintHeight,0
;   minPrintHeight,20
;   useMaxPrintHeight,0
;   maxPrintHeight,15
;   useDiaphragm,0
;   diaphragmLayerInterval,20
;   robustSlicing,1
;   mergeAllIntoSolid,0
;   onlyRetractWhenCrossingOutline,1
;   retractBetweenLayers,0
;   useRetractionMinTravel,1
;   retractionMinTravel,3
;   retractWhileWiping,1
;   onlyWipeOutlines,1
;   avoidCrossingOutline,1
;   maxMovementDetourFactor,5
;   toolChangeRetractionDistance,12
;   toolChangeExtraRestartDistance,-0.5
;   toolChangeRetractionSpeed,600
;   externalThinWallType,0
;   internalThinWallType,2
;   thinWallAllowedOverlapPercentage,10
;   singleExtrusionMinLength,1
;   singleExtrusionMinPrintingWidthPercentage,50
;   singleExtrusionMaxPrintingWidthPercentage,150
;   singleExtrusionEndpointExtension,0.2
;   horizontalSizeCompensation,-0.1
G90
M82
M106 S0
M140 S85
M190 S85
M104 S215 T0
M109 S215 T0
G28 ; home all axes
G32 ; run bed.g -- probe bed and enable compensation
; process Process1
; layer 1, Z = 0.300
T0
G92 E0.0000
G1 E-4.0000 F5400
; feature inner perimeter
; tool H0.300 W0.480
G1 Z0.300 F1200
G1 X97.698 Y93.101 F18000
G1 E0.0000 F5400
G92 E0.0000
G1 X90.791 Y93.092 E0.4218 F1800
G1 X90.527 Y93.062 E0.4380
G1 X90.154 Y92.987 E0.4613
G1 X89.899 Y92.906 E0.4776
G1 X89.559 Y92.765 E0.5001
G1 X89.179 Y92.549 E0.5268
G1 X88.823 Y92.280 E0.5540
G1 X88.637 Y92.105 E0.5696
G1 X88.345 Y91.766 E0.5969
G1 X88.105 Y91.401 E0.6236
G1 X87.941 Y91.072 E0.6461
G1 X87.847 Y90.826 E0.6621
G1 X87.732 Y90.392 E0.6896
G1 X87.682 Y90.027 E0.7121
G1 X87.667 Y89.721 E0.7308
G1 X87.667 Y79.794 E1.3370
G1 X87.700 Y79.299 E1.3672
G1 X87.729 Y79.115 E1.3786
G1 X87.797 Y78.839 E1.3960
G1 X87.923 Y78.471 E1.4197
G1 X87.996 Y78.307 E1.4307
G1 X88.220 Y77.913 E1.4584
G1 X88.493 Y77.552 E1.4860
G1 X88.621 Y77.412 E1.4976
G1 X88.838 Y77.209 E1.5157
G1 X88.990 Y77.087 E1.5276
G1 X89.312 Y76.871 E1.5513
G1 X89.561 Y76.736 E1.5686
G1 X89.733 Y76.659 E1.5801
G1 X90.182 Y76.509 E1.6090
G1 X90.352 Y76.470 E1.6197
G1 X90.806 Y76.411 E1.6476
G1 X93.927 Y76.391 E1.8382
G1 X94.600 Y76.287 E1.8798
G1 X94.991 Y76.180 E1.9045
G1 X95.626 Y75.925 E1.9464
G1 X96.216 Y75.576 E1.9882
G1 X96.519 Y75.346 E2.0115
G1 X97.527 Y74.450 E2.0938
G1 X98.024 Y74.062 E2.1323
G1 X98.722 Y73.571 E2.1844
G1 X99.128 Y73.317 E2.2137
G1 X99.687 Y73.000 E2.2529
G1 X100.450 Y72.618 E2.3050
G1 X100.867 Y72.436 E2.3328
G1 X100.867 Y76.901 E2.6055
G1 X103.451 Y76.901 E2.7633
G1 X103.512 Y77.262 E2.7856
G1 X103.220 Y77.363 E2.8045
G1 X102.800 Y77.535 E2.8322
G1 X102.148 Y77.864 E2.8768
G1 X101.662 Y78.160 E2.9115
G1 X101.297 Y78.417 E2.9388
G1 X100.952 Y78.689 E2.9656
G1 X100.613 Y78.989 E2.9933
G1 X100.107 Y79.509 E3.0376
G1 X99.817 Y79.856 E3.0652
G1 X99.550 Y80.214 E3.0925
G1 X99.240 Y80.692 E3.1273
G1 X98.894 Y81.335 E3.1718
G1 X98.707 Y81.756 E3.2000
G1 X98.511 Y82.290 E3.2347
G1 X98.313 Y83.000 E3.2797
G1 X98.179 Y83.723 E3.3246
G1 X97.734 Y82.964 E3.3783
G1 X97.538 Y82.698 E3.3985
G1 X97.317 Y82.452 E3.4187
G1 X97.071 Y82.230 E3.4389
G1 X96.804 Y82.035 E3.4591
G1 X96.499 Y81.856 E3.4808
G1 X96.017 Y81.656 E3.5126
G1 X95.675 Y81.567 E3.5342
G1 X95.348 Y81.517 E3.5544
G1 X95.017 Y81.500 E3.5746
G1 X94.687 Y81.517 E3.5948
G1 X94.360 Y81.567 E3.6150
G1 X94.018 Y81.656 E3.6366
G1 X93.536 Y81.856 E3.6685
G1 X93.231 Y82.035 E3.6901
G1 X92.964 Y82.230 E3.7103
G1 X92.718 Y82.452 E3.7305
G1 X92.479 Y82.717 E3.7522
G1 X92.188 Y83.149 E3.7841
G1 X92.032 Y83.464 E3.8056
G1 X91.912 Y83.786 E3.8265
G1 X91.813 Y84.198 E3.8524
G1 X91.764 Y84.725 E3.8847
G1 X91.783 Y85.082 E3.9065
G1 X91.833 Y85.409 E3.9267
G1 X91.922 Y85.751 E3.9484
G1 X92.122 Y86.233 E3.9802
G1 X92.301 Y86.538 E4.0018
G1 X92.497 Y86.805 E4.0220
G1 X92.718 Y87.051 E4.0422
G1 X92.964 Y87.272 E4.0624
G1 X93.230 Y87.468 E4.0826
G1 X93.536 Y87.647 E4.1042
G1 X94.018 Y87.847 E4.1361
G1 X94.360 Y87.936 E4.1577
G1 X94.687 Y87.986 E4.1779
G1 X95.017 Y88.003 E4.1981
G1 X95.348 Y87.986 E4.2183
G1 X95.675 Y87.936 E4.2385
G1 X96.017 Y87.847 E4.2601
G1 X96.499 Y87.647 E4.2920
G1 X96.804 Y87.468 E4.3136
G1 X97.071 Y87.272 E4.3338
G1 X97.317 Y87.051 E4.3540
G1 X97.538 Y86.805 E4.3742
G1 X97.825 Y86.414 E4.4038
G1 X98.123 Y86.512 E4.4229
G1 X98.108 Y92.786 E4.8060
G1 X98.086 Y92.888 E4.8124
G1 X98.031 Y92.976 E4.8188
G1 X97.934 Y93.054 E4.8264
G1 X97.839 Y93.086 E4.8325
G1 X97.698 Y93.101 E4.8411
G1 X99.028 Y93.076 F18000
G1 X99.068 Y92.891
G1 X99.088 Y84.366
G1 X99.157 Y83.711
G1 X99.249 Y83.217
G1 X99.426 Y82.585
G1 X99.597 Y82.116
G1 X99.756 Y81.758
G1 X100.067 Y81.182
G1 X100.338 Y80.763
G1 X100.570 Y80.452
G1 X100.820 Y80.153
G1 X101.276 Y79.684
G1 X101.568 Y79.426
G1 X101.871 Y79.187
G1 X102.188 Y78.964
G1 X102.615 Y78.704
G1 X103.199 Y78.409
G1 X103.560 Y78.261
G1 X103.927 Y78.134
G1 X104.408 Y78.002
G1 X105.051 Y77.879
G1 X105.438 Y77.836
G1 X105.824 Y77.814
G1 X106.211 Y77.814
G1 X106.597 Y77.836
G1 X106.984 Y77.879
G1 X107.627 Y78.002
G1 X108.108 Y78.134
G1 X108.478 Y78.262
G1 X109.078 Y78.524
G1 X109.522 Y78.761
G1 X110.071 Y79.119
G1 X110.466 Y79.425
G1 X110.759 Y79.684
G1 X111.215 Y80.153
G1 X111.466 Y80.453
G1 X111.760 Y80.856
G1 X112.102 Y81.414
G1 X112.280 Y81.761
G1 X112.437 Y82.114
G1 X112.574 Y82.477
G1 X112.720 Y82.955
G1 X112.860 Y83.594
G1 X112.915 Y83.980
G1 X112.947 Y84.370
G1 X112.967 Y92.805
G1 X113.927 Y92.786
G92 E0.0000
G1 X113.912 Y86.512 E0.3831 F1800
G1 X114.210 Y86.414 E0.4023
G1 X114.497 Y86.805 E0.4319
G1 X114.718 Y87.051 E0.4520
G1 X114.964 Y87.272 E0.4723
G1 X115.230 Y87.468 E0.4924
G1 X115.536 Y87.647 E0.5141
G1 X116.018 Y87.847 E0.5459
G1 X116.360 Y87.936 E0.5675
G1 X116.687 Y87.986 E0.5877
G1 X117.017 Y88.003 E0.6079
G1 X117.348 Y87.986 E0.6281
G1 X117.675 Y87.936 E0.6483
G1 X118.017 Y87.847 E0.6699
G1 X118.499 Y87.647 E0.7018
G1 X118.804 Y87.468 E0.7234
G1 X119.071 Y87.272 E0.7436
G1 X119.317 Y87.051 E0.7638
G1 X119.538 Y86.805 E0.7840
G1 X119.734 Y86.538 E0.8042
G1 X119.913 Y86.233 E0.8258
G1 X120.113 Y85.751 E0.8577
G1 X120.202 Y85.409 E0.8793
G1 X120.252 Y85.082 E0.8995
G1 X120.269 Y84.751 E0.9197
G1 X120.252 Y84.421 E0.9399
G1 X120.202 Y84.094 E0.9601
G1 X120.113 Y83.752 E0.9817
G1 X119.913 Y83.270 E1.0135
G1 X119.734 Y82.964 E1.0352
G1 X119.538 Y82.698 E1.0554
G1 X119.317 Y82.452 E1.0756
G1 X119.071 Y82.230 E1.0958
G1 X118.804 Y82.035 E1.1160
G1 X118.499 Y81.856 E1.1376
G1 X118.017 Y81.656 E1.1694
G1 X117.675 Y81.567 E1.1910
G1 X117.348 Y81.517 E1.2112
G1 X117.017 Y81.500 E1.2314
G1 X116.687 Y81.517 E1.2516
G1 X116.360 Y81.567 E1.2718
G1 X116.018 Y81.656 E1.2935
G1 X115.536 Y81.856 E1.3253
G1 X115.231 Y82.035 E1.3469
G1 X114.964 Y82.230 E1.3671
G1 X114.718 Y82.452 E1.3873
G1 X114.479 Y82.717 E1.4091
G1 X114.188 Y83.149 E1.4409
G1 X114.086 Y83.354 E1.4549
G1 X113.783 Y83.317 E1.4736
G1 X113.649 Y82.712 E1.5115
G1 X113.484 Y82.167 E1.5462
G1 X113.325 Y81.749 E1.5735
G1 X113.147 Y81.347 E1.6004
G1 X112.940 Y80.944 E1.6280
G1 X112.558 Y80.321 E1.6727
G1 X112.222 Y79.861 E1.7074
G1 X111.928 Y79.509 E1.7354
G1 X111.422 Y78.989 E1.7798
G1 X111.079 Y78.685 E1.8077
G1 X110.628 Y78.336 E1.8425
G1 X110.011 Y77.934 E1.8875
G1 X109.497 Y77.659 E1.9231
G1 X108.828 Y77.368 E1.9677
G1 X108.523 Y77.262 E1.9874
G1 X108.584 Y76.901 E2.0097
G1 X111.167 Y76.901 E2.1675
G1 X111.167 Y72.436 E2.4402
G1 X111.585 Y72.619 E2.4680
G1 X112.348 Y73.000 E2.5201
G1 X112.907 Y73.317 E2.5593
G1 X113.313 Y73.571 E2.5886
G1 X114.011 Y74.062 E2.6407
G1 X114.508 Y74.450 E2.6792
G1 X115.516 Y75.346 E2.7615
G1 X115.819 Y75.576 E2.7848
G1 X116.409 Y75.925 E2.8266
G1 X117.054 Y76.184 E2.8691
G1 X117.517 Y76.303 E2.8983
G1 X118.114 Y76.391 E2.9352
G1 X120.973 Y76.401 E3.1098
G1 X121.470 Y76.433 E3.1401
G1 X121.654 Y76.463 E3.1515
G1 X121.930 Y76.531 E3.1689
G1 X122.298 Y76.657 E3.1927
G1 X122.462 Y76.730 E3.2036
G1 X122.856 Y76.954 E3.2313
G1 X123.212 Y77.223 E3.2585
G1 X123.398 Y77.398 E3.2741
G1 X123.690 Y77.737 E3.3014
G1 X123.927 Y78.098 E3.3278
G1 X124.116 Y78.486 E3.3542
G1 X124.254 Y78.896 E3.3806
G1 X124.337 Y79.320 E3.4070
G1 X124.367 Y79.793 E3.4359
G1 X124.358 Y89.979 E4.0579
G1 X124.328 Y90.242 E4.0741
G1 X124.253 Y90.615 E4.0973
G1 X124.172 Y90.870 E4.1137
G1 X124.031 Y91.209 E4.1361
G1 X123.815 Y91.590 E4.1628
G1 X123.546 Y91.946 E4.1901
G1 X123.371 Y92.132 E4.2057
G1 X123.032 Y92.424 E4.2330
G1 X122.667 Y92.664 E4.2597
G1 X122.338 Y92.828 E4.2821
G1 X122.092 Y92.922 E4.2982
G1 X121.658 Y93.037 E4.3256
G1 X121.293 Y93.087 E4.3481
G1 X120.987 Y93.101 E4.3668
G1 X114.318 Y93.101 E4.7741
G1 X114.231 Y93.095 E4.7794
G1 X114.118 Y93.069 E4.7865
G1 X114.025 Y92.994 E4.7938
G1 X113.952 Y92.903 E4.8009
G1 X113.927 Y92.786 E4.8082
G1 X112.953 Y86.854 F18000
G1 X112.947 Y84.370
G1 X112.915 Y83.980
G1 X112.860 Y83.594
G1 X112.720 Y82.955
G1 X112.574 Y82.477
G1 X112.437 Y82.114
G1 X112.280 Y81.761
G1 X112.102 Y81.414
G1 X112.045 Y81.320
G1 X110.614 Y72.601
G92 E0.0000
G1 X101.416 Y72.601 E0.5617 F1800
G1 X101.358 Y72.237 E0.5842
G1 X102.299 Y71.930 E0.6446
G1 X102.762 Y71.805 E0.6739
G1 X103.389 Y71.664 E0.7131
G1 X104.229 Y71.523 E0.7652
G1 X104.707 Y71.467 E0.7945
G1 X105.347 Y71.419 E0.8337
G1 X106.195 Y71.404 E0.8855
G1 X106.836 Y71.427 E0.9247
G1 X107.315 Y71.465 E0.9541
G1 X108.160 Y71.576 E1.0061
G1 X108.791 Y71.693 E1.0453
G1 X109.260 Y71.802 E1.0746
G1 X110.079 Y72.036 E1.1267
G1 X110.674 Y72.241 E1.1651
G1 X110.614 Y72.601 E1.1874
G1 X110.852 Y71.794 F18000
G92 E0.0000
G1 X111.326 Y71.981 E0.0311 F1800
G1 X111.789 Y72.184 E0.0620
G1 X112.573 Y72.576 E0.1155
G1 X113.153 Y72.904 E0.1562
G1 X113.578 Y73.172 E0.1869
G1 X114.297 Y73.676 E0.2404
G1 X114.815 Y74.081 E0.2807
G1 X115.821 Y74.975 E0.3628
G1 X116.087 Y75.177 E0.3832
G1 X116.622 Y75.493 E0.4211
G1 X117.204 Y75.727 E0.4595
G1 X117.612 Y75.832 E0.4852
G1 X118.150 Y75.911 E0.5184
G1 X120.990 Y75.921 E0.6918
G1 X121.524 Y75.956 E0.7245
G1 X121.750 Y75.993 E0.7385
G1 X122.065 Y76.070 E0.7583
G1 X122.474 Y76.210 E0.7847
G1 X122.679 Y76.302 E0.7984
G1 X123.120 Y76.552 E0.8294
G1 X123.522 Y76.856 E0.8601
G1 X123.745 Y77.065 E0.8788
G1 X124.074 Y77.447 E0.9096
G1 X124.346 Y77.860 E0.9398
G1 X124.562 Y78.305 E0.9700
G1 X124.719 Y78.773 E1.0001
G1 X124.814 Y79.258 E1.0303
G1 X124.847 Y79.778 E1.0621
G1 X124.838 Y90.006 E1.6867
G1 X124.803 Y90.316 E1.7058
G1 X124.718 Y90.735 E1.7319
G1 X124.624 Y91.035 E1.7511
G1 X124.462 Y91.421 E1.7766
G1 X124.216 Y91.854 E1.8070
G1 X123.913 Y92.256 E1.8378
G1 X123.703 Y92.480 E1.8565
G1 X123.322 Y92.808 E1.8873
G1 X122.906 Y93.081 E1.9176
G1 X122.531 Y93.268 E1.9432
G1 X122.240 Y93.380 E1.9622
G1 X121.752 Y93.509 E1.9931
G1 X121.337 Y93.566 E2.0187
G1 X120.998 Y93.581 E2.0394
G1 X114.299 Y93.581 E2.4484
G1 X114.158 Y93.571 E2.4571
G1 X113.998 Y93.533 E2.4671
G1 X113.890 Y93.489 E2.4743
G1 X113.838 Y93.459 E2.4779
G1 X113.684 Y93.335 E2.4900
G1 X113.560 Y93.181 E2.5021
G1 X113.530 Y93.129 E2.5057
G1 X113.488 Y93.026 E2.5125
G1 X113.447 Y92.838 E2.5243
G1 X113.427 Y84.349 E3.0427
G1 X113.392 Y83.927 E3.0685
G1 X113.333 Y83.509 E3.0943
G1 X113.184 Y82.833 E3.1366
G1 X113.029 Y82.322 E3.1692
G1 X112.881 Y81.932 E3.1947
G1 X112.713 Y81.554 E3.2199
G1 X112.521 Y81.179 E3.2456
G1 X112.159 Y80.588 E3.2879
G1 X111.844 Y80.157 E3.3206
G1 X111.571 Y79.831 E3.3465
G1 X111.091 Y79.337 E3.3886
G1 X110.772 Y79.055 E3.4146
G1 X110.350 Y78.728 E3.4472
G1 X109.766 Y78.347 E3.4898
G1 X109.288 Y78.091 E3.5229
G1 X108.653 Y77.815 E3.5652
G1 X108.250 Y77.675 E3.5912
G1 X107.735 Y77.534 E3.6238
G1 X107.056 Y77.404 E3.6660
G1 X106.637 Y77.357 E3.6918
