; G-Code generated by Simplify3D(R) Version 4.1.2
; Dec 30, 2020 at 1:39:17 PM
; Settings Summary
;   processName,Process1
;   applyToModels,x-schlitten-verbindungsstueck
;   profileName,HBot (modified)
;   profileVersion,2019-10-26 23:38:43
;   baseProfile,Default
;   printMaterial,PETG - SUNLU
;   printQuality,Medium
;   printExtruders,
;   extruderName,Extruder 1
;   extruderToolheadNumber,0
;   extruderDiameter,0.4
;   extruderAutoWidth,1
;   extruderWidth,0.48
;   extrusionMultiplier,1.02
;   extruderUseRetract,1
;   extruderRetractionDistance,4
;   extruderExtraRestartDistance,0
;   extruderRetractionZLift,0
;   extruderRetractionSpeed,5400
;   extruderUseCoasting,0
;   extruderCoastingDistance,0.2
;   extruderUseWipe,1
;   extruderWipeDistance,5
;   primaryExtruder,0
;   layerHeight,0.2
;   topSolidLayers,4
;   bottomSolidLayers,4
;   perimeterOutlines,4
;   printPerimetersInsideOut,1
;   startPointOption,3
;   startPointOriginX,110
;   startPointOriginY,300
;   sequentialIslands,0
;   spiralVaseMode,0
;   firstLayerHeightPercentage,100
;   firstLayerWidthPercentage,100
;   firstLayerUnderspeed,0.5
;   useRaft,0
;   raftExtruder,0
;   raftTopLayers,3
;   raftBaseLayers,2
;   raftOffset,3
;   raftSeparationDistance,0.18
;   raftTopInfill,100
;   aboveRaftSpeedMultiplier,0.3
;   useSkirt,1
;   skirtExtruder,0
;   skirtLayers,1
;   skirtOutlines,10
;   skirtOffset,0
;   usePrimePillar,0
;   primePillarExtruder,999
;   primePillarWidth,12
;   primePillarLocation,7
;   primePillarSpeedMultiplier,1
;   useOozeShield,0
;   oozeShieldExtruder,999
;   oozeShieldOffset,0.9
;   oozeShieldOutlines,2
;   oozeShieldSidewallShape,0
;   oozeShieldSidewallAngle,30
;   oozeShieldSpeedMultiplier,1.5
;   infillExtruder,0
;   internalInfillPattern,Fast Honeycomb
;   externalInfillPattern,Rectilinear
;   infillPercentage,20
;   outlineOverlapPercentage,25
;   infillExtrusionWidthPercentage,100
;   minInfillLength,5
;   infillLayerInterval,1
;   internalInfillAngles,0
;   overlapInternalInfillAngles,0
;   externalInfillAngles,45,-45
;   generateSupport,1
;   supportExtruder,0
;   supportInfillPercentage,25
;   supportExtraInflation,0
;   supportBaseLayers,0
;   denseSupportExtruder,0
;   denseSupportLayers,0
;   denseSupportInfillPercentage,70
;   supportLayerInterval,1
;   supportHorizontalPartOffset,0.3
;   supportUpperSeparationLayers,1
;   supportLowerSeparationLayers,1
;   supportType,0
;   supportGridSpacing,2
;   maxOverhangAngle,25
;   supportAngles,0
;   temperatureName,Extruder 1,Heated Bed
;   temperatureNumber,0,1
;   temperatureSetpointCount,2,1
;   temperatureSetpointLayers,1,2,1
;   temperatureSetpointTemperatures,215,215,85
;   temperatureStabilizeAtStartup,1,1
;   temperatureHeatedBed,0,1
;   fanLayers,1,5,10
;   fanSpeeds,0,5,20
;   blipFanToFullPower,1
;   adjustSpeedForCooling,0
;   minSpeedLayerTime,15
;   minCoolingSpeedSlowdown,20
;   increaseFanForCooling,1
;   minFanLayerTime,15
;   maxCoolingFanSpeed,40
;   increaseFanForBridging,1
;   bridgingFanSpeed,85
;   use5D,1
;   relativeEdistances,0
;   allowEaxisZeroing,1
;   independentExtruderAxes,0
;   includeM10123,0
;   stickySupport,1
;   applyToolheadOffsets,0
;   gcodeXoffset,0
;   gcodeYoffset,0
;   gcodeZoffset,0
;   overrideMachineDefinition,1
;   machineTypeOverride,0
;   strokeXoverride,210
;   strokeYoverride,210
;   strokeZoverride,150
;   originOffsetXoverride,0
;   originOffsetYoverride,0
;   originOffsetZoverride,0
;   homeXdirOverride,-1
;   homeYdirOverride,-1
;   homeZdirOverride,-1
;   flipXoverride,1
;   flipYoverride,-1
;   flipZoverride,1
;   toolheadOffsets,0,0|0,0|0,0|0,0|0,0|0,0
;   overrideFirmwareConfiguration,1
;   firmwareTypeOverride,RepRap (Marlin/Repetier/Sprinter)
;   GPXconfigOverride,r2
;   baudRateOverride,115200
;   overridePrinterModels,0
;   printerModelsOverride
;   startingGcode,G28 ; home all axes,G32 ; run bed.g -- probe bed and enable compensation
;   layerChangeGcode,
;   retractionGcode,
;   toolChangeGcode,
;   endingGcode,M0 ; call stop.g
;   exportFileFormat,gcode
;   celebration,0
;   celebrationSong,Random Song
;   postProcessing,
;   defaultSpeed,3600
;   outlineUnderspeed,0.5
;   solidInfillUnderspeed,0.8
;   supportUnderspeed,0.8
;   rapidXYspeed,18000
;   rapidZspeed,1200
;   minBridgingArea,50
;   bridgingExtraInflation,0
;   bridgingExtrusionMultiplier,0.96
;   bridgingSpeedMultiplier,1
;   useFixedBridgingAngle,0
;   fixedBridgingAngle,0
;   applyBridgingToPerimeters,0
;   filamentDiameters,1.75|1.75|1.75|1.75|1.75|1.75
;   filamentPricesPerKg,46|46|46|46|46|46
;   filamentDensities,1.25|1.25|1.25|1.25|1.25|1.25
;   useMinPrintHeight,0
;   minPrintHeight,20
;   useMaxPrintHeight,0
;   maxPrintHeight,15
;   useDiaphragm,0
;   diaphragmLayerInterval,20
;   robustSlicing,1
;   mergeAllIntoSolid,0
;   onlyRetractWhenCrossingOutline,1
;   retractBetweenLayers,0
;   useRetractionMinTravel,1
;   retractionMinTravel,3
;   retractWhileWiping,1
;   onlyWipeOutlines,1
;   avoidCrossingOutline,1
;   maxMovementDetourFactor,5
;   toolChangeRetractionDistance,12
;   toolChangeExtraRestartDistance,-0.5
;   toolChangeRetractionSpeed,600
;   externalThinWallType,0
;   internalThinWallType,2
;   thinWallAllowedOverlapPercentage,10
;   singleExtrusionMinLength,1
;   singleExtrusionMinPrintingWidthPercentage,50
;   singleExtrusionMaxPrintingWidthPercentage,150
;   singleExtrusionEndpointExtension,0.2
;   horizontalSizeCompensation,-0.1
G90
M82
M106 S0
M140 S85
M190 S85
M104 S215 T0
M109 S215 T0
G28 ; home all axes
G32 ; run bed.g -- probe bed and enable compensation
; process Process1
; layer 1, Z = 0.200
T0
G92 E0.0000
G1 E-4.0000 F5400
; feature skirt
; tool H0.200 W0.480
G1 Z0.200 F1200
G1 X132.109 Y131.780 F18000
G1 E0.0000 F5400
G92 E0.0000
G1 X77.891 Y131.780 E2.2072 F1800
G1 X75.220 Y129.109 E2.3610
G1 X75.220 Y117.311 E2.8413
G1 X75.490 Y117.041 E2.8568
G1 X75.490 Y92.959 E3.8372
G1 X75.220 Y92.689 E3.8528
G1 X75.220 Y80.891 E4.3331
G1 X77.891 Y78.220 E4.4869
G1 X132.109 Y78.220 E6.6941
G1 X134.780 Y80.891 E6.8479
G1 X134.780 Y92.689 E7.3282
G1 X134.510 Y92.959 E7.3437
G1 X134.510 Y95.789 E7.4589
G1 X131.839 Y98.460 E7.6127
G1 X126.210 Y98.460 E7.8419
G1 X126.210 Y111.540 E8.3744
G1 X131.839 Y111.540 E8.6035
G1 X134.510 Y114.211 E8.7573
G1 X134.510 Y117.041 E8.8725
G1 X134.780 Y117.311 E8.8881
G1 X134.780 Y129.109 E9.3683
G1 X132.109 Y131.780 E9.5221
G1 X131.910 Y131.300 F18000
G92 E0.0000
G1 X78.090 Y131.300 E2.1910 F1800
G1 X75.700 Y128.910 E2.3286
G1 X75.700 Y117.510 E2.7927
G1 X75.970 Y117.240 E2.8083
G1 X75.970 Y92.760 E3.8049
G1 X75.700 Y92.490 E3.8204
G1 X75.700 Y81.090 E4.2845
G1 X78.090 Y78.700 E4.4221
G1 X131.910 Y78.700 E6.6132
G1 X134.300 Y81.090 E6.7508
G1 X134.300 Y92.490 E7.2148
G1 X134.030 Y92.760 E7.2304
G1 X134.030 Y95.590 E7.3456
G1 X131.640 Y97.980 E7.4832
G1 X125.730 Y97.980 E7.7238
G1 X125.730 Y112.020 E8.2954
G1 X131.640 Y112.020 E8.5360
G1 X134.030 Y114.410 E8.6736
G1 X134.030 Y117.240 E8.7888
G1 X134.300 Y117.510 E8.8043
G1 X134.300 Y128.910 E9.2684
G1 X131.910 Y131.300 E9.4060
G1 X131.711 Y130.820 F18000
G92 E0.0000
G1 X78.289 Y130.820 E2.1748 F1800
G1 X76.180 Y128.711 E2.2963
G1 X76.180 Y117.709 E2.7442
G1 X76.450 Y117.439 E2.7597
G1 X76.450 Y92.561 E3.7725
G1 X76.180 Y92.291 E3.7880
G1 X76.180 Y81.289 E4.2360
G1 X78.289 Y79.180 E4.3574
G1 X131.711 Y79.180 E6.5322
G1 X133.820 Y81.289 E6.6536
G1 X133.820 Y92.291 E7.1015
G1 X133.550 Y92.561 E7.1171
G1 X133.550 Y95.391 E7.2323
G1 X131.441 Y97.500 E7.3537
G1 X125.250 Y97.500 E7.6057
G1 X125.250 Y112.500 E8.2164
G1 X131.441 Y112.500 E8.4684
G1 X133.550 Y114.609 E8.5899
G1 X133.550 Y117.439 E8.7051
G1 X133.820 Y117.709 E8.7206
G1 X133.820 Y128.711 E9.1685
G1 X131.711 Y130.820 E9.2899
G1 X131.512 Y130.340 F18000
G92 E0.0000
G1 X78.488 Y130.340 E2.1587 F1800
G1 X76.660 Y128.512 E2.2639
G1 X76.660 Y117.908 E2.6956
G1 X76.930 Y117.638 E2.7111
G1 X76.930 Y92.362 E3.7401
G1 X76.660 Y92.092 E3.7557
G1 X76.660 Y81.488 E4.1874
G1 X78.488 Y79.660 E4.2926
G1 X131.512 Y79.660 E6.4513
G1 X133.340 Y81.488 E6.5565
G1 X133.340 Y92.092 E6.9882
G1 X133.070 Y92.362 E7.0038
G1 X133.070 Y95.192 E7.1190
G1 X131.242 Y97.020 E7.2242
G1 X124.770 Y97.020 E7.4877
G1 X124.770 Y112.980 E8.1374
G1 X131.242 Y112.980 E8.4009
G1 X133.070 Y114.808 E8.5061
G1 X133.070 Y117.638 E8.6213
G1 X133.340 Y117.908 E8.6369
G1 X133.340 Y128.512 E9.0686
G1 X131.512 Y130.340 E9.1738
G1 X131.314 Y129.860 F18000
G92 E0.0000
G1 X78.687 Y129.860 E2.1425 F1800
G1 X77.140 Y128.314 E2.2315
G1 X77.140 Y118.106 E2.6470
G1 X77.410 Y117.836 E2.6626
G1 X77.410 Y92.164 E3.7077
G1 X77.140 Y91.894 E3.7233
G1 X77.140 Y81.686 E4.1388
G1 X78.686 Y80.140 E4.2279
G1 X131.314 Y80.140 E6.3703
G1 X132.860 Y81.687 E6.4594
G1 X132.860 Y91.893 E6.8749
G1 X132.590 Y92.163 E6.8904
G1 X132.590 Y94.994 E7.0056
G1 X131.043 Y96.540 E7.0947
G1 X124.290 Y96.540 E7.3696
G1 X124.290 Y113.460 E8.0584
G1 X131.043 Y113.460 E8.3334
G1 X132.590 Y115.006 E8.4224
G1 X132.590 Y117.837 E8.5376
G1 X132.860 Y118.107 E8.5532
G1 X132.860 Y128.313 E8.9687
G1 X131.314 Y129.860 E9.0577
G1 X131.115 Y129.380 F18000
G92 E0.0000
G1 X78.885 Y129.380 E2.1263 F1800
G1 X77.620 Y128.115 E2.1991
G1 X77.620 Y118.305 E2.5985
G1 X77.890 Y118.035 E2.6140
G1 X77.890 Y91.965 E3.6754
G1 X77.620 Y91.695 E3.6909
G1 X77.620 Y81.885 E4.0903
G1 X78.885 Y80.620 E4.1631
G1 X131.115 Y80.620 E6.2894
G1 X132.380 Y81.885 E6.3622
G1 X132.380 Y91.695 E6.7616
G1 X132.110 Y91.965 E6.7771
G1 X132.110 Y94.795 E6.8923
G1 X130.845 Y96.060 E6.9652
G1 X123.810 Y96.060 E7.2516
G1 X123.810 Y113.940 E7.9795
G1 X130.845 Y113.940 E8.2658
G1 X132.110 Y115.205 E8.3387
G1 X132.110 Y118.035 E8.4539
G1 X132.380 Y118.305 E8.4695
G1 X132.380 Y128.115 E8.8688
G1 X131.115 Y129.380 E8.9416
G1 X130.916 Y128.900 F18000
G92 E0.0000
G1 X79.084 Y128.900 E2.1101 F1800
G1 X78.100 Y127.916 E2.1668
G1 X78.100 Y118.504 E2.5499
G1 X78.370 Y118.234 E2.5655
G1 X78.370 Y91.766 E3.6430
G1 X78.100 Y91.496 E3.6585
G1 X78.100 Y82.084 E4.0417
G1 X79.084 Y81.100 E4.0983
G1 X130.916 Y81.100 E6.2084
G1 X131.900 Y82.084 E6.2651
G1 X131.900 Y91.496 E6.6483
G1 X131.630 Y91.766 E6.6638
G1 X131.630 Y94.596 E6.7790
G1 X130.646 Y95.580 E6.8357
G1 X123.330 Y95.580 E7.1335
G1 X123.330 Y114.420 E7.9005
G1 X130.646 Y114.420 E8.1983
G1 X131.630 Y115.404 E8.2550
G1 X131.630 Y118.234 E8.3702
G1 X131.900 Y118.504 E8.3857
G1 X131.900 Y127.916 E8.7689
G1 X130.916 Y128.900 E8.8255
G1 X130.717 Y128.420 F18000
G92 E0.0000
G1 X79.283 Y128.420 E2.0939 F1800
G1 X78.580 Y127.717 E2.1344
G1 X78.580 Y118.703 E2.5013
G1 X78.850 Y118.433 E2.5169
G1 X78.850 Y91.567 E3.6106
G1 X78.580 Y91.297 E3.6262
G1 X78.580 Y82.283 E3.9931
G1 X79.283 Y81.580 E4.0336
G1 X130.717 Y81.580 E6.1275
G1 X131.420 Y82.283 E6.1680
G1 X131.420 Y91.297 E6.5349
G1 X131.150 Y91.567 E6.5505
G1 X131.150 Y94.397 E6.6657
G1 X130.447 Y95.100 E6.7062
G1 X122.850 Y95.100 E7.0154
G1 X122.850 Y114.900 E7.8215
G1 X130.447 Y114.900 E8.1308
G1 X131.150 Y115.603 E8.1713
G1 X131.150 Y118.433 E8.2865
G1 X131.420 Y118.703 E8.3020
G1 X131.420 Y127.717 E8.6690
G1 X130.717 Y128.420 E8.7094
G1 X130.518 Y127.940 F18000
G92 E0.0000
G1 X79.482 Y127.940 E2.0777 F1800
G1 X79.060 Y127.518 E2.1020
G1 X79.060 Y118.902 E2.4528
G1 X79.330 Y118.632 E2.4683
G1 X79.330 Y91.368 E3.5782
G1 X79.060 Y91.098 E3.5938
G1 X79.060 Y82.482 E3.9446
G1 X79.482 Y82.060 E3.9688
G1 X130.518 Y82.060 E6.0466
G1 X130.940 Y82.482 E6.0708
G1 X130.940 Y91.098 E6.4216
G1 X130.670 Y91.368 E6.4372
G1 X130.670 Y94.198 E6.5524
G1 X130.248 Y94.620 E6.5767
G1 X122.370 Y94.620 E6.8974
G1 X122.370 Y115.380 E7.7425
G1 X130.248 Y115.380 E8.0633
G1 X130.670 Y115.802 E8.0875
G1 X130.670 Y118.632 E8.2027
G1 X130.940 Y118.902 E8.2183
G1 X130.940 Y127.518 E8.5691
G1 X130.518 Y127.940 E8.5934
G1 X130.319 Y127.460 F18000
G92 E0.0000
G1 X79.681 Y127.460 E2.0615 F1800
G1 X79.540 Y127.319 E2.0696
G1 X79.540 Y119.101 E2.4042
G1 X79.681 Y118.960 E2.4123
G1 X79.810 Y118.960 E2.4176
G1 X79.810 Y91.040 E3.5542
G1 X79.681 Y91.040 E3.5595
G1 X79.540 Y90.899 E3.5676
G1 X79.540 Y82.681 E3.9022
G1 X79.681 Y82.540 E3.9103
G1 X130.319 Y82.540 E5.9718
G1 X130.460 Y82.681 E5.9799
G1 X130.460 Y90.899 E6.3145
G1 X130.319 Y91.040 E6.3226
G1 X130.190 Y91.040 E6.3278
G1 X130.190 Y93.999 E6.4483
G1 X130.049 Y94.140 E6.4564
G1 X121.890 Y94.140 E6.7886
G1 X121.890 Y115.860 E7.6728
G1 X130.049 Y115.860 E8.0050
G1 X130.190 Y116.001 E8.0131
G1 X130.190 Y118.960 E8.1336
G1 X130.319 Y118.960 E8.1388
G1 X130.460 Y119.101 E8.1469
G1 X130.460 Y127.319 E8.4815
G1 X130.319 Y127.460 E8.4896
G92 E0.0000
G1 E-4.0000 F5400
; feature inner perimeter
G1 X129.710 Y118.660 F18000
G1 X90.058 Y118.660
G1 X83.470 Y117.220
G1 E0.0000 F5400
G92 E0.0000
G1 X81.730 Y117.220 E0.0708 F1350
G1 X81.730 Y92.780 E1.0658
G1 X83.470 Y92.780 E1.1366
G1 X83.470 Y117.220 E2.1316
G1 X118.530 Y117.220 F18000
G92 E0.0000
G1 X118.522 Y92.780 E0.9950 F1350
G1 X119.970 Y92.780 E1.0539
G1 X119.970 Y117.220 E2.0489
G1 X118.530 Y117.220 E2.1075
G1 X118.051 Y117.700 F18000
G92 E0.0000
G1 X118.042 Y92.300 E1.0340 F1350
G1 X120.450 Y92.300 E1.1321
G1 X120.450 Y117.700 E2.1661
G1 X118.051 Y117.700 E2.2638
G1 X83.950 Y117.700 F18000
G92 E0.0000
G1 X81.250 Y117.700 E0.1099 F1350
G1 X81.250 Y92.300 E1.1440
G1 X83.950 Y92.300 E1.2539
G1 X83.950 Y117.700 E2.2879
G1 X80.770 Y118.180 F18000
G92 E0.0000
G1 X80.770 Y91.820 E1.0731 F1350
G1 X129.230 Y91.820 E3.0460
G1 X129.230 Y93.180 E3.1013
G1 X120.930 Y93.180 E3.4392
G1 X120.930 Y116.820 E4.4016
G1 X129.230 Y116.820 E4.7395
G1 X129.230 Y118.180 E4.7949
G1 X80.770 Y118.180 E6.7677
; feature outer perimeter
G1 X80.290 Y118.660 F18000
G92 E0.0000
G1 X80.290 Y91.340 E1.1122 F900
G1 X129.710 Y91.340 E3.1241
G1 X129.710 Y93.660 E3.2186
G1 X121.410 Y93.660 E3.5565
G1 X121.410 Y116.340 E4.4798
G1 X129.710 Y116.340 E4.8177
G1 X129.710 Y118.660 E4.9121
G1 X80.290 Y118.660 E6.9240
G1 X80.290 Y113.660 F900
; feature inner perimeter
G1 X84.430 Y116.820 F18000
G92 E0.0000
G1 X117.570 Y116.820 E1.3492 F1350
G1 X117.562 Y93.180 E2.3115
G1 X84.430 Y93.180 E3.6604
G1 X84.430 Y116.820 E4.6228
; feature outer perimeter
G1 X84.910 Y116.340 F18000
G92 E0.0000
G1 X117.090 Y116.340 E1.3101 F900
G1 X117.082 Y93.660 E2.2334
G1 X84.910 Y93.660 E3.5431
G1 X84.910 Y116.340 E4.4664
G1 X89.910 Y116.340 F900
; feature gap fill
G1 X84.315 Y117.577 F18000
G92 E0.0000
G1 X84.558 Y117.820 E0.0140 F1800
G1 X85.237 Y117.820 E0.0416
G1 X84.597 Y117.180 E0.0785
G1 X85.275 Y117.180 E0.1061
G1 X85.915 Y117.820 E0.1429
G1 X86.594 Y117.820 E0.1706
G1 X85.954 Y117.180 E0.2074
G1 X86.633 Y117.180 E0.2351
G1 X87.273 Y117.820 E0.2719
G1 X87.952 Y117.820 E0.2995
G1 X87.312 Y117.180 E0.3364
G1 X87.991 Y117.180 E0.3640
G1 X88.631 Y117.820 E0.4009
G1 X89.309 Y117.820 E0.4285
G1 X88.669 Y117.180 E0.4654
G1 X89.348 Y117.180 E0.4930
G1 X89.988 Y117.820 E0.5298
G1 X90.667 Y117.820 E0.5575
G1 X90.027 Y117.180 E0.5943
G1 X90.706 Y117.180 E0.6220
G1 X91.346 Y117.820 E0.6588
G1 X92.025 Y117.820 E0.6864
G1 X91.385 Y117.180 E0.7233
G1 X92.064 Y117.180 E0.7509
G1 X92.704 Y117.820 E0.7878
G1 X93.382 Y117.820 E0.8154
G1 X92.742 Y117.180 E0.8523
G1 X93.421 Y117.180 E0.8799
G1 X94.061 Y117.820 E0.9167
G1 X94.740 Y117.820 E0.9444
G1 X94.100 Y117.180 E0.9812
G1 X94.779 Y117.180 E1.0089
G1 X95.419 Y117.820 E1.0457
G1 X96.098 Y117.820 E1.0733
G1 X95.458 Y117.180 E1.1102
G1 X96.137 Y117.180 E1.1378
G1 X96.777 Y117.820 E1.1747
G1 X97.455 Y117.820 E1.2023
G1 X96.815 Y117.180 E1.2391
G1 X97.494 Y117.180 E1.2668
G1 X98.134 Y117.820 E1.3036
G1 X98.813 Y117.820 E1.3313
G1 X98.173 Y117.180 E1.3681
G1 X98.852 Y117.180 E1.3957
G1 X99.492 Y117.820 E1.4326
G1 X100.171 Y117.820 E1.4602
G1 X99.531 Y117.180 E1.4971
G1 X100.209 Y117.180 E1.5247
G1 X100.849 Y117.820 E1.5616
G1 X101.528 Y117.820 E1.5892
G1 X100.888 Y117.180 E1.6260
G1 X101.567 Y117.180 E1.6537
G1 X102.207 Y117.820 E1.6905
G1 X102.886 Y117.820 E1.7182
G1 X102.246 Y117.180 E1.7550
G1 X102.925 Y117.180 E1.7826
G1 X103.565 Y117.820 E1.8195
G1 X104.244 Y117.820 E1.8471
G1 X103.604 Y117.180 E1.8840
G1 X104.282 Y117.180 E1.9116
G1 X104.922 Y117.820 E1.9484
