; G-Code generated by Simplify3D(R) Version 4.1.2
; Dec 28, 2020 at 9:44:14 PM
; Settings Summary
;   processName,Process1
;   applyToModels,x-schlitten-verbindungsstueck
;   profileName,HBot (modified)
;   profileVersion,2019-10-26 23:38:43
;   baseProfile,Default
;   printMaterial,PLA - ERYONE
;   printQuality,Fast
;   printExtruders,
;   extruderName,Extruder 1
;   extruderToolheadNumber,0
;   extruderDiameter,0.4
;   extruderAutoWidth,1
;   extruderWidth,0.48
;   extrusionMultiplier,1
;   extruderUseRetract,1
;   extruderRetractionDistance,4
;   extruderExtraRestartDistance,0
;   extruderRetractionZLift,0
;   extruderRetractionSpeed,5400
;   extruderUseCoasting,0
;   extruderCoastingDistance,0.2
;   extruderUseWipe,1
;   extruderWipeDistance,5
;   primaryExtruder,0
;   layerHeight,0.3
;   topSolidLayers,4
;   bottomSolidLayers,4
;   perimeterOutlines,4
;   printPerimetersInsideOut,1
;   startPointOption,3
;   startPointOriginX,110
;   startPointOriginY,300
;   sequentialIslands,0
;   spiralVaseMode,0
;   firstLayerHeightPercentage,100
;   firstLayerWidthPercentage,100
;   firstLayerUnderspeed,0.5
;   useRaft,0
;   raftExtruder,0
;   raftTopLayers,3
;   raftBaseLayers,2
;   raftOffset,3
;   raftSeparationDistance,0.18
;   raftTopInfill,100
;   aboveRaftSpeedMultiplier,0.3
;   useSkirt,0
;   skirtExtruder,0
;   skirtLayers,1
;   skirtOutlines,10
;   skirtOffset,0
;   usePrimePillar,0
;   primePillarExtruder,999
;   primePillarWidth,12
;   primePillarLocation,7
;   primePillarSpeedMultiplier,1
;   useOozeShield,0
;   oozeShieldExtruder,999
;   oozeShieldOffset,0.9
;   oozeShieldOutlines,2
;   oozeShieldSidewallShape,0
;   oozeShieldSidewallAngle,30
;   oozeShieldSpeedMultiplier,1.5
;   infillExtruder,0
;   internalInfillPattern,Fast Honeycomb
;   externalInfillPattern,Rectilinear
;   infillPercentage,10
;   outlineOverlapPercentage,25
;   infillExtrusionWidthPercentage,100
;   minInfillLength,5
;   infillLayerInterval,1
;   internalInfillAngles,0
;   overlapInternalInfillAngles,0
;   externalInfillAngles,45,-45
;   generateSupport,1
;   supportExtruder,0
;   supportInfillPercentage,25
;   supportExtraInflation,0
;   supportBaseLayers,0
;   denseSupportExtruder,0
;   denseSupportLayers,0
;   denseSupportInfillPercentage,70
;   supportLayerInterval,1
;   supportHorizontalPartOffset,0.3
;   supportUpperSeparationLayers,1
;   supportLowerSeparationLayers,1
;   supportType,0
;   supportGridSpacing,2
;   maxOverhangAngle,25
;   supportAngles,0
;   temperatureName,Extruder 1,Heated Bed
;   temperatureNumber,0,1
;   temperatureSetpointCount,2,1
;   temperatureSetpointLayers,1,2,1
;   temperatureSetpointTemperatures,215,215,65
;   temperatureStabilizeAtStartup,1,1
;   temperatureHeatedBed,0,1
;   fanLayers,1,5,10
;   fanSpeeds,0,15,30
;   blipFanToFullPower,1
;   adjustSpeedForCooling,0
;   minSpeedLayerTime,15
;   minCoolingSpeedSlowdown,20
;   increaseFanForCooling,1
;   minFanLayerTime,15
;   maxCoolingFanSpeed,40
;   increaseFanForBridging,1
;   bridgingFanSpeed,85
;   use5D,1
;   relativeEdistances,0
;   allowEaxisZeroing,1
;   independentExtruderAxes,0
;   includeM10123,0
;   stickySupport,1
;   applyToolheadOffsets,0
;   gcodeXoffset,0
;   gcodeYoffset,0
;   gcodeZoffset,0
;   overrideMachineDefinition,1
;   machineTypeOverride,0
;   strokeXoverride,210
;   strokeYoverride,210
;   strokeZoverride,150
;   originOffsetXoverride,0
;   originOffsetYoverride,0
;   originOffsetZoverride,0
;   homeXdirOverride,-1
;   homeYdirOverride,-1
;   homeZdirOverride,-1
;   flipXoverride,1
;   flipYoverride,-1
;   flipZoverride,1
;   toolheadOffsets,0,0|0,0|0,0|0,0|0,0|0,0
;   overrideFirmwareConfiguration,1
;   firmwareTypeOverride,RepRap (Marlin/Repetier/Sprinter)
;   GPXconfigOverride,r2
;   baudRateOverride,115200
;   overridePrinterModels,0
;   printerModelsOverride
;   startingGcode,G28 ; home all axes,G32 ; run bed.g -- probe bed and enable compensation
;   layerChangeGcode,
;   retractionGcode,
;   toolChangeGcode,
;   endingGcode,M0 ; call stop.g
;   exportFileFormat,gcode
;   celebration,0
;   celebrationSong,Random Song
;   postProcessing,
;   defaultSpeed,4200
;   outlineUnderspeed,0.5
;   solidInfillUnderspeed,0.8
;   supportUnderspeed,0.8
;   rapidXYspeed,18000
;   rapidZspeed,1200
;   minBridgingArea,50
;   bridgingExtraInflation,0
;   bridgingExtrusionMultiplier,0.96
;   bridgingSpeedMultiplier,1
;   useFixedBridgingAngle,0
;   fixedBridgingAngle,0
;   applyBridgingToPerimeters,0
;   filamentDiameters,1.75|1.75|1.75|1.75|1.75|1.75
;   filamentPricesPerKg,46|46|46|46|46|46
;   filamentDensities,1.25|1.25|1.25|1.25|1.25|1.25
;   useMinPrintHeight,0
;   minPrintHeight,20
;   useMaxPrintHeight,0
;   maxPrintHeight,15
;   useDiaphragm,0
;   diaphragmLayerInterval,20
;   robustSlicing,1
;   mergeAllIntoSolid,0
;   onlyRetractWhenCrossingOutline,1
;   retractBetweenLayers,0
;   useRetractionMinTravel,1
;   retractionMinTravel,3
;   retractWhileWiping,1
;   onlyWipeOutlines,1
;   avoidCrossingOutline,1
;   maxMovementDetourFactor,5
;   toolChangeRetractionDistance,12
;   toolChangeExtraRestartDistance,-0.5
;   toolChangeRetractionSpeed,600
;   externalThinWallType,0
;   internalThinWallType,2
;   thinWallAllowedOverlapPercentage,10
;   singleExtrusionMinLength,1
;   singleExtrusionMinPrintingWidthPercentage,50
;   singleExtrusionMaxPrintingWidthPercentage,150
;   singleExtrusionEndpointExtension,0.2
;   horizontalSizeCompensation,-0.1
G90
M82
M106 S0
M140 S65
M190 S65
M104 S215 T0
M109 S215 T0
G28 ; home all axes
G32 ; run bed.g -- probe bed and enable compensation
; process Process1
; layer 1, Z = 0.300
T0
G92 E0.0000
G1 E-4.0000 F5400
; feature inner perimeter
; tool H0.300 W0.480
G1 Z0.300 F1200
G1 X90.970 Y117.220 F18000
G1 E0.0000 F5400
G92 E0.0000
G1 X90.530 Y117.220 E0.0263 F1575
G1 X90.530 Y92.780 E1.4895
G1 X90.976 Y92.780 E1.5162
G1 X90.970 Y117.220 E2.9794
G1 X126.530 Y117.220 F18000
G92 E0.0000
G1 X126.530 Y92.780 E1.4632 F1575
G1 X128.320 Y92.780 E1.5703
G1 X128.320 Y117.220 E3.0335
G1 X126.530 Y117.220 E3.1407
G1 X126.050 Y117.700 F18000
G92 E0.0000
G1 X126.050 Y92.300 E1.5207 F1575
G1 X128.800 Y92.300 E1.6853
G1 X128.800 Y117.700 E3.2059
G1 X126.050 Y117.700 E3.3706
G1 X91.450 Y117.700 F18000
G92 E0.0000
G1 X90.050 Y117.700 E0.0838 F1575
G1 X90.050 Y92.300 E1.6044
G1 X91.456 Y92.300 E1.6886
G1 X91.450 Y117.700 E3.2093
G1 X89.570 Y116.820 F18000
G92 E0.0000
G1 X89.570 Y93.180 E1.4153 F1575
G1 X80.070 Y93.180 E1.9840
G1 X80.070 Y91.820 E2.0655
G1 X129.280 Y91.820 E5.0116
G1 X129.280 Y118.180 E6.5897
G1 X80.070 Y118.180 E9.5358
G1 X80.070 Y116.820 E9.6172
G1 X89.570 Y116.820 E10.1860
; feature outer perimeter
G1 X89.090 Y116.340 F18000
G92 E0.0000
G1 X89.090 Y93.660 E1.3578 F1050
G1 X79.590 Y93.660 E1.9266
G1 X79.590 Y91.340 E2.0655
G1 X129.760 Y91.340 E5.0690
G1 X129.760 Y118.660 E6.7046
G1 X79.590 Y118.660 E9.7082
G1 X79.590 Y116.340 E9.8471
G1 X89.090 Y116.340 E10.4159
G1 X89.090 Y111.340 F1050
; feature inner perimeter
G1 X91.930 Y116.820 F18000
G92 E0.0000
G1 X125.570 Y116.820 E2.0140 F1575
G1 X125.570 Y93.180 E3.4293
G1 X91.936 Y93.180 E5.4429
G1 X91.930 Y116.820 E6.8582
; feature outer perimeter
G1 X92.410 Y116.340 F18000
G92 E0.0000
G1 X125.090 Y116.340 E1.9565 F1050
G1 X125.090 Y93.660 E3.3143
G1 X92.416 Y93.660 E5.2704
G1 X92.410 Y116.340 E6.6283
G1 X97.410 Y116.340 F1050
; feature gap fill
G1 X92.025 Y117.820 F18000
G92 E0.0000
G1 X91.814 Y117.610 E0.0178 F2100
G1 X91.814 Y117.180 E0.0435
G1 X92.064 Y117.180 E0.0584
G1 X92.704 Y117.820 E0.1126
G1 X93.382 Y117.820 E0.1533
G1 X92.742 Y117.180 E0.2075
G1 X93.421 Y117.180 E0.2481
G1 X94.061 Y117.820 E0.3023
G1 X94.740 Y117.820 E0.3429
G1 X94.100 Y117.180 E0.3971
G1 X94.779 Y117.180 E0.4378
G1 X95.419 Y117.820 E0.4919
G1 X96.098 Y117.820 E0.5326
G1 X95.458 Y117.180 E0.5868
G1 X96.137 Y117.180 E0.6274
G1 X96.777 Y117.820 E0.6816
G1 X97.455 Y117.820 E0.7222
G1 X96.815 Y117.180 E0.7764
G1 X97.494 Y117.180 E0.8171
G1 X98.134 Y117.820 E0.8712
G1 X98.813 Y117.820 E0.9119
G1 X98.173 Y117.180 E0.9661
G1 X98.852 Y117.180 E1.0067
G1 X99.492 Y117.820 E1.0609
G1 X100.171 Y117.820 E1.1015
G1 X99.531 Y117.180 E1.1557
G1 X100.209 Y117.180 E1.1964
G1 X100.849 Y117.820 E1.2505
G1 X101.528 Y117.820 E1.2912
G1 X100.888 Y117.180 E1.3454
G1 X101.567 Y117.180 E1.3860
G1 X102.207 Y117.820 E1.4402
G1 X102.886 Y117.820 E1.4808
G1 X102.246 Y117.180 E1.5350
G1 X102.925 Y117.180 E1.5757
G1 X103.565 Y117.820 E1.6299
G1 X104.244 Y117.820 E1.6705
G1 X103.604 Y117.180 E1.7247
G1 X104.282 Y117.180 E1.7653
G1 X104.922 Y117.820 E1.8195
G1 X105.601 Y117.820 E1.8601
G1 X104.961 Y117.180 E1.9143
G1 X105.640 Y117.180 E1.9550
G1 X106.280 Y117.820 E2.0092
G1 X106.959 Y117.820 E2.0498
G1 X106.319 Y117.180 E2.1040
G1 X106.998 Y117.180 E2.1446
G1 X107.638 Y117.820 E2.1988
G1 X108.316 Y117.820 E2.2395
G1 X107.676 Y117.180 E2.2936
G1 X108.355 Y117.180 E2.3343
G1 X108.995 Y117.820 E2.3885
G1 X109.674 Y117.820 E2.4291
G1 X109.034 Y117.180 E2.4833
G1 X109.713 Y117.180 E2.5239
G1 X110.353 Y117.820 E2.5781
G1 X111.032 Y117.820 E2.6188
G1 X110.392 Y117.180 E2.6729
G1 X111.071 Y117.180 E2.7136
G1 X111.711 Y117.820 E2.7678
G1 X112.389 Y117.820 E2.8084
G1 X111.749 Y117.180 E2.8626
G1 X112.428 Y117.180 E2.9032
G1 X113.068 Y117.820 E2.9574
G1 X113.747 Y117.820 E2.9981
G1 X113.107 Y117.180 E3.0523
G1 X113.786 Y117.180 E3.0929
G1 X114.426 Y117.820 E3.1471
G1 X115.105 Y117.820 E3.1877
G1 X114.465 Y117.180 E3.2419
G1 X115.144 Y117.180 E3.2825
G1 X115.784 Y117.820 E3.3367
G1 X116.462 Y117.820 E3.3774
G1 X115.822 Y117.180 E3.4316
G1 X116.501 Y117.180 E3.4722
G1 X117.141 Y117.820 E3.5264
G1 X117.820 Y117.820 E3.5670
G1 X117.180 Y117.180 E3.6212
G1 X117.859 Y117.180 E3.6619
G1 X118.499 Y117.820 E3.7160
G1 X119.178 Y117.820 E3.7567
G1 X118.538 Y117.180 E3.8109
G1 X119.216 Y117.180 E3.8515
G1 X119.856 Y117.820 E3.9057
G1 X120.535 Y117.820 E3.9463
G1 X119.895 Y117.180 E4.0005
G1 X120.574 Y117.180 E4.0412
G1 X121.214 Y117.820 E4.0953
G1 X121.893 Y117.820 E4.1360
G1 X121.253 Y117.180 E4.1902
G1 X121.932 Y117.180 E4.2308
G1 X122.572 Y117.820 E4.2850
G1 X123.251 Y117.820 E4.3256
G1 X122.611 Y117.180 E4.3798
G1 X123.289 Y117.180 E4.4205
G1 X123.929 Y117.820 E4.4746
G1 X124.608 Y117.820 E4.5153
G1 X123.968 Y117.180 E4.5695
G1 X124.647 Y117.180 E4.6101
G1 X125.287 Y117.820 E4.6643
G1 X125.685 Y117.820 E4.6881
G1 X125.685 Y117.539 E4.7049
G1 X125.326 Y117.180 E4.7354
G1 X125.442 Y92.180 F18000
G92 E0.0000
G1 X125.685 Y92.423 E0.0206 F2100
G1 X125.685 Y92.820 E0.0443
G1 X125.403 Y92.820 E0.0612
G1 X124.763 Y92.180 E0.1154
G1 X124.085 Y92.180 E0.1560
G1 X124.725 Y92.820 E0.2102
G1 X124.046 Y92.820 E0.2509
G1 X123.406 Y92.180 E0.3050
G1 X122.727 Y92.180 E0.3457
G1 X123.367 Y92.820 E0.3999
G1 X122.688 Y92.820 E0.4405
G1 X122.048 Y92.180 E0.4947
G1 X121.369 Y92.180 E0.5353
G1 X122.009 Y92.820 E0.5895
G1 X121.331 Y92.820 E0.6302
G1 X120.691 Y92.180 E0.6843
G1 X120.012 Y92.180 E0.7250
G1 X120.652 Y92.820 E0.7792
G1 X119.973 Y92.820 E0.8198
G1 X119.333 Y92.180 E0.8740
G1 X118.654 Y92.180 E0.9146
G1 X119.294 Y92.820 E0.9688
G1 X118.615 Y92.820 E1.0095
G1 X117.975 Y92.180 E1.0637
G1 X117.296 Y92.180 E1.1043
G1 X117.936 Y92.820 E1.1585
G1 X117.258 Y92.820 E1.1991
G1 X116.618 Y92.180 E1.2533
G1 X115.939 Y92.180 E1.2939
G1 X116.579 Y92.820 E1.3481
G1 X115.900 Y92.820 E1.3888
G1 X115.260 Y92.180 E1.4430
G1 X114.581 Y92.180 E1.4836
G1 X115.221 Y92.820 E1.5378
G1 X114.542 Y92.820 E1.5784
G1 X113.902 Y92.180 E1.6326
G1 X113.224 Y92.180 E1.6733
G1 X113.864 Y92.820 E1.7274
G1 X113.185 Y92.820 E1.7681
G1 X112.545 Y92.180 E1.8223
G1 X111.866 Y92.180 E1.8629
G1 X112.506 Y92.820 E1.9171
G1 X111.827 Y92.820 E1.9577
G1 X111.187 Y92.180 E2.0119
G1 X110.508 Y92.180 E2.0526
G1 X111.148 Y92.820 E2.1067
G1 X110.469 Y92.820 E2.1474
G1 X109.829 Y92.180 E2.2016
G1 X109.151 Y92.180 E2.2422
G1 X109.791 Y92.820 E2.2964
G1 X109.112 Y92.820 E2.3370
G1 X108.472 Y92.180 E2.3912
G1 X107.793 Y92.180 E2.4319
G1 X108.433 Y92.820 E2.4861
G1 X107.754 Y92.820 E2.5267
G1 X107.114 Y92.180 E2.5809
G1 X106.435 Y92.180 E2.6215
G1 X107.075 Y92.820 E2.6757
G1 X106.396 Y92.820 E2.7163
G1 X105.756 Y92.180 E2.7705
G1 X105.078 Y92.180 E2.8112
G1 X105.718 Y92.820 E2.8654
G1 X105.039 Y92.820 E2.9060
G1 X104.399 Y92.180 E2.9602
G1 X103.720 Y92.180 E3.0008
G1 X104.360 Y92.820 E3.0550
G1 X103.681 Y92.820 E3.0957
G1 X103.041 Y92.180 E3.1498
G1 X102.362 Y92.180 E3.1905
G1 X103.002 Y92.820 E3.2447
G1 X102.324 Y92.820 E3.2853
G1 X101.684 Y92.180 E3.3395
G1 X101.005 Y92.180 E3.3801
G1 X101.645 Y92.820 E3.4343
G1 X100.966 Y92.820 E3.4750
G1 X100.326 Y92.180 E3.5291
G1 X99.647 Y92.180 E3.5698
G1 X100.287 Y92.820 E3.6240
G1 X99.608 Y92.820 E3.6646
G1 X98.968 Y92.180 E3.7188
G1 X98.289 Y92.180 E3.7594
G1 X98.929 Y92.820 E3.8136
G1 X98.251 Y92.820 E3.8543
G1 X97.611 Y92.180 E3.9084
G1 X96.932 Y92.180 E3.9491
G1 X97.572 Y92.820 E4.0033
G1 X96.893 Y92.820 E4.0439
G1 X96.253 Y92.180 E4.0981
G1 X95.574 Y92.180 E4.1387
G1 X96.214 Y92.820 E4.1929
G1 X95.535 Y92.820 E4.2336
G1 X94.895 Y92.180 E4.2878
G1 X94.216 Y92.180 E4.3284
G1 X94.856 Y92.820 E4.3826
G1 X94.178 Y92.820 E4.4232
G1 X93.538 Y92.180 E4.4774
G1 X92.859 Y92.180 E4.5180
G1 X93.499 Y92.820 E4.5722
G1 X92.820 Y92.820 E4.6129
G1 X92.180 Y92.180 E4.6671
G1 X91.821 Y92.180 E4.6885
G1 X91.821 Y92.500 E4.7077
G1 X92.141 Y92.820 E4.7348
G1 X89.465 Y92.180 F18000
G92 E0.0000
G1 X89.685 Y92.400 E0.0187 F2100
G1 X89.685 Y92.820 E0.0438
G1 X89.426 Y92.820 E0.0593
G1 X88.786 Y92.180 E0.1135
G1 X88.107 Y92.180 E0.1541
G1 X88.747 Y92.820 E0.2083
G1 X88.068 Y92.820 E0.2490
G1 X87.428 Y92.180 E0.3031
G1 X86.749 Y92.180 E0.3438
G1 X87.389 Y92.820 E0.3980
G1 X86.711 Y92.820 E0.4386
G1 X86.071 Y92.180 E0.4928
G1 X85.392 Y92.180 E0.5334
G1 X86.032 Y92.820 E0.5876
G1 X85.353 Y92.820 E0.6283
G1 X84.713 Y92.180 E0.6825
G1 X84.034 Y92.180 E0.7231
G1 X84.674 Y92.820 E0.7773
G1 X83.995 Y92.820 E0.8179
G1 X83.355 Y92.180 E0.8721
G1 X82.676 Y92.180 E0.9127
G1 X83.316 Y92.820 E0.9669
G1 X82.638 Y92.820 E1.0076
G1 X81.998 Y92.180 E1.0618
G1 X81.319 Y92.180 E1.1024
G1 X81.959 Y92.820 E1.1566
G1 X81.280 Y92.820 E1.1972
G1 X80.640 Y92.180 E1.2514
G1 X80.430 Y92.180 E1.2640
G1 X80.430 Y92.649 E1.2921
G1 X80.601 Y92.820 E1.3065
G1 X80.597 Y93.660 F18000
G1 X89.090 Y93.660
G1 X89.090 Y116.340
G1 X80.492 Y116.340
G1 X80.485 Y117.820
G92 E0.0000
G1 X80.430 Y117.765 E0.0046 F2100
G1 X80.430 Y117.180 E0.0397
G1 X80.524 Y117.180 E0.0453
G1 X81.164 Y117.820 E0.0995
G1 X81.842 Y117.820 E0.1401
G1 X81.202 Y117.180 E0.1943
G1 X81.881 Y117.180 E0.2349
G1 X82.521 Y117.820 E0.2891
G1 X83.200 Y117.820 E0.3298
G1 X82.560 Y117.180 E0.3839
G1 X83.239 Y117.180 E0.4246
G1 X83.879 Y117.820 E0.4788
G1 X84.558 Y117.820 E0.5194
G1 X83.918 Y117.180 E0.5736
G1 X84.597 Y117.180 E0.6142
G1 X85.237 Y117.820 E0.6684
G1 X85.915 Y117.820 E0.7091
G1 X85.275 Y117.180 E0.7632
G1 X85.954 Y117.180 E0.8039
G1 X86.594 Y117.820 E0.8581
G1 X87.273 Y117.820 E0.8987
G1 X86.633 Y117.180 E0.9529
G1 X87.312 Y117.180 E0.9935
G1 X87.952 Y117.820 E1.0477
G1 X88.631 Y117.820 E1.0884
G1 X87.991 Y117.180 E1.1426
G1 X88.669 Y117.180 E1.1832
G1 X89.309 Y117.820 E1.2374
G1 X89.685 Y117.820 E1.2599
G1 X89.685 Y117.517 E1.2780
G1 X89.348 Y117.180 E1.3065
; feature solid layer
G1 X127.042 Y116.860 F18000
G92 E0.0000
G1 X126.890 Y116.708 E0.0129 F1680
G1 X126.890 Y116.029 E0.0535
G1 X127.721 Y116.860 E0.1239
G1 X127.960 Y116.860 E0.1382
G1 X127.960 Y116.420 E0.1646
G1 X126.890 Y115.350 E0.2551
G1 X126.890 Y114.671 E0.2958
G1 X127.960 Y115.741 E0.3864
G1 X127.960 Y115.062 E0.4270
G1 X126.890 Y113.992 E0.5176
G1 X126.890 Y113.314 E0.5582
G1 X127.960 Y114.384 E0.6488
G1 X127.960 Y113.705 E0.6895
G1 X126.890 Y112.635 E0.7801
G1 X126.890 Y111.956 E0.8207
G1 X127.960 Y113.026 E0.9113
G1 X127.960 Y112.347 E0.9519
G1 X126.890 Y111.277 E1.0425
G1 X126.890 Y110.598 E1.0832
G1 X127.960 Y111.668 E1.1738
G1 X127.960 Y110.989 E1.2144
G1 X126.890 Y109.919 E1.3050
G1 X126.890 Y109.241 E1.3456
G1 X127.960 Y110.311 E1.4362
G1 X127.960 Y109.632 E1.4769
G1 X126.890 Y108.562 E1.5675
G1 X126.890 Y107.883 E1.6081
