; G-Code generated by Simplify3D(R) Version 4.1.2
; Jan 31, 2021 at 5:52:58 PM
; Settings Summary
;   processName,Process1
;   applyToModels,x-schlitten-verbindungsstueck
;   profileName,HBot (modified)
;   profileVersion,2019-10-26 23:38:43
;   baseProfile,Default
;   printMaterial,PETG - SUNLU
;   printQuality,Fast
;   printExtruders,
;   extruderName,Extruder 1
;   extruderToolheadNumber,0
;   extruderDiameter,0.4
;   extruderAutoWidth,1
;   extruderWidth,0.48
;   extrusionMultiplier,1.02
;   extruderUseRetract,0
;   extruderRetractionDistance,3
;   extruderExtraRestartDistance,0
;   extruderRetractionZLift,0
;   extruderRetractionSpeed,5400
;   extruderUseCoasting,0
;   extruderCoastingDistance,0.2
;   extruderUseWipe,1
;   extruderWipeDistance,2
;   primaryExtruder,0
;   layerHeight,0.2
;   topSolidLayers,4
;   bottomSolidLayers,4
;   perimeterOutlines,3
;   printPerimetersInsideOut,1
;   startPointOption,3
;   startPointOriginX,110
;   startPointOriginY,300
;   sequentialIslands,0
;   spiralVaseMode,0
;   firstLayerHeightPercentage,100
;   firstLayerWidthPercentage,100
;   firstLayerUnderspeed,0.5
;   useRaft,0
;   raftExtruder,0
;   raftTopLayers,3
;   raftBaseLayers,2
;   raftOffset,3
;   raftSeparationDistance,0.18
;   raftTopInfill,100
;   aboveRaftSpeedMultiplier,0.3
;   useSkirt,0
;   skirtExtruder,0
;   skirtLayers,1
;   skirtOutlines,5
;   skirtOffset,0
;   usePrimePillar,0
;   primePillarExtruder,999
;   primePillarWidth,12
;   primePillarLocation,7
;   primePillarSpeedMultiplier,1
;   useOozeShield,0
;   oozeShieldExtruder,999
;   oozeShieldOffset,0.9
;   oozeShieldOutlines,2
;   oozeShieldSidewallShape,0
;   oozeShieldSidewallAngle,30
;   oozeShieldSpeedMultiplier,1.5
;   infillExtruder,0
;   internalInfillPattern,Fast Honeycomb
;   externalInfillPattern,Rectilinear
;   infillPercentage,20
;   outlineOverlapPercentage,25
;   infillExtrusionWidthPercentage,100
;   minInfillLength,5
;   infillLayerInterval,1
;   internalInfillAngles,0
;   overlapInternalInfillAngles,0
;   externalInfillAngles,45,-45
;   generateSupport,1
;   supportExtruder,0
;   supportInfillPercentage,20
;   supportExtraInflation,0
;   supportBaseLayers,0
;   denseSupportExtruder,0
;   denseSupportLayers,0
;   denseSupportInfillPercentage,70
;   supportLayerInterval,1
;   supportHorizontalPartOffset,0.3
;   supportUpperSeparationLayers,1
;   supportLowerSeparationLayers,1
;   supportType,0
;   supportGridSpacing,2
;   maxOverhangAngle,25
;   supportAngles,0
;   temperatureName,Extruder 1,Heated Bed
;   temperatureNumber,0,1
;   temperatureSetpointCount,2,1
;   temperatureSetpointLayers,1,2,1
;   temperatureSetpointTemperatures,215,215,85
;   temperatureStabilizeAtStartup,1,1
;   temperatureHeatedBed,0,1
;   fanLayers,1,5,10
;   fanSpeeds,0,5,20
;   blipFanToFullPower,1
;   adjustSpeedForCooling,0
;   minSpeedLayerTime,15
;   minCoolingSpeedSlowdown,20
;   increaseFanForCooling,1
;   minFanLayerTime,15
;   maxCoolingFanSpeed,40
;   increaseFanForBridging,1
;   bridgingFanSpeed,85
;   use5D,1
;   relativeEdistances,0
;   allowEaxisZeroing,1
;   independentExtruderAxes,0
;   includeM10123,0
;   stickySupport,1
;   applyToolheadOffsets,0
;   gcodeXoffset,0
;   gcodeYoffset,0
;   gcodeZoffset,0
;   overrideMachineDefinition,1
;   machineTypeOverride,0
;   strokeXoverride,210
;   strokeYoverride,210
;   strokeZoverride,150
;   originOffsetXoverride,0
;   originOffsetYoverride,0
;   originOffsetZoverride,0
;   homeXdirOverride,-1
;   homeYdirOverride,-1
;   homeZdirOverride,-1
;   flipXoverride,1
;   flipYoverride,-1
;   flipZoverride,1
;   toolheadOffsets,0,0|0,0|0,0|0,0|0,0|0,0
;   overrideFirmwareConfiguration,1
;   firmwareTypeOverride,RepRap (Marlin/Repetier/Sprinter)
;   GPXconfigOverride,r2
;   baudRateOverride,115200
;   overridePrinterModels,0
;   printerModelsOverride
;   startingGcode,G28 ; home all axes,G32 ; run bed.g -- probe bed and enable compensation
;   layerChangeGcode,
;   retractionGcode,
;   toolChangeGcode,
;   endingGcode,M0 ; call stop.g
;   exportFileFormat,gcode
;   celebration,0
;   celebrationSong,Random Song
;   postProcessing,
;   defaultSpeed,3600
;   outlineUnderspeed,0.5
;   solidInfillUnderspeed,0.8
;   supportUnderspeed,0.8
;   rapidXYspeed,18000
;   rapidZspeed,1200
;   minBridgingArea,50
;   bridgingExtraInflation,0
;   bridgingExtrusionMultiplier,0.96
;   bridgingSpeedMultiplier,1
;   useFixedBridgingAngle,0
;   fixedBridgingAngle,0
;   applyBridgingToPerimeters,0
;   filamentDiameters,1.75|1.75|1.75|1.75|1.75|1.75
;   filamentPricesPerKg,46|46|46|46|46|46
;   filamentDensities,1.25|1.25|1.25|1.25|1.25|1.25
;   useMinPrintHeight,0
;   minPrintHeight,17.2
;   useMaxPrintHeight,0
;   maxPrintHeight,7.5
;   useDiaphragm,0
;   diaphragmLayerInterval,20
;   robustSlicing,1
;   mergeAllIntoSolid,0
;   onlyRetractWhenCrossingOutline,1
;   retractBetweenLayers,0
;   useRetractionMinTravel,1
;   retractionMinTravel,3
;   retractWhileWiping,1
;   onlyWipeOutlines,1
;   avoidCrossingOutline,1
;   maxMovementDetourFactor,5
;   toolChangeRetractionDistance,12
;   toolChangeExtraRestartDistance,-0.5
;   toolChangeRetractionSpeed,600
;   externalThinWallType,0
;   internalThinWallType,2
;   thinWallAllowedOverlapPercentage,10
;   singleExtrusionMinLength,1
;   singleExtrusionMinPrintingWidthPercentage,50
;   singleExtrusionMaxPrintingWidthPercentage,150
;   singleExtrusionEndpointExtension,0.2
;   horizontalSizeCompensation,0
G90
M82
M106 S0
M140 S85
M190 S85
M104 S215 T0
M109 S215 T0
G28 ; home all axes
G32 ; run bed.g -- probe bed and enable compensation
; process Process1
; layer 1, Z = 0.200
T0
; feature inner perimeter
; tool H0.200 W0.480
G1 Z0.200 F1200
G1 X128.850 Y117.800 F18000
G92 E0.0000
G1 X81.150 Y117.800 E1.9419 F1350
G1 X81.150 Y92.200 E2.9841
G1 X128.850 Y92.200 E4.9260
G1 X128.850 Y92.800 E4.9504
G1 X121.550 Y92.800 E5.2476
G1 X121.550 Y115.618 E6.1765
G1 X121.658 Y116.160 E6.1990
G1 X122.031 Y116.719 E6.2264
G1 X122.590 Y117.092 E6.2537
G1 X123.132 Y117.200 E6.2762
G1 X128.850 Y117.200 E6.5090
G1 X128.850 Y117.800 E6.5334
G1 X129.330 Y118.280 F18000
G92 E0.0000
G1 X80.670 Y118.280 E1.9810 F1350
G1 X80.670 Y91.720 E3.0622
G1 X129.330 Y91.720 E5.0432
G1 X129.330 Y93.280 E5.1067
G1 X122.030 Y93.280 E5.4039
G1 X122.030 Y115.571 E6.3114
G1 X122.110 Y115.972 E6.3280
G1 X122.377 Y116.373 E6.3476
G1 X122.778 Y116.640 E6.3672
G1 X123.179 Y116.720 E6.3839
G1 X129.330 Y116.720 E6.6343
G1 X129.330 Y118.280 E6.6978
; feature outer perimeter
G1 X129.810 Y118.760 F18000
G92 E0.0000
G1 X80.190 Y118.760 E2.0200 F900
G1 X80.190 Y91.240 E3.1404
G1 X129.810 Y91.240 E5.1605
G1 X129.810 Y93.760 E5.2630
G1 X122.510 Y93.760 E5.5602
G1 X122.510 Y115.524 E6.4462
G1 X122.562 Y115.785 E6.4571
G1 X122.723 Y116.027 E6.4689
G1 X122.965 Y116.188 E6.4807
G1 X123.226 Y116.240 E6.4916
G1 X129.810 Y116.240 E6.7596
G1 X129.810 Y118.760 E6.8622
G1 X127.810 Y118.760 F900
; feature inner perimeter
G1 X119.950 Y117.200 F18000
G92 E0.0000
G1 X119.950 Y112.800 E0.1791 F1350
G1 X116.950 Y112.800 E0.3013
G1 X116.950 Y94.382 E1.0511
G1 X116.854 Y93.900 E1.0711
G1 X116.640 Y93.500 E1.0896
G1 X116.207 Y93.067 E1.1145
G1 X115.642 Y92.833 E1.1394
G1 X115.309 Y92.800 E1.1530
G1 X85.632 Y92.800 E2.3612
G1 X85.090 Y92.908 E2.3836
G1 X84.531 Y93.281 E2.4110
G1 X84.158 Y93.840 E2.4384
G1 X84.050 Y94.382 E2.4609
G1 X84.050 Y115.618 E3.3254
G1 X84.146 Y116.100 E3.3454
G1 X84.360 Y116.500 E3.3639
G1 X84.750 Y116.890 E3.3863
G1 X85.150 Y117.104 E3.4048
G1 X85.632 Y117.200 E3.4248
G1 X119.950 Y117.200 E4.8219
G1 X119.470 Y116.720 F18000
G92 E0.0000
G1 X119.470 Y113.280 E0.1400 F1350
G1 X116.470 Y113.280 E0.2622
G1 X116.470 Y94.429 E1.0296
G1 X116.397 Y94.063 E1.0448
G1 X116.250 Y93.789 E1.0575
G1 X115.936 Y93.474 E1.0756
G1 X115.524 Y93.304 E1.0937
G1 X115.285 Y93.280 E1.1035
G1 X85.679 Y93.280 E2.3088
G1 X85.278 Y93.360 E2.3254
G1 X84.877 Y93.627 E2.3450
G1 X84.610 Y94.028 E2.3646
G1 X84.530 Y94.429 E2.3813
G1 X84.530 Y115.571 E3.2420
G1 X84.603 Y115.937 E3.2572
G1 X84.750 Y116.211 E3.2699
G1 X85.039 Y116.500 E3.2865
G1 X85.313 Y116.647 E3.2992
G1 X85.679 Y116.720 E3.3144
G1 X119.470 Y116.720 E4.6900
; feature outer perimeter
G1 X118.990 Y116.240 F18000
G92 E0.0000
G1 X118.990 Y113.760 E0.1010 F900
G1 X115.990 Y113.760 E0.2231
G1 X115.990 Y94.476 E1.0081
G1 X115.940 Y94.227 E1.0185
G1 X115.861 Y94.078 E1.0254
G1 X115.664 Y93.881 E1.0367
G1 X115.406 Y93.774 E1.0481
G1 X115.262 Y93.760 E1.0540
G1 X85.726 Y93.760 E2.2564
G1 X85.465 Y93.812 E2.2672
G1 X85.223 Y93.973 E2.2790
G1 X85.062 Y94.215 E2.2909
G1 X85.010 Y94.476 E2.3017
G1 X85.010 Y115.524 E3.1586
G1 X85.060 Y115.773 E3.1689
G1 X85.139 Y115.922 E3.1758
G1 X85.328 Y116.111 E3.1867
G1 X85.477 Y116.190 E3.1935
G1 X85.726 Y116.240 E3.2039
G1 X118.990 Y116.240 E4.5581
G1 X118.990 Y114.240 F900
; feature solid layer
G1 X120.310 Y113.522 F18000
G92 E0.0000
G1 X121.190 Y114.402 E0.0507 F1440
G1 X121.190 Y115.081 E0.0783
G1 X120.310 Y114.201 E0.1290
G1 X120.310 Y114.879 E0.1566
G1 X121.216 Y115.786 E0.2088
G1 X121.319 Y116.300 E0.2301
G1 X121.772 Y116.978 E0.2633
G1 X122.450 Y117.431 E0.2965
G1 X122.493 Y117.440 E0.2983
G1 X122.192 Y117.440 E0.3106
G1 X120.310 Y115.558 E0.4189
G1 X120.310 Y116.237 E0.4466
G1 X121.513 Y117.440 E0.5158
G1 X120.834 Y117.440 E0.5435
G1 X120.310 Y116.916 E0.5736
G1 X118.990 Y114.494 F18000
G1 X118.990 Y113.760
G1 X118.590 Y113.760
G1 X117.871 Y112.440
G92 E0.0000
G1 X117.310 Y111.879 E0.0323 F1440
G1 X117.310 Y111.201 E0.0599
G1 X118.549 Y112.440 E0.1313
G1 X119.228 Y112.440 E0.1589
G1 X117.310 Y110.522 E0.2693
G1 X117.310 Y109.843 E0.2970
G1 X119.907 Y112.440 E0.4465
G1 X120.310 Y112.440 E0.4629
G1 X120.310 Y112.843 E0.4793
G1 X121.190 Y113.723 E0.5300
G1 X121.190 Y113.044 E0.5576
G1 X117.310 Y109.164 E0.7810
G1 X117.310 Y108.485 E0.8086
G1 X121.190 Y112.365 E1.0320
G1 X121.190 Y111.686 E1.0596
G1 X117.310 Y107.806 E1.2830
G1 X117.310 Y107.128 E1.3107
G1 X121.190 Y111.008 E1.5340
G1 X121.190 Y110.329 E1.5617
G1 X117.310 Y106.449 E1.7851
G1 X117.310 Y105.770 E1.8127
G1 X121.190 Y109.650 E2.0361
G1 X121.190 Y108.971 E2.0637
G1 X117.310 Y105.091 E2.2871
G1 X117.310 Y104.412 E2.3147
G1 X121.190 Y108.292 E2.5381
G1 X121.190 Y107.614 E2.5658
G1 X117.310 Y103.734 E2.7891
G1 X117.310 Y103.055 E2.8168
G1 X121.190 Y106.935 E3.0402
G1 X121.190 Y106.256 E3.0678
G1 X117.310 Y102.376 E3.2912
G1 X117.310 Y101.697 E3.3188
G1 X121.190 Y105.577 E3.5422
G1 X121.190 Y104.898 E3.5698
G1 X117.310 Y101.018 E3.7932
G1 X117.310 Y100.339 E3.8209
G1 X121.190 Y104.219 E4.0442
G1 X121.190 Y103.541 E4.0719
G1 X117.310 Y99.661 E4.2953
G1 X117.310 Y98.982 E4.3229
G1 X121.190 Y102.862 E4.5463
G1 X121.190 Y102.183 E4.5739
G1 X117.310 Y98.303 E4.7973
G1 X117.310 Y97.624 E4.8249
G1 X121.190 Y101.504 E5.0483
G1 X121.190 Y100.825 E5.0760
G1 X117.310 Y96.945 E5.2993
G1 X117.310 Y96.266 E5.3270
G1 X121.190 Y100.146 E5.5504
G1 X121.190 Y99.468 E5.5780
G1 X117.310 Y95.588 E5.8014
G1 X117.310 Y94.909 E5.8290
G1 X121.190 Y98.789 E6.0524
G1 X121.190 Y98.110 E6.0800
G1 X117.281 Y94.201 E6.3051
G1 X117.197 Y93.777 E6.3227
G1 X116.932 Y93.283 E6.3455
G1 X116.411 Y92.762 E6.3755
G1 X115.924 Y92.560 E6.3970
G1 X116.319 Y92.560 E6.4130
G1 X121.190 Y97.431 E6.6935
G1 X121.190 Y96.752 E6.7211
G1 X116.998 Y92.560 E6.9625
G1 X117.676 Y92.560 E6.9901
G1 X121.190 Y96.074 E7.1924
G1 X121.190 Y95.395 E7.2200
G1 X118.355 Y92.560 E7.3832
G1 X119.034 Y92.560 E7.4109
G1 X121.190 Y94.716 E7.5350
G1 X121.190 Y94.037 E7.5626
G1 X119.713 Y92.560 E7.6477
G1 X120.392 Y92.560 E7.6753
G1 X121.190 Y93.358 E7.7213
G1 X121.190 Y92.679 E7.7489
G1 X121.071 Y92.560 E7.7558
G1 X84.414 Y92.560 F18000
G92 E0.0000
G1 X84.634 Y92.780 E0.0127 F1440
G1 X84.272 Y93.022 E0.0304
G1 X84.242 Y93.067 E0.0326
G1 X83.735 Y92.560 E0.0617
G1 X83.056 Y92.560 E0.0894
G1 X83.970 Y93.473 E0.1420
G1 X83.819 Y93.700 E0.1531
G1 X83.769 Y93.951 E0.1635
G1 X82.378 Y92.560 E0.2436
G1 X81.699 Y92.560 E0.2712
G1 X83.690 Y94.551 E0.3858
G1 X83.690 Y95.230 E0.4135
G1 X81.510 Y93.050 E0.5390
G1 X81.510 Y93.729 E0.5666
G1 X83.690 Y95.909 E0.6921
G1 X83.690 Y96.588 E0.7198
G1 X81.510 Y94.408 E0.8453
G1 X81.510 Y95.086 E0.8729
G1 X83.690 Y97.266 E0.9984
G1 X83.690 Y97.945 E1.0260
G1 X81.510 Y95.765 E1.1516
G1 X81.510 Y96.444 E1.1792
G1 X83.690 Y98.624 E1.3047
G1 X83.690 Y99.303 E1.3323
G1 X81.510 Y97.123 E1.4578
G1 X81.510 Y97.802 E1.4855
G1 X83.690 Y99.982 E1.6110
G1 X83.690 Y100.661 E1.6386
G1 X81.510 Y98.481 E1.7641
G1 X81.510 Y99.159 E1.7918
G1 X83.690 Y101.339 E1.9173
G1 X83.690 Y102.018 E1.9449
G1 X81.510 Y99.838 E2.0704
G1 X81.510 Y100.517 E2.0981
G1 X83.690 Y102.697 E2.2236
G1 X83.690 Y103.376 E2.2512
G1 X81.510 Y101.196 E2.3767
G1 X81.510 Y101.875 E2.4043
G1 X83.690 Y104.055 E2.5299
G1 X83.690 Y104.733 E2.5575
G1 X81.510 Y102.553 E2.6830
G1 X81.510 Y103.232 E2.7106
G1 X83.690 Y105.412 E2.8361
G1 X83.690 Y106.091 E2.8638
G1 X81.510 Y103.911 E2.9893
G1 X81.510 Y104.590 E3.0169
G1 X83.690 Y106.770 E3.1424
G1 X83.690 Y107.449 E3.1701
G1 X81.510 Y105.269 E3.2956
G1 X81.510 Y105.948 E3.3232
G1 X83.690 Y108.128 E3.4487
G1 X83.690 Y108.806 E3.4764
G1 X81.510 Y106.626 E3.6019
G1 X81.510 Y107.305 E3.6295
G1 X83.690 Y109.485 E3.7550
G1 X83.690 Y110.164 E3.7826
G1 X81.510 Y107.984 E3.9082
G1 X81.510 Y108.663 E3.9358
G1 X83.690 Y110.843 E4.0613
G1 X83.690 Y111.522 E4.0889
G1 X81.510 Y109.342 E4.2144
G1 X81.510 Y110.021 E4.2421
G1 X83.690 Y112.201 E4.3676
G1 X83.690 Y112.879 E4.3952
G1 X81.510 Y110.699 E4.5207
G1 X81.510 Y111.378 E4.5484
G1 X83.690 Y113.558 E4.6739
G1 X83.690 Y114.237 E4.7015
G1 X81.510 Y112.057 E4.8270
G1 X81.510 Y112.736 E4.8547
G1 X83.690 Y114.916 E4.9802
G1 X83.690 Y115.595 E5.0078
G1 X81.510 Y113.415 E5.1333
G1 X81.510 Y114.093 E5.1609
G1 X83.991 Y116.575 E5.3038
G1 X84.068 Y116.717 E5.3104
G1 X84.533 Y117.183 E5.3372
G1 X84.675 Y117.259 E5.3437
G1 X84.857 Y117.440 E5.3542
G1 X84.178 Y117.440 E5.3818
G1 X81.510 Y114.772 E5.5354
G1 X81.510 Y115.451 E5.5630
G1 X83.499 Y117.440 E5.6776
G1 X82.820 Y117.440 E5.7052
G1 X81.510 Y116.130 E5.7806
G1 X81.510 Y116.809 E5.8082
G1 X82.141 Y117.440 E5.8446
; feature support
G1 X89.034 Y118.760 F18000
G1 X129.810 Y118.760
G1 X129.970 Y126.600
G92 E0.0000
G1 X80.030 Y126.600 E2.0331 F1440
G1 X80.030 Y124.200 E2.1308
G1 X129.970 Y124.200 E4.1639
G1 X129.970 Y121.800 E4.2616
G1 X80.030 Y121.800 E6.2946
G1 X80.190 Y118.760 F18000
G1 X84.548 Y118.760
G1 X88.294 Y116.240
G1 X118.990 Y116.240
G1 X118.990 Y113.760
G1 X115.990 Y113.760
G1 X115.990 Y97.606
G1 X125.452 Y91.240
G1 X129.810 Y91.240
G1 X129.970 Y88.200
G92 E0.0000
G1 X80.030 Y88.200 E2.0331 F1440
G1 X80.030 Y85.800 E2.1308
G1 X129.970 Y85.800 E4.1639
G1 X129.970 Y83.400 E4.2616
G1 X80.030 Y83.400 E6.2946
; layer 2, Z = 0.400
; feature inner perimeter
G1 Z0.400 F1200
G1 X80.190 Y91.240 F18000
G1 X91.202 Y91.240
G1 X94.793 Y93.760
G1 X115.262 Y93.760
G1 X115.406 Y93.774
G1 X115.664 Y93.881
G1 X115.861 Y94.078
G1 X115.940 Y94.227
G1 X115.990 Y94.476
G1 X115.990 Y108.635
G1 X122.510 Y113.211
G1 X122.510 Y115.524
G1 X122.562 Y115.785
G1 X122.723 Y116.027
G1 X122.965 Y116.188
G1 X123.226 Y116.240
G1 X126.827 Y116.240
G1 X129.050 Y117.800
G92 E0.0000
G1 X80.950 Y117.800 E1.9582 F2700
G1 X80.950 Y92.200 E3.0004
G1 X129.050 Y92.200 E4.9585
G1 X129.050 Y92.800 E4.9830
G1 X121.550 Y92.800 E5.2883
G1 X121.550 Y115.620 E6.2173
G1 X121.658 Y116.160 E6.2397
G1 X122.031 Y116.719 E6.2671
G1 X122.590 Y117.092 E6.2944
G1 X123.132 Y117.200 E6.3169
G1 X129.050 Y117.200 E6.5578
G1 X129.050 Y117.800 E6.5823
G1 X129.530 Y118.280 F18000
G92 E0.0000
G1 X80.470 Y118.280 E1.9973 F2700
G1 X80.470 Y91.720 E3.0785
G1 X129.530 Y91.720 E5.0758
G1 X129.530 Y93.280 E5.1393
G1 X122.030 Y93.280 E5.4446
G1 X122.030 Y115.572 E6.3521
G1 X122.110 Y115.973 E6.3688
G1 X122.377 Y116.373 E6.3883
G1 X122.778 Y116.640 E6.4079
G1 X123.179 Y116.720 E6.4246
G1 X129.530 Y116.720 E6.6832
G1 X129.530 Y118.280 E6.7467
; feature outer perimeter
G1 X130.010 Y118.760 F18000
G92 E0.0000
G1 X79.990 Y118.760 E2.0363 F1800
G1 X79.990 Y91.240 E3.1567
G1 X130.010 Y91.240 E5.1930
G1 X130.010 Y93.760 E5.2956
