; G-Code generated by Simplify3D(R) Version 4.1.2
; Dec 27, 2020 at 11:18:31 PM
; Settings Summary
;   processName,Process1
;   applyToModels,x-y-verbindungsstueck-v2
;   profileName,HBot (modified)
;   profileVersion,2019-10-26 23:38:43
;   baseProfile,Default
;   printMaterial,PLA - ERYONE
;   printQuality,Medium
;   printExtruders,
;   extruderName,Extruder 1
;   extruderToolheadNumber,0
;   extruderDiameter,0.4
;   extruderAutoWidth,1
;   extruderWidth,0.48
;   extrusionMultiplier,1
;   extruderUseRetract,1
;   extruderRetractionDistance,4
;   extruderExtraRestartDistance,0
;   extruderRetractionZLift,0
;   extruderRetractionSpeed,5400
;   extruderUseCoasting,0
;   extruderCoastingDistance,0.2
;   extruderUseWipe,1
;   extruderWipeDistance,5
;   primaryExtruder,0
;   layerHeight,0.2
;   topSolidLayers,4
;   bottomSolidLayers,4
;   perimeterOutlines,4
;   printPerimetersInsideOut,1
;   startPointOption,3
;   startPointOriginX,110
;   startPointOriginY,300
;   sequentialIslands,0
;   spiralVaseMode,0
;   firstLayerHeightPercentage,100
;   firstLayerWidthPercentage,100
;   firstLayerUnderspeed,0.5
;   useRaft,0
;   raftExtruder,0
;   raftTopLayers,3
;   raftBaseLayers,2
;   raftOffset,3
;   raftSeparationDistance,0.18
;   raftTopInfill,100
;   aboveRaftSpeedMultiplier,0.3
;   useSkirt,0
;   skirtExtruder,0
;   skirtLayers,1
;   skirtOutlines,10
;   skirtOffset,0
;   usePrimePillar,0
;   primePillarExtruder,999
;   primePillarWidth,12
;   primePillarLocation,7
;   primePillarSpeedMultiplier,1
;   useOozeShield,0
;   oozeShieldExtruder,999
;   oozeShieldOffset,0.9
;   oozeShieldOutlines,2
;   oozeShieldSidewallShape,0
;   oozeShieldSidewallAngle,30
;   oozeShieldSpeedMultiplier,1.5
;   infillExtruder,0
;   internalInfillPattern,Fast Honeycomb
;   externalInfillPattern,Rectilinear
;   infillPercentage,20
;   outlineOverlapPercentage,25
;   infillExtrusionWidthPercentage,100
;   minInfillLength,5
;   infillLayerInterval,1
;   internalInfillAngles,0
;   overlapInternalInfillAngles,0
;   externalInfillAngles,45,-45
;   generateSupport,0
;   supportExtruder,0
;   supportInfillPercentage,25
;   supportExtraInflation,0
;   supportBaseLayers,0
;   denseSupportExtruder,0
;   denseSupportLayers,0
;   denseSupportInfillPercentage,70
;   supportLayerInterval,1
;   supportHorizontalPartOffset,0.3
;   supportUpperSeparationLayers,1
;   supportLowerSeparationLayers,1
;   supportType,0
;   supportGridSpacing,2
;   maxOverhangAngle,25
;   supportAngles,0
;   temperatureName,Extruder 1,Heated Bed
;   temperatureNumber,0,1
;   temperatureSetpointCount,2,1
;   temperatureSetpointLayers,1,2,1
;   temperatureSetpointTemperatures,215,215,65
;   temperatureStabilizeAtStartup,1,1
;   temperatureHeatedBed,0,1
;   fanLayers,1,5,10
;   fanSpeeds,0,15,30
;   blipFanToFullPower,1
;   adjustSpeedForCooling,0
;   minSpeedLayerTime,15
;   minCoolingSpeedSlowdown,20
;   increaseFanForCooling,1
;   minFanLayerTime,15
;   maxCoolingFanSpeed,40
;   increaseFanForBridging,1
;   bridgingFanSpeed,85
;   use5D,1
;   relativeEdistances,0
;   allowEaxisZeroing,1
;   independentExtruderAxes,0
;   includeM10123,0
;   stickySupport,1
;   applyToolheadOffsets,0
;   gcodeXoffset,0
;   gcodeYoffset,0
;   gcodeZoffset,0
;   overrideMachineDefinition,1
;   machineTypeOverride,0
;   strokeXoverride,210
;   strokeYoverride,210
;   strokeZoverride,150
;   originOffsetXoverride,0
;   originOffsetYoverride,0
;   originOffsetZoverride,0
;   homeXdirOverride,-1
;   homeYdirOverride,-1
;   homeZdirOverride,-1
;   flipXoverride,1
;   flipYoverride,-1
;   flipZoverride,1
;   toolheadOffsets,0,0|0,0|0,0|0,0|0,0|0,0
;   overrideFirmwareConfiguration,1
;   firmwareTypeOverride,RepRap (Marlin/Repetier/Sprinter)
;   GPXconfigOverride,r2
;   baudRateOverride,115200
;   overridePrinterModels,0
;   printerModelsOverride
;   startingGcode,G28 ; home all axes,G32 ; run bed.g -- probe bed and enable compensation
;   layerChangeGcode,
;   retractionGcode,
;   toolChangeGcode,
;   endingGcode,M0 ; call stop.g
;   exportFileFormat,gcode
;   celebration,0
;   celebrationSong,Random Song
;   postProcessing,
;   defaultSpeed,3600
;   outlineUnderspeed,0.5
;   solidInfillUnderspeed,0.8
;   supportUnderspeed,0.8
;   rapidXYspeed,18000
;   rapidZspeed,1200
;   minBridgingArea,50
;   bridgingExtraInflation,0
;   bridgingExtrusionMultiplier,0.96
;   bridgingSpeedMultiplier,1
;   useFixedBridgingAngle,0
;   fixedBridgingAngle,0
;   applyBridgingToPerimeters,0
;   filamentDiameters,1.75|1.75|1.75|1.75|1.75|1.75
;   filamentPricesPerKg,46|46|46|46|46|46
;   filamentDensities,1.25|1.25|1.25|1.25|1.25|1.25
;   useMinPrintHeight,0
;   minPrintHeight,20
;   useMaxPrintHeight,0
;   maxPrintHeight,15
;   useDiaphragm,0
;   diaphragmLayerInterval,20
;   robustSlicing,1
;   mergeAllIntoSolid,0
;   onlyRetractWhenCrossingOutline,1
;   retractBetweenLayers,0
;   useRetractionMinTravel,1
;   retractionMinTravel,3
;   retractWhileWiping,1
;   onlyWipeOutlines,1
;   avoidCrossingOutline,1
;   maxMovementDetourFactor,5
;   toolChangeRetractionDistance,12
;   toolChangeExtraRestartDistance,-0.5
;   toolChangeRetractionSpeed,600
;   externalThinWallType,0
;   internalThinWallType,2
;   thinWallAllowedOverlapPercentage,10
;   singleExtrusionMinLength,1
;   singleExtrusionMinPrintingWidthPercentage,50
;   singleExtrusionMaxPrintingWidthPercentage,150
;   singleExtrusionEndpointExtension,0.2
;   horizontalSizeCompensation,-0.1
G90
M82
M106 S0
M140 S65
M190 S65
M104 S215 T0
M109 S215 T0
G28 ; home all axes
G32 ; run bed.g -- probe bed and enable compensation
; process Process1
; layer 1, Z = 0.200
T0
G92 E0.0000
G1 E-4.0000 F5400
; feature inner perimeter
; tool H0.200 W0.480
G1 Z0.200 F1200
G1 X95.170 Y91.750 F18000
G1 E0.0000 F5400
G92 E0.0000
G1 X94.780 Y91.712 E0.0156 F1350
G1 X94.780 Y81.780 E0.4120
G1 X96.346 Y81.780 E0.4745
G1 X105.894 Y89.896 E0.9747
G1 X95.538 Y89.891 E1.3880
G1 X95.170 Y91.750 E1.4636
G1 X95.170 Y93.250 F18000
G92 E0.0000
G1 X95.538 Y95.109 E0.0756 F1350
G1 X112.019 Y95.102 E0.7334
G1 X115.220 Y97.823 E0.9011
G1 X115.220 Y99.220 E0.9569
G1 X99.147 Y99.220 E1.5983
G1 X94.780 Y98.492 E1.7751
G1 X94.780 Y93.288 E1.9828
G1 X95.170 Y93.250 E1.9984
G1 X95.176 Y102.886 F18000
G92 E0.0000
G1 X95.220 Y103.147 E0.0106 F1350
G1 X95.220 Y116.497 E0.5434
G1 X95.170 Y116.750 E0.5537
G1 X94.780 Y116.712 E0.5693
G1 X94.780 Y102.918 E1.1198
G1 X95.176 Y102.886 E1.1357
G1 X95.170 Y118.243 F18000
G92 E0.0000
G1 X95.220 Y118.497 E0.0103 F1350
G1 X95.220 Y118.853 E0.0245
G1 X95.176 Y119.114 E0.0351
G1 X94.780 Y119.082 E0.0510
G1 X94.780 Y118.281 E0.0829
G1 X95.170 Y118.243 E0.0986
G1 X94.780 Y123.508 F18000
G92 E0.0000
G1 X99.147 Y122.780 E0.1767 F1350
G1 X115.220 Y122.780 E0.8182
G1 X115.220 Y123.610 E0.8513
G1 X96.781 Y128.220 E1.6099
G1 X94.780 Y128.220 E1.6898
G1 X94.780 Y123.508 E1.8779
G1 X95.018 Y122.982 F18000
G92 E0.0000
G1 X99.108 Y122.300 E0.1655 F1350
G1 X115.700 Y122.300 E0.8277
G1 X115.700 Y123.985 E0.8949
G1 X96.840 Y128.700 E1.6709
G1 X94.300 Y128.700 E1.7722
G1 X94.300 Y81.300 E3.6641
G1 X96.522 Y81.300 E3.7528
G1 X107.200 Y90.376 E4.3121
G1 X95.932 Y90.371 E4.7618
G1 X95.657 Y91.761 E4.8184
G1 X95.614 Y92.128 E4.8331
G1 X95.599 Y92.500 E4.8480
G1 X95.614 Y92.872 E4.8629
G1 X95.657 Y93.239 E4.8776
G1 X95.932 Y94.629 E4.9342
G1 X112.195 Y94.622 E5.5833
G1 X115.700 Y97.601 E5.7668
G1 X115.700 Y99.700 E5.8506
G1 X99.108 Y99.700 E6.5128
G1 X95.018 Y99.018 E6.6783
G1 X95.700 Y103.108 E6.8438
G1 X95.700 Y116.544 E7.3800
G1 X95.657 Y116.761 E7.3889
G1 X95.614 Y117.128 E7.4036
G1 X95.598 Y117.522 E7.4194
G1 X95.646 Y118.178 E7.4456
G1 X95.700 Y118.450 E7.4567
G1 X95.700 Y118.892 E7.4743
G1 X95.018 Y122.982 E7.6398
G1 X95.602 Y122.398 F18000
G92 E0.0000
G1 X99.068 Y121.820 E0.1402 F1350
G1 X116.180 Y121.820 E0.8232
G1 X116.180 Y124.360 E0.9246
G1 X96.899 Y129.180 E1.7178
G1 X93.820 Y129.180 E1.8407
G1 X93.820 Y80.820 E3.7708
G1 X96.699 Y80.820 E3.8857
G1 X108.507 Y90.857 E4.5043
G1 X96.327 Y90.851 E4.9904
G1 X96.132 Y91.835 E5.0305
G1 X96.093 Y92.166 E5.0437
G1 X96.079 Y92.500 E5.0571
G1 X96.093 Y92.834 E5.0705
G1 X96.132 Y93.165 E5.0837
G1 X96.327 Y94.149 E5.1238
G1 X112.372 Y94.142 E5.7642
G1 X116.180 Y97.379 E5.9637
G1 X116.180 Y100.180 E6.0754
G1 X99.068 Y100.180 E6.7584
G1 X95.602 Y99.602 E6.8987
G1 X96.180 Y103.068 E7.0389
G1 X96.180 Y116.591 E7.5786
G1 X96.132 Y116.835 E7.5886
G1 X96.093 Y117.166 E7.6018
G1 X96.079 Y117.514 E7.6157
G1 X96.123 Y118.114 E7.6397
G1 X96.180 Y118.404 E7.6515
G1 X96.180 Y118.932 E7.6726
G1 X95.602 Y122.398 E7.8129
; feature outer perimeter
G1 X96.186 Y121.814 F18000
G92 E0.0000
G1 X99.028 Y121.340 E0.1150 F900
G1 X116.660 Y121.340 E0.8187
G1 X116.660 Y124.735 E0.9542
G1 X96.958 Y129.660 E1.7647
G1 X93.340 Y129.660 E1.9091
G1 X93.340 Y80.340 E3.8776
G1 X96.875 Y80.340 E4.0187
G1 X109.813 Y91.338 E4.6964
G1 X96.721 Y91.331 E5.2190
G1 X96.606 Y91.910 E5.2426
G1 X96.572 Y92.203 E5.2543
G1 X96.560 Y92.500 E5.2662
G1 X96.572 Y92.797 E5.2781
G1 X96.606 Y93.090 E5.2898
G1 X96.721 Y93.669 E5.3134
G1 X112.548 Y93.662 E5.9451
G1 X116.660 Y97.157 E6.1605
G1 X116.660 Y100.660 E6.3003
G1 X99.028 Y100.660 E7.0040
G1 X96.186 Y100.186 E7.1190
G1 X96.660 Y103.028 E7.2340
G1 X96.660 Y116.638 E7.7772
G1 X96.606 Y116.910 E7.7883
G1 X96.572 Y117.203 E7.8000
G1 X96.559 Y117.506 E7.8121
G1 X96.600 Y118.050 E7.8339
G1 X96.660 Y118.357 E7.8464
G1 X96.660 Y118.972 E7.8709
G1 X96.186 Y121.814 E7.9859
G1 X99.028 Y121.340 F900
G1 X101.147 Y121.340
; feature gap fill
G1 X99.028 Y121.340 F18000
G1 X96.186 Y121.814
G1 X96.502 Y119.919
G1 X95.031 Y119.468
G92 E0.0000
G1 X95.209 Y119.647 E0.0101 F1800
G1 X95.112 Y120.229 E0.0336
G1 X94.660 Y119.776 E0.0591
G1 X94.660 Y120.455 E0.0862
G1 X95.015 Y120.811 E0.1063
G1 X94.918 Y121.392 E0.1298
G1 X94.660 Y121.134 E0.1444
G1 X94.660 Y121.813 E0.1715
G1 X94.821 Y121.974 E0.1806
G1 X94.724 Y122.556 E0.2042
G1 X94.660 Y122.492 E0.2078
G1 X94.660 Y117.740 F18000
G92 E0.0000
G1 X94.830 Y117.910 E0.0096 F1800
G1 X95.263 Y117.868 E0.0269
G1 X95.246 Y117.647 E0.0358
G1 X94.666 Y117.067 E0.0685
G1 X95.062 Y102.529 F18000
G92 E0.0000
G1 X94.660 Y102.127 E0.0227 F1800
G1 X94.660 Y101.448 E0.0498
G1 X95.138 Y101.926 E0.0768
G1 X95.002 Y101.112 E0.1097
G1 X94.660 Y100.769 E0.1291
G1 X94.660 Y100.091 E0.1562
G1 X94.867 Y100.297 E0.1678
G1 X94.731 Y99.483 E0.2008
G1 X94.660 Y99.412 E0.2048
G1 X94.660 Y92.624 F18000
G92 E0.0000
G1 X94.942 Y92.906 E0.0159 F1800
G1 X95.254 Y92.875 E0.0284
G1 X95.240 Y92.524 E0.0424
G1 X94.795 Y92.080 E0.0676
; feature solid layer
G1 X95.196 Y89.765 F18000
G92 E0.0000
G1 X95.140 Y89.709 E0.0032 F1440
G1 X95.140 Y89.031 E0.0303
G1 X95.640 Y89.531 E0.0585
G1 X96.319 Y89.531 E0.0856
G1 X95.140 Y88.352 E0.1521
G1 X95.140 Y87.673 E0.1792
G1 X96.998 Y89.531 E0.2841
G1 X97.677 Y89.532 E0.3112
G1 X95.140 Y86.994 E0.4545
G1 X95.140 Y86.315 E0.4816
G1 X98.357 Y89.532 E0.6631
G1 X99.036 Y89.532 E0.6902
G1 X95.140 Y85.636 E0.9101
G1 X95.140 Y84.958 E0.9372
G1 X99.715 Y89.533 E1.1954
G1 X100.394 Y89.533 E1.2226
G1 X95.140 Y84.279 E1.5191
G1 X95.140 Y83.600 E1.5462
G1 X101.073 Y89.533 E1.8811
G1 X101.752 Y89.534 E1.9082
G1 X95.140 Y82.921 E2.2815
G1 X95.140 Y82.242 E2.3086
G1 X102.432 Y89.534 E2.7201
G1 X103.111 Y89.534 E2.7472
G1 X95.716 Y82.140 E3.1646
G1 X96.213 Y82.140 E3.1844
G1 X97.426 Y83.171 E3.2480
G1 X103.790 Y89.535 E3.6072
G1 X104.469 Y89.535 E3.6343
G1 X101.952 Y87.017 E3.7764
G1 X98.379 Y91.332 F18000
G1 X96.721 Y91.331
G1 X96.606 Y91.910
G1 X96.572 Y92.203
G1 X96.560 Y92.500
G1 X96.572 Y92.797
G1 X96.606 Y93.090
G1 X96.667 Y93.399
G1 X95.187 Y95.187
G92 E0.0000
G1 X95.140 Y95.140 E0.0026 F1440
G1 X95.140 Y95.819 E0.0297
G1 X97.982 Y98.661 E0.1901
G1 X98.797 Y98.797 E0.2231
G1 X95.469 Y95.469 E0.4109
G1 X96.148 Y95.469 E0.4380
G1 X99.539 Y98.860 E0.6294
G1 X100.218 Y98.860 E0.6565
G1 X96.826 Y95.469 E0.8479
G1 X97.505 Y95.469 E0.8750
G1 X100.896 Y98.860 E1.0664
G1 X101.575 Y98.860 E1.0935
G1 X98.184 Y95.468 E1.2849
G1 X98.862 Y95.468 E1.3120
G1 X102.254 Y98.860 E1.5035
G1 X102.933 Y98.860 E1.5306
G1 X99.541 Y95.468 E1.7221
G1 X100.219 Y95.467 E1.7491
G1 X103.612 Y98.860 E1.9406
G1 X104.291 Y98.860 E1.9677
G1 X100.898 Y95.467 E2.1592
G1 X101.576 Y95.467 E2.1863
G1 X104.969 Y98.860 E2.3779
G1 X105.648 Y98.860 E2.4049
G1 X102.255 Y95.466 E2.5965
G1 X102.933 Y95.466 E2.6236
G1 X106.327 Y98.860 E2.8151
G1 X107.006 Y98.860 E2.8422
G1 X103.612 Y95.466 E3.0338
G1 X104.290 Y95.466 E3.0609
G1 X107.685 Y98.860 E3.2525
G1 X108.364 Y98.860 E3.2796
G1 X104.969 Y95.465 E3.4712
G1 X105.647 Y95.465 E3.4983
G1 X109.042 Y98.860 E3.6899
G1 X109.721 Y98.860 E3.7170
G1 X106.326 Y95.465 E3.9087
G1 X107.004 Y95.464 E3.9357
G1 X110.400 Y98.860 E4.1274
G1 X111.079 Y98.860 E4.1545
G1 X107.683 Y95.464 E4.3462
G1 X108.361 Y95.464 E4.3733
G1 X111.758 Y98.860 E4.5650
G1 X112.436 Y98.860 E4.5920
G1 X109.040 Y95.463 E4.7838
G1 X109.718 Y95.463 E4.8108
G1 X113.115 Y98.860 E5.0026
G1 X113.794 Y98.860 E5.0297
G1 X110.397 Y95.463 E5.2214
G1 X111.076 Y95.463 E5.2485
G1 X114.473 Y98.860 E5.4403
G1 X114.860 Y98.860 E5.4557
G1 X114.860 Y98.568 E5.4674
G1 X111.754 Y95.462 E5.6427
G1 X95.538 Y98.254 F18000
G92 E0.0000
G1 X95.140 Y97.855 E0.0225 F1440
G1 X95.140 Y97.176 E0.0496
G1 X96.353 Y98.389 E0.1180
G1 X97.167 Y98.525 E0.1510
G1 X95.140 Y96.498 E0.2654
G1 X95.140 Y127.723 F18000
G92 E0.0000
G1 X95.277 Y127.860 E0.0077 F1440
G1 X95.955 Y127.860 E0.0348
G1 X95.140 Y127.045 E0.0808
G1 X95.140 Y126.366 E0.1079
G1 X96.634 Y127.860 E0.1923
G1 X96.737 Y127.860 E0.1963
G1 X97.198 Y127.745 E0.2153
G1 X95.140 Y125.687 E0.3315
G1 X95.140 Y125.008 E0.3586
G1 X97.741 Y127.609 E0.5053
G1 X98.284 Y127.473 E0.5277
G1 X95.140 Y124.329 E0.7051
G1 X95.140 Y123.813 E0.7258
G1 X95.279 Y123.790 E0.7314
G1 X98.827 Y127.337 E0.9316
G1 X99.370 Y127.202 E0.9540
G1 X95.861 Y123.693 E1.1520
G1 X96.443 Y123.596 E1.1756
G1 X99.913 Y127.066 E1.3715
G1 X100.456 Y126.930 E1.3938
G1 X97.025 Y123.499 E1.5875
G1 X97.607 Y123.402 E1.6110
G1 X100.999 Y126.794 E1.8025
G1 X101.542 Y126.659 E1.8249
G1 X98.188 Y123.305 E2.0142
G1 X98.770 Y123.208 E2.0377
G1 X102.085 Y126.523 E2.2248
G1 X102.628 Y126.387 E2.2472
G1 X99.381 Y123.140 E2.4304
G1 X100.060 Y123.140 E2.4575
G1 X103.171 Y126.251 E2.6331
G1 X103.714 Y126.116 E2.6555
G1 X100.739 Y123.140 E2.8234
G1 X101.418 Y123.140 E2.8505
G1 X104.257 Y125.980 E3.0108
G1 X104.801 Y125.844 E3.0332
G1 X102.097 Y123.140 E3.1858
G1 X102.775 Y123.140 E3.2129
G1 X105.344 Y125.708 E3.3578
G1 X105.887 Y125.572 E3.3802
G1 X103.454 Y123.140 E3.5175
G1 X104.133 Y123.140 E3.5446
G1 X106.430 Y125.437 E3.6742
G1 X106.973 Y125.301 E3.6966
G1 X104.812 Y123.140 E3.8185
G1 X105.491 Y123.140 E3.8456
G1 X107.516 Y125.165 E3.9599
G1 X108.059 Y125.029 E3.9823
G1 X106.169 Y123.140 E4.0889
G1 X106.848 Y123.140 E4.1160
G1 X108.602 Y124.894 E4.2150
G1 X109.145 Y124.758 E4.2373
G1 X107.527 Y123.140 E4.3287
G1 X108.206 Y123.140 E4.3558
G1 X109.688 Y124.622 E4.4394
G1 X110.231 Y124.486 E4.4618
G1 X108.885 Y123.140 E4.5378
G1 X109.564 Y123.140 E4.5649
G1 X110.774 Y124.351 E4.6332
G1 X111.317 Y124.215 E4.6555
G1 X110.242 Y123.140 E4.7162
G1 X110.921 Y123.140 E4.7433
G1 X111.860 Y124.079 E4.7963
G1 X112.403 Y123.943 E4.8186
G1 X111.600 Y123.140 E4.8640
G1 X112.279 Y123.140 E4.8911
G1 X112.946 Y123.808 E4.9287
G1 X113.489 Y123.672 E4.9511
G1 X112.958 Y123.140 E4.9811
G1 X113.636 Y123.140 E5.0082
G1 X114.033 Y123.536 E5.0306
G1 X114.576 Y123.400 E5.0529
G1 X114.315 Y123.140 E5.0676
; layer 2, Z = 0.400
; feature inner perimeter
G1 Z0.400 F1200
G1 X96.781 Y128.220 F18000
G92 E0.0000
G1 X94.780 Y128.220 E0.0799 F2700
G1 X94.780 Y123.508 E0.2679
G1 X99.147 Y122.780 E0.4446
G1 X115.220 Y122.780 E1.0861
G1 X115.220 Y123.610 E1.1193
G1 X96.781 Y128.220 E1.8779
G1 X95.137 Y116.002 F18000
G92 E0.0000
G1 X94.780 Y115.939 E0.0145 F2700
G1 X94.780 Y102.918 E0.5342
G1 X95.176 Y102.886 E0.5500
G1 X95.220 Y103.147 E0.5606
G1 X95.220 Y115.774 E1.0646
G1 X95.137 Y116.002 E1.0743
G1 X96.660 Y109.629 F18000
G1 X96.660 Y103.028
G1 X96.186 Y100.186
G1 X98.812 Y100.624
G1 X99.147 Y99.220
G92 E0.0000
