; G-Code generated by Simplify3D(R) Version 4.1.2
; Jan 23, 2021 at 9:12:02 PM
; Settings Summary
;   processName,Process1
;   applyToModels,x-y-verbindungsstueck-v2-rechts
;   profileName,HBot (modified)
;   profileVersion,2019-10-26 23:38:43
;   baseProfile,Default
;   printMaterial,PETG - SUNLU
;   printQuality,Fast
;   printExtruders,
;   extruderName,Extruder 1
;   extruderToolheadNumber,0
;   extruderDiameter,0.4
;   extruderAutoWidth,1
;   extruderWidth,0.48
;   extrusionMultiplier,1.02
;   extruderUseRetract,0
;   extruderRetractionDistance,3
;   extruderExtraRestartDistance,0
;   extruderRetractionZLift,0
;   extruderRetractionSpeed,5400
;   extruderUseCoasting,0
;   extruderCoastingDistance,0.2
;   extruderUseWipe,1
;   extruderWipeDistance,2
;   primaryExtruder,0
;   layerHeight,0.2
;   topSolidLayers,4
;   bottomSolidLayers,4
;   perimeterOutlines,3
;   printPerimetersInsideOut,1
;   startPointOption,3
;   startPointOriginX,110
;   startPointOriginY,300
;   sequentialIslands,0
;   spiralVaseMode,0
;   firstLayerHeightPercentage,100
;   firstLayerWidthPercentage,100
;   firstLayerUnderspeed,0.5
;   useRaft,0
;   raftExtruder,0
;   raftTopLayers,3
;   raftBaseLayers,2
;   raftOffset,3
;   raftSeparationDistance,0.18
;   raftTopInfill,100
;   aboveRaftSpeedMultiplier,0.3
;   useSkirt,0
;   skirtExtruder,0
;   skirtLayers,1
;   skirtOutlines,5
;   skirtOffset,0
;   usePrimePillar,0
;   primePillarExtruder,999
;   primePillarWidth,12
;   primePillarLocation,7
;   primePillarSpeedMultiplier,1
;   useOozeShield,0
;   oozeShieldExtruder,999
;   oozeShieldOffset,0.9
;   oozeShieldOutlines,2
;   oozeShieldSidewallShape,0
;   oozeShieldSidewallAngle,30
;   oozeShieldSpeedMultiplier,1.5
;   infillExtruder,0
;   internalInfillPattern,Fast Honeycomb
;   externalInfillPattern,Rectilinear
;   infillPercentage,15
;   outlineOverlapPercentage,25
;   infillExtrusionWidthPercentage,100
;   minInfillLength,5
;   infillLayerInterval,1
;   internalInfillAngles,0
;   overlapInternalInfillAngles,0
;   externalInfillAngles,45,-45
;   generateSupport,1
;   supportExtruder,0
;   supportInfillPercentage,20
;   supportExtraInflation,0
;   supportBaseLayers,0
;   denseSupportExtruder,0
;   denseSupportLayers,0
;   denseSupportInfillPercentage,70
;   supportLayerInterval,1
;   supportHorizontalPartOffset,0.3
;   supportUpperSeparationLayers,1
;   supportLowerSeparationLayers,1
;   supportType,0
;   supportGridSpacing,2
;   maxOverhangAngle,25
;   supportAngles,0
;   temperatureName,Extruder 1,Heated Bed
;   temperatureNumber,0,1
;   temperatureSetpointCount,2,1
;   temperatureSetpointLayers,1,2,1
;   temperatureSetpointTemperatures,215,215,85
;   temperatureStabilizeAtStartup,1,1
;   temperatureHeatedBed,0,1
;   fanLayers,1,5,10
;   fanSpeeds,0,5,20
;   blipFanToFullPower,1
;   adjustSpeedForCooling,0
;   minSpeedLayerTime,15
;   minCoolingSpeedSlowdown,20
;   increaseFanForCooling,1
;   minFanLayerTime,15
;   maxCoolingFanSpeed,40
;   increaseFanForBridging,1
;   bridgingFanSpeed,85
;   use5D,1
;   relativeEdistances,0
;   allowEaxisZeroing,1
;   independentExtruderAxes,0
;   includeM10123,0
;   stickySupport,1
;   applyToolheadOffsets,0
;   gcodeXoffset,0
;   gcodeYoffset,0
;   gcodeZoffset,0
;   overrideMachineDefinition,1
;   machineTypeOverride,0
;   strokeXoverride,210
;   strokeYoverride,210
;   strokeZoverride,150
;   originOffsetXoverride,0
;   originOffsetYoverride,0
;   originOffsetZoverride,0
;   homeXdirOverride,-1
;   homeYdirOverride,-1
;   homeZdirOverride,-1
;   flipXoverride,1
;   flipYoverride,-1
;   flipZoverride,1
;   toolheadOffsets,0,0|0,0|0,0|0,0|0,0|0,0
;   overrideFirmwareConfiguration,1
;   firmwareTypeOverride,RepRap (Marlin/Repetier/Sprinter)
;   GPXconfigOverride,r2
;   baudRateOverride,115200
;   overridePrinterModels,0
;   printerModelsOverride
;   startingGcode,G28 ; home all axes,G32 ; run bed.g -- probe bed and enable compensation
;   layerChangeGcode,
;   retractionGcode,
;   toolChangeGcode,
;   endingGcode,M0 ; call stop.g
;   exportFileFormat,gcode
;   celebration,0
;   celebrationSong,Random Song
;   postProcessing,
;   defaultSpeed,3600
;   outlineUnderspeed,0.5
;   solidInfillUnderspeed,0.8
;   supportUnderspeed,0.8
;   rapidXYspeed,18000
;   rapidZspeed,1200
;   minBridgingArea,50
;   bridgingExtraInflation,0
;   bridgingExtrusionMultiplier,0.96
;   bridgingSpeedMultiplier,1
;   useFixedBridgingAngle,0
;   fixedBridgingAngle,0
;   applyBridgingToPerimeters,0
;   filamentDiameters,1.75|1.75|1.75|1.75|1.75|1.75
;   filamentPricesPerKg,46|46|46|46|46|46
;   filamentDensities,1.25|1.25|1.25|1.25|1.25|1.25
;   useMinPrintHeight,0
;   minPrintHeight,17.2
;   useMaxPrintHeight,0
;   maxPrintHeight,7.5
;   useDiaphragm,0
;   diaphragmLayerInterval,20
;   robustSlicing,1
;   mergeAllIntoSolid,0
;   onlyRetractWhenCrossingOutline,1
;   retractBetweenLayers,0
;   useRetractionMinTravel,1
;   retractionMinTravel,3
;   retractWhileWiping,1
;   onlyWipeOutlines,1
;   avoidCrossingOutline,1
;   maxMovementDetourFactor,5
;   toolChangeRetractionDistance,12
;   toolChangeExtraRestartDistance,-0.5
;   toolChangeRetractionSpeed,600
;   externalThinWallType,0
;   internalThinWallType,2
;   thinWallAllowedOverlapPercentage,10
;   singleExtrusionMinLength,1
;   singleExtrusionMinPrintingWidthPercentage,50
;   singleExtrusionMaxPrintingWidthPercentage,150
;   singleExtrusionEndpointExtension,0.2
;   horizontalSizeCompensation,0
G90
M82
M106 S0
M140 S85
M190 S85
M104 S215 T0
M109 S215 T0
G28 ; home all axes
G32 ; run bed.g -- probe bed and enable compensation
; process Process1
; layer 1, Z = 0.200
T0
; feature inner perimeter
; tool H0.200 W0.480
G1 Z0.200 F1200
G1 X105.997 Y133.550 F18000
G92 E0.0000
G1 X105.700 Y133.253 E0.0171 F1350
G1 X105.700 Y130.950 E0.1109
G1 X117.100 Y130.950 E0.5750
G1 X117.100 Y112.551 E1.3240
G1 X108.800 Y112.550 E1.6619
G1 X108.800 Y100.000 E2.1728
G1 X102.200 Y100.000 E2.4415
G1 X102.200 Y98.391 E2.5070
G1 X102.968 Y93.782 E2.6972
G1 X98.359 Y94.550 E2.8874
G1 X81.700 Y94.550 E3.5656
G1 X81.700 Y92.805 E3.6367
G1 X100.941 Y76.450 E4.6647
G1 X103.300 Y76.450 E4.7608
G1 X103.300 Y78.950 E4.8625
G1 X128.003 Y78.950 E5.8682
G1 X128.300 Y79.247 E5.8853
G1 X128.300 Y133.253 E8.0839
G1 X128.003 Y133.550 E8.1010
G1 X105.997 Y133.550 E8.9969
G1 X105.361 Y129.990 F18000
G1 X105.260 Y129.990
G1 X105.260 Y129.424
G1 X104.740 Y126.513
G1 X104.740 Y125.010
G1 X104.471 Y125.010
G1 X104.300 Y124.050
G92 E0.0000
G1 X100.648 Y124.050 E0.1487 F1350
G1 X81.700 Y119.313 E0.9438
G1 X81.700 Y117.950 E0.9993
G1 X98.359 Y117.950 E1.6775
G1 X102.968 Y118.718 E1.8677
G1 X102.200 Y114.109 E2.0579
G1 X102.200 Y112.500 E2.1234
G1 X104.300 Y112.500 E2.2089
G1 X104.300 Y124.050 E2.6791
G1 X104.780 Y124.530 F18000
G92 E0.0000
G1 X100.589 Y124.530 E0.1706 F1350
G1 X81.220 Y119.688 E0.9834
G1 X81.220 Y117.470 E1.0737
G1 X98.399 Y117.470 E1.7731
G1 X102.384 Y118.134 E1.9375
G1 X101.720 Y114.149 E2.1020
G1 X101.720 Y112.020 E2.1887
G1 X108.320 Y112.020 E2.4574
G1 X108.320 Y100.480 E2.9272
G1 X101.720 Y100.480 E3.1959
G1 X101.720 Y98.351 E3.2825
G1 X102.384 Y94.366 E3.4470
G1 X98.399 Y95.030 E3.6115
G1 X81.220 Y95.030 E4.3108
G1 X81.220 Y92.583 E4.4105
G1 X100.765 Y75.970 E5.4547
G1 X103.780 Y75.970 E5.5775
G1 X103.780 Y78.470 E5.6793
G1 X128.202 Y78.470 E6.6735
G1 X128.780 Y79.048 E6.7068
G1 X128.780 Y133.452 E8.9216
G1 X128.202 Y134.030 E8.9549
G1 X105.798 Y134.030 E9.8669
G1 X105.220 Y133.452 E9.9002
G1 X105.220 Y130.470 E10.0216
G1 X116.620 Y130.470 E10.4857
G1 X116.620 Y113.031 E11.1956
G1 X104.780 Y113.030 E11.6776
G1 X104.780 Y124.530 E12.1458
; feature outer perimeter
G1 X104.740 Y125.010 F18000
G92 E0.0000
G1 X100.530 Y125.010 E0.1714 F900
G1 X80.740 Y120.063 E1.0018
G1 X80.740 Y116.990 E1.1269
G1 X98.439 Y116.990 E1.8475
G1 X101.800 Y117.550 E1.9862
G1 X101.240 Y114.189 E2.1249
G1 X101.240 Y111.540 E2.2328
G1 X107.840 Y111.540 E2.5014
G1 X107.840 Y100.960 E2.9322
G1 X101.240 Y100.960 E3.2008
G1 X101.240 Y98.311 E3.3087
G1 X101.800 Y94.950 E3.4474
G1 X98.439 Y95.510 E3.5862
G1 X80.740 Y95.510 E4.3067
G1 X80.740 Y92.361 E4.4349
G1 X100.588 Y75.490 E5.4954
G1 X104.260 Y75.490 E5.6448
G1 X104.260 Y77.990 E5.7466
G1 X128.401 Y77.990 E6.7294
G1 X129.260 Y78.849 E6.7789
G1 X129.260 Y133.651 E9.0098
G1 X128.401 Y134.510 E9.0593
G1 X105.599 Y134.510 E9.9876
G1 X104.740 Y133.651 E10.0371
G1 X104.740 Y125.010 E10.3888
G1 X102.740 Y125.010 F900
G1 X105.260 Y122.211 F18000
G92 E0.0000
G1 X105.260 Y129.990 E0.3167 F900
G1 X116.140 Y129.990 E0.7596
G1 X116.140 Y122.211 E1.0763
G1 X115.740 Y122.209 E1.0925
G1 X115.740 Y121.291 E1.1299
G1 X116.140 Y121.289 E1.1462
G1 X116.140 Y113.511 E1.4628
G1 X105.260 Y113.510 E1.9058
G1 X105.260 Y121.289 E2.2224
G1 X105.660 Y121.291 E2.2387
G1 X105.660 Y122.209 E2.2761
G1 X105.260 Y122.211 E2.2924
G1 X105.260 Y124.211 F900
; feature inner perimeter
G1 X105.260 Y122.211 F18000
G1 X105.660 Y122.209
G1 X105.660 Y121.291
G1 X105.260 Y121.289
G1 X105.260 Y113.510
G1 X109.071 Y113.510
G1 X113.900 Y99.950
G92 E0.0000
G1 X126.700 Y99.950 E0.5211 F1350
G1 X126.700 Y81.550 E1.2702
G1 X113.900 Y81.550 E1.7913
G1 X113.900 Y90.519 E2.1564
G1 X113.900 Y99.950 E2.5403
G1 X114.380 Y99.470 F18000
G92 E0.0000
G1 X126.220 Y99.470 E0.4820 F1350
G1 X126.220 Y82.030 E1.1920
G1 X114.380 Y82.030 E1.6740
G1 X114.380 Y90.519 E2.0196
G1 X114.380 Y99.470 E2.3840
; feature outer perimeter
G1 X114.860 Y98.990 F18000
G92 E0.0000
G1 X125.740 Y98.990 E0.4429 F900
G1 X125.740 Y91.211 E0.7596
G1 X125.340 Y91.209 E0.7759
G1 X125.340 Y90.291 E0.8133
G1 X125.740 Y90.289 E0.8296
G1 X125.740 Y82.510 E1.1462
G1 X114.860 Y82.510 E1.5892
G1 X114.860 Y90.289 E1.9058
G1 X115.260 Y90.291 E1.9221
G1 X115.260 Y91.209 E1.9595
G1 X114.860 Y91.211 E1.9758
G1 X114.860 Y98.990 E2.2924
G1 X116.860 Y98.990 F900
; feature gap fill
G1 X108.307 Y112.380 F18000
G92 E0.0000
G1 X108.435 Y112.508 E0.0074 F1800
G1 X108.435 Y112.670 E0.0140
G1 X107.918 Y112.670 E0.0350
G1 X107.628 Y112.380 E0.0517
G1 X106.949 Y112.380 E0.0794
G1 X107.240 Y112.670 E0.0961
G1 X106.561 Y112.670 E0.1237
G1 X106.271 Y112.380 E0.1404
G1 X105.592 Y112.380 E0.1680
G1 X105.882 Y112.670 E0.1847
G1 X105.203 Y112.670 E0.2124
G1 X104.913 Y112.380 E0.2291
G1 X106.291 Y113.510 F18000
G1 X116.140 Y113.511
G1 X116.140 Y121.289
G1 X115.782 Y121.291
G1 X116.218 Y121.648
G92 E0.0000
G1 X116.255 Y121.686 E0.0022 F1800
; feature solid layer
G1 X117.460 Y112.708 F18000
G92 E0.0000
G1 X127.940 Y123.188 E0.6034 F1440
G1 X127.940 Y123.867 E0.6310
G1 X117.460 Y113.387 E1.2344
G1 X117.460 Y114.066 E1.2620
G1 X127.940 Y124.546 E1.8654
G1 X127.940 Y125.225 E1.8930
G1 X117.460 Y114.745 E2.4964
G1 X117.460 Y115.424 E2.5240
G1 X127.940 Y125.904 E3.1274
G1 X127.940 Y126.582 E3.1550
G1 X117.460 Y116.102 E3.7584
G1 X117.460 Y116.781 E3.7860
G1 X127.940 Y127.261 E4.3894
G1 X127.940 Y127.940 E4.4170
G1 X117.460 Y117.460 E5.0204
G1 X117.460 Y118.139 E5.0480
G1 X127.940 Y128.619 E5.6514
G1 X127.940 Y129.298 E5.6790
G1 X117.460 Y118.818 E6.2824
G1 X117.460 Y119.496 E6.3100
G1 X127.940 Y129.976 E6.9134
G1 X127.940 Y130.655 E6.9410
G1 X117.460 Y120.175 E7.5444
G1 X117.460 Y120.854 E7.5720
G1 X127.940 Y131.334 E8.1754
G1 X127.940 Y132.013 E8.2030
G1 X117.460 Y121.533 E8.8064
G1 X117.460 Y122.212 E8.8340
G1 X127.940 Y132.692 E9.4374
G1 X127.940 Y133.104 E9.4542
G1 X127.854 Y133.190 E9.4591
G1 X127.759 Y133.190 E9.4630
G1 X117.460 Y122.891 E10.0560
G1 X117.460 Y123.569 E10.0836
G1 X127.081 Y133.190 E10.6375
G1 X126.402 Y133.190 E10.6651
G1 X117.460 Y124.248 E11.1799
G1 X117.460 Y124.927 E11.2076
G1 X125.723 Y133.190 E11.6833
G1 X125.044 Y133.190 E11.7109
G1 X117.460 Y125.606 E12.1476
G1 X117.460 Y126.285 E12.1752
G1 X124.365 Y133.190 E12.5728
G1 X123.686 Y133.190 E12.6004
G1 X117.460 Y126.964 E12.9589
G1 X117.460 Y127.642 E12.9865
G1 X123.008 Y133.190 E13.3059
G1 X122.329 Y133.190 E13.3335
G1 X117.460 Y128.321 E13.6139
G1 X117.460 Y129.000 E13.6415
G1 X121.650 Y133.190 E13.8827
G1 X120.971 Y133.190 E13.9104
G1 X117.460 Y129.679 E14.1125
G1 X117.460 Y130.358 E14.1401
G1 X120.292 Y133.190 E14.3032
G1 X119.614 Y133.190 E14.3308
G1 X117.460 Y131.036 E14.4548
G1 X117.460 Y131.310 E14.4660
G1 X117.054 Y131.310 E14.4825
G1 X118.935 Y133.190 E14.5907
G1 X118.256 Y133.190 E14.6184
G1 X116.376 Y131.310 E14.7266
G1 X115.697 Y131.310 E14.7543
G1 X117.577 Y133.190 E14.8625
G1 X116.898 Y133.190 E14.8902
G1 X115.018 Y131.310 E14.9984
G1 X114.339 Y131.310 E15.0260
G1 X116.219 Y133.190 E15.1343
G1 X115.541 Y133.190 E15.1619
G1 X113.660 Y131.310 E15.2702
G1 X112.982 Y131.310 E15.2978
G1 X114.862 Y133.190 E15.4061
G1 X114.183 Y133.190 E15.4337
G1 X112.303 Y131.310 E15.5420
G1 X111.624 Y131.310 E15.5696
G1 X113.504 Y133.190 E15.6779
G1 X112.825 Y133.190 E15.7055
G1 X110.945 Y131.310 E15.8137
G1 X110.266 Y131.310 E15.8414
G1 X112.147 Y133.190 E15.9496
G1 X111.468 Y133.190 E15.9773
G1 X109.588 Y131.310 E16.0855
G1 X108.909 Y131.310 E16.1131
G1 X110.789 Y133.190 E16.2214
G1 X110.110 Y133.190 E16.2490
G1 X108.230 Y131.310 E16.3573
G1 X107.551 Y131.310 E16.3849
G1 X109.431 Y133.190 E16.4931
G1 X108.752 Y133.190 E16.5208
G1 X106.872 Y131.310 E16.6290
G1 X106.194 Y131.310 E16.6566
G1 X108.074 Y133.190 E16.7649
G1 X107.395 Y133.190 E16.7925
G1 X106.060 Y131.855 E16.8694
G1 X106.060 Y132.534 E16.8970
G1 X106.716 Y133.190 E16.9348
G1 X106.187 Y129.990 F18000
G1 X105.260 Y129.990
G1 X105.260 Y124.379
G1 X103.356 Y112.860
G92 E0.0000
G1 X103.940 Y113.444 E0.0336 F1440
G1 X103.940 Y114.122 E0.0612
G1 X102.678 Y112.860 E0.1339
G1 X102.560 Y112.860 E0.1387
G1 X102.560 Y113.421 E0.1615
G1 X103.940 Y114.801 E0.2410
G1 X103.940 Y115.480 E0.2686
G1 X102.564 Y114.104 E0.3478
G1 X102.700 Y114.919 E0.3815
G1 X103.940 Y116.159 E0.4529
G1 X103.940 Y116.838 E0.4805
G1 X102.836 Y115.733 E0.5441
G1 X102.971 Y116.548 E0.5777
G1 X103.940 Y117.516 E0.6335
G1 X103.940 Y118.195 E0.6611
G1 X103.107 Y117.362 E0.7091
G1 X103.243 Y118.177 E0.7427
G1 X103.940 Y118.874 E0.7828
G1 X103.940 Y119.553 E0.8104
G1 X103.379 Y118.992 E0.8428
G1 X103.406 Y119.156 E0.8496
G1 X102.756 Y119.048 E0.8764
G1 X103.940 Y120.232 E0.9445
G1 X103.940 Y120.911 E0.9722
G1 X101.941 Y118.912 E1.0872
G1 X101.127 Y118.776 E1.1209
G1 X103.940 Y121.589 E1.2828
G1 X103.940 Y122.268 E1.3105
G1 X100.312 Y118.640 E1.5193
G1 X99.498 Y118.505 E1.5529
G1 X103.940 Y122.947 E1.8087
G1 X103.940 Y123.626 E1.8363
G1 X98.683 Y118.369 E2.1390
G1 X98.330 Y118.310 E2.1536
G1 X97.945 Y118.310 E2.1692
G1 X103.325 Y123.690 E2.4790
G1 X102.647 Y123.690 E2.5066
G1 X97.267 Y118.310 E2.8164
G1 X96.588 Y118.310 E2.8440
G1 X101.968 Y123.690 E3.1537
G1 X101.289 Y123.690 E3.1814
G1 X95.909 Y118.310 E3.4911
G1 X95.230 Y118.310 E3.5188
G1 X100.583 Y123.663 E3.8269
G1 X99.678 Y123.436 E3.8649
G1 X94.551 Y118.310 E4.1600
G1 X93.872 Y118.310 E4.1877
G1 X98.773 Y123.210 E4.4698
G1 X97.867 Y122.984 E4.5078
G1 X93.194 Y118.310 E4.7769
G1 X92.515 Y118.310 E4.8045
G1 X96.962 Y122.758 E5.0606
G1 X96.057 Y122.531 E5.0985
G1 X91.836 Y118.310 E5.3416
G1 X91.157 Y118.310 E5.3692
G1 X95.152 Y122.305 E5.5992
G1 X94.247 Y122.079 E5.6372
G1 X90.478 Y118.310 E5.8542
G1 X89.799 Y118.310 E5.8818
G1 X93.342 Y121.852 E6.0858
G1 X92.437 Y121.626 E6.1238
G1 X89.121 Y118.310 E6.3147
G1 X88.442 Y118.310 E6.3423
G1 X91.532 Y121.400 E6.5202
G1 X90.627 Y121.174 E6.5582
G1 X87.763 Y118.310 E6.7231
G1 X87.084 Y118.310 E6.7507
G1 X89.722 Y120.947 E6.9025
G1 X88.816 Y120.721 E6.9405
G1 X86.405 Y118.310 E7.0793
G1 X85.727 Y118.310 E7.1070
G1 X87.911 Y120.495 E7.2328
G1 X87.006 Y120.269 E7.2707
G1 X85.048 Y118.310 E7.3835
G1 X84.369 Y118.310 E7.4111
G1 X86.101 Y120.042 E7.5109
G1 X85.196 Y119.816 E7.5488
G1 X83.690 Y118.310 E7.6356
G1 X83.011 Y118.310 E7.6632
G1 X84.291 Y119.590 E7.7369
G1 X83.386 Y119.363 E7.7748
G1 X82.332 Y118.310 E7.8355
G1 X82.060 Y118.310 E7.8466
G1 X82.060 Y118.716 E7.8631
G1 X82.481 Y119.137 E7.8874
G1 X82.495 Y116.990 F18000
G1 X98.439 Y116.990
G1 X101.800 Y117.550
G1 X101.240 Y114.189
G1 X101.240 Y111.540
G1 X107.840 Y111.540
G1 X107.840 Y100.960
G1 X101.240 Y100.960
G1 X101.240 Y98.311
G1 X101.800 Y94.950
